(Exported by FreeCAD)
(Post Processor: grbl_post)
(Output Time:2024-10-22 15:26:11.087825)
(Begin preamble)
G17 G90
G21
(Begin operation: Fixture)
(Path: Fixture)
G54
(Finish operation: Fixture)
(Begin operation: TC: 1/8 inch endmill001)
(Path: TC: 1/8 inch endmill001)
(TC: 1/8 inch endmill001)
(Begin toolchange)
( M6 T1 )
(Finish operation: TC: 1/8 inch endmill001)
(Begin operation: Pocket_Shape)
(Path: Pocket_Shape)
(Pocket_Shape)
G0 Z5.000
G0 X94.055 Y193.335
G0 Z3.000
G1 X94.055 Y193.335 Z-3.170
G1 X94.055 Y37.585 Z-3.170
G1 X51.585 Y37.585 Z-3.170
G1 X51.585 Y193.335 Z-3.170
G1 X94.055 Y193.335 Z-3.170
G0 Z5.000
G0 X51.585 Y192.370 Z5.000
G0 X51.585 Y192.370 Z3.000
G1 X51.585 Y192.370 Z-3.170
G1 X51.585 Y193.335 Z-3.170
G1 X52.550 Y193.335 Z-3.170
G1 X51.585 Y192.370 Z-3.170
G1 X51.585 Y187.886 Z-3.170
G1 X57.034 Y193.335 Z-3.170
G1 X61.517 Y193.335 Z-3.170
G1 X51.585 Y183.403 Z-3.170
G1 X51.585 Y178.920 Z-3.170
G1 X66.000 Y193.335 Z-3.170
G1 X70.483 Y193.335 Z-3.170
G1 X51.585 Y174.437 Z-3.170
G1 X51.585 Y169.954 Z-3.170
G1 X74.966 Y193.335 Z-3.170
G1 X79.449 Y193.335 Z-3.170
G1 X51.585 Y165.471 Z-3.170
G1 X51.585 Y160.988 Z-3.170
G1 X83.932 Y193.335 Z-3.170
G1 X88.415 Y193.335 Z-3.170
G1 X51.585 Y156.505 Z-3.170
G1 X51.585 Y152.022 Z-3.170
G1 X92.898 Y193.335 Z-3.170
G1 X94.055 Y193.335 Z-3.170
G1 X94.055 Y190.009 Z-3.170
G1 X51.585 Y147.539 Z-3.170
G1 X51.585 Y143.056 Z-3.170
G1 X94.055 Y185.526 Z-3.170
G1 X94.055 Y181.043 Z-3.170
G1 X51.585 Y138.573 Z-3.170
G1 X51.585 Y134.090 Z-3.170
G1 X94.055 Y176.560 Z-3.170
G1 X94.055 Y172.077 Z-3.170
G1 X51.585 Y129.607 Z-3.170
G1 X51.585 Y125.124 Z-3.170
G1 X94.055 Y167.594 Z-3.170
G1 X94.055 Y163.111 Z-3.170
G1 X51.585 Y120.641 Z-3.170
G1 X51.585 Y116.158 Z-3.170
G1 X94.055 Y158.628 Z-3.170
G1 X94.055 Y154.144 Z-3.170
G1 X51.585 Y111.674 Z-3.170
G1 X51.585 Y107.191 Z-3.170
G1 X94.055 Y149.661 Z-3.170
G1 X94.055 Y145.178 Z-3.170
G1 X51.585 Y102.708 Z-3.170
G1 X51.585 Y98.225 Z-3.170
G1 X94.055 Y140.695 Z-3.170
G1 X94.055 Y136.212 Z-3.170
G1 X51.585 Y93.742 Z-3.170
G1 X51.585 Y89.259 Z-3.170
G1 X94.055 Y131.729 Z-3.170
G1 X94.055 Y127.246 Z-3.170
G1 X51.585 Y84.776 Z-3.170
G1 X51.585 Y80.293 Z-3.170
G1 X94.055 Y122.763 Z-3.170
G1 X94.055 Y118.280 Z-3.170
G1 X51.585 Y75.810 Z-3.170
G1 X51.585 Y71.327 Z-3.170
G1 X94.055 Y113.797 Z-3.170
G1 X94.055 Y109.314 Z-3.170
G1 X51.585 Y66.844 Z-3.170
G1 X51.585 Y62.361 Z-3.170
G1 X94.055 Y104.831 Z-3.170
G1 X94.055 Y100.348 Z-3.170
G1 X51.585 Y57.878 Z-3.170
G1 X51.585 Y53.395 Z-3.170
G1 X94.055 Y95.865 Z-3.170
G1 X94.055 Y91.382 Z-3.170
G1 X51.585 Y48.912 Z-3.170
G1 X51.585 Y44.429 Z-3.170
G1 X94.055 Y86.899 Z-3.170
G1 X94.055 Y82.416 Z-3.170
G1 X51.585 Y39.946 Z-3.170
G1 X51.585 Y37.585 Z-3.170
G1 X53.707 Y37.585 Z-3.170
G1 X94.055 Y77.933 Z-3.170
G1 X94.055 Y73.449 Z-3.170
G1 X58.191 Y37.585 Z-3.170
G1 X62.674 Y37.585 Z-3.170
G1 X94.055 Y68.966 Z-3.170
G1 X94.055 Y64.483 Z-3.170
G1 X67.157 Y37.585 Z-3.170
G1 X71.640 Y37.585 Z-3.170
G1 X94.055 Y60.000 Z-3.170
G1 X94.055 Y55.517 Z-3.170
G1 X76.123 Y37.585 Z-3.170
G1 X80.606 Y37.585 Z-3.170
G1 X94.055 Y51.034 Z-3.170
G1 X94.055 Y46.551 Z-3.170
G1 X85.089 Y37.585 Z-3.170
G1 X89.572 Y37.585 Z-3.170
G1 X94.055 Y42.068 Z-3.170
G1 X94.055 Y37.585 Z-3.170
G1 X94.055 Y37.585 Z-5.080
G1 X51.585 Y37.585 Z-5.080
G1 X51.585 Y193.335 Z-5.080
G1 X94.055 Y193.335 Z-5.080
G1 X94.055 Y37.585 Z-5.080
G1 X94.055 Y37.585 Z-5.080
G1 X94.055 Y42.068 Z-5.080
G1 X89.572 Y37.585 Z-5.080
G1 X85.089 Y37.585 Z-5.080
G1 X94.055 Y46.551 Z-5.080
G1 X94.055 Y51.034 Z-5.080
G1 X80.606 Y37.585 Z-5.080
G1 X76.123 Y37.585 Z-5.080
G1 X94.055 Y55.517 Z-5.080
G1 X94.055 Y60.000 Z-5.080
G1 X71.640 Y37.585 Z-5.080
G1 X67.157 Y37.585 Z-5.080
G1 X94.055 Y64.483 Z-5.080
G1 X94.055 Y68.966 Z-5.080
G1 X62.674 Y37.585 Z-5.080
G1 X58.191 Y37.585 Z-5.080
G1 X94.055 Y73.449 Z-5.080
G1 X94.055 Y77.933 Z-5.080
G1 X53.707 Y37.585 Z-5.080
G1 X51.585 Y37.585 Z-5.080
G1 X51.585 Y39.946 Z-5.080
G1 X94.055 Y82.416 Z-5.080
G1 X94.055 Y86.899 Z-5.080
G1 X51.585 Y44.429 Z-5.080
G1 X51.585 Y48.912 Z-5.080
G1 X94.055 Y91.382 Z-5.080
G1 X94.055 Y95.865 Z-5.080
G1 X51.585 Y53.395 Z-5.080
G1 X51.585 Y57.878 Z-5.080
G1 X94.055 Y100.348 Z-5.080
G1 X94.055 Y104.831 Z-5.080
G1 X51.585 Y62.361 Z-5.080
G1 X51.585 Y66.844 Z-5.080
G1 X94.055 Y109.314 Z-5.080
G1 X94.055 Y113.797 Z-5.080
G1 X51.585 Y71.327 Z-5.080
G1 X51.585 Y75.810 Z-5.080
G1 X94.055 Y118.280 Z-5.080
G1 X94.055 Y122.763 Z-5.080
G1 X51.585 Y80.293 Z-5.080
G1 X51.585 Y84.776 Z-5.080
G1 X94.055 Y127.246 Z-5.080
G1 X94.055 Y131.729 Z-5.080
G1 X51.585 Y89.259 Z-5.080
G1 X51.585 Y93.742 Z-5.080
G1 X94.055 Y136.212 Z-5.080
G1 X94.055 Y140.695 Z-5.080
G1 X51.585 Y98.225 Z-5.080
G1 X51.585 Y102.708 Z-5.080
G1 X94.055 Y145.178 Z-5.080
G1 X94.055 Y149.661 Z-5.080
G1 X51.585 Y107.191 Z-5.080
G1 X51.585 Y111.674 Z-5.080
G1 X94.055 Y154.144 Z-5.080
G1 X94.055 Y158.628 Z-5.080
G1 X51.585 Y116.158 Z-5.080
G1 X51.585 Y120.641 Z-5.080
G1 X94.055 Y163.111 Z-5.080
G1 X94.055 Y167.594 Z-5.080
G1 X51.585 Y125.124 Z-5.080
G1 X51.585 Y129.607 Z-5.080
G1 X94.055 Y172.077 Z-5.080
G1 X94.055 Y176.560 Z-5.080
G1 X51.585 Y134.090 Z-5.080
G1 X51.585 Y138.573 Z-5.080
G1 X94.055 Y181.043 Z-5.080
G1 X94.055 Y185.526 Z-5.080
G1 X51.585 Y143.056 Z-5.080
G1 X51.585 Y147.539 Z-5.080
G1 X94.055 Y190.009 Z-5.080
G1 X94.055 Y193.335 Z-5.080
G1 X92.898 Y193.335 Z-5.080
G1 X51.585 Y152.022 Z-5.080
G1 X51.585 Y156.505 Z-5.080
G1 X88.415 Y193.335 Z-5.080
G1 X83.932 Y193.335 Z-5.080
G1 X51.585 Y160.988 Z-5.080
G1 X51.585 Y165.471 Z-5.080
G1 X79.449 Y193.335 Z-5.080
G1 X74.966 Y193.335 Z-5.080
G1 X51.585 Y169.954 Z-5.080
G1 X51.585 Y174.437 Z-5.080
G1 X70.483 Y193.335 Z-5.080
G1 X66.000 Y193.335 Z-5.080
G1 X51.585 Y178.920 Z-5.080
G1 X51.585 Y183.403 Z-5.080
G1 X61.517 Y193.335 Z-5.080
G1 X57.034 Y193.335 Z-5.080
G1 X51.585 Y187.886 Z-5.080
G1 X51.585 Y192.370 Z-5.080
G1 X52.550 Y193.335 Z-5.080
G1 X51.585 Y193.335 Z-5.080
G1 X51.585 Y192.370 Z-5.080
G0 Z5.000
G0 Z5.000
(Finish operation: Pocket_Shape)
(Begin operation: Pocket_Shape001)
(Path: Pocket_Shape001)
(Pocket_Shape001)
G0 Z5.000
G0 X248.415 Y193.335
G0 Z3.000
G1 X248.415 Y193.335 Z-3.170
G1 X248.415 Y37.585 Z-3.170
G1 X205.945 Y37.585 Z-3.170
G1 X205.945 Y193.335 Z-3.170
G1 X248.415 Y193.335 Z-3.170
G0 Z5.000
G0 X205.945 Y192.370 Z5.000
G0 X205.945 Y192.370 Z3.000
G1 X205.945 Y192.370 Z-3.170
G1 X205.945 Y193.335 Z-3.170
G1 X206.910 Y193.335 Z-3.170
G1 X205.945 Y192.370 Z-3.170
G1 X205.945 Y187.886 Z-3.170
G1 X211.394 Y193.335 Z-3.170
G1 X215.877 Y193.335 Z-3.170
G1 X205.945 Y183.403 Z-3.170
G1 X205.945 Y178.920 Z-3.170
G1 X220.360 Y193.335 Z-3.170
G1 X224.843 Y193.335 Z-3.170
G1 X205.945 Y174.437 Z-3.170
G1 X205.945 Y169.954 Z-3.170
G1 X229.326 Y193.335 Z-3.170
G1 X233.809 Y193.335 Z-3.170
G1 X205.945 Y165.471 Z-3.170
G1 X205.945 Y160.988 Z-3.170
G1 X238.292 Y193.335 Z-3.170
G1 X242.775 Y193.335 Z-3.170
G1 X205.945 Y156.505 Z-3.170
G1 X205.945 Y152.022 Z-3.170
G1 X247.258 Y193.335 Z-3.170
G1 X248.415 Y193.335 Z-3.170
G1 X248.415 Y190.009 Z-3.170
G1 X205.945 Y147.539 Z-3.170
G1 X205.945 Y143.056 Z-3.170
G1 X248.415 Y185.526 Z-3.170
G1 X248.415 Y181.043 Z-3.170
G1 X205.945 Y138.573 Z-3.170
G1 X205.945 Y134.090 Z-3.170
G1 X248.415 Y176.560 Z-3.170
G1 X248.415 Y172.077 Z-3.170
G1 X205.945 Y129.607 Z-3.170
G1 X205.945 Y125.124 Z-3.170
G1 X248.415 Y167.594 Z-3.170
G1 X248.415 Y163.111 Z-3.170
G1 X205.945 Y120.641 Z-3.170
G1 X205.945 Y116.158 Z-3.170
G1 X248.415 Y158.628 Z-3.170
G1 X248.415 Y154.144 Z-3.170
G1 X205.945 Y111.674 Z-3.170
G1 X205.945 Y107.191 Z-3.170
G1 X248.415 Y149.661 Z-3.170
G1 X248.415 Y145.178 Z-3.170
G1 X205.945 Y102.708 Z-3.170
G1 X205.945 Y98.225 Z-3.170
G1 X248.415 Y140.695 Z-3.170
G1 X248.415 Y136.212 Z-3.170
G1 X205.945 Y93.742 Z-3.170
G1 X205.945 Y89.259 Z-3.170
G1 X248.415 Y131.729 Z-3.170
G1 X248.415 Y127.246 Z-3.170
G1 X205.945 Y84.776 Z-3.170
G1 X205.945 Y80.293 Z-3.170
G1 X248.415 Y122.763 Z-3.170
G1 X248.415 Y118.280 Z-3.170
G1 X205.945 Y75.810 Z-3.170
G1 X205.945 Y71.327 Z-3.170
G1 X248.415 Y113.797 Z-3.170
G1 X248.415 Y109.314 Z-3.170
G1 X205.945 Y66.844 Z-3.170
G1 X205.945 Y62.361 Z-3.170
G1 X248.415 Y104.831 Z-3.170
G1 X248.415 Y100.348 Z-3.170
G1 X205.945 Y57.878 Z-3.170
G1 X205.945 Y53.395 Z-3.170
G1 X248.415 Y95.865 Z-3.170
G1 X248.415 Y91.382 Z-3.170
G1 X205.945 Y48.912 Z-3.170
G1 X205.945 Y44.429 Z-3.170
G1 X248.415 Y86.899 Z-3.170
G1 X248.415 Y82.416 Z-3.170
G1 X205.945 Y39.946 Z-3.170
G1 X205.945 Y37.585 Z-3.170
G1 X208.067 Y37.585 Z-3.170
G1 X248.415 Y77.933 Z-3.170
G1 X248.415 Y73.449 Z-3.170
G1 X212.551 Y37.585 Z-3.170
G1 X217.034 Y37.585 Z-3.170
G1 X248.415 Y68.966 Z-3.170
G1 X248.415 Y64.483 Z-3.170
G1 X221.517 Y37.585 Z-3.170
G1 X226.000 Y37.585 Z-3.170
G1 X248.415 Y60.000 Z-3.170
G1 X248.415 Y55.517 Z-3.170
G1 X230.483 Y37.585 Z-3.170
G1 X234.966 Y37.585 Z-3.170
G1 X248.415 Y51.034 Z-3.170
G1 X248.415 Y46.551 Z-3.170
G1 X239.449 Y37.585 Z-3.170
G1 X243.932 Y37.585 Z-3.170
G1 X248.415 Y42.068 Z-3.170
G1 X248.415 Y37.585 Z-3.170
G1 X248.415 Y37.585 Z-5.080
G1 X205.945 Y37.585 Z-5.080
G1 X205.945 Y193.335 Z-5.080
G1 X248.415 Y193.335 Z-5.080
G1 X248.415 Y37.585 Z-5.080
G1 X248.415 Y37.585 Z-5.080
G1 X248.415 Y42.068 Z-5.080
G1 X243.932 Y37.585 Z-5.080
G1 X239.449 Y37.585 Z-5.080
G1 X248.415 Y46.551 Z-5.080
G1 X248.415 Y51.034 Z-5.080
G1 X234.966 Y37.585 Z-5.080
G1 X230.483 Y37.585 Z-5.080
G1 X248.415 Y55.517 Z-5.080
G1 X248.415 Y60.000 Z-5.080
G1 X226.000 Y37.585 Z-5.080
G1 X221.517 Y37.585 Z-5.080
G1 X248.415 Y64.483 Z-5.080
G1 X248.415 Y68.966 Z-5.080
G1 X217.034 Y37.585 Z-5.080
G1 X212.551 Y37.585 Z-5.080
G1 X248.415 Y73.449 Z-5.080
G1 X248.415 Y77.933 Z-5.080
G1 X208.067 Y37.585 Z-5.080
G1 X205.945 Y37.585 Z-5.080
G1 X205.945 Y39.946 Z-5.080
G1 X248.415 Y82.416 Z-5.080
G1 X248.415 Y86.899 Z-5.080
G1 X205.945 Y44.429 Z-5.080
G1 X205.945 Y48.912 Z-5.080
G1 X248.415 Y91.382 Z-5.080
G1 X248.415 Y95.865 Z-5.080
G1 X205.945 Y53.395 Z-5.080
G1 X205.945 Y57.878 Z-5.080
G1 X248.415 Y100.348 Z-5.080
G1 X248.415 Y104.831 Z-5.080
G1 X205.945 Y62.361 Z-5.080
G1 X205.945 Y66.844 Z-5.080
G1 X248.415 Y109.314 Z-5.080
G1 X248.415 Y113.797 Z-5.080
G1 X205.945 Y71.327 Z-5.080
G1 X205.945 Y75.810 Z-5.080
G1 X248.415 Y118.280 Z-5.080
G1 X248.415 Y122.763 Z-5.080
G1 X205.945 Y80.293 Z-5.080
G1 X205.945 Y84.776 Z-5.080
G1 X248.415 Y127.246 Z-5.080
G1 X248.415 Y131.729 Z-5.080
G1 X205.945 Y89.259 Z-5.080
G1 X205.945 Y93.742 Z-5.080
G1 X248.415 Y136.212 Z-5.080
G1 X248.415 Y140.695 Z-5.080
G1 X205.945 Y98.225 Z-5.080
G1 X205.945 Y102.708 Z-5.080
G1 X248.415 Y145.178 Z-5.080
G1 X248.415 Y149.661 Z-5.080
G1 X205.945 Y107.191 Z-5.080
G1 X205.945 Y111.674 Z-5.080
G1 X248.415 Y154.144 Z-5.080
G1 X248.415 Y158.628 Z-5.080
G1 X205.945 Y116.158 Z-5.080
G1 X205.945 Y120.641 Z-5.080
G1 X248.415 Y163.111 Z-5.080
G1 X248.415 Y167.594 Z-5.080
G1 X205.945 Y125.124 Z-5.080
G1 X205.945 Y129.607 Z-5.080
G1 X248.415 Y172.077 Z-5.080
G1 X248.415 Y176.560 Z-5.080
G1 X205.945 Y134.090 Z-5.080
G1 X205.945 Y138.573 Z-5.080
G1 X248.415 Y181.043 Z-5.080
G1 X248.415 Y185.526 Z-5.080
G1 X205.945 Y143.056 Z-5.080
G1 X205.945 Y147.539 Z-5.080
G1 X248.415 Y190.009 Z-5.080
G1 X248.415 Y193.335 Z-5.080
G1 X247.258 Y193.335 Z-5.080
G1 X205.945 Y152.022 Z-5.080
G1 X205.945 Y156.505 Z-5.080
G1 X242.775 Y193.335 Z-5.080
G1 X238.292 Y193.335 Z-5.080
G1 X205.945 Y160.988 Z-5.080
G1 X205.945 Y165.471 Z-5.080
G1 X233.809 Y193.335 Z-5.080
G1 X229.326 Y193.335 Z-5.080
G1 X205.945 Y169.954 Z-5.080
G1 X205.945 Y174.437 Z-5.080
G1 X224.843 Y193.335 Z-5.080
G1 X220.360 Y193.335 Z-5.080
G1 X205.945 Y178.920 Z-5.080
G1 X205.945 Y183.403 Z-5.080
G1 X215.877 Y193.335 Z-5.080
G1 X211.394 Y193.335 Z-5.080
G1 X205.945 Y187.886 Z-5.080
G1 X205.945 Y192.370 Z-5.080
G1 X206.910 Y193.335 Z-5.080
G1 X205.945 Y193.335 Z-5.080
G1 X205.945 Y192.370 Z-5.080
G0 Z5.000
G0 Z5.000
(Finish operation: Pocket_Shape001)
(Begin operation: Profile)
(Path: Profile)
(Profile)
(Compensated Tool Path. Diameter: 3.17)
G0 Z5.000
G0 X301.121 Y201.121
G0 Z3.000
G1 X301.121 Y201.121 Z-3.170
G2 X301.585 Y200.000 Z-3.170 I-1.121 J-1.121 K0.000
G1 X301.585 Y20.000 Z-3.170
G2 X280.050 Y-1.584 Z-3.170 I-21.586 J0.001 K0.000
G1 X20.000 Y-1.585 Z-3.170
G2 X-1.584 Y19.950 Z-3.170 I0.001 J21.586 K0.000
G1 X-1.585 Y200.000 Z-3.170
G2 X0.000 Y201.585 Z-3.170 I1.585 J0.000 K0.000
G1 X32.180 Y201.585 Z-3.170
G2 X33.765 Y200.000 Z-3.170 I0.000 J-1.585 K0.000
G1 X33.765 Y196.505 Z-3.170
G1 X111.875 Y196.505 Z-3.170
G1 X111.875 Y200.000 Z-3.170
G2 X113.460 Y201.585 Z-3.170 I1.585 J0.000 K0.000
G1 X186.540 Y201.585 Z-3.170
G2 X188.125 Y200.000 Z-3.170 I0.000 J-1.585 K0.000
G1 X188.125 Y196.505 Z-3.170
G1 X266.235 Y196.505 Z-3.170
G1 X266.235 Y200.000 Z-3.170
G2 X267.820 Y201.585 Z-3.170 I1.585 J0.000 K0.000
G1 X300.000 Y201.585 Z-3.170
G2 X301.121 Y201.121 Z-3.170 I0.000 J-1.585 K0.000
G1 X301.121 Y201.121 Z-6.340
G2 X301.585 Y200.000 Z-6.340 I-1.121 J-1.121 K0.000
G1 X301.585 Y20.000 Z-6.340
G2 X280.050 Y-1.584 Z-6.340 I-21.586 J0.001 K0.000
G1 X20.000 Y-1.585 Z-6.340
G2 X-1.584 Y19.950 Z-6.340 I0.001 J21.586 K0.000
G1 X-1.585 Y200.000 Z-6.340
G2 X0.000 Y201.585 Z-6.340 I1.585 J0.000 K0.000
G1 X32.180 Y201.585 Z-6.340
G2 X33.765 Y200.000 Z-6.340 I0.000 J-1.585 K0.000
G1 X33.765 Y196.505 Z-6.340
G1 X111.875 Y196.505 Z-6.340
G1 X111.875 Y200.000 Z-6.340
G2 X113.460 Y201.585 Z-6.340 I1.585 J0.000 K0.000
G1 X186.540 Y201.585 Z-6.340
G2 X188.125 Y200.000 Z-6.340 I0.000 J-1.585 K0.000
G1 X188.125 Y196.505 Z-6.340
G1 X266.235 Y196.505 Z-6.340
G1 X266.235 Y200.000 Z-6.340
G2 X267.820 Y201.585 Z-6.340 I1.585 J0.000 K0.000
G1 X300.000 Y201.585 Z-6.340
G2 X301.121 Y201.121 Z-6.340 I0.000 J-1.585 K0.000
G1 X301.121 Y201.121 Z-9.510
G2 X301.585 Y200.000 Z-9.510 I-1.121 J-1.121 K0.000
G1 X301.585 Y20.000 Z-9.510
G2 X280.050 Y-1.584 Z-9.510 I-21.586 J0.001 K0.000
G1 X20.000 Y-1.585 Z-9.510
G2 X-1.584 Y19.950 Z-9.510 I0.001 J21.586 K0.000
G1 X-1.585 Y200.000 Z-9.510
G2 X0.000 Y201.585 Z-9.510 I1.585 J0.000 K0.000
G1 X32.180 Y201.585 Z-9.510
G2 X33.765 Y200.000 Z-9.510 I0.000 J-1.585 K0.000
G1 X33.765 Y196.505 Z-9.510
G1 X111.875 Y196.505 Z-9.510
G1 X111.875 Y200.000 Z-9.510
G2 X113.460 Y201.585 Z-9.510 I1.585 J0.000 K0.000
G1 X186.540 Y201.585 Z-9.510
G2 X188.125 Y200.000 Z-9.510 I0.000 J-1.585 K0.000
G1 X188.125 Y196.505 Z-9.510
G1 X266.235 Y196.505 Z-9.510
G1 X266.235 Y200.000 Z-9.510
G2 X267.820 Y201.585 Z-9.510 I1.585 J0.000 K0.000
G1 X300.000 Y201.585 Z-9.510
G2 X301.121 Y201.121 Z-9.510 I0.000 J-1.585 K0.000
G1 X301.121 Y201.121 Z-12.680
G2 X301.585 Y200.000 Z-12.680 I-1.121 J-1.121 K0.000
G1 X301.585 Y20.000 Z-12.680
G2 X280.050 Y-1.584 Z-12.680 I-21.586 J0.001 K0.000
G1 X20.000 Y-1.585 Z-12.680
G2 X-1.584 Y19.950 Z-12.680 I0.001 J21.586 K0.000
G1 X-1.585 Y200.000 Z-12.680
G2 X0.000 Y201.585 Z-12.680 I1.585 J0.000 K0.000
G1 X32.180 Y201.585 Z-12.680
G2 X33.765 Y200.000 Z-12.680 I0.000 J-1.585 K0.000
G1 X33.765 Y196.505 Z-12.680
G1 X111.875 Y196.505 Z-12.680
G1 X111.875 Y200.000 Z-12.680
G2 X113.460 Y201.585 Z-12.680 I1.585 J0.000 K0.000
G1 X186.540 Y201.585 Z-12.680
G2 X188.125 Y200.000 Z-12.680 I0.000 J-1.585 K0.000
G1 X188.125 Y196.505 Z-12.680
G1 X266.235 Y196.505 Z-12.680
G1 X266.235 Y200.000 Z-12.680
G2 X267.820 Y201.585 Z-12.680 I1.585 J0.000 K0.000
G1 X300.000 Y201.585 Z-12.680
G2 X301.121 Y201.121 Z-12.680 I0.000 J-1.585 K0.000
G1 X301.121 Y201.121 Z-15.850
G2 X301.585 Y200.000 Z-15.850 I-1.121 J-1.121 K0.000
G1 X301.585 Y20.000 Z-15.850
G2 X280.050 Y-1.584 Z-15.850 I-21.586 J0.001 K0.000
G1 X20.000 Y-1.585 Z-15.850
G2 X-1.584 Y19.950 Z-15.850 I0.001 J21.586 K0.000
G1 X-1.585 Y200.000 Z-15.850
G2 X0.000 Y201.585 Z-15.850 I1.585 J0.000 K0.000
G1 X32.180 Y201.585 Z-15.850
G2 X33.765 Y200.000 Z-15.850 I0.000 J-1.585 K0.000
G1 X33.765 Y196.505 Z-15.850
G1 X111.875 Y196.505 Z-15.850
G1 X111.875 Y200.000 Z-15.850
G2 X113.460 Y201.585 Z-15.850 I1.585 J0.000 K0.000
G1 X186.540 Y201.585 Z-15.850
G2 X188.125 Y200.000 Z-15.850 I0.000 J-1.585 K0.000
G1 X188.125 Y196.505 Z-15.850
G1 X266.235 Y196.505 Z-15.850
G1 X266.235 Y200.000 Z-15.850
G2 X267.820 Y201.585 Z-15.850 I1.585 J0.000 K0.000
G1 X300.000 Y201.585 Z-15.850
G2 X301.121 Y201.121 Z-15.850 I0.000 J-1.585 K0.000
G1 X301.121 Y201.121 Z-18.000
G2 X301.585 Y200.000 Z-18.000 I-1.121 J-1.121 K0.000
G1 X301.585 Y20.000 Z-18.000
G2 X280.050 Y-1.584 Z-18.000 I-21.586 J0.001 K0.000
G1 X20.000 Y-1.585 Z-18.000
G2 X-1.584 Y19.950 Z-18.000 I0.001 J21.586 K0.000
G1 X-1.585 Y200.000 Z-18.000
G2 X0.000 Y201.585 Z-18.000 I1.585 J0.000 K0.000
G1 X32.180 Y201.585 Z-18.000
G2 X33.765 Y200.000 Z-18.000 I0.000 J-1.585 K0.000
G1 X33.765 Y196.505 Z-18.000
G1 X111.875 Y196.505 Z-18.000
G1 X111.875 Y200.000 Z-18.000
G2 X113.460 Y201.585 Z-18.000 I1.585 J0.000 K0.000
G1 X186.540 Y201.585 Z-18.000
G2 X188.125 Y200.000 Z-18.000 I0.000 J-1.585 K0.000
G1 X188.125 Y196.505 Z-18.000
G1 X266.235 Y196.505 Z-18.000
G1 X266.235 Y200.000 Z-18.000
G2 X267.820 Y201.585 Z-18.000 I1.585 J0.000 K0.000
G1 X300.000 Y201.585 Z-18.000
G2 X301.121 Y201.121 Z-18.000 I0.000 J-1.585 K0.000
G0 Z5.000
G0 Z5.000
(Finish operation: Profile)
(Begin postamble)
M5
G17 G90
M2
