(Exported by FreeCAD)
(Post Processor: grbl_post)
(Output Time:2024-06-26 16:49:06.029951)
(Begin preamble)
G17 G90
G21
(Begin operation: Fixture)
(Path: Fixture)
G54
(Finish operation: Fixture)
(Begin operation: 6mm_endmill014)
(Path: 6mm_endmill014)
(6mm_endmill014)
(Begin toolchange)
( M6 T2 )
M3 S10000
(Finish operation: 6mm_endmill014)
(Begin operation: Profile015)
(Path: Profile015)
(Profile015)
(Compensated Tool Path. Diameter: 6.0)
G0 Z5.000
G0 X183.501 Y163.151
G0 Z3.000
G1 X183.501 Y163.151 Z-1.000 F1000.000
G2 X184.380 Y161.030 Z-1.000 I-2.121 J-2.121 K0.000 F1000.000
G1 X184.380 Y86.515 Z-1.000 F1000.000
G2 X181.380 Y83.515 Z-1.000 I-3.000 J0.000 K0.000 F1000.000
G1 X181.380 Y77.515 Z-1.000 F1000.000
G2 X184.380 Y74.515 Z-1.000 I0.000 J-3.000 K0.000 F1000.000
G1 X184.380 Y0.000 Z-1.000 F1000.000
G2 X181.380 Y-3.000 Z-1.000 I-3.000 J0.000 K0.000 F1000.000
G1 X178.380 Y-3.000 Z-1.000 F1000.000
G2 X175.380 Y0.000 Z-1.000 I0.000 J3.000 K0.000 F1000.000
G1 X95.190 Y0.000 Z-1.000 F1000.000
G2 X92.190 Y-3.000 Z-1.000 I-3.000 J0.000 K0.000 F1000.000
G1 X89.190 Y-3.000 Z-1.000 F1000.000
G2 X86.190 Y0.000 Z-1.000 I0.000 J3.000 K0.000 F1000.000
G1 X6.000 Y0.000 Z-1.000 F1000.000
G2 X3.000 Y-3.000 Z-1.000 I-3.000 J0.000 K0.000 F1000.000
G1 X0.000 Y-3.000 Z-1.000 F1000.000
G2 X-3.000 Y0.000 Z-1.000 I0.000 J3.000 K0.000 F1000.000
G1 X-3.000 Y74.515 Z-1.000 F1000.000
G2 X0.000 Y77.515 Z-1.000 I3.000 J-0.000 K0.000 F1000.000
G1 X0.000 Y83.515 Z-1.000 F1000.000
G2 X-3.000 Y86.515 Z-1.000 I0.000 J3.000 K0.000 F1000.000
G1 X-3.000 Y161.030 Z-1.000 F1000.000
G2 X0.000 Y164.030 Z-1.000 I3.000 J-0.000 K0.000 F1000.000
G1 X3.000 Y164.030 Z-1.000 F1000.000
G2 X6.000 Y161.030 Z-1.000 I-0.000 J-3.000 K0.000 F1000.000
G1 X86.190 Y161.030 Z-1.000 F1000.000
G2 X89.190 Y164.030 Z-1.000 I3.000 J-0.000 K0.000 F1000.000
G1 X92.190 Y164.030 Z-1.000 F1000.000
G2 X95.190 Y161.030 Z-1.000 I-0.000 J-3.000 K0.000 F1000.000
G1 X175.380 Y161.030 Z-1.000 F1000.000
G2 X178.380 Y164.030 Z-1.000 I3.000 J-0.000 K0.000 F1000.000
G1 X181.380 Y164.030 Z-1.000 F1000.000
G2 X183.501 Y163.151 Z-1.000 I-0.000 J-3.000 K0.000 F1000.000
G1 X183.501 Y163.151 Z-2.000 F1000.000
G2 X184.380 Y161.030 Z-2.000 I-2.121 J-2.121 K0.000 F1000.000
G1 X184.380 Y86.515 Z-2.000 F1000.000
G2 X181.380 Y83.515 Z-2.000 I-3.000 J0.000 K0.000 F1000.000
G1 X181.380 Y77.515 Z-2.000 F1000.000
G2 X184.380 Y74.515 Z-2.000 I0.000 J-3.000 K0.000 F1000.000
G1 X184.380 Y0.000 Z-2.000 F1000.000
G2 X181.380 Y-3.000 Z-2.000 I-3.000 J0.000 K0.000 F1000.000
G1 X178.380 Y-3.000 Z-2.000 F1000.000
G2 X175.380 Y0.000 Z-2.000 I0.000 J3.000 K0.000 F1000.000
G1 X95.190 Y0.000 Z-2.000 F1000.000
G2 X92.190 Y-3.000 Z-2.000 I-3.000 J0.000 K0.000 F1000.000
G1 X89.190 Y-3.000 Z-2.000 F1000.000
G2 X86.190 Y0.000 Z-2.000 I0.000 J3.000 K0.000 F1000.000
G1 X6.000 Y0.000 Z-2.000 F1000.000
G2 X3.000 Y-3.000 Z-2.000 I-3.000 J0.000 K0.000 F1000.000
G1 X0.000 Y-3.000 Z-2.000 F1000.000
G2 X-3.000 Y0.000 Z-2.000 I0.000 J3.000 K0.000 F1000.000
G1 X-3.000 Y74.515 Z-2.000 F1000.000
G2 X0.000 Y77.515 Z-2.000 I3.000 J-0.000 K0.000 F1000.000
G1 X0.000 Y83.515 Z-2.000 F1000.000
G2 X-3.000 Y86.515 Z-2.000 I0.000 J3.000 K0.000 F1000.000
G1 X-3.000 Y161.030 Z-2.000 F1000.000
G2 X0.000 Y164.030 Z-2.000 I3.000 J-0.000 K0.000 F1000.000
G1 X3.000 Y164.030 Z-2.000 F1000.000
G2 X6.000 Y161.030 Z-2.000 I-0.000 J-3.000 K0.000 F1000.000
G1 X86.190 Y161.030 Z-2.000 F1000.000
G2 X89.190 Y164.030 Z-2.000 I3.000 J-0.000 K0.000 F1000.000
G1 X92.190 Y164.030 Z-2.000 F1000.000
G2 X95.190 Y161.030 Z-2.000 I-0.000 J-3.000 K0.000 F1000.000
G1 X175.380 Y161.030 Z-2.000 F1000.000
G2 X178.380 Y164.030 Z-2.000 I3.000 J-0.000 K0.000 F1000.000
G1 X181.380 Y164.030 Z-2.000 F1000.000
G2 X183.501 Y163.151 Z-2.000 I-0.000 J-3.000 K0.000 F1000.000
G1 X183.501 Y163.151 Z-3.000 F1000.000
G2 X184.380 Y161.030 Z-3.000 I-2.121 J-2.121 K0.000 F1000.000
G1 X184.380 Y86.515 Z-3.000 F1000.000
G2 X181.380 Y83.515 Z-3.000 I-3.000 J0.000 K0.000 F1000.000
G1 X181.380 Y77.515 Z-3.000 F1000.000
G2 X184.380 Y74.515 Z-3.000 I0.000 J-3.000 K0.000 F1000.000
G1 X184.380 Y0.000 Z-3.000 F1000.000
G2 X181.380 Y-3.000 Z-3.000 I-3.000 J0.000 K0.000 F1000.000
G1 X178.380 Y-3.000 Z-3.000 F1000.000
G2 X175.380 Y0.000 Z-3.000 I0.000 J3.000 K0.000 F1000.000
G1 X95.190 Y0.000 Z-3.000 F1000.000
G2 X92.190 Y-3.000 Z-3.000 I-3.000 J0.000 K0.000 F1000.000
G1 X89.190 Y-3.000 Z-3.000 F1000.000
G2 X86.190 Y0.000 Z-3.000 I0.000 J3.000 K0.000 F1000.000
G1 X6.000 Y0.000 Z-3.000 F1000.000
G2 X3.000 Y-3.000 Z-3.000 I-3.000 J0.000 K0.000 F1000.000
G1 X0.000 Y-3.000 Z-3.000 F1000.000
G2 X-3.000 Y0.000 Z-3.000 I0.000 J3.000 K0.000 F1000.000
G1 X-3.000 Y74.515 Z-3.000 F1000.000
G2 X0.000 Y77.515 Z-3.000 I3.000 J-0.000 K0.000 F1000.000
G1 X0.000 Y83.515 Z-3.000 F1000.000
G2 X-3.000 Y86.515 Z-3.000 I0.000 J3.000 K0.000 F1000.000
G1 X-3.000 Y161.030 Z-3.000 F1000.000
G2 X0.000 Y164.030 Z-3.000 I3.000 J-0.000 K0.000 F1000.000
G1 X3.000 Y164.030 Z-3.000 F1000.000
G2 X6.000 Y161.030 Z-3.000 I-0.000 J-3.000 K0.000 F1000.000
G1 X86.190 Y161.030 Z-3.000 F1000.000
G2 X89.190 Y164.030 Z-3.000 I3.000 J-0.000 K0.000 F1000.000
G1 X92.190 Y164.030 Z-3.000 F1000.000
G2 X95.190 Y161.030 Z-3.000 I-0.000 J-3.000 K0.000 F1000.000
G1 X175.380 Y161.030 Z-3.000 F1000.000
G2 X178.380 Y164.030 Z-3.000 I3.000 J-0.000 K0.000 F1000.000
G1 X181.380 Y164.030 Z-3.000 F1000.000
G2 X183.501 Y163.151 Z-3.000 I-0.000 J-3.000 K0.000 F1000.000
G0 Z5.000
G0 Z5.000
(Finish operation: Profile015)
(Begin postamble)
M5
G17 G90
M2
