(Exported by FreeCAD)
(Post Processor: grbl_post)
(Output Time:2024-06-26 16:12:51.651120)
(Begin preamble)
G17 G90
G21
(Begin operation: Fixture)
(Path: Fixture)
G54
(Finish operation: Fixture)
(Begin operation: 6mm_endmill003)
(Path: 6mm_endmill003)
(6mm_endmill003)
(Begin toolchange)
( M6 T2 )
M3 S10000
(Finish operation: 6mm_endmill003)
(Begin operation: Profile001)
(Path: Profile001)
(Profile001)
(Compensated Tool Path. Diameter: 6.0)
G0 Z5.000
G0 X160.151 Y89.481
G0 Z3.000
G1 X160.151 Y89.481 Z-1.000 F1000.000
G2 X161.030 Y87.360 Z-1.000 I-2.121 J-2.121 K0.000 F1000.000
G1 X161.030 Y52.698 Z-1.000 F1000.000
G2 X164.030 Y49.698 Z-1.000 I0.000 J-3.000 K0.000 F1000.000
G1 X164.030 Y40.662 Z-1.000 F1000.000
G2 X161.030 Y37.662 Z-1.000 I-3.000 J0.000 K0.000 F1000.000
G1 X161.030 Y12.036 Z-1.000 F1000.000
G2 X164.030 Y9.036 Z-1.000 I0.000 J-3.000 K0.000 F1000.000
G1 X164.030 Y0.000 Z-1.000 F1000.000
G2 X161.030 Y-3.000 Z-1.000 I-3.000 J0.000 K0.000 F1000.000
G1 X149.030 Y-3.000 Z-1.000 F1000.000
G2 X146.030 Y0.000 Z-1.000 I0.000 J3.000 K0.000 F1000.000
G1 X146.030 Y4.400 Z-1.000 F1000.000
G1 X95.515 Y4.400 Z-1.000 F1000.000
G1 X95.515 Y0.000 Z-1.000 F1000.000
G2 X92.515 Y-3.000 Z-1.000 I-3.000 J0.000 K0.000 F1000.000
G1 X68.515 Y-3.000 Z-1.000 F1000.000
G2 X65.515 Y0.000 Z-1.000 I0.000 J3.000 K0.000 F1000.000
G1 X65.515 Y4.400 Z-1.000 F1000.000
G1 X15.000 Y4.400 Z-1.000 F1000.000
G1 X15.000 Y0.000 Z-1.000 F1000.000
G2 X12.000 Y-3.000 Z-1.000 I-3.000 J0.000 K0.000 F1000.000
G1 X0.000 Y-3.000 Z-1.000 F1000.000
G2 X-3.000 Y0.000 Z-1.000 I0.000 J3.000 K0.000 F1000.000
G1 X-3.000 Y9.036 Z-1.000 F1000.000
G2 X0.000 Y12.036 Z-1.000 I3.000 J0.000 K0.000 F1000.000
G1 X0.000 Y37.662 Z-1.000 F1000.000
G2 X-3.000 Y40.662 Z-1.000 I0.000 J3.000 K0.000 F1000.000
G1 X-3.000 Y49.698 Z-1.000 F1000.000
G2 X0.000 Y52.698 Z-1.000 I3.000 J0.000 K0.000 F1000.000
G1 X0.000 Y87.360 Z-1.000 F1000.000
G2 X3.000 Y90.360 Z-1.000 I3.000 J0.000 K0.000 F1000.000
G1 X71.515 Y90.360 Z-1.000 F1000.000
G2 X74.515 Y93.360 Z-1.000 I3.000 J0.000 K0.000 F1000.000
G1 X86.515 Y93.360 Z-1.000 F1000.000
G2 X89.515 Y90.360 Z-1.000 I0.000 J-3.000 K0.000 F1000.000
G1 X158.030 Y90.360 Z-1.000 F1000.000
G2 X160.151 Y89.481 Z-1.000 I0.000 J-3.000 K0.000 F1000.000
G1 X160.151 Y89.481 Z-2.000 F1000.000
G2 X161.030 Y87.360 Z-2.000 I-2.121 J-2.121 K0.000 F1000.000
G1 X161.030 Y52.698 Z-2.000 F1000.000
G2 X164.030 Y49.698 Z-2.000 I0.000 J-3.000 K0.000 F1000.000
G1 X164.030 Y40.662 Z-2.000 F1000.000
G2 X161.030 Y37.662 Z-2.000 I-3.000 J0.000 K0.000 F1000.000
G1 X161.030 Y12.036 Z-2.000 F1000.000
G2 X164.030 Y9.036 Z-2.000 I0.000 J-3.000 K0.000 F1000.000
G1 X164.030 Y0.000 Z-2.000 F1000.000
G2 X161.030 Y-3.000 Z-2.000 I-3.000 J0.000 K0.000 F1000.000
G1 X149.030 Y-3.000 Z-2.000 F1000.000
G2 X146.030 Y0.000 Z-2.000 I0.000 J3.000 K0.000 F1000.000
G1 X146.030 Y4.400 Z-2.000 F1000.000
G1 X95.515 Y4.400 Z-2.000 F1000.000
G1 X95.515 Y0.000 Z-2.000 F1000.000
G2 X92.515 Y-3.000 Z-2.000 I-3.000 J0.000 K0.000 F1000.000
G1 X68.515 Y-3.000 Z-2.000 F1000.000
G2 X65.515 Y0.000 Z-2.000 I0.000 J3.000 K0.000 F1000.000
G1 X65.515 Y4.400 Z-2.000 F1000.000
G1 X15.000 Y4.400 Z-2.000 F1000.000
G1 X15.000 Y0.000 Z-2.000 F1000.000
G2 X12.000 Y-3.000 Z-2.000 I-3.000 J0.000 K0.000 F1000.000
G1 X0.000 Y-3.000 Z-2.000 F1000.000
G2 X-3.000 Y0.000 Z-2.000 I0.000 J3.000 K0.000 F1000.000
G1 X-3.000 Y9.036 Z-2.000 F1000.000
G2 X0.000 Y12.036 Z-2.000 I3.000 J0.000 K0.000 F1000.000
G1 X0.000 Y37.662 Z-2.000 F1000.000
G2 X-3.000 Y40.662 Z-2.000 I0.000 J3.000 K0.000 F1000.000
G1 X-3.000 Y49.698 Z-2.000 F1000.000
G2 X0.000 Y52.698 Z-2.000 I3.000 J0.000 K0.000 F1000.000
G1 X0.000 Y87.360 Z-2.000 F1000.000
G2 X3.000 Y90.360 Z-2.000 I3.000 J0.000 K0.000 F1000.000
G1 X71.515 Y90.360 Z-2.000 F1000.000
G2 X74.515 Y93.360 Z-2.000 I3.000 J0.000 K0.000 F1000.000
G1 X86.515 Y93.360 Z-2.000 F1000.000
G2 X89.515 Y90.360 Z-2.000 I0.000 J-3.000 K0.000 F1000.000
G1 X158.030 Y90.360 Z-2.000 F1000.000
G2 X160.151 Y89.481 Z-2.000 I0.000 J-3.000 K0.000 F1000.000
G1 X160.151 Y89.481 Z-3.000 F1000.000
G2 X161.030 Y87.360 Z-3.000 I-2.121 J-2.121 K0.000 F1000.000
G1 X161.030 Y52.698 Z-3.000 F1000.000
G2 X164.030 Y49.698 Z-3.000 I0.000 J-3.000 K0.000 F1000.000
G1 X164.030 Y40.662 Z-3.000 F1000.000
G2 X161.030 Y37.662 Z-3.000 I-3.000 J0.000 K0.000 F1000.000
G1 X161.030 Y12.036 Z-3.000 F1000.000
G2 X164.030 Y9.036 Z-3.000 I0.000 J-3.000 K0.000 F1000.000
G1 X164.030 Y0.000 Z-3.000 F1000.000
G2 X161.030 Y-3.000 Z-3.000 I-3.000 J0.000 K0.000 F1000.000
G1 X149.030 Y-3.000 Z-3.000 F1000.000
G2 X146.030 Y0.000 Z-3.000 I0.000 J3.000 K0.000 F1000.000
G1 X146.030 Y4.400 Z-3.000 F1000.000
G1 X95.515 Y4.400 Z-3.000 F1000.000
G1 X95.515 Y0.000 Z-3.000 F1000.000
G2 X92.515 Y-3.000 Z-3.000 I-3.000 J0.000 K0.000 F1000.000
G1 X68.515 Y-3.000 Z-3.000 F1000.000
G2 X65.515 Y0.000 Z-3.000 I0.000 J3.000 K0.000 F1000.000
G1 X65.515 Y4.400 Z-3.000 F1000.000
G1 X15.000 Y4.400 Z-3.000 F1000.000
G1 X15.000 Y0.000 Z-3.000 F1000.000
G2 X12.000 Y-3.000 Z-3.000 I-3.000 J0.000 K0.000 F1000.000
G1 X0.000 Y-3.000 Z-3.000 F1000.000
G2 X-3.000 Y0.000 Z-3.000 I0.000 J3.000 K0.000 F1000.000
G1 X-3.000 Y9.036 Z-3.000 F1000.000
G2 X0.000 Y12.036 Z-3.000 I3.000 J0.000 K0.000 F1000.000
G1 X0.000 Y37.662 Z-3.000 F1000.000
G2 X-3.000 Y40.662 Z-3.000 I0.000 J3.000 K0.000 F1000.000
G1 X-3.000 Y49.698 Z-3.000 F1000.000
G2 X0.000 Y52.698 Z-3.000 I3.000 J0.000 K0.000 F1000.000
G1 X0.000 Y87.360 Z-3.000 F1000.000
G2 X3.000 Y90.360 Z-3.000 I3.000 J0.000 K0.000 F1000.000
G1 X71.515 Y90.360 Z-3.000 F1000.000
G2 X74.515 Y93.360 Z-3.000 I3.000 J0.000 K0.000 F1000.000
G1 X86.515 Y93.360 Z-3.000 F1000.000
G2 X89.515 Y90.360 Z-3.000 I0.000 J-3.000 K0.000 F1000.000
G1 X158.030 Y90.360 Z-3.000 F1000.000
G2 X160.151 Y89.481 Z-3.000 I0.000 J-3.000 K0.000 F1000.000
G0 Z5.000
G0 Z5.000
(Finish operation: Profile001)
(Begin operation: Profile002)
(Path: Profile002)
(Profile002)
(Compensated Tool Path. Diameter: 6.0)
G0 Z5.000
G0 X114.167 Y72.560
G0 Z3.000
G1 X114.167 Y72.560 Z-1.000 F1000.000
G1 X114.167 Y42.660 Z-1.000 F1000.000
G1 X46.863 Y42.660 Z-1.000 F1000.000
G1 X46.863 Y72.560 Z-1.000 F1000.000
G1 X114.167 Y72.560 Z-1.000 F1000.000
G1 X114.167 Y72.560 Z-2.000 F1000.000
G1 X114.167 Y42.660 Z-2.000 F1000.000
G1 X46.863 Y42.660 Z-2.000 F1000.000
G1 X46.863 Y72.560 Z-2.000 F1000.000
G1 X114.167 Y72.560 Z-2.000 F1000.000
G1 X114.167 Y72.560 Z-3.000 F1000.000
G1 X114.167 Y42.660 Z-3.000 F1000.000
G1 X46.863 Y42.660 Z-3.000 F1000.000
G1 X46.863 Y72.560 Z-3.000 F1000.000
G1 X114.167 Y72.560 Z-3.000 F1000.000
G0 Z5.000
G0 Z5.000
(Finish operation: Profile002)
(Begin operation: 1mm_endmill001)
(Path: 1mm_endmill001)
(1mm_endmill001)
(Begin toolchange)
( M6 T3 )
M3 S10000
(Finish operation: 1mm_endmill001)
(Begin operation: Pocket_Shape001)
(Path: Pocket_Shape001)
(Pocket_Shape001)
G0 Z5.000
G0 X66.596 Y10.650
G0 Z3.000
G1 X66.596 Y10.650 Z-1.000 F1000.000
G1 X66.596 Y8.650 Z-1.000 F1000.000
G1 X27.338 Y8.650 Z-1.000 F1000.000
G1 X27.338 Y10.650 Z-1.000 F1000.000
G1 X66.596 Y10.650 Z-1.000 F1000.000
G0 Z5.000
G0 Y8.650 Z5.000
G0 Y8.650 Z3.000
G1 X66.596 Y8.650 Z-1.000 F1000.000
G1 X66.596 Y9.781 Z-1.000 F1000.000
G1 X65.464 Y8.650 Z-1.000 F1000.000
G1 X64.333 Y8.650 Z-1.000 F1000.000
G1 X66.333 Y10.650 Z-1.000 F1000.000
G1 X65.202 Y10.650 Z-1.000 F1000.000
G1 X63.202 Y8.650 Z-1.000 F1000.000
G1 X62.070 Y8.650 Z-1.000 F1000.000
G1 X64.070 Y10.650 Z-1.000 F1000.000
G1 X62.939 Y10.650 Z-1.000 F1000.000
G1 X60.939 Y8.650 Z-1.000 F1000.000
G1 X59.808 Y8.650 Z-1.000 F1000.000
G1 X61.808 Y10.650 Z-1.000 F1000.000
G1 X60.676 Y10.650 Z-1.000 F1000.000
G1 X58.676 Y8.650 Z-1.000 F1000.000
G1 X57.545 Y8.650 Z-1.000 F1000.000
G1 X59.545 Y10.650 Z-1.000 F1000.000
G1 X58.413 Y10.650 Z-1.000 F1000.000
G1 X56.413 Y8.650 Z-1.000 F1000.000
G1 X55.282 Y8.650 Z-1.000 F1000.000
G1 X57.282 Y10.650 Z-1.000 F1000.000
G1 X56.151 Y10.650 Z-1.000 F1000.000
G1 X54.151 Y8.650 Z-1.000 F1000.000
G1 X53.019 Y8.650 Z-1.000 F1000.000
G1 X55.019 Y10.650 Z-1.000 F1000.000
G1 X53.888 Y10.650 Z-1.000 F1000.000
G1 X51.888 Y8.650 Z-1.000 F1000.000
G1 X50.757 Y8.650 Z-1.000 F1000.000
G1 X52.757 Y10.650 Z-1.000 F1000.000
G1 X51.625 Y10.650 Z-1.000 F1000.000
G1 X49.625 Y8.650 Z-1.000 F1000.000
G1 X48.494 Y8.650 Z-1.000 F1000.000
G1 X50.494 Y10.650 Z-1.000 F1000.000
G1 X49.363 Y10.650 Z-1.000 F1000.000
G1 X47.363 Y8.650 Z-1.000 F1000.000
G1 X46.231 Y8.650 Z-1.000 F1000.000
G1 X48.231 Y10.650 Z-1.000 F1000.000
G1 X47.100 Y10.650 Z-1.000 F1000.000
G1 X45.100 Y8.650 Z-1.000 F1000.000
G1 X43.968 Y8.650 Z-1.000 F1000.000
G1 X45.968 Y10.650 Z-1.000 F1000.000
G1 X44.837 Y10.650 Z-1.000 F1000.000
G1 X42.837 Y8.650 Z-1.000 F1000.000
G1 X41.706 Y8.650 Z-1.000 F1000.000
G1 X43.706 Y10.650 Z-1.000 F1000.000
G1 X42.574 Y10.650 Z-1.000 F1000.000
G1 X40.574 Y8.650 Z-1.000 F1000.000
G1 X39.443 Y8.650 Z-1.000 F1000.000
G1 X41.443 Y10.650 Z-1.000 F1000.000
G1 X40.312 Y10.650 Z-1.000 F1000.000
G1 X38.312 Y8.650 Z-1.000 F1000.000
G1 X37.180 Y8.650 Z-1.000 F1000.000
G1 X39.180 Y10.650 Z-1.000 F1000.000
G1 X38.049 Y10.650 Z-1.000 F1000.000
G1 X36.049 Y8.650 Z-1.000 F1000.000
G1 X34.917 Y8.650 Z-1.000 F1000.000
G1 X36.917 Y10.650 Z-1.000 F1000.000
G1 X35.786 Y10.650 Z-1.000 F1000.000
G1 X33.786 Y8.650 Z-1.000 F1000.000
G1 X32.655 Y8.650 Z-1.000 F1000.000
G1 X34.655 Y10.650 Z-1.000 F1000.000
G1 X33.523 Y10.650 Z-1.000 F1000.000
G1 X31.523 Y8.650 Z-1.000 F1000.000
G1 X30.392 Y8.650 Z-1.000 F1000.000
G1 X32.392 Y10.650 Z-1.000 F1000.000
G1 X31.261 Y10.650 Z-1.000 F1000.000
G1 X29.261 Y8.650 Z-1.000 F1000.000
G1 X28.129 Y8.650 Z-1.000 F1000.000
G1 X30.129 Y10.650 Z-1.000 F1000.000
G1 X28.998 Y10.650 Z-1.000 F1000.000
G1 X27.338 Y8.990 Z-1.000 F1000.000
G1 X27.338 Y10.122 Z-1.000 F1000.000
G1 X27.866 Y10.650 Z-1.000 F1000.000
G1 X27.338 Y10.650 Z-1.000 F1000.000
G1 X27.338 Y10.122 Z-1.000 F1000.000
G1 X27.338 Y10.122 Z-2.000 F1000.000
G1 X27.338 Y10.650 Z-2.000 F1000.000
G1 X27.866 Y10.650 Z-2.000 F1000.000
G1 X27.338 Y10.122 Z-2.000 F1000.000
G1 X27.338 Y8.990 Z-2.000 F1000.000
G1 X28.998 Y10.650 Z-2.000 F1000.000
G1 X30.129 Y10.650 Z-2.000 F1000.000
G1 X28.129 Y8.650 Z-2.000 F1000.000
G1 X29.261 Y8.650 Z-2.000 F1000.000
G1 X31.261 Y10.650 Z-2.000 F1000.000
G1 X32.392 Y10.650 Z-2.000 F1000.000
G1 X30.392 Y8.650 Z-2.000 F1000.000
G1 X31.523 Y8.650 Z-2.000 F1000.000
G1 X33.523 Y10.650 Z-2.000 F1000.000
G1 X34.655 Y10.650 Z-2.000 F1000.000
G1 X32.655 Y8.650 Z-2.000 F1000.000
G1 X33.786 Y8.650 Z-2.000 F1000.000
G1 X35.786 Y10.650 Z-2.000 F1000.000
G1 X36.917 Y10.650 Z-2.000 F1000.000
G1 X34.917 Y8.650 Z-2.000 F1000.000
G1 X36.049 Y8.650 Z-2.000 F1000.000
G1 X38.049 Y10.650 Z-2.000 F1000.000
G1 X39.180 Y10.650 Z-2.000 F1000.000
G1 X37.180 Y8.650 Z-2.000 F1000.000
G1 X38.312 Y8.650 Z-2.000 F1000.000
G1 X40.312 Y10.650 Z-2.000 F1000.000
G1 X41.443 Y10.650 Z-2.000 F1000.000
G1 X39.443 Y8.650 Z-2.000 F1000.000
G1 X40.574 Y8.650 Z-2.000 F1000.000
G1 X42.574 Y10.650 Z-2.000 F1000.000
G1 X43.706 Y10.650 Z-2.000 F1000.000
G1 X41.706 Y8.650 Z-2.000 F1000.000
G1 X42.837 Y8.650 Z-2.000 F1000.000
G1 X44.837 Y10.650 Z-2.000 F1000.000
G1 X45.968 Y10.650 Z-2.000 F1000.000
G1 X43.968 Y8.650 Z-2.000 F1000.000
G1 X45.100 Y8.650 Z-2.000 F1000.000
G1 X47.100 Y10.650 Z-2.000 F1000.000
G1 X48.231 Y10.650 Z-2.000 F1000.000
G1 X46.231 Y8.650 Z-2.000 F1000.000
G1 X47.363 Y8.650 Z-2.000 F1000.000
G1 X49.363 Y10.650 Z-2.000 F1000.000
G1 X50.494 Y10.650 Z-2.000 F1000.000
G1 X48.494 Y8.650 Z-2.000 F1000.000
G1 X49.625 Y8.650 Z-2.000 F1000.000
G1 X51.625 Y10.650 Z-2.000 F1000.000
G1 X52.757 Y10.650 Z-2.000 F1000.000
G1 X50.757 Y8.650 Z-2.000 F1000.000
G1 X51.888 Y8.650 Z-2.000 F1000.000
G1 X53.888 Y10.650 Z-2.000 F1000.000
G1 X55.019 Y10.650 Z-2.000 F1000.000
G1 X53.019 Y8.650 Z-2.000 F1000.000
G1 X54.151 Y8.650 Z-2.000 F1000.000
G1 X56.151 Y10.650 Z-2.000 F1000.000
G1 X57.282 Y10.650 Z-2.000 F1000.000
G1 X55.282 Y8.650 Z-2.000 F1000.000
G1 X56.413 Y8.650 Z-2.000 F1000.000
G1 X58.413 Y10.650 Z-2.000 F1000.000
G1 X59.545 Y10.650 Z-2.000 F1000.000
G1 X57.545 Y8.650 Z-2.000 F1000.000
G1 X58.676 Y8.650 Z-2.000 F1000.000
G1 X60.676 Y10.650 Z-2.000 F1000.000
G1 X61.808 Y10.650 Z-2.000 F1000.000
G1 X59.808 Y8.650 Z-2.000 F1000.000
G1 X60.939 Y8.650 Z-2.000 F1000.000
G1 X62.939 Y10.650 Z-2.000 F1000.000
G1 X64.070 Y10.650 Z-2.000 F1000.000
G1 X62.070 Y8.650 Z-2.000 F1000.000
G1 X63.202 Y8.650 Z-2.000 F1000.000
G1 X65.202 Y10.650 Z-2.000 F1000.000
G1 X66.333 Y10.650 Z-2.000 F1000.000
G1 X64.333 Y8.650 Z-2.000 F1000.000
G1 X65.464 Y8.650 Z-2.000 F1000.000
G1 X66.596 Y9.781 Z-2.000 F1000.000
G1 X66.596 Y8.650 Z-2.000 F1000.000
G1 X66.596 Y8.650 Z-2.000 F1000.000
G1 X27.338 Y8.650 Z-2.000 F1000.000
G1 X27.338 Y10.650 Z-2.000 F1000.000
G1 X66.596 Y10.650 Z-2.000 F1000.000
G1 X66.596 Y8.650 Z-2.000 F1000.000
G1 X66.596 Y8.650 Z-2.250 F1000.000
G1 X27.338 Y8.650 Z-2.250 F1000.000
G1 X27.338 Y10.650 Z-2.250 F1000.000
G1 X66.596 Y10.650 Z-2.250 F1000.000
G1 X66.596 Y8.650 Z-2.250 F1000.000
G1 X66.596 Y8.650 Z-2.250 F1000.000
G1 X66.596 Y9.781 Z-2.250 F1000.000
G1 X65.464 Y8.650 Z-2.250 F1000.000
G1 X64.333 Y8.650 Z-2.250 F1000.000
G1 X66.333 Y10.650 Z-2.250 F1000.000
G1 X65.202 Y10.650 Z-2.250 F1000.000
G1 X63.202 Y8.650 Z-2.250 F1000.000
G1 X62.070 Y8.650 Z-2.250 F1000.000
G1 X64.070 Y10.650 Z-2.250 F1000.000
G1 X62.939 Y10.650 Z-2.250 F1000.000
G1 X60.939 Y8.650 Z-2.250 F1000.000
G1 X59.808 Y8.650 Z-2.250 F1000.000
G1 X61.808 Y10.650 Z-2.250 F1000.000
G1 X60.676 Y10.650 Z-2.250 F1000.000
G1 X58.676 Y8.650 Z-2.250 F1000.000
G1 X57.545 Y8.650 Z-2.250 F1000.000
G1 X59.545 Y10.650 Z-2.250 F1000.000
G1 X58.413 Y10.650 Z-2.250 F1000.000
G1 X56.413 Y8.650 Z-2.250 F1000.000
G1 X55.282 Y8.650 Z-2.250 F1000.000
G1 X57.282 Y10.650 Z-2.250 F1000.000
G1 X56.151 Y10.650 Z-2.250 F1000.000
G1 X54.151 Y8.650 Z-2.250 F1000.000
G1 X53.019 Y8.650 Z-2.250 F1000.000
G1 X55.019 Y10.650 Z-2.250 F1000.000
G1 X53.888 Y10.650 Z-2.250 F1000.000
G1 X51.888 Y8.650 Z-2.250 F1000.000
G1 X50.757 Y8.650 Z-2.250 F1000.000
G1 X52.757 Y10.650 Z-2.250 F1000.000
G1 X51.625 Y10.650 Z-2.250 F1000.000
G1 X49.625 Y8.650 Z-2.250 F1000.000
G1 X48.494 Y8.650 Z-2.250 F1000.000
G1 X50.494 Y10.650 Z-2.250 F1000.000
G1 X49.363 Y10.650 Z-2.250 F1000.000
G1 X47.363 Y8.650 Z-2.250 F1000.000
G1 X46.231 Y8.650 Z-2.250 F1000.000
G1 X48.231 Y10.650 Z-2.250 F1000.000
G1 X47.100 Y10.650 Z-2.250 F1000.000
G1 X45.100 Y8.650 Z-2.250 F1000.000
G1 X43.968 Y8.650 Z-2.250 F1000.000
G1 X45.968 Y10.650 Z-2.250 F1000.000
G1 X44.837 Y10.650 Z-2.250 F1000.000
G1 X42.837 Y8.650 Z-2.250 F1000.000
G1 X41.706 Y8.650 Z-2.250 F1000.000
G1 X43.706 Y10.650 Z-2.250 F1000.000
G1 X42.574 Y10.650 Z-2.250 F1000.000
G1 X40.574 Y8.650 Z-2.250 F1000.000
G1 X39.443 Y8.650 Z-2.250 F1000.000
G1 X41.443 Y10.650 Z-2.250 F1000.000
G1 X40.312 Y10.650 Z-2.250 F1000.000
G1 X38.312 Y8.650 Z-2.250 F1000.000
G1 X37.180 Y8.650 Z-2.250 F1000.000
G1 X39.180 Y10.650 Z-2.250 F1000.000
G1 X38.049 Y10.650 Z-2.250 F1000.000
G1 X36.049 Y8.650 Z-2.250 F1000.000
G1 X34.917 Y8.650 Z-2.250 F1000.000
G1 X36.917 Y10.650 Z-2.250 F1000.000
G1 X35.786 Y10.650 Z-2.250 F1000.000
G1 X33.786 Y8.650 Z-2.250 F1000.000
G1 X32.655 Y8.650 Z-2.250 F1000.000
G1 X34.655 Y10.650 Z-2.250 F1000.000
G1 X33.523 Y10.650 Z-2.250 F1000.000
G1 X31.523 Y8.650 Z-2.250 F1000.000
G1 X30.392 Y8.650 Z-2.250 F1000.000
G1 X32.392 Y10.650 Z-2.250 F1000.000
G1 X31.261 Y10.650 Z-2.250 F1000.000
G1 X29.261 Y8.650 Z-2.250 F1000.000
G1 X28.129 Y8.650 Z-2.250 F1000.000
G1 X30.129 Y10.650 Z-2.250 F1000.000
G1 X28.998 Y10.650 Z-2.250 F1000.000
G1 X27.338 Y8.990 Z-2.250 F1000.000
G1 X27.338 Y10.122 Z-2.250 F1000.000
G1 X27.866 Y10.650 Z-2.250 F1000.000
G1 X27.338 Y10.650 Z-2.250 F1000.000
G1 X27.338 Y10.122 Z-2.250 F1000.000
G0 Z5.000
G0 Z5.000
(Finish operation: Pocket_Shape001)
(Begin operation: Pocket_Shape002)
(Path: Pocket_Shape002)
(Pocket_Shape002)
G0 Z5.000
G0 X133.692 Y10.650
G0 Z3.000
G1 X133.692 Y10.650 Z-1.000 F1000.000
G1 X133.692 Y8.650 Z-1.000 F1000.000
G1 X94.434 Y8.650 Z-1.000 F1000.000
G1 X94.434 Y10.650 Z-1.000 F1000.000
G1 X133.692 Y10.650 Z-1.000 F1000.000
G0 Z5.000
G0 Y8.650 Z5.000
G0 Y8.650 Z3.000
G1 X133.692 Y8.650 Z-1.000 F1000.000
G1 X133.692 Y9.781 Z-1.000 F1000.000
G1 X132.560 Y8.650 Z-1.000 F1000.000
G1 X131.429 Y8.650 Z-1.000 F1000.000
G1 X133.429 Y10.650 Z-1.000 F1000.000
G1 X132.298 Y10.650 Z-1.000 F1000.000
G1 X130.298 Y8.650 Z-1.000 F1000.000
G1 X129.166 Y8.650 Z-1.000 F1000.000
G1 X131.166 Y10.650 Z-1.000 F1000.000
G1 X130.035 Y10.650 Z-1.000 F1000.000
G1 X128.035 Y8.650 Z-1.000 F1000.000
G1 X126.903 Y8.650 Z-1.000 F1000.000
G1 X128.903 Y10.650 Z-1.000 F1000.000
G1 X127.772 Y10.650 Z-1.000 F1000.000
G1 X125.772 Y8.650 Z-1.000 F1000.000
G1 X124.641 Y8.650 Z-1.000 F1000.000
G1 X126.641 Y10.650 Z-1.000 F1000.000
G1 X125.509 Y10.650 Z-1.000 F1000.000
G1 X123.509 Y8.650 Z-1.000 F1000.000
G1 X122.378 Y8.650 Z-1.000 F1000.000
G1 X124.378 Y10.650 Z-1.000 F1000.000
G1 X123.247 Y10.650 Z-1.000 F1000.000
G1 X121.247 Y8.650 Z-1.000 F1000.000
G1 X120.115 Y8.650 Z-1.000 F1000.000
G1 X122.115 Y10.650 Z-1.000 F1000.000
G1 X120.984 Y10.650 Z-1.000 F1000.000
G1 X118.984 Y8.650 Z-1.000 F1000.000
G1 X117.852 Y8.650 Z-1.000 F1000.000
G1 X119.852 Y10.650 Z-1.000 F1000.000
G1 X118.721 Y10.650 Z-1.000 F1000.000
G1 X116.721 Y8.650 Z-1.000 F1000.000
G1 X115.590 Y8.650 Z-1.000 F1000.000
G1 X117.590 Y10.650 Z-1.000 F1000.000
G1 X116.458 Y10.650 Z-1.000 F1000.000
G1 X114.458 Y8.650 Z-1.000 F1000.000
G1 X113.327 Y8.650 Z-1.000 F1000.000
G1 X115.327 Y10.650 Z-1.000 F1000.000
G1 X114.196 Y10.650 Z-1.000 F1000.000
G1 X112.196 Y8.650 Z-1.000 F1000.000
G1 X111.064 Y8.650 Z-1.000 F1000.000
G1 X113.064 Y10.650 Z-1.000 F1000.000
G1 X111.933 Y10.650 Z-1.000 F1000.000
G1 X109.933 Y8.650 Z-1.000 F1000.000
G1 X108.802 Y8.650 Z-1.000 F1000.000
G1 X110.802 Y10.650 Z-1.000 F1000.000
G1 X109.670 Y10.650 Z-1.000 F1000.000
G1 X107.670 Y8.650 Z-1.000 F1000.000
G1 X106.539 Y8.650 Z-1.000 F1000.000
G1 X108.539 Y10.650 Z-1.000 F1000.000
G1 X107.407 Y10.650 Z-1.000 F1000.000
G1 X105.407 Y8.650 Z-1.000 F1000.000
G1 X104.276 Y8.650 Z-1.000 F1000.000
G1 X106.276 Y10.650 Z-1.000 F1000.000
G1 X105.145 Y10.650 Z-1.000 F1000.000
G1 X103.145 Y8.650 Z-1.000 F1000.000
G1 X102.013 Y8.650 Z-1.000 F1000.000
G1 X104.013 Y10.650 Z-1.000 F1000.000
G1 X102.882 Y10.650 Z-1.000 F1000.000
G1 X100.882 Y8.650 Z-1.000 F1000.000
G1 X99.751 Y8.650 Z-1.000 F1000.000
G1 X101.751 Y10.650 Z-1.000 F1000.000
G1 X100.619 Y10.650 Z-1.000 F1000.000
G1 X98.619 Y8.650 Z-1.000 F1000.000
G1 X97.488 Y8.650 Z-1.000 F1000.000
G1 X99.488 Y10.650 Z-1.000 F1000.000
G1 X98.356 Y10.650 Z-1.000 F1000.000
G1 X96.356 Y8.650 Z-1.000 F1000.000
G1 X95.225 Y8.650 Z-1.000 F1000.000
G1 X97.225 Y10.650 Z-1.000 F1000.000
G1 X96.094 Y10.650 Z-1.000 F1000.000
G1 X94.434 Y8.990 Z-1.000 F1000.000
G1 X94.434 Y10.122 Z-1.000 F1000.000
G1 X94.962 Y10.650 Z-1.000 F1000.000
G1 X94.434 Y10.650 Z-1.000 F1000.000
G1 X94.434 Y10.122 Z-1.000 F1000.000
G1 X94.434 Y10.122 Z-2.000 F1000.000
G1 X94.434 Y10.650 Z-2.000 F1000.000
G1 X94.962 Y10.650 Z-2.000 F1000.000
G1 X94.434 Y10.122 Z-2.000 F1000.000
G1 X94.434 Y8.990 Z-2.000 F1000.000
G1 X96.094 Y10.650 Z-2.000 F1000.000
G1 X97.225 Y10.650 Z-2.000 F1000.000
G1 X95.225 Y8.650 Z-2.000 F1000.000
G1 X96.356 Y8.650 Z-2.000 F1000.000
G1 X98.356 Y10.650 Z-2.000 F1000.000
G1 X99.488 Y10.650 Z-2.000 F1000.000
G1 X97.488 Y8.650 Z-2.000 F1000.000
G1 X98.619 Y8.650 Z-2.000 F1000.000
G1 X100.619 Y10.650 Z-2.000 F1000.000
G1 X101.751 Y10.650 Z-2.000 F1000.000
G1 X99.751 Y8.650 Z-2.000 F1000.000
G1 X100.882 Y8.650 Z-2.000 F1000.000
G1 X102.882 Y10.650 Z-2.000 F1000.000
G1 X104.013 Y10.650 Z-2.000 F1000.000
G1 X102.013 Y8.650 Z-2.000 F1000.000
G1 X103.145 Y8.650 Z-2.000 F1000.000
G1 X105.145 Y10.650 Z-2.000 F1000.000
G1 X106.276 Y10.650 Z-2.000 F1000.000
G1 X104.276 Y8.650 Z-2.000 F1000.000
G1 X105.407 Y8.650 Z-2.000 F1000.000
G1 X107.407 Y10.650 Z-2.000 F1000.000
G1 X108.539 Y10.650 Z-2.000 F1000.000
G1 X106.539 Y8.650 Z-2.000 F1000.000
G1 X107.670 Y8.650 Z-2.000 F1000.000
G1 X109.670 Y10.650 Z-2.000 F1000.000
G1 X110.802 Y10.650 Z-2.000 F1000.000
G1 X108.802 Y8.650 Z-2.000 F1000.000
G1 X109.933 Y8.650 Z-2.000 F1000.000
G1 X111.933 Y10.650 Z-2.000 F1000.000
G1 X113.064 Y10.650 Z-2.000 F1000.000
G1 X111.064 Y8.650 Z-2.000 F1000.000
G1 X112.196 Y8.650 Z-2.000 F1000.000
G1 X114.196 Y10.650 Z-2.000 F1000.000
G1 X115.327 Y10.650 Z-2.000 F1000.000
G1 X113.327 Y8.650 Z-2.000 F1000.000
G1 X114.458 Y8.650 Z-2.000 F1000.000
G1 X116.458 Y10.650 Z-2.000 F1000.000
G1 X117.590 Y10.650 Z-2.000 F1000.000
G1 X115.590 Y8.650 Z-2.000 F1000.000
G1 X116.721 Y8.650 Z-2.000 F1000.000
G1 X118.721 Y10.650 Z-2.000 F1000.000
G1 X119.852 Y10.650 Z-2.000 F1000.000
G1 X117.852 Y8.650 Z-2.000 F1000.000
G1 X118.984 Y8.650 Z-2.000 F1000.000
G1 X120.984 Y10.650 Z-2.000 F1000.000
G1 X122.115 Y10.650 Z-2.000 F1000.000
G1 X120.115 Y8.650 Z-2.000 F1000.000
G1 X121.247 Y8.650 Z-2.000 F1000.000
G1 X123.247 Y10.650 Z-2.000 F1000.000
G1 X124.378 Y10.650 Z-2.000 F1000.000
G1 X122.378 Y8.650 Z-2.000 F1000.000
G1 X123.509 Y8.650 Z-2.000 F1000.000
G1 X125.509 Y10.650 Z-2.000 F1000.000
G1 X126.641 Y10.650 Z-2.000 F1000.000
G1 X124.641 Y8.650 Z-2.000 F1000.000
G1 X125.772 Y8.650 Z-2.000 F1000.000
G1 X127.772 Y10.650 Z-2.000 F1000.000
G1 X128.903 Y10.650 Z-2.000 F1000.000
G1 X126.903 Y8.650 Z-2.000 F1000.000
G1 X128.035 Y8.650 Z-2.000 F1000.000
G1 X130.035 Y10.650 Z-2.000 F1000.000
G1 X131.166 Y10.650 Z-2.000 F1000.000
G1 X129.166 Y8.650 Z-2.000 F1000.000
G1 X130.298 Y8.650 Z-2.000 F1000.000
G1 X132.298 Y10.650 Z-2.000 F1000.000
G1 X133.429 Y10.650 Z-2.000 F1000.000
G1 X131.429 Y8.650 Z-2.000 F1000.000
G1 X132.560 Y8.650 Z-2.000 F1000.000
G1 X133.692 Y9.781 Z-2.000 F1000.000
G1 X133.692 Y8.650 Z-2.000 F1000.000
G1 X133.692 Y8.650 Z-2.000 F1000.000
G1 X94.434 Y8.650 Z-2.000 F1000.000
G1 X94.434 Y10.650 Z-2.000 F1000.000
G1 X133.692 Y10.650 Z-2.000 F1000.000
G1 X133.692 Y8.650 Z-2.000 F1000.000
G1 X133.692 Y8.650 Z-2.250 F1000.000
G1 X94.434 Y8.650 Z-2.250 F1000.000
G1 X94.434 Y10.650 Z-2.250 F1000.000
G1 X133.692 Y10.650 Z-2.250 F1000.000
G1 X133.692 Y8.650 Z-2.250 F1000.000
G1 X133.692 Y8.650 Z-2.250 F1000.000
G1 X133.692 Y9.781 Z-2.250 F1000.000
G1 X132.560 Y8.650 Z-2.250 F1000.000
G1 X131.429 Y8.650 Z-2.250 F1000.000
G1 X133.429 Y10.650 Z-2.250 F1000.000
G1 X132.298 Y10.650 Z-2.250 F1000.000
G1 X130.298 Y8.650 Z-2.250 F1000.000
G1 X129.166 Y8.650 Z-2.250 F1000.000
G1 X131.166 Y10.650 Z-2.250 F1000.000
G1 X130.035 Y10.650 Z-2.250 F1000.000
G1 X128.035 Y8.650 Z-2.250 F1000.000
G1 X126.903 Y8.650 Z-2.250 F1000.000
G1 X128.903 Y10.650 Z-2.250 F1000.000
G1 X127.772 Y10.650 Z-2.250 F1000.000
G1 X125.772 Y8.650 Z-2.250 F1000.000
G1 X124.641 Y8.650 Z-2.250 F1000.000
G1 X126.641 Y10.650 Z-2.250 F1000.000
G1 X125.509 Y10.650 Z-2.250 F1000.000
G1 X123.509 Y8.650 Z-2.250 F1000.000
G1 X122.378 Y8.650 Z-2.250 F1000.000
G1 X124.378 Y10.650 Z-2.250 F1000.000
G1 X123.247 Y10.650 Z-2.250 F1000.000
G1 X121.247 Y8.650 Z-2.250 F1000.000
G1 X120.115 Y8.650 Z-2.250 F1000.000
G1 X122.115 Y10.650 Z-2.250 F1000.000
G1 X120.984 Y10.650 Z-2.250 F1000.000
G1 X118.984 Y8.650 Z-2.250 F1000.000
G1 X117.852 Y8.650 Z-2.250 F1000.000
G1 X119.852 Y10.650 Z-2.250 F1000.000
G1 X118.721 Y10.650 Z-2.250 F1000.000
G1 X116.721 Y8.650 Z-2.250 F1000.000
G1 X115.590 Y8.650 Z-2.250 F1000.000
G1 X117.590 Y10.650 Z-2.250 F1000.000
G1 X116.458 Y10.650 Z-2.250 F1000.000
G1 X114.458 Y8.650 Z-2.250 F1000.000
G1 X113.327 Y8.650 Z-2.250 F1000.000
G1 X115.327 Y10.650 Z-2.250 F1000.000
G1 X114.196 Y10.650 Z-2.250 F1000.000
G1 X112.196 Y8.650 Z-2.250 F1000.000
G1 X111.064 Y8.650 Z-2.250 F1000.000
G1 X113.064 Y10.650 Z-2.250 F1000.000
G1 X111.933 Y10.650 Z-2.250 F1000.000
G1 X109.933 Y8.650 Z-2.250 F1000.000
G1 X108.802 Y8.650 Z-2.250 F1000.000
G1 X110.802 Y10.650 Z-2.250 F1000.000
G1 X109.670 Y10.650 Z-2.250 F1000.000
G1 X107.670 Y8.650 Z-2.250 F1000.000
G1 X106.539 Y8.650 Z-2.250 F1000.000
G1 X108.539 Y10.650 Z-2.250 F1000.000
G1 X107.407 Y10.650 Z-2.250 F1000.000
G1 X105.407 Y8.650 Z-2.250 F1000.000
G1 X104.276 Y8.650 Z-2.250 F1000.000
G1 X106.276 Y10.650 Z-2.250 F1000.000
G1 X105.145 Y10.650 Z-2.250 F1000.000
G1 X103.145 Y8.650 Z-2.250 F1000.000
G1 X102.013 Y8.650 Z-2.250 F1000.000
G1 X104.013 Y10.650 Z-2.250 F1000.000
G1 X102.882 Y10.650 Z-2.250 F1000.000
G1 X100.882 Y8.650 Z-2.250 F1000.000
G1 X99.751 Y8.650 Z-2.250 F1000.000
G1 X101.751 Y10.650 Z-2.250 F1000.000
G1 X100.619 Y10.650 Z-2.250 F1000.000
G1 X98.619 Y8.650 Z-2.250 F1000.000
G1 X97.488 Y8.650 Z-2.250 F1000.000
G1 X99.488 Y10.650 Z-2.250 F1000.000
G1 X98.356 Y10.650 Z-2.250 F1000.000
G1 X96.356 Y8.650 Z-2.250 F1000.000
G1 X95.225 Y8.650 Z-2.250 F1000.000
G1 X97.225 Y10.650 Z-2.250 F1000.000
G1 X96.094 Y10.650 Z-2.250 F1000.000
G1 X94.434 Y8.990 Z-2.250 F1000.000
G1 X94.434 Y10.122 Z-2.250 F1000.000
G1 X94.962 Y10.650 Z-2.250 F1000.000
G1 X94.434 Y10.650 Z-2.250 F1000.000
G1 X94.434 Y10.122 Z-2.250 F1000.000
G0 Z5.000
G0 Z5.000
(Finish operation: Pocket_Shape002)
(Begin postamble)
M5
G17 G90
M2
