(Exported by FreeCAD)
(Post Processor: grbl_post)
(Output Time:2024-06-14 23:20:21.683563)
(Begin preamble)
G17 G90
G21
(Begin operation: Fixture)
(Path: Fixture)
G54
(Finish operation: Fixture)
(Begin operation: 6mm_endmill001)
(Path: 6mm_endmill001)
(6mm_endmill001)
(Begin toolchange)
( M6 T2 )
M3 S10000
(Finish operation: 6mm_endmill001)
(Begin operation: DressupTag)
(Path: DressupTag)
G0 Z5.000
G0 X359.294 Y581.706 Z5.000
G0 X359.294 Y581.706 Z3.000
G1 X359.294 Y581.706 Z0.000 F100.000
G2 X361.000 Y579.000 Z0.000 I-1.294 J-2.706 K0.000 F1000.000
G1 X361.000 Y471.495 Z0.000 F1000.000
G1 X361.000 Y468.495 Z3.000 F550.000
G1 X361.000 Y444.005 Z3.000 F1000.000
G1 X361.000 Y441.005 Z0.000 F550.000
G1 X361.000 Y333.500 Z0.000 F1000.000
G1 X366.000 Y333.500 Z0.000 F1000.000
G2 X369.000 Y330.500 Z0.000 I-0.000 J-3.000 K0.000 F1000.000
G1 X369.000 Y268.500 Z0.000 F1000.000
G2 X366.000 Y265.500 Z0.000 I-3.000 J0.000 K0.000 F1000.000
G1 X361.000 Y265.500 Z0.000 F1000.000
G1 X361.000 Y20.000 Z0.000 F1000.000
G2 X358.000 Y17.000 Z0.000 I-3.000 J0.000 K0.000 F1000.000
G1 X296.395 Y17.000 Z0.000 F1000.000
G1 X293.395 Y17.000 Z3.000 F550.000
G1 X268.905 Y17.000 Z3.000 F1000.000
G1 X265.905 Y17.000 Z0.000 F550.000
G1 X204.300 Y17.000 Z0.000 F1000.000
G1 X204.300 Y0.000 Z0.000 F1000.000
G2 X201.300 Y-3.000 Z0.000 I-3.000 J0.000 K0.000 F1000.000
G1 X164.700 Y-3.000 Z0.000 F1000.000
G2 X161.700 Y0.000 Z0.000 I0.000 J3.000 K0.000 F1000.000
G1 X161.700 Y17.000 Z0.000 F1000.000
G1 X39.600 Y17.000 Z0.000 F1000.000
G1 X39.600 Y0.000 Z0.000 F1000.000
G2 X36.600 Y-3.000 Z0.000 I-3.000 J0.000 K0.000 F1000.000
G1 X0.000 Y-3.000 Z0.000 F1000.000
G2 X-3.000 Y0.000 Z0.000 I0.000 J3.000 K0.000 F1000.000
G1 X-3.000 Y80.000 Z0.000 F1000.000
G2 X0.000 Y83.000 Z0.000 I3.000 J-0.000 K0.000 F1000.000
G1 X11.926 Y83.000 Z0.000 F1000.000
G3 X17.000 Y88.074 Z0.000 I0.064 J5.010 K0.000 F1000.000
G1 X17.000 Y134.505 Z0.000 F1000.000
G1 X17.000 Y137.505 Z3.000 F550.000
G1 X17.000 Y161.995 Z3.000 F1000.000
G1 X17.000 Y164.995 Z0.000 F550.000
G1 X17.000 Y211.426 Z0.000 F1000.000
G3 X11.926 Y216.500 Z0.000 I-5.010 J0.064 K0.000 F1000.000
G1 X0.000 Y216.500 Z0.000 F1000.000
G2 X-3.000 Y219.500 Z0.000 I0.000 J3.000 K0.000 F1000.000
G1 X-3.000 Y379.500 Z0.000 F1000.000
G2 X0.000 Y382.500 Z0.000 I3.000 J-0.000 K0.000 F1000.000
G1 X11.926 Y382.500 Z0.000 F1000.000
G3 X17.000 Y387.574 Z0.000 I0.064 J5.010 K0.000 F1000.000
G1 X17.000 Y510.926 Z0.000 F1000.000
G3 X11.926 Y516.000 Z0.000 I-5.010 J0.064 K0.000 F1000.000
G1 X-0.000 Y516.000 Z0.000 F1000.000
G2 X-3.000 Y519.000 Z0.000 I0.000 J3.000 K0.000 F1000.000
G1 X-3.000 Y599.000 Z0.000 F1000.000
G2 X0.000 Y602.000 Z0.000 I3.000 J-0.000 K0.000 F1000.000
G1 X36.600 Y602.000 Z0.000 F1000.000
G2 X39.600 Y599.000 Z0.000 I-0.000 J-3.000 K0.000 F1000.000
G1 X39.600 Y582.000 Z0.000 F1000.000
G1 X85.405 Y582.000 Z0.000 F1000.000
G1 X88.405 Y582.000 Z3.000 F550.000
G1 X112.895 Y582.000 Z3.000 F1000.000
G1 X115.895 Y582.000 Z0.000 F550.000
G1 X161.700 Y582.000 Z0.000 F1000.000
G1 X161.700 Y599.000 Z0.000 F1000.000
G2 X164.700 Y602.000 Z0.000 I3.000 J-0.000 K0.000 F1000.000
G1 X201.300 Y602.000 Z0.000 F1000.000
G2 X204.300 Y599.000 Z0.000 I-0.000 J-3.000 K0.000 F1000.000
G1 X204.300 Y582.000 Z0.000 F1000.000
G1 X358.000 Y582.000 Z0.000 F1000.000
G2 X359.294 Y581.706 Z0.000 I-0.000 J-3.000 K0.000 F1000.000
G0 X359.294 Y581.706 Z5.000
(Finish operation: DressupTag)
(Begin operation: DressupTag001)
(Path: DressupTag001)
G0 Z5.000
G0 X323.000 Y395.560 Z5.000
G0 X323.000 Y395.560 Z3.000
G1 X323.000 Y395.560 Z-6.000 F100.000
G1 X323.000 Y203.440 Z-6.000 F1000.000
G1 X231.972 Y203.440 Z-6.000 F1000.000
G1 X231.972 Y395.560 Z-6.000 F1000.000
G1 X323.000 Y395.560 Z-6.000 F1000.000
G1 X323.000 Y395.560 Z-12.000 F100.000
G1 X323.000 Y357.060 Z-12.000 F1000.000
G1 X323.000 Y352.560 Z-7.500 F550.000
G1 X323.000 Y342.500 Z-7.500 F1000.000
G1 X323.000 Y338.000 Z-12.000 F550.000
G1 X323.000 Y261.000 Z-12.000 F1000.000
G1 X323.000 Y256.500 Z-7.500 F550.000
G1 X323.000 Y246.440 Z-7.500 F1000.000
G1 X323.000 Y241.940 Z-12.000 F550.000
G1 X323.000 Y203.440 Z-12.000 F1000.000
G1 X231.972 Y203.440 Z-12.000 F1000.000
G1 X231.972 Y241.940 Z-12.000 F1000.000
G1 X231.972 Y246.440 Z-7.500 F550.000
G1 X231.972 Y256.500 Z-7.500 F1000.000
G1 X231.972 Y261.000 Z-12.000 F550.000
G1 X231.972 Y338.000 Z-12.000 F1000.000
G1 X231.972 Y342.500 Z-7.500 F550.000
G1 X231.972 Y352.560 Z-7.500 F1000.000
G1 X231.972 Y357.060 Z-12.000 F550.000
G1 X231.972 Y395.560 Z-12.000 F1000.000
G1 X323.000 Y395.560 Z-12.000 F1000.000
G1 X323.000 Y395.560 Z-15.000 F100.000
G1 X323.000 Y360.060 Z-15.000 F1000.000
G1 X323.000 Y352.560 Z-7.500 F550.000
G1 X323.000 Y342.500 Z-7.500 F1000.000
G1 X323.000 Y335.000 Z-15.000 F550.000
G1 X323.000 Y264.000 Z-15.000 F1000.000
G1 X323.000 Y256.500 Z-7.500 F550.000
G1 X323.000 Y246.440 Z-7.500 F1000.000
G1 X323.000 Y238.940 Z-15.000 F550.000
G1 X323.000 Y203.440 Z-15.000 F1000.000
G1 X231.972 Y203.440 Z-15.000 F1000.000
G1 X231.972 Y238.940 Z-15.000 F1000.000
G1 X231.972 Y246.440 Z-7.500 F550.000
G1 X231.972 Y256.500 Z-7.500 F1000.000
G1 X231.972 Y264.000 Z-15.000 F550.000
G1 X231.972 Y335.000 Z-15.000 F1000.000
G1 X231.972 Y342.500 Z-7.500 F550.000
G1 X231.972 Y352.560 Z-7.500 F1000.000
G1 X231.972 Y360.060 Z-15.000 F550.000
G1 X231.972 Y395.560 Z-15.000 F1000.000
G1 X323.000 Y395.560 Z-15.000 F1000.000
G0 X323.000 Y395.560 Z5.000
(Finish operation: DressupTag001)
(Begin operation: Pocket_Shape)
(Path: Pocket_Shape)
(Pocket_Shape)
G0 Z5.000
G0 X37.000 Y246.583
G0 Z3.000
G1 X37.000 Y246.583 Z-6.000 F100.000
G1 X37.000 Y102.833 Z-6.000 F1000.000
G1 X28.000 Y102.833 Z-6.000 F1000.000
G1 X28.000 Y246.583 Z-6.000 F1000.000
G1 X37.000 Y246.583 Z-6.000 F1000.000
G0 Z5.000
G0 X28.000 Y246.568 Z5.000
G0 X28.000 Y246.568 Z3.000
G1 X28.000 Y246.568 Z-6.000 F100.000
G1 X28.015 Y246.583 Z-6.000 F1000.000
G3 X28.000 Y246.583 Z-6.000 I-0.007 J-0.007 K0.000 F1000.000
G3 X28.000 Y246.568 Z-6.000 I0.007 J-0.007 K0.000 F1000.000
G1 X28.000 Y242.326 Z-6.000 F1000.000
G1 X32.258 Y246.583 Z-6.000 F1000.000
G1 X36.500 Y246.583 Z-6.000 F1000.000
G1 X28.000 Y238.083 Z-6.000 F1000.000
G1 X28.000 Y233.840 Z-6.000 F1000.000
G1 X37.000 Y242.840 Z-6.000 F1000.000
G1 X37.000 Y238.598 Z-6.000 F1000.000
G1 X28.000 Y229.598 Z-6.000 F1000.000
G1 X28.000 Y225.355 Z-6.000 F1000.000
G1 X37.000 Y234.355 Z-6.000 F1000.000
G1 X37.000 Y230.113 Z-6.000 F1000.000
G1 X28.000 Y221.113 Z-6.000 F1000.000
G1 X28.000 Y216.870 Z-6.000 F1000.000
G1 X37.000 Y225.870 Z-6.000 F1000.000
G1 X37.000 Y221.627 Z-6.000 F1000.000
G1 X28.000 Y212.627 Z-6.000 F1000.000
G1 X28.000 Y208.385 Z-6.000 F1000.000
G1 X37.000 Y217.385 Z-6.000 F1000.000
G1 X37.000 Y213.142 Z-6.000 F1000.000
G1 X28.000 Y204.142 Z-6.000 F1000.000
G1 X28.000 Y199.899 Z-6.000 F1000.000
G1 X37.000 Y208.899 Z-6.000 F1000.000
G1 X37.000 Y204.657 Z-6.000 F1000.000
G1 X28.000 Y195.657 Z-6.000 F1000.000
G1 X28.000 Y191.414 Z-6.000 F1000.000
G1 X37.000 Y200.414 Z-6.000 F1000.000
G1 X37.000 Y196.171 Z-6.000 F1000.000
G1 X28.000 Y187.171 Z-6.000 F1000.000
G1 X28.000 Y182.929 Z-6.000 F1000.000
G1 X37.000 Y191.929 Z-6.000 F1000.000
G1 X37.000 Y187.686 Z-6.000 F1000.000
G1 X28.000 Y178.686 Z-6.000 F1000.000
G1 X28.000 Y174.444 Z-6.000 F1000.000
G1 X37.000 Y183.444 Z-6.000 F1000.000
G1 X37.000 Y179.201 Z-6.000 F1000.000
G1 X28.000 Y170.201 Z-6.000 F1000.000
G1 X28.000 Y165.958 Z-6.000 F1000.000
G1 X37.000 Y174.958 Z-6.000 F1000.000
G1 X37.000 Y170.716 Z-6.000 F1000.000
G1 X28.000 Y161.716 Z-6.000 F1000.000
G1 X28.000 Y157.473 Z-6.000 F1000.000
G1 X37.000 Y166.473 Z-6.000 F1000.000
G1 X37.000 Y162.230 Z-6.000 F1000.000
G1 X28.000 Y153.230 Z-6.000 F1000.000
G1 X28.000 Y148.988 Z-6.000 F1000.000
G1 X37.000 Y157.988 Z-6.000 F1000.000
G1 X37.000 Y153.745 Z-6.000 F1000.000
G1 X28.000 Y144.745 Z-6.000 F1000.000
G1 X28.000 Y140.502 Z-6.000 F1000.000
G1 X37.000 Y149.502 Z-6.000 F1000.000
G1 X37.000 Y145.260 Z-6.000 F1000.000
G1 X28.000 Y136.260 Z-6.000 F1000.000
G1 X28.000 Y132.017 Z-6.000 F1000.000
G1 X37.000 Y141.017 Z-6.000 F1000.000
G1 X37.000 Y136.774 Z-6.000 F1000.000
G1 X28.000 Y127.774 Z-6.000 F1000.000
G1 X28.000 Y123.532 Z-6.000 F1000.000
G1 X37.000 Y132.532 Z-6.000 F1000.000
G1 X37.000 Y128.289 Z-6.000 F1000.000
G1 X28.000 Y119.289 Z-6.000 F1000.000
G1 X28.000 Y115.047 Z-6.000 F1000.000
G1 X37.000 Y124.047 Z-6.000 F1000.000
G1 X37.000 Y119.804 Z-6.000 F1000.000
G1 X28.000 Y110.804 Z-6.000 F1000.000
G1 X28.000 Y106.561 Z-6.000 F1000.000
G1 X37.000 Y115.561 Z-6.000 F1000.000
G1 X37.000 Y111.319 Z-6.000 F1000.000
G1 X28.515 Y102.833 Z-6.000 F1000.000
G1 X32.757 Y102.833 Z-6.000 F1000.000
G1 X37.000 Y107.076 Z-6.000 F1000.000
G1 X37.000 Y102.833 Z-6.000 F1000.000
G1 X37.000 Y102.833 Z-11.250 F100.000
G1 X28.000 Y102.833 Z-11.250 F1000.000
G1 X28.000 Y246.583 Z-11.250 F1000.000
G1 X37.000 Y246.583 Z-11.250 F1000.000
G1 X37.000 Y102.833 Z-11.250 F1000.000
G1 X37.000 Y102.833 Z-11.250 F100.000
G1 X37.000 Y107.076 Z-11.250 F1000.000
G1 X32.757 Y102.833 Z-11.250 F1000.000
G1 X28.515 Y102.833 Z-11.250 F1000.000
G1 X37.000 Y111.319 Z-11.250 F1000.000
G1 X37.000 Y115.561 Z-11.250 F1000.000
G1 X28.000 Y106.561 Z-11.250 F1000.000
G1 X28.000 Y110.804 Z-11.250 F1000.000
G1 X37.000 Y119.804 Z-11.250 F1000.000
G1 X37.000 Y124.047 Z-11.250 F1000.000
G1 X28.000 Y115.047 Z-11.250 F1000.000
G1 X28.000 Y119.289 Z-11.250 F1000.000
G1 X37.000 Y128.289 Z-11.250 F1000.000
G1 X37.000 Y132.532 Z-11.250 F1000.000
G1 X28.000 Y123.532 Z-11.250 F1000.000
G1 X28.000 Y127.774 Z-11.250 F1000.000
G1 X37.000 Y136.774 Z-11.250 F1000.000
G1 X37.000 Y141.017 Z-11.250 F1000.000
G1 X28.000 Y132.017 Z-11.250 F1000.000
G1 X28.000 Y136.260 Z-11.250 F1000.000
G1 X37.000 Y145.260 Z-11.250 F1000.000
G1 X37.000 Y149.502 Z-11.250 F1000.000
G1 X28.000 Y140.502 Z-11.250 F1000.000
G1 X28.000 Y144.745 Z-11.250 F1000.000
G1 X37.000 Y153.745 Z-11.250 F1000.000
G1 X37.000 Y157.988 Z-11.250 F1000.000
G1 X28.000 Y148.988 Z-11.250 F1000.000
G1 X28.000 Y153.230 Z-11.250 F1000.000
G1 X37.000 Y162.230 Z-11.250 F1000.000
G1 X37.000 Y166.473 Z-11.250 F1000.000
G1 X28.000 Y157.473 Z-11.250 F1000.000
G1 X28.000 Y161.716 Z-11.250 F1000.000
G1 X37.000 Y170.716 Z-11.250 F1000.000
G1 X37.000 Y174.958 Z-11.250 F1000.000
G1 X28.000 Y165.958 Z-11.250 F1000.000
G1 X28.000 Y170.201 Z-11.250 F1000.000
G1 X37.000 Y179.201 Z-11.250 F1000.000
G1 X37.000 Y183.444 Z-11.250 F1000.000
G1 X28.000 Y174.444 Z-11.250 F1000.000
G1 X28.000 Y178.686 Z-11.250 F1000.000
G1 X37.000 Y187.686 Z-11.250 F1000.000
G1 X37.000 Y191.929 Z-11.250 F1000.000
G1 X28.000 Y182.929 Z-11.250 F1000.000
G1 X28.000 Y187.171 Z-11.250 F1000.000
G1 X37.000 Y196.171 Z-11.250 F1000.000
G1 X37.000 Y200.414 Z-11.250 F1000.000
G1 X28.000 Y191.414 Z-11.250 F1000.000
G1 X28.000 Y195.657 Z-11.250 F1000.000
G1 X37.000 Y204.657 Z-11.250 F1000.000
G1 X37.000 Y208.899 Z-11.250 F1000.000
G1 X28.000 Y199.899 Z-11.250 F1000.000
G1 X28.000 Y204.142 Z-11.250 F1000.000
G1 X37.000 Y213.142 Z-11.250 F1000.000
G1 X37.000 Y217.385 Z-11.250 F1000.000
G1 X28.000 Y208.385 Z-11.250 F1000.000
G1 X28.000 Y212.627 Z-11.250 F1000.000
G1 X37.000 Y221.627 Z-11.250 F1000.000
G1 X37.000 Y225.870 Z-11.250 F1000.000
G1 X28.000 Y216.870 Z-11.250 F1000.000
G1 X28.000 Y221.113 Z-11.250 F1000.000
G1 X37.000 Y230.113 Z-11.250 F1000.000
G1 X37.000 Y234.355 Z-11.250 F1000.000
G1 X28.000 Y225.355 Z-11.250 F1000.000
G1 X28.000 Y229.598 Z-11.250 F1000.000
G1 X37.000 Y238.598 Z-11.250 F1000.000
G1 X37.000 Y242.840 Z-11.250 F1000.000
G1 X28.000 Y233.840 Z-11.250 F1000.000
G1 X28.000 Y238.083 Z-11.250 F1000.000
G1 X36.500 Y246.583 Z-11.250 F1000.000
G1 X32.258 Y246.583 Z-11.250 F1000.000
G1 X28.000 Y242.326 Z-11.250 F1000.000
G1 X28.000 Y246.568 Z-11.250 F1000.000
G2 X28.000 Y246.583 Z-11.250 I0.007 J0.007 K0.000 F1000.000
G2 X28.015 Y246.583 Z-11.250 I0.007 J-0.007 K0.000 F1000.000
G1 X28.000 Y246.568 Z-11.250 F1000.000
G0 Z5.000
G0 Z5.000
(Finish operation: Pocket_Shape)
(Begin operation: Pocket_Shape001)
(Path: Pocket_Shape001)
(Pocket_Shape001)
G0 Z5.000
G0 X37.000 Y496.167
G0 Z3.000
G1 X37.000 Y496.167 Z-6.000 F100.000
G1 X37.000 Y352.417 Z-6.000 F1000.000
G1 X28.000 Y352.417 Z-6.000 F1000.000
G1 X28.000 Y496.167 Z-6.000 F1000.000
G1 X37.000 Y496.167 Z-6.000 F1000.000
G1 X37.000 Y496.167 Z-6.000 F100.000
G1 X32.757 Y496.167 Z-6.000 F1000.000
G1 X37.000 Y491.924 Z-6.000 F1000.000
G1 X37.000 Y487.681 Z-6.000 F1000.000
G1 X28.515 Y496.167 Z-6.000 F1000.000
G1 X28.000 Y496.167 Z-6.000 F1000.000
G1 X28.000 Y492.439 Z-6.000 F1000.000
G1 X37.000 Y483.439 Z-6.000 F1000.000
G1 X37.000 Y479.196 Z-6.000 F1000.000
G1 X28.000 Y488.196 Z-6.000 F1000.000
G1 X28.000 Y483.953 Z-6.000 F1000.000
G1 X37.000 Y474.953 Z-6.000 F1000.000
G1 X37.000 Y470.711 Z-6.000 F1000.000
G1 X28.000 Y479.711 Z-6.000 F1000.000
G1 X28.000 Y475.468 Z-6.000 F1000.000
G1 X37.000 Y466.468 Z-6.000 F1000.000
G1 X37.000 Y462.226 Z-6.000 F1000.000
G1 X28.000 Y471.226 Z-6.000 F1000.000
G1 X28.000 Y466.983 Z-6.000 F1000.000
G1 X37.000 Y457.983 Z-6.000 F1000.000
G1 X37.000 Y453.740 Z-6.000 F1000.000
G1 X28.000 Y462.740 Z-6.000 F1000.000
G1 X28.000 Y458.498 Z-6.000 F1000.000
G1 X37.000 Y449.498 Z-6.000 F1000.000
G1 X37.000 Y445.255 Z-6.000 F1000.000
G1 X28.000 Y454.255 Z-6.000 F1000.000
G1 X28.000 Y450.012 Z-6.000 F1000.000
G1 X37.000 Y441.012 Z-6.000 F1000.000
G1 X37.000 Y436.770 Z-6.000 F1000.000
G1 X28.000 Y445.770 Z-6.000 F1000.000
G1 X28.000 Y441.527 Z-6.000 F1000.000
G1 X37.000 Y432.527 Z-6.000 F1000.000
G1 X37.000 Y428.284 Z-6.000 F1000.000
G1 X28.000 Y437.284 Z-6.000 F1000.000
G1 X28.000 Y433.042 Z-6.000 F1000.000
G1 X37.000 Y424.042 Z-6.000 F1000.000
G1 X37.000 Y419.799 Z-6.000 F1000.000
G1 X28.000 Y428.799 Z-6.000 F1000.000
G1 X28.000 Y424.556 Z-6.000 F1000.000
G1 X37.000 Y415.556 Z-6.000 F1000.000
G1 X37.000 Y411.314 Z-6.000 F1000.000
G1 X28.000 Y420.314 Z-6.000 F1000.000
G1 X28.000 Y416.071 Z-6.000 F1000.000
G1 X37.000 Y407.071 Z-6.000 F1000.000
G1 X37.000 Y402.829 Z-6.000 F1000.000
G1 X28.000 Y411.829 Z-6.000 F1000.000
G1 X28.000 Y407.586 Z-6.000 F1000.000
G1 X37.000 Y398.586 Z-6.000 F1000.000
G1 X37.000 Y394.343 Z-6.000 F1000.000
G1 X28.000 Y403.343 Z-6.000 F1000.000
G1 X28.000 Y399.101 Z-6.000 F1000.000
G1 X37.000 Y390.101 Z-6.000 F1000.000
G1 X37.000 Y385.858 Z-6.000 F1000.000
G1 X28.000 Y394.858 Z-6.000 F1000.000
G1 X28.000 Y390.615 Z-6.000 F1000.000
G1 X37.000 Y381.615 Z-6.000 F1000.000
G1 X37.000 Y377.373 Z-6.000 F1000.000
G1 X28.000 Y386.373 Z-6.000 F1000.000
G1 X28.000 Y382.130 Z-6.000 F1000.000
G1 X37.000 Y373.130 Z-6.000 F1000.000
G1 X37.000 Y368.887 Z-6.000 F1000.000
G1 X28.000 Y377.887 Z-6.000 F1000.000
G1 X28.000 Y373.645 Z-6.000 F1000.000
G1 X37.000 Y364.645 Z-6.000 F1000.000
G1 X37.000 Y360.402 Z-6.000 F1000.000
G1 X28.000 Y369.402 Z-6.000 F1000.000
G1 X28.000 Y365.160 Z-6.000 F1000.000
G1 X37.000 Y356.160 Z-6.000 F1000.000
G1 X37.000 Y352.417 Z-6.000 F1000.000
G1 X36.500 Y352.417 Z-6.000 F1000.000
G1 X28.000 Y360.917 Z-6.000 F1000.000
G1 X28.000 Y356.674 Z-6.000 F1000.000
G1 X32.258 Y352.417 Z-6.000 F1000.000
G1 X28.015 Y352.417 Z-6.000 F1000.000
G1 X28.000 Y352.432 Z-6.000 F1000.000
G3 X28.000 Y352.417 Z-6.000 I0.007 J-0.007 K0.000 F1000.000
G3 X28.015 Y352.417 Z-6.000 I0.007 J0.007 K0.000 F1000.000
G1 X28.015 Y352.417 Z-11.250 F100.000
G2 X28.000 Y352.417 Z-11.250 I-0.007 J0.007 K0.000 F1000.000
G2 X28.000 Y352.432 Z-11.250 I0.007 J0.007 K0.000 F1000.000
G1 X28.015 Y352.417 Z-11.250 F1000.000
G1 X32.258 Y352.417 Z-11.250 F1000.000
G1 X28.000 Y356.674 Z-11.250 F1000.000
G1 X28.000 Y360.917 Z-11.250 F1000.000
G1 X36.500 Y352.417 Z-11.250 F1000.000
G1 X37.000 Y352.417 Z-11.250 F1000.000
G1 X37.000 Y356.160 Z-11.250 F1000.000
G1 X28.000 Y365.160 Z-11.250 F1000.000
G1 X28.000 Y369.402 Z-11.250 F1000.000
G1 X37.000 Y360.402 Z-11.250 F1000.000
G1 X37.000 Y364.645 Z-11.250 F1000.000
G1 X28.000 Y373.645 Z-11.250 F1000.000
G1 X28.000 Y377.887 Z-11.250 F1000.000
G1 X37.000 Y368.887 Z-11.250 F1000.000
G1 X37.000 Y373.130 Z-11.250 F1000.000
G1 X28.000 Y382.130 Z-11.250 F1000.000
G1 X28.000 Y386.373 Z-11.250 F1000.000
G1 X37.000 Y377.373 Z-11.250 F1000.000
G1 X37.000 Y381.615 Z-11.250 F1000.000
G1 X28.000 Y390.615 Z-11.250 F1000.000
G1 X28.000 Y394.858 Z-11.250 F1000.000
G1 X37.000 Y385.858 Z-11.250 F1000.000
G1 X37.000 Y390.101 Z-11.250 F1000.000
G1 X28.000 Y399.101 Z-11.250 F1000.000
G1 X28.000 Y403.343 Z-11.250 F1000.000
G1 X37.000 Y394.343 Z-11.250 F1000.000
G1 X37.000 Y398.586 Z-11.250 F1000.000
G1 X28.000 Y407.586 Z-11.250 F1000.000
G1 X28.000 Y411.829 Z-11.250 F1000.000
G1 X37.000 Y402.829 Z-11.250 F1000.000
G1 X37.000 Y407.071 Z-11.250 F1000.000
G1 X28.000 Y416.071 Z-11.250 F1000.000
G1 X28.000 Y420.314 Z-11.250 F1000.000
G1 X37.000 Y411.314 Z-11.250 F1000.000
G1 X37.000 Y415.556 Z-11.250 F1000.000
G1 X28.000 Y424.556 Z-11.250 F1000.000
G1 X28.000 Y428.799 Z-11.250 F1000.000
G1 X37.000 Y419.799 Z-11.250 F1000.000
G1 X37.000 Y424.042 Z-11.250 F1000.000
G1 X28.000 Y433.042 Z-11.250 F1000.000
G1 X28.000 Y437.284 Z-11.250 F1000.000
G1 X37.000 Y428.284 Z-11.250 F1000.000
G1 X37.000 Y432.527 Z-11.250 F1000.000
G1 X28.000 Y441.527 Z-11.250 F1000.000
G1 X28.000 Y445.770 Z-11.250 F1000.000
G1 X37.000 Y436.770 Z-11.250 F1000.000
G1 X37.000 Y441.012 Z-11.250 F1000.000
G1 X28.000 Y450.012 Z-11.250 F1000.000
G1 X28.000 Y454.255 Z-11.250 F1000.000
G1 X37.000 Y445.255 Z-11.250 F1000.000
G1 X37.000 Y449.498 Z-11.250 F1000.000
G1 X28.000 Y458.498 Z-11.250 F1000.000
G1 X28.000 Y462.740 Z-11.250 F1000.000
G1 X37.000 Y453.740 Z-11.250 F1000.000
G1 X37.000 Y457.983 Z-11.250 F1000.000
G1 X28.000 Y466.983 Z-11.250 F1000.000
G1 X28.000 Y471.226 Z-11.250 F1000.000
G1 X37.000 Y462.226 Z-11.250 F1000.000
G1 X37.000 Y466.468 Z-11.250 F1000.000
G1 X28.000 Y475.468 Z-11.250 F1000.000
G1 X28.000 Y479.711 Z-11.250 F1000.000
G1 X37.000 Y470.711 Z-11.250 F1000.000
G1 X37.000 Y474.953 Z-11.250 F1000.000
G1 X28.000 Y483.953 Z-11.250 F1000.000
G1 X28.000 Y488.196 Z-11.250 F1000.000
G1 X37.000 Y479.196 Z-11.250 F1000.000
G1 X37.000 Y483.439 Z-11.250 F1000.000
G1 X28.000 Y492.439 Z-11.250 F1000.000
G1 X28.000 Y496.167 Z-11.250 F1000.000
G1 X28.515 Y496.167 Z-11.250 F1000.000
G1 X37.000 Y487.681 Z-11.250 F1000.000
G1 X37.000 Y491.924 Z-11.250 F1000.000
G1 X32.757 Y496.167 Z-11.250 F1000.000
G1 X37.000 Y496.167 Z-11.250 F1000.000
G1 X37.000 Y496.167 Z-11.250 F100.000
G1 X37.000 Y352.417 Z-11.250 F1000.000
G1 X28.000 Y352.417 Z-11.250 F1000.000
G1 X28.000 Y496.167 Z-11.250 F1000.000
G1 X37.000 Y496.167 Z-11.250 F1000.000
G0 Z5.000
G0 Z5.000
(Finish operation: Pocket_Shape001)
(Begin postamble)
M5
G17 G90
M2
