(Exported by FreeCAD)
(Post Processor: grbl_post)
(Output Time:2024-06-26 16:15:45.872478)
(Begin preamble)
G17 G90
G21
(Begin operation: Fixture)
(Path: Fixture)
G54
(Finish operation: Fixture)
(Begin operation: 6mm_endmill012)
(Path: 6mm_endmill012)
(6mm_endmill012)
(Begin toolchange)
( M6 T3 )
M3 S10000
(Finish operation: 6mm_endmill012)
(Begin operation: DressupTag012)
(Path: DressupTag012)
G0 Z5.000
G0 X171.680 Y76.210 Z5.000
G0 X171.680 Y76.210 Z3.000
G1 X171.680 Y76.210 Z-1.000 F1000.000
G1 X171.680 Y12.650 Z-1.000 F1000.000
G1 X9.700 Y12.650 Z-1.000 F1000.000
G1 X9.700 Y76.210 Z-1.000 F1000.000
G1 X171.680 Y76.210 Z-1.000 F1000.000
G1 X171.680 Y76.210 Z-2.000 F1000.000
G1 X171.680 Y12.650 Z-2.000 F1000.000
G1 X141.270 Y12.650 Z-2.000 F1000.000
G1 X140.770 Y12.650 Z-1.500 F1000.000
G1 X121.600 Y12.650 Z-1.500 F1000.000
G1 X121.100 Y12.650 Z-2.000 F1000.000
G1 X60.280 Y12.650 Z-2.000 F1000.000
G1 X59.780 Y12.650 Z-1.500 F1000.000
G1 X40.610 Y12.650 Z-1.500 F1000.000
G1 X40.110 Y12.650 Z-2.000 F1000.000
G1 X9.700 Y12.650 Z-2.000 F1000.000
G1 X9.700 Y76.210 Z-2.000 F1000.000
G1 X40.110 Y76.210 Z-2.000 F1000.000
G1 X40.610 Y76.210 Z-1.500 F1000.000
G1 X59.780 Y76.210 Z-1.500 F1000.000
G1 X60.280 Y76.210 Z-2.000 F1000.000
G1 X121.100 Y76.210 Z-2.000 F1000.000
G1 X121.600 Y76.210 Z-1.500 F1000.000
G1 X140.770 Y76.210 Z-1.500 F1000.000
G1 X141.270 Y76.210 Z-2.000 F1000.000
G1 X171.680 Y76.210 Z-2.000 F1000.000
G1 X171.680 Y76.210 Z-3.000 F1000.000
G1 X171.680 Y12.650 Z-3.000 F1000.000
G1 X142.270 Y12.650 Z-3.000 F1000.000
G1 X140.770 Y12.650 Z-1.500 F1000.000
G1 X121.600 Y12.650 Z-1.500 F1000.000
G1 X120.100 Y12.650 Z-3.000 F1000.000
G1 X61.280 Y12.650 Z-3.000 F1000.000
G1 X59.780 Y12.650 Z-1.500 F1000.000
G1 X40.610 Y12.650 Z-1.500 F1000.000
G1 X39.110 Y12.650 Z-3.000 F1000.000
G1 X9.700 Y12.650 Z-3.000 F1000.000
G1 X9.700 Y76.210 Z-3.000 F1000.000
G1 X39.110 Y76.210 Z-3.000 F1000.000
G1 X40.610 Y76.210 Z-1.500 F1000.000
G1 X59.780 Y76.210 Z-1.500 F1000.000
G1 X61.280 Y76.210 Z-3.000 F1000.000
G1 X120.100 Y76.210 Z-3.000 F1000.000
G1 X121.600 Y76.210 Z-1.500 F1000.000
G1 X140.770 Y76.210 Z-1.500 F1000.000
G1 X142.270 Y76.210 Z-3.000 F1000.000
G1 X171.680 Y76.210 Z-3.000 F1000.000
G0 X171.680 Y76.210 Z5.000
(Finish operation: DressupTag012)
(Begin operation: 1mm_endmill008)
(Path: 1mm_endmill008)
(1mm_endmill008)
(Begin toolchange)
( M6 T2 )
M3 S10000
(Finish operation: 1mm_endmill008)
(Begin operation: Pocket_Shape005)
(Path: Pocket_Shape005)
(Pocket_Shape005)
G0 Z5.000
G0 X93.190 Y79.710
G0 Z3.000
G1 X93.190 Y79.710 Z-0.250 F1000.000
G1 X93.190 Y81.124 Z-0.250 F1000.000
G1 X91.776 Y79.710 Z-0.250 F1000.000
G1 X90.362 Y79.710 Z-0.250 F1000.000
G1 X92.362 Y81.710 Z-0.250 F1000.000
G1 X90.947 Y81.710 Z-0.250 F1000.000
G1 X88.947 Y79.710 Z-0.250 F1000.000
G1 X88.190 Y79.710 Z-0.250 F1000.000
G1 X88.190 Y80.367 Z-0.250 F1000.000
G1 X89.533 Y81.710 Z-0.250 F1000.000
G1 X88.190 Y81.710 Z-0.250 F1000.000
G1 X88.190 Y80.367 Z-0.250 F1000.000
G1 X88.190 Y80.367 Z-0.500 F1000.000
G1 X88.190 Y81.710 Z-0.500 F1000.000
G1 X89.533 Y81.710 Z-0.500 F1000.000
G1 X88.190 Y80.367 Z-0.500 F1000.000
G1 X88.190 Y79.710 Z-0.500 F1000.000
G1 X88.947 Y79.710 Z-0.500 F1000.000
G1 X90.947 Y81.710 Z-0.500 F1000.000
G1 X92.362 Y81.710 Z-0.500 F1000.000
G1 X90.362 Y79.710 Z-0.500 F1000.000
G1 X91.776 Y79.710 Z-0.500 F1000.000
G1 X93.190 Y81.124 Z-0.500 F1000.000
G1 X93.190 Y79.710 Z-0.500 F1000.000
G1 X93.190 Y79.710 Z-0.750 F1000.000
G1 X93.190 Y81.124 Z-0.750 F1000.000
G1 X91.776 Y79.710 Z-0.750 F1000.000
G1 X90.362 Y79.710 Z-0.750 F1000.000
G1 X92.362 Y81.710 Z-0.750 F1000.000
G1 X90.947 Y81.710 Z-0.750 F1000.000
G1 X88.947 Y79.710 Z-0.750 F1000.000
G1 X88.190 Y79.710 Z-0.750 F1000.000
G1 X88.190 Y80.367 Z-0.750 F1000.000
G1 X89.533 Y81.710 Z-0.750 F1000.000
G1 X88.190 Y81.710 Z-0.750 F1000.000
G1 X88.190 Y80.367 Z-0.750 F1000.000
G1 X88.190 Y80.367 Z-1.000 F1000.000
G1 X88.190 Y81.710 Z-1.000 F1000.000
G1 X89.533 Y81.710 Z-1.000 F1000.000
G1 X88.190 Y80.367 Z-1.000 F1000.000
G1 X88.190 Y79.710 Z-1.000 F1000.000
G1 X88.947 Y79.710 Z-1.000 F1000.000
G1 X90.947 Y81.710 Z-1.000 F1000.000
G1 X92.362 Y81.710 Z-1.000 F1000.000
G1 X90.362 Y79.710 Z-1.000 F1000.000
G1 X91.776 Y79.710 Z-1.000 F1000.000
G1 X93.190 Y81.124 Z-1.000 F1000.000
G1 X93.190 Y79.710 Z-1.000 F1000.000
G1 X93.190 Y79.710 Z-1.250 F1000.000
G1 X93.190 Y81.124 Z-1.250 F1000.000
G1 X91.776 Y79.710 Z-1.250 F1000.000
G1 X90.362 Y79.710 Z-1.250 F1000.000
G1 X92.362 Y81.710 Z-1.250 F1000.000
G1 X90.947 Y81.710 Z-1.250 F1000.000
G1 X88.947 Y79.710 Z-1.250 F1000.000
G1 X88.190 Y79.710 Z-1.250 F1000.000
G1 X88.190 Y80.367 Z-1.250 F1000.000
G1 X89.533 Y81.710 Z-1.250 F1000.000
G1 X88.190 Y81.710 Z-1.250 F1000.000
G1 X88.190 Y80.367 Z-1.250 F1000.000
G1 X88.190 Y80.367 Z-1.500 F1000.000
G1 X88.190 Y81.710 Z-1.500 F1000.000
G1 X89.533 Y81.710 Z-1.500 F1000.000
G1 X88.190 Y80.367 Z-1.500 F1000.000
G1 X88.190 Y79.710 Z-1.500 F1000.000
G1 X88.947 Y79.710 Z-1.500 F1000.000
G1 X90.947 Y81.710 Z-1.500 F1000.000
G1 X92.362 Y81.710 Z-1.500 F1000.000
G1 X90.362 Y79.710 Z-1.500 F1000.000
G1 X91.776 Y79.710 Z-1.500 F1000.000
G1 X93.190 Y81.124 Z-1.500 F1000.000
G1 X93.190 Y79.710 Z-1.500 F1000.000
G1 X93.190 Y79.710 Z-1.750 F1000.000
G1 X93.190 Y81.124 Z-1.750 F1000.000
G1 X91.776 Y79.710 Z-1.750 F1000.000
G1 X90.362 Y79.710 Z-1.750 F1000.000
G1 X92.362 Y81.710 Z-1.750 F1000.000
G1 X90.947 Y81.710 Z-1.750 F1000.000
G1 X88.947 Y79.710 Z-1.750 F1000.000
G1 X88.190 Y79.710 Z-1.750 F1000.000
G1 X88.190 Y80.367 Z-1.750 F1000.000
G1 X89.533 Y81.710 Z-1.750 F1000.000
G1 X88.190 Y81.710 Z-1.750 F1000.000
G1 X88.190 Y80.367 Z-1.750 F1000.000
G1 X88.190 Y80.367 Z-2.000 F1000.000
G1 X88.190 Y81.710 Z-2.000 F1000.000
G1 X89.533 Y81.710 Z-2.000 F1000.000
G1 X88.190 Y80.367 Z-2.000 F1000.000
G1 X88.190 Y79.710 Z-2.000 F1000.000
G1 X88.947 Y79.710 Z-2.000 F1000.000
G1 X90.947 Y81.710 Z-2.000 F1000.000
G1 X92.362 Y81.710 Z-2.000 F1000.000
G1 X90.362 Y79.710 Z-2.000 F1000.000
G1 X91.776 Y79.710 Z-2.000 F1000.000
G1 X93.190 Y81.124 Z-2.000 F1000.000
G1 X93.190 Y79.710 Z-2.000 F1000.000
G1 X93.190 Y79.710 Z-2.250 F1000.000
G1 X93.190 Y81.124 Z-2.250 F1000.000
G1 X91.776 Y79.710 Z-2.250 F1000.000
G1 X90.362 Y79.710 Z-2.250 F1000.000
G1 X92.362 Y81.710 Z-2.250 F1000.000
G1 X90.947 Y81.710 Z-2.250 F1000.000
G1 X88.947 Y79.710 Z-2.250 F1000.000
G1 X88.190 Y79.710 Z-2.250 F1000.000
G1 X88.190 Y80.367 Z-2.250 F1000.000
G1 X89.533 Y81.710 Z-2.250 F1000.000
G1 X88.190 Y81.710 Z-2.250 F1000.000
G1 X88.190 Y80.367 Z-2.250 F1000.000
G0 Z5.000
G0 Z5.000
(Finish operation: Pocket_Shape005)
(Begin operation: Pocket_Shape006)
(Path: Pocket_Shape006)
(Pocket_Shape006)
G0 Z5.000
G0 X12.200 Y79.710
G0 Z3.000
G1 X12.200 Y79.710 Z-0.250 F1000.000
G1 X12.200 Y81.124 Z-0.250 F1000.000
G1 X10.786 Y79.710 Z-0.250 F1000.000
G1 X9.372 Y79.710 Z-0.250 F1000.000
G1 X11.372 Y81.710 Z-0.250 F1000.000
G1 X9.957 Y81.710 Z-0.250 F1000.000
G1 X7.957 Y79.710 Z-0.250 F1000.000
G1 X7.200 Y79.710 Z-0.250 F1000.000
G1 X7.200 Y80.367 Z-0.250 F1000.000
G1 X8.543 Y81.710 Z-0.250 F1000.000
G1 X7.200 Y81.710 Z-0.250 F1000.000
G1 X7.200 Y80.367 Z-0.250 F1000.000
G1 X7.200 Y80.367 Z-0.500 F1000.000
G1 X7.200 Y81.710 Z-0.500 F1000.000
G1 X8.543 Y81.710 Z-0.500 F1000.000
G1 X7.200 Y80.367 Z-0.500 F1000.000
G1 X7.200 Y79.710 Z-0.500 F1000.000
G1 X7.957 Y79.710 Z-0.500 F1000.000
G1 X9.957 Y81.710 Z-0.500 F1000.000
G1 X11.372 Y81.710 Z-0.500 F1000.000
G1 X9.372 Y79.710 Z-0.500 F1000.000
G1 X10.786 Y79.710 Z-0.500 F1000.000
G1 X12.200 Y81.124 Z-0.500 F1000.000
G1 X12.200 Y79.710 Z-0.500 F1000.000
G1 X12.200 Y79.710 Z-0.750 F1000.000
G1 X12.200 Y81.124 Z-0.750 F1000.000
G1 X10.786 Y79.710 Z-0.750 F1000.000
G1 X9.372 Y79.710 Z-0.750 F1000.000
G1 X11.372 Y81.710 Z-0.750 F1000.000
G1 X9.957 Y81.710 Z-0.750 F1000.000
G1 X7.957 Y79.710 Z-0.750 F1000.000
G1 X7.200 Y79.710 Z-0.750 F1000.000
G1 X7.200 Y80.367 Z-0.750 F1000.000
G1 X8.543 Y81.710 Z-0.750 F1000.000
G1 X7.200 Y81.710 Z-0.750 F1000.000
G1 X7.200 Y80.367 Z-0.750 F1000.000
G1 X7.200 Y80.367 Z-1.000 F1000.000
G1 X7.200 Y81.710 Z-1.000 F1000.000
G1 X8.543 Y81.710 Z-1.000 F1000.000
G1 X7.200 Y80.367 Z-1.000 F1000.000
G1 X7.200 Y79.710 Z-1.000 F1000.000
G1 X7.957 Y79.710 Z-1.000 F1000.000
G1 X9.957 Y81.710 Z-1.000 F1000.000
G1 X11.372 Y81.710 Z-1.000 F1000.000
G1 X9.372 Y79.710 Z-1.000 F1000.000
G1 X10.786 Y79.710 Z-1.000 F1000.000
G1 X12.200 Y81.124 Z-1.000 F1000.000
G1 X12.200 Y79.710 Z-1.000 F1000.000
G1 X12.200 Y79.710 Z-1.250 F1000.000
G1 X12.200 Y81.124 Z-1.250 F1000.000
G1 X10.786 Y79.710 Z-1.250 F1000.000
G1 X9.372 Y79.710 Z-1.250 F1000.000
G1 X11.372 Y81.710 Z-1.250 F1000.000
G1 X9.957 Y81.710 Z-1.250 F1000.000
G1 X7.957 Y79.710 Z-1.250 F1000.000
G1 X7.200 Y79.710 Z-1.250 F1000.000
G1 X7.200 Y80.367 Z-1.250 F1000.000
G1 X8.543 Y81.710 Z-1.250 F1000.000
G1 X7.200 Y81.710 Z-1.250 F1000.000
G1 X7.200 Y80.367 Z-1.250 F1000.000
G1 X7.200 Y80.367 Z-1.500 F1000.000
G1 X7.200 Y81.710 Z-1.500 F1000.000
G1 X8.543 Y81.710 Z-1.500 F1000.000
G1 X7.200 Y80.367 Z-1.500 F1000.000
G1 X7.200 Y79.710 Z-1.500 F1000.000
G1 X7.957 Y79.710 Z-1.500 F1000.000
G1 X9.957 Y81.710 Z-1.500 F1000.000
G1 X11.372 Y81.710 Z-1.500 F1000.000
G1 X9.372 Y79.710 Z-1.500 F1000.000
G1 X10.786 Y79.710 Z-1.500 F1000.000
G1 X12.200 Y81.124 Z-1.500 F1000.000
G1 X12.200 Y79.710 Z-1.500 F1000.000
G1 X12.200 Y79.710 Z-1.750 F1000.000
G1 X12.200 Y81.124 Z-1.750 F1000.000
G1 X10.786 Y79.710 Z-1.750 F1000.000
G1 X9.372 Y79.710 Z-1.750 F1000.000
G1 X11.372 Y81.710 Z-1.750 F1000.000
G1 X9.957 Y81.710 Z-1.750 F1000.000
G1 X7.957 Y79.710 Z-1.750 F1000.000
G1 X7.200 Y79.710 Z-1.750 F1000.000
G1 X7.200 Y80.367 Z-1.750 F1000.000
G1 X8.543 Y81.710 Z-1.750 F1000.000
G1 X7.200 Y81.710 Z-1.750 F1000.000
G1 X7.200 Y80.367 Z-1.750 F1000.000
G1 X7.200 Y80.367 Z-2.000 F1000.000
G1 X7.200 Y81.710 Z-2.000 F1000.000
G1 X8.543 Y81.710 Z-2.000 F1000.000
G1 X7.200 Y80.367 Z-2.000 F1000.000
G1 X7.200 Y79.710 Z-2.000 F1000.000
G1 X7.957 Y79.710 Z-2.000 F1000.000
G1 X9.957 Y81.710 Z-2.000 F1000.000
G1 X11.372 Y81.710 Z-2.000 F1000.000
G1 X9.372 Y79.710 Z-2.000 F1000.000
G1 X10.786 Y79.710 Z-2.000 F1000.000
G1 X12.200 Y81.124 Z-2.000 F1000.000
G1 X12.200 Y79.710 Z-2.000 F1000.000
G1 X12.200 Y79.710 Z-2.250 F1000.000
G1 X12.200 Y81.124 Z-2.250 F1000.000
G1 X10.786 Y79.710 Z-2.250 F1000.000
G1 X9.372 Y79.710 Z-2.250 F1000.000
G1 X11.372 Y81.710 Z-2.250 F1000.000
G1 X9.957 Y81.710 Z-2.250 F1000.000
G1 X7.957 Y79.710 Z-2.250 F1000.000
G1 X7.200 Y79.710 Z-2.250 F1000.000
G1 X7.200 Y80.367 Z-2.250 F1000.000
G1 X8.543 Y81.710 Z-2.250 F1000.000
G1 X7.200 Y81.710 Z-2.250 F1000.000
G1 X7.200 Y80.367 Z-2.250 F1000.000
G0 Z5.000
G0 Z5.000
(Finish operation: Pocket_Shape006)
(Begin operation: Pocket_Shape007)
(Path: Pocket_Shape007)
(Pocket_Shape007)
G0 Z5.000
G0 X174.180 Y79.710
G0 Z3.000
G1 X174.180 Y79.710 Z-0.250 F1000.000
G1 X174.180 Y81.124 Z-0.250 F1000.000
G1 X172.766 Y79.710 Z-0.250 F1000.000
G1 X171.352 Y79.710 Z-0.250 F1000.000
G1 X173.352 Y81.710 Z-0.250 F1000.000
G1 X171.937 Y81.710 Z-0.250 F1000.000
G1 X169.937 Y79.710 Z-0.250 F1000.000
G1 X169.180 Y79.710 Z-0.250 F1000.000
G1 X169.180 Y80.367 Z-0.250 F1000.000
G1 X170.523 Y81.710 Z-0.250 F1000.000
G1 X169.180 Y81.710 Z-0.250 F1000.000
G1 X169.180 Y80.367 Z-0.250 F1000.000
G1 X169.180 Y80.367 Z-0.500 F1000.000
G1 X169.180 Y81.710 Z-0.500 F1000.000
G1 X170.523 Y81.710 Z-0.500 F1000.000
G1 X169.180 Y80.367 Z-0.500 F1000.000
G1 X169.180 Y79.710 Z-0.500 F1000.000
G1 X169.937 Y79.710 Z-0.500 F1000.000
G1 X171.937 Y81.710 Z-0.500 F1000.000
G1 X173.352 Y81.710 Z-0.500 F1000.000
G1 X171.352 Y79.710 Z-0.500 F1000.000
G1 X172.766 Y79.710 Z-0.500 F1000.000
G1 X174.180 Y81.124 Z-0.500 F1000.000
G1 X174.180 Y79.710 Z-0.500 F1000.000
G1 X174.180 Y79.710 Z-0.750 F1000.000
G1 X174.180 Y81.124 Z-0.750 F1000.000
G1 X172.766 Y79.710 Z-0.750 F1000.000
G1 X171.352 Y79.710 Z-0.750 F1000.000
G1 X173.352 Y81.710 Z-0.750 F1000.000
G1 X171.937 Y81.710 Z-0.750 F1000.000
G1 X169.937 Y79.710 Z-0.750 F1000.000
G1 X169.180 Y79.710 Z-0.750 F1000.000
G1 X169.180 Y80.367 Z-0.750 F1000.000
G1 X170.523 Y81.710 Z-0.750 F1000.000
G1 X169.180 Y81.710 Z-0.750 F1000.000
G1 X169.180 Y80.367 Z-0.750 F1000.000
G1 X169.180 Y80.367 Z-1.000 F1000.000
G1 X169.180 Y81.710 Z-1.000 F1000.000
G1 X170.523 Y81.710 Z-1.000 F1000.000
G1 X169.180 Y80.367 Z-1.000 F1000.000
G1 X169.180 Y79.710 Z-1.000 F1000.000
G1 X169.937 Y79.710 Z-1.000 F1000.000
G1 X171.937 Y81.710 Z-1.000 F1000.000
G1 X173.352 Y81.710 Z-1.000 F1000.000
G1 X171.352 Y79.710 Z-1.000 F1000.000
G1 X172.766 Y79.710 Z-1.000 F1000.000
G1 X174.180 Y81.124 Z-1.000 F1000.000
G1 X174.180 Y79.710 Z-1.000 F1000.000
G1 X174.180 Y79.710 Z-1.250 F1000.000
G1 X174.180 Y81.124 Z-1.250 F1000.000
G1 X172.766 Y79.710 Z-1.250 F1000.000
G1 X171.352 Y79.710 Z-1.250 F1000.000
G1 X173.352 Y81.710 Z-1.250 F1000.000
G1 X171.937 Y81.710 Z-1.250 F1000.000
G1 X169.937 Y79.710 Z-1.250 F1000.000
G1 X169.180 Y79.710 Z-1.250 F1000.000
G1 X169.180 Y80.367 Z-1.250 F1000.000
G1 X170.523 Y81.710 Z-1.250 F1000.000
G1 X169.180 Y81.710 Z-1.250 F1000.000
G1 X169.180 Y80.367 Z-1.250 F1000.000
G1 X169.180 Y80.367 Z-1.500 F1000.000
G1 X169.180 Y81.710 Z-1.500 F1000.000
G1 X170.523 Y81.710 Z-1.500 F1000.000
G1 X169.180 Y80.367 Z-1.500 F1000.000
G1 X169.180 Y79.710 Z-1.500 F1000.000
G1 X169.937 Y79.710 Z-1.500 F1000.000
G1 X171.937 Y81.710 Z-1.500 F1000.000
G1 X173.352 Y81.710 Z-1.500 F1000.000
G1 X171.352 Y79.710 Z-1.500 F1000.000
G1 X172.766 Y79.710 Z-1.500 F1000.000
G1 X174.180 Y81.124 Z-1.500 F1000.000
G1 X174.180 Y79.710 Z-1.500 F1000.000
G1 X174.180 Y79.710 Z-1.750 F1000.000
G1 X174.180 Y81.124 Z-1.750 F1000.000
G1 X172.766 Y79.710 Z-1.750 F1000.000
G1 X171.352 Y79.710 Z-1.750 F1000.000
G1 X173.352 Y81.710 Z-1.750 F1000.000
G1 X171.937 Y81.710 Z-1.750 F1000.000
G1 X169.937 Y79.710 Z-1.750 F1000.000
G1 X169.180 Y79.710 Z-1.750 F1000.000
G1 X169.180 Y80.367 Z-1.750 F1000.000
G1 X170.523 Y81.710 Z-1.750 F1000.000
G1 X169.180 Y81.710 Z-1.750 F1000.000
G1 X169.180 Y80.367 Z-1.750 F1000.000
G1 X169.180 Y80.367 Z-2.000 F1000.000
G1 X169.180 Y81.710 Z-2.000 F1000.000
G1 X170.523 Y81.710 Z-2.000 F1000.000
G1 X169.180 Y80.367 Z-2.000 F1000.000
G1 X169.180 Y79.710 Z-2.000 F1000.000
G1 X169.937 Y79.710 Z-2.000 F1000.000
G1 X171.937 Y81.710 Z-2.000 F1000.000
G1 X173.352 Y81.710 Z-2.000 F1000.000
G1 X171.352 Y79.710 Z-2.000 F1000.000
G1 X172.766 Y79.710 Z-2.000 F1000.000
G1 X174.180 Y81.124 Z-2.000 F1000.000
G1 X174.180 Y79.710 Z-2.000 F1000.000
G1 X174.180 Y79.710 Z-2.250 F1000.000
G1 X174.180 Y81.124 Z-2.250 F1000.000
G1 X172.766 Y79.710 Z-2.250 F1000.000
G1 X171.352 Y79.710 Z-2.250 F1000.000
G1 X173.352 Y81.710 Z-2.250 F1000.000
G1 X171.937 Y81.710 Z-2.250 F1000.000
G1 X169.937 Y79.710 Z-2.250 F1000.000
G1 X169.180 Y79.710 Z-2.250 F1000.000
G1 X169.180 Y80.367 Z-2.250 F1000.000
G1 X170.523 Y81.710 Z-2.250 F1000.000
G1 X169.180 Y81.710 Z-2.250 F1000.000
G1 X169.180 Y80.367 Z-2.250 F1000.000
G0 Z5.000
G0 Z5.000
(Finish operation: Pocket_Shape007)
(Begin operation: DressupTag011)
(Path: DressupTag011)
G0 Z5.000
G0 X178.875 Y90.431 Z5.000
G0 X178.875 Y90.431 Z3.000
G1 X178.875 Y90.431 Z-1.000 F1000.000
G2 X178.880 Y90.360 Z-1.000 I-0.495 J-0.071 K0.000 F1000.000
G1 X178.880 Y81.824 Z-1.000 F1000.000
G1 X181.380 Y81.824 Z-1.000 F1000.000
G2 X181.880 Y81.324 Z-1.000 I0.000 J-0.500 K0.000 F1000.000
G1 X181.880 Y49.698 Z-1.000 F1000.000
G2 X181.380 Y49.198 Z-1.000 I-0.500 J-0.000 K0.000 F1000.000
G1 X178.880 Y49.198 Z-1.000 F1000.000
G1 X178.880 Y41.162 Z-1.000 F1000.000
G1 X181.380 Y41.162 Z-1.000 F1000.000
G2 X181.880 Y40.662 Z-1.000 I0.000 J-0.500 K0.000 F1000.000
G1 X181.880 Y3.000 Z-1.000 F1000.000
G2 X181.380 Y2.500 Z-1.000 I-0.500 J-0.000 K0.000 F1000.000
G1 X178.880 Y2.500 Z-1.000 F1000.000
G1 X178.880 Y0.000 Z-1.000 F1000.000
G2 X178.380 Y-0.500 Z-1.000 I-0.500 J-0.000 K0.000 F1000.000
G1 X92.190 Y-0.500 Z-1.000 F1000.000
G2 X91.690 Y0.000 Z-1.000 I-0.000 J0.500 K0.000 F1000.000
G1 X91.690 Y2.500 Z-1.000 F1000.000
G1 X89.690 Y2.500 Z-1.000 F1000.000
G1 X89.690 Y0.000 Z-1.000 F1000.000
G2 X89.190 Y-0.500 Z-1.000 I-0.500 J-0.000 K0.000 F1000.000
G1 X3.000 Y-0.500 Z-1.000 F1000.000
G2 X2.500 Y0.000 Z-1.000 I-0.000 J0.500 K0.000 F1000.000
G1 X2.500 Y2.500 Z-1.000 F1000.000
G1 X0.000 Y2.500 Z-1.000 F1000.000
G2 X-0.500 Y3.000 Z-1.000 I-0.000 J0.500 K0.000 F1000.000
G1 X-0.500 Y40.662 Z-1.000 F1000.000
G2 X0.000 Y41.162 Z-1.000 I0.500 J0.000 K0.000 F1000.000
G1 X2.500 Y41.162 Z-1.000 F1000.000
G1 X2.500 Y49.198 Z-1.000 F1000.000
G1 X0.000 Y49.198 Z-1.000 F1000.000
G2 X-0.500 Y49.698 Z-1.000 I-0.000 J0.500 K0.000 F1000.000
G1 X-0.500 Y81.324 Z-1.000 F1000.000
G2 X0.000 Y81.824 Z-1.000 I0.500 J0.000 K0.000 F1000.000
G1 X2.500 Y81.824 Z-1.000 F1000.000
G1 X2.500 Y90.360 Z-1.000 F1000.000
G2 X3.000 Y90.860 Z-1.000 I0.500 J0.000 K0.000 F1000.000
G1 X14.800 Y90.860 Z-1.000 F1000.000
G2 X15.300 Y90.360 Z-1.000 I0.000 J-0.500 K0.000 F1000.000
G1 X15.300 Y83.460 Z-1.000 F1000.000
G1 X45.790 Y83.460 Z-1.000 F1000.000
G1 X45.790 Y90.360 Z-1.000 F1000.000
G2 X46.290 Y90.860 Z-1.000 I0.500 J0.000 K0.000 F1000.000
G1 X135.090 Y90.860 Z-1.000 F1000.000
G2 X135.590 Y90.360 Z-1.000 I0.000 J-0.500 K0.000 F1000.000
G1 X135.590 Y83.460 Z-1.000 F1000.000
G1 X166.080 Y83.460 Z-1.000 F1000.000
G1 X166.080 Y90.360 Z-1.000 F1000.000
G2 X166.580 Y90.860 Z-1.000 I0.500 J0.000 K0.000 F1000.000
G1 X178.380 Y90.860 Z-1.000 F1000.000
G2 X178.875 Y90.431 Z-1.000 I0.000 J-0.500 K0.000 F1000.000
G1 X178.875 Y90.431 Z-2.000 F1000.000
G2 X178.880 Y90.360 Z-2.000 I-0.495 J-0.071 K0.000 F1000.000
G1 X178.880 Y81.824 Z-2.000 F1000.000
G1 X181.380 Y81.824 Z-2.000 F1000.000
G2 X181.880 Y81.324 Z-2.000 I0.000 J-0.500 K0.000 F1000.000
G1 X181.880 Y49.698 Z-2.000 F1000.000
G2 X181.380 Y49.198 Z-2.000 I-0.500 J-0.000 K0.000 F1000.000
G1 X178.880 Y49.198 Z-2.000 F1000.000
G1 X178.880 Y41.162 Z-2.000 F1000.000
G1 X181.380 Y41.162 Z-2.000 F1000.000
G2 X181.880 Y40.662 Z-2.000 I0.000 J-0.500 K0.000 F1000.000
G1 X181.880 Y25.756 Z-2.000 F1000.000
G1 X181.880 Y25.256 Z-1.500 F1000.000
G1 X181.880 Y18.406 Z-1.500 F1000.000
G1 X181.880 Y17.906 Z-2.000 F1000.000
G1 X181.880 Y3.000 Z-2.000 F1000.000
G2 X181.380 Y2.500 Z-2.000 I-0.500 J-0.000 K0.000 F1000.000
G1 X178.880 Y2.500 Z-2.000 F1000.000
G1 X178.880 Y0.000 Z-2.000 F1000.000
G2 X178.380 Y-0.500 Z-2.000 I-0.500 J-0.000 K0.000 F1000.000
G1 X92.190 Y-0.500 Z-2.000 F1000.000
G2 X91.690 Y0.000 Z-2.000 I-0.000 J0.500 K0.000 F1000.000
G1 X91.690 Y2.500 Z-2.000 F1000.000
G1 X89.690 Y2.500 Z-2.000 F1000.000
G1 X89.690 Y0.000 Z-2.000 F1000.000
G2 X89.190 Y-0.500 Z-2.000 I-0.500 J-0.000 K0.000 F1000.000
G1 X50.020 Y-0.500 Z-2.000 F1000.000
G1 X49.520 Y-0.500 Z-1.500 F1000.000
G1 X42.670 Y-0.500 Z-1.500 F1000.000
G1 X42.170 Y-0.500 Z-2.000 F1000.000
G1 X3.000 Y-0.500 Z-2.000 F1000.000
G2 X2.500 Y0.000 Z-2.000 I-0.000 J0.500 K0.000 F1000.000
G1 X2.500 Y2.500 Z-2.000 F1000.000
G1 X0.000 Y2.500 Z-2.000 F1000.000
G2 X-0.500 Y3.000 Z-2.000 I-0.000 J0.500 K0.000 F1000.000
G1 X-0.500 Y40.662 Z-2.000 F1000.000
G2 X0.000 Y41.162 Z-2.000 I0.500 J0.000 K0.000 F1000.000
G1 X2.500 Y41.162 Z-2.000 F1000.000
G1 X2.500 Y49.198 Z-2.000 F1000.000
G1 X0.000 Y49.198 Z-2.000 F1000.000
G2 X-0.500 Y49.698 Z-2.000 I-0.000 J0.500 K0.000 F1000.000
G1 X-0.500 Y61.586 Z-2.000 F1000.000
G1 X-0.500 Y62.086 Z-1.500 F1000.000
G1 X-0.500 Y68.936 Z-1.500 F1000.000
G1 X-0.500 Y69.436 Z-2.000 F1000.000
G1 X-0.500 Y81.324 Z-2.000 F1000.000
G2 X0.000 Y81.824 Z-2.000 I0.500 J0.000 K0.000 F1000.000
G1 X2.500 Y81.824 Z-2.000 F1000.000
G1 X2.500 Y90.360 Z-2.000 F1000.000
G2 X3.000 Y90.860 Z-2.000 I0.500 J0.000 K0.000 F1000.000
G1 X14.800 Y90.860 Z-2.000 F1000.000
G2 X15.300 Y90.360 Z-2.000 I0.000 J-0.500 K0.000 F1000.000
G1 X15.300 Y83.460 Z-2.000 F1000.000
G1 X45.790 Y83.460 Z-2.000 F1000.000
G1 X45.790 Y90.360 Z-2.000 F1000.000
G2 X46.290 Y90.860 Z-2.000 I0.500 J0.000 K0.000 F1000.000
G1 X86.765 Y90.860 Z-2.000 F1000.000
G1 X87.265 Y90.860 Z-1.500 F1000.000
G1 X94.115 Y90.860 Z-1.500 F1000.000
G1 X94.615 Y90.860 Z-2.000 F1000.000
G1 X135.090 Y90.860 Z-2.000 F1000.000
G2 X135.590 Y90.360 Z-2.000 I0.000 J-0.500 K0.000 F1000.000
G1 X135.590 Y83.460 Z-2.000 F1000.000
G1 X166.080 Y83.460 Z-2.000 F1000.000
G1 X166.080 Y90.360 Z-2.000 F1000.000
G2 X166.580 Y90.860 Z-2.000 I0.500 J0.000 K0.000 F1000.000
G1 X178.380 Y90.860 Z-2.000 F1000.000
G2 X178.875 Y90.431 Z-2.000 I0.000 J-0.500 K0.000 F1000.000
G1 X178.875 Y90.431 Z-3.000 F1000.000
G2 X178.880 Y90.360 Z-3.000 I-0.495 J-0.071 K0.000 F1000.000
G1 X178.880 Y81.824 Z-3.000 F1000.000
G1 X181.380 Y81.824 Z-3.000 F1000.000
G2 X181.880 Y81.324 Z-3.000 I0.000 J-0.500 K0.000 F1000.000
G1 X181.880 Y49.698 Z-3.000 F1000.000
G2 X181.380 Y49.198 Z-3.000 I-0.500 J-0.000 K0.000 F1000.000
G1 X178.880 Y49.198 Z-3.000 F1000.000
G1 X178.880 Y41.162 Z-3.000 F1000.000
G1 X181.380 Y41.162 Z-3.000 F1000.000
G2 X181.880 Y40.662 Z-3.000 I0.000 J-0.500 K0.000 F1000.000
G1 X181.880 Y26.756 Z-3.000 F1000.000
G1 X181.880 Y25.256 Z-1.500 F1000.000
G1 X181.880 Y18.406 Z-1.500 F1000.000
G1 X181.880 Y16.906 Z-3.000 F1000.000
G1 X181.880 Y3.000 Z-3.000 F1000.000
G2 X181.380 Y2.500 Z-3.000 I-0.500 J-0.000 K0.000 F1000.000
G1 X178.880 Y2.500 Z-3.000 F1000.000
G1 X178.880 Y0.000 Z-3.000 F1000.000
G2 X178.380 Y-0.500 Z-3.000 I-0.500 J-0.000 K0.000 F1000.000
G1 X92.190 Y-0.500 Z-3.000 F1000.000
G2 X91.690 Y0.000 Z-3.000 I-0.000 J0.500 K0.000 F1000.000
G1 X91.690 Y2.500 Z-3.000 F1000.000
G1 X89.690 Y2.500 Z-3.000 F1000.000
G1 X89.690 Y0.000 Z-3.000 F1000.000
G2 X89.190 Y-0.500 Z-3.000 I-0.500 J-0.000 K0.000 F1000.000
G1 X51.020 Y-0.500 Z-3.000 F1000.000
G1 X49.520 Y-0.500 Z-1.500 F1000.000
G1 X42.670 Y-0.500 Z-1.500 F1000.000
G1 X41.170 Y-0.500 Z-3.000 F1000.000
G1 X3.000 Y-0.500 Z-3.000 F1000.000
G2 X2.500 Y0.000 Z-3.000 I-0.000 J0.500 K0.000 F1000.000
G1 X2.500 Y2.500 Z-3.000 F1000.000
G1 X0.000 Y2.500 Z-3.000 F1000.000
G2 X-0.500 Y3.000 Z-3.000 I-0.000 J0.500 K0.000 F1000.000
G1 X-0.500 Y40.662 Z-3.000 F1000.000
G2 X0.000 Y41.162 Z-3.000 I0.500 J0.000 K0.000 F1000.000
G1 X2.500 Y41.162 Z-3.000 F1000.000
G1 X2.500 Y49.198 Z-3.000 F1000.000
G1 X0.000 Y49.198 Z-3.000 F1000.000
G2 X-0.500 Y49.698 Z-3.000 I-0.000 J0.500 K0.000 F1000.000
G1 X-0.500 Y60.586 Z-3.000 F1000.000
G1 X-0.500 Y62.086 Z-1.500 F1000.000
G1 X-0.500 Y68.936 Z-1.500 F1000.000
G1 X-0.500 Y70.436 Z-3.000 F1000.000
G1 X-0.500 Y81.324 Z-3.000 F1000.000
G2 X0.000 Y81.824 Z-3.000 I0.500 J0.000 K0.000 F1000.000
G1 X2.500 Y81.824 Z-3.000 F1000.000
G1 X2.500 Y90.360 Z-3.000 F1000.000
G2 X3.000 Y90.860 Z-3.000 I0.500 J0.000 K0.000 F1000.000
G1 X14.800 Y90.860 Z-3.000 F1000.000
G2 X15.300 Y90.360 Z-3.000 I0.000 J-0.500 K0.000 F1000.000
G1 X15.300 Y83.460 Z-3.000 F1000.000
G1 X45.790 Y83.460 Z-3.000 F1000.000
G1 X45.790 Y90.360 Z-3.000 F1000.000
G2 X46.290 Y90.860 Z-3.000 I0.500 J0.000 K0.000 F1000.000
G1 X85.765 Y90.860 Z-3.000 F1000.000
G1 X87.265 Y90.860 Z-1.500 F1000.000
G1 X94.115 Y90.860 Z-1.500 F1000.000
G1 X95.615 Y90.860 Z-3.000 F1000.000
G1 X135.090 Y90.860 Z-3.000 F1000.000
G2 X135.590 Y90.360 Z-3.000 I0.000 J-0.500 K0.000 F1000.000
G1 X135.590 Y83.460 Z-3.000 F1000.000
G1 X166.080 Y83.460 Z-3.000 F1000.000
G1 X166.080 Y90.360 Z-3.000 F1000.000
G2 X166.580 Y90.860 Z-3.000 I0.500 J0.000 K0.000 F1000.000
G1 X178.380 Y90.860 Z-3.000 F1000.000
G2 X178.875 Y90.431 Z-3.000 I0.000 J-0.500 K0.000 F1000.000
G0 X178.875 Y90.431 Z5.000
(Finish operation: DressupTag011)
(Begin operation: 6mm_endmill012)
(Path: 6mm_endmill012)
(6mm_endmill012)
(Begin toolchange)
( M6 T3 )
M3 S10000
(Finish operation: 6mm_endmill012)
(Begin operation: DressupTag010)
(Path: DressupTag010)
G0 Z5.000
G0 X181.063 Y91.702 Z5.000
G0 X181.063 Y91.702 Z3.000
G1 X181.063 Y91.702 Z-1.000 F1000.000
G2 X181.380 Y90.360 Z-1.000 I-2.683 J-1.342 K0.000 F1000.000
G1 X181.380 Y84.324 Z-1.000 F1000.000
G2 X184.380 Y81.324 Z-1.000 I-0.000 J-3.000 K0.000 F1000.000
G1 X184.380 Y49.698 Z-1.000 F1000.000
G2 X181.380 Y46.698 Z-1.000 I-3.000 J0.000 K0.000 F1000.000
G1 X181.380 Y43.662 Z-1.000 F1000.000
G2 X184.380 Y40.662 Z-1.000 I0.000 J-3.000 K0.000 F1000.000
G1 X184.380 Y3.000 Z-1.000 F1000.000
G2 X181.380 Y0.000 Z-1.000 I-3.000 J0.000 K0.000 F1000.000
G2 X178.380 Y-3.000 Z-1.000 I-3.000 J0.000 K0.000 F1000.000
G1 X92.190 Y-3.000 Z-1.000 F1000.000
G2 X90.692 Y-2.588 Z-1.000 I-0.021 J2.854 K0.000 F1000.000
G2 X89.190 Y-3.000 Z-1.000 I-1.480 J2.453 K0.000 F1000.000
G1 X3.000 Y-3.000 Z-1.000 F1000.000
G2 X0.000 Y0.000 Z-1.000 I0.000 J3.000 K0.000 F1000.000
G2 X-3.000 Y3.000 Z-1.000 I0.000 J3.000 K0.000 F1000.000
G1 X-3.000 Y40.662 Z-1.000 F1000.000
G2 X0.000 Y43.662 Z-1.000 I3.000 J-0.000 K0.000 F1000.000
G1 X0.000 Y46.698 Z-1.000 F1000.000
G2 X-3.000 Y49.698 Z-1.000 I0.000 J3.000 K0.000 F1000.000
G1 X-3.000 Y81.324 Z-1.000 F1000.000
G2 X0.000 Y84.324 Z-1.000 I3.000 J-0.000 K0.000 F1000.000
G1 X0.000 Y90.360 Z-1.000 F1000.000
G2 X3.000 Y93.360 Z-1.000 I3.000 J-0.000 K0.000 F1000.000
G1 X14.800 Y93.360 Z-1.000 F1000.000
G2 X17.800 Y90.360 Z-1.000 I-0.000 J-3.000 K0.000 F1000.000
G1 X17.800 Y85.960 Z-1.000 F1000.000
G1 X43.290 Y85.960 Z-1.000 F1000.000
G1 X43.290 Y90.360 Z-1.000 F1000.000
G2 X46.290 Y93.360 Z-1.000 I3.000 J-0.000 K0.000 F1000.000
G1 X135.090 Y93.360 Z-1.000 F1000.000
G2 X138.090 Y90.360 Z-1.000 I-0.000 J-3.000 K0.000 F1000.000
G1 X138.090 Y85.960 Z-1.000 F1000.000
G1 X163.580 Y85.960 Z-1.000 F1000.000
G1 X163.580 Y90.360 Z-1.000 F1000.000
G2 X166.580 Y93.360 Z-1.000 I3.000 J-0.000 K0.000 F1000.000
G1 X178.380 Y93.360 Z-1.000 F1000.000
G2 X181.063 Y91.702 Z-1.000 I-0.000 J-3.000 K0.000 F1000.000
G1 X181.063 Y91.702 Z-2.000 F1000.000
G2 X181.380 Y90.360 Z-2.000 I-2.683 J-1.342 K0.000 F1000.000
G1 X181.380 Y84.324 Z-2.000 F1000.000
G2 X184.380 Y81.324 Z-2.000 I-0.000 J-3.000 K0.000 F1000.000
G1 X184.380 Y49.698 Z-2.000 F1000.000
G2 X181.380 Y46.698 Z-2.000 I-3.000 J0.000 K0.000 F1000.000
G1 X181.380 Y43.662 Z-2.000 F1000.000
G2 X184.380 Y40.662 Z-2.000 I0.000 J-3.000 K0.000 F1000.000
G1 X184.380 Y28.256 Z-2.000 F1000.000
G1 X184.380 Y27.756 Z-1.500 F1000.000
G1 X184.380 Y15.906 Z-1.500 F1000.000
G1 X184.380 Y15.406 Z-2.000 F1000.000
G1 X184.380 Y3.000 Z-2.000 F1000.000
G2 X181.380 Y0.000 Z-2.000 I-3.000 J0.000 K0.000 F1000.000
G2 X178.380 Y-3.000 Z-2.000 I-3.000 J0.000 K0.000 F1000.000
G1 X92.190 Y-3.000 Z-2.000 F1000.000
G2 X90.692 Y-2.588 Z-2.000 I-0.021 J2.854 K0.000 F1000.000
G2 X89.190 Y-3.000 Z-2.000 I-1.480 J2.453 K0.000 F1000.000
G1 X52.520 Y-3.000 Z-2.000 F1000.000
G1 X52.020 Y-3.000 Z-1.500 F1000.000
G1 X40.170 Y-3.000 Z-1.500 F1000.000
G1 X39.670 Y-3.000 Z-2.000 F1000.000
G1 X3.000 Y-3.000 Z-2.000 F1000.000
G2 X0.000 Y0.000 Z-2.000 I0.000 J3.000 K0.000 F1000.000
G2 X-3.000 Y3.000 Z-2.000 I0.000 J3.000 K0.000 F1000.000
G1 X-3.000 Y40.662 Z-2.000 F1000.000
G2 X0.000 Y43.662 Z-2.000 I3.000 J-0.000 K0.000 F1000.000
G1 X0.000 Y46.698 Z-2.000 F1000.000
G2 X-3.000 Y49.698 Z-2.000 I0.000 J3.000 K0.000 F1000.000
G1 X-3.000 Y59.086 Z-2.000 F1000.000
G1 X-3.000 Y59.586 Z-1.500 F1000.000
G1 X-3.000 Y71.436 Z-1.500 F1000.000
G1 X-3.000 Y71.936 Z-2.000 F1000.000
G1 X-3.000 Y81.324 Z-2.000 F1000.000
G2 X0.000 Y84.324 Z-2.000 I3.000 J-0.000 K0.000 F1000.000
G1 X0.000 Y90.360 Z-2.000 F1000.000
G2 X3.000 Y93.360 Z-2.000 I3.000 J-0.000 K0.000 F1000.000
G1 X14.800 Y93.360 Z-2.000 F1000.000
G2 X17.800 Y90.360 Z-2.000 I-0.000 J-3.000 K0.000 F1000.000
G1 X17.800 Y85.960 Z-2.000 F1000.000
G1 X43.290 Y85.960 Z-2.000 F1000.000
G1 X43.290 Y90.360 Z-2.000 F1000.000
G2 X46.290 Y93.360 Z-2.000 I3.000 J-0.000 K0.000 F1000.000
G1 X84.265 Y93.360 Z-2.000 F1000.000
G1 X84.765 Y93.360 Z-1.500 F1000.000
G1 X96.615 Y93.360 Z-1.500 F1000.000
G1 X97.115 Y93.360 Z-2.000 F1000.000
G1 X135.090 Y93.360 Z-2.000 F1000.000
G2 X138.090 Y90.360 Z-2.000 I-0.000 J-3.000 K0.000 F1000.000
G1 X138.090 Y85.960 Z-2.000 F1000.000
G1 X163.580 Y85.960 Z-2.000 F1000.000
G1 X163.580 Y90.360 Z-2.000 F1000.000
G2 X166.580 Y93.360 Z-2.000 I3.000 J-0.000 K0.000 F1000.000
G1 X178.380 Y93.360 Z-2.000 F1000.000
G2 X181.063 Y91.702 Z-2.000 I-0.000 J-3.000 K0.000 F1000.000
G1 X181.063 Y91.702 Z-3.000 F1000.000
G2 X181.380 Y90.360 Z-3.000 I-2.683 J-1.342 K0.000 F1000.000
G1 X181.380 Y84.324 Z-3.000 F1000.000
G2 X184.380 Y81.324 Z-3.000 I-0.000 J-3.000 K0.000 F1000.000
G1 X184.380 Y49.698 Z-3.000 F1000.000
G2 X181.380 Y46.698 Z-3.000 I-3.000 J0.000 K0.000 F1000.000
G1 X181.380 Y43.662 Z-3.000 F1000.000
G2 X184.380 Y40.662 Z-3.000 I0.000 J-3.000 K0.000 F1000.000
G1 X184.380 Y29.256 Z-3.000 F1000.000
G1 X184.380 Y27.756 Z-1.500 F1000.000
G1 X184.380 Y15.906 Z-1.500 F1000.000
G1 X184.380 Y14.406 Z-3.000 F1000.000
G1 X184.380 Y3.000 Z-3.000 F1000.000
G2 X181.380 Y0.000 Z-3.000 I-3.000 J0.000 K0.000 F1000.000
G2 X178.380 Y-3.000 Z-3.000 I-3.000 J0.000 K0.000 F1000.000
G1 X92.190 Y-3.000 Z-3.000 F1000.000
G2 X90.692 Y-2.588 Z-3.000 I-0.021 J2.854 K0.000 F1000.000
G2 X89.190 Y-3.000 Z-3.000 I-1.480 J2.453 K0.000 F1000.000
G1 X53.520 Y-3.000 Z-3.000 F1000.000
G1 X52.020 Y-3.000 Z-1.500 F1000.000
G1 X40.170 Y-3.000 Z-1.500 F1000.000
G1 X38.670 Y-3.000 Z-3.000 F1000.000
G1 X3.000 Y-3.000 Z-3.000 F1000.000
G2 X0.000 Y0.000 Z-3.000 I0.000 J3.000 K0.000 F1000.000
G2 X-3.000 Y3.000 Z-3.000 I0.000 J3.000 K0.000 F1000.000
G1 X-3.000 Y40.662 Z-3.000 F1000.000
G2 X0.000 Y43.662 Z-3.000 I3.000 J-0.000 K0.000 F1000.000
G1 X0.000 Y46.698 Z-3.000 F1000.000
G2 X-3.000 Y49.698 Z-3.000 I0.000 J3.000 K0.000 F1000.000
G1 X-3.000 Y58.086 Z-3.000 F1000.000
G1 X-3.000 Y59.586 Z-1.500 F1000.000
G1 X-3.000 Y71.436 Z-1.500 F1000.000
G1 X-3.000 Y72.936 Z-3.000 F1000.000
G1 X-3.000 Y81.324 Z-3.000 F1000.000
G2 X0.000 Y84.324 Z-3.000 I3.000 J-0.000 K0.000 F1000.000
G1 X0.000 Y90.360 Z-3.000 F1000.000
G2 X3.000 Y93.360 Z-3.000 I3.000 J-0.000 K0.000 F1000.000
G1 X14.800 Y93.360 Z-3.000 F1000.000
G2 X17.800 Y90.360 Z-3.000 I-0.000 J-3.000 K0.000 F1000.000
G1 X17.800 Y85.960 Z-3.000 F1000.000
G1 X43.290 Y85.960 Z-3.000 F1000.000
G1 X43.290 Y90.360 Z-3.000 F1000.000
G2 X46.290 Y93.360 Z-3.000 I3.000 J-0.000 K0.000 F1000.000
G1 X83.265 Y93.360 Z-3.000 F1000.000
G1 X84.765 Y93.360 Z-1.500 F1000.000
G1 X96.615 Y93.360 Z-1.500 F1000.000
G1 X98.115 Y93.360 Z-3.000 F1000.000
G1 X135.090 Y93.360 Z-3.000 F1000.000
G2 X138.090 Y90.360 Z-3.000 I-0.000 J-3.000 K0.000 F1000.000
G1 X138.090 Y85.960 Z-3.000 F1000.000
G1 X163.580 Y85.960 Z-3.000 F1000.000
G1 X163.580 Y90.360 Z-3.000 F1000.000
G2 X166.580 Y93.360 Z-3.000 I3.000 J-0.000 K0.000 F1000.000
G1 X178.380 Y93.360 Z-3.000 F1000.000
G2 X181.063 Y91.702 Z-3.000 I-0.000 J-3.000 K0.000 F1000.000
G0 X181.063 Y91.702 Z5.000
(Finish operation: DressupTag010)
(Begin postamble)
M5
G17 G90
M2
