(Exported by FreeCAD)
(Post Processor: grbl_post)
(Output Time:2024-06-26 11:17:27.703545)
(Begin preamble)
G17 G90
G21
(Begin operation: Fixture)
(Path: Fixture)
G54
(Finish operation: Fixture)
(Begin operation: 6mm_endmill003)
(Path: 6mm_endmill003)
(6mm_endmill003)
(Begin toolchange)
( M6 T2 )
M3 S10000
(Finish operation: 6mm_endmill003)
(Begin operation: Profile001)
(Path: Profile001)
(Profile001)
(Compensated Tool Path. Diameter: 6.0)
G0 Z5.000
G0 X160.151 Y89.481
G0 Z3.000
G1 X160.151 Y89.481 Z-1.000 F1000.000
G2 X161.030 Y87.360 Z-1.000 I-2.121 J-2.121 K0.000 F1000.000
G1 X161.030 Y52.698 Z-1.000 F1000.000
G2 X164.030 Y49.698 Z-1.000 I0.000 J-3.000 K0.000 F1000.000
G1 X164.030 Y40.662 Z-1.000 F1000.000
G2 X161.030 Y37.662 Z-1.000 I-3.000 J0.000 K0.000 F1000.000
G1 X161.030 Y12.036 Z-1.000 F1000.000
G2 X164.030 Y9.036 Z-1.000 I0.000 J-3.000 K0.000 F1000.000
G1 X164.030 Y0.000 Z-1.000 F1000.000
G2 X161.030 Y-3.000 Z-1.000 I-3.000 J0.000 K0.000 F1000.000
G1 X149.030 Y-3.000 Z-1.000 F1000.000
G2 X146.030 Y0.000 Z-1.000 I0.000 J3.000 K0.000 F1000.000
G1 X146.030 Y4.400 Z-1.000 F1000.000
G1 X95.515 Y4.400 Z-1.000 F1000.000
G1 X95.515 Y0.000 Z-1.000 F1000.000
G2 X92.515 Y-3.000 Z-1.000 I-3.000 J0.000 K0.000 F1000.000
G1 X68.515 Y-3.000 Z-1.000 F1000.000
G2 X65.515 Y0.000 Z-1.000 I0.000 J3.000 K0.000 F1000.000
G1 X65.515 Y4.400 Z-1.000 F1000.000
G1 X15.000 Y4.400 Z-1.000 F1000.000
G1 X15.000 Y0.000 Z-1.000 F1000.000
G2 X12.000 Y-3.000 Z-1.000 I-3.000 J0.000 K0.000 F1000.000
G1 X0.000 Y-3.000 Z-1.000 F1000.000
G2 X-3.000 Y0.000 Z-1.000 I0.000 J3.000 K0.000 F1000.000
G1 X-3.000 Y9.036 Z-1.000 F1000.000
G2 X0.000 Y12.036 Z-1.000 I3.000 J0.000 K0.000 F1000.000
G1 X0.000 Y37.662 Z-1.000 F1000.000
G2 X-3.000 Y40.662 Z-1.000 I0.000 J3.000 K0.000 F1000.000
G1 X-3.000 Y49.698 Z-1.000 F1000.000
G2 X0.000 Y52.698 Z-1.000 I3.000 J0.000 K0.000 F1000.000
G1 X0.000 Y87.360 Z-1.000 F1000.000
G2 X3.000 Y90.360 Z-1.000 I3.000 J0.000 K0.000 F1000.000
G1 X71.515 Y90.360 Z-1.000 F1000.000
G2 X74.515 Y93.360 Z-1.000 I3.000 J0.000 K0.000 F1000.000
G1 X86.515 Y93.360 Z-1.000 F1000.000
G2 X89.515 Y90.360 Z-1.000 I0.000 J-3.000 K0.000 F1000.000
G1 X158.030 Y90.360 Z-1.000 F1000.000
G2 X160.151 Y89.481 Z-1.000 I0.000 J-3.000 K0.000 F1000.000
G1 X160.151 Y89.481 Z-2.000 F1000.000
G2 X161.030 Y87.360 Z-2.000 I-2.121 J-2.121 K0.000 F1000.000
G1 X161.030 Y52.698 Z-2.000 F1000.000
G2 X164.030 Y49.698 Z-2.000 I0.000 J-3.000 K0.000 F1000.000
G1 X164.030 Y40.662 Z-2.000 F1000.000
G2 X161.030 Y37.662 Z-2.000 I-3.000 J0.000 K0.000 F1000.000
G1 X161.030 Y12.036 Z-2.000 F1000.000
G2 X164.030 Y9.036 Z-2.000 I0.000 J-3.000 K0.000 F1000.000
G1 X164.030 Y0.000 Z-2.000 F1000.000
G2 X161.030 Y-3.000 Z-2.000 I-3.000 J0.000 K0.000 F1000.000
G1 X149.030 Y-3.000 Z-2.000 F1000.000
G2 X146.030 Y0.000 Z-2.000 I0.000 J3.000 K0.000 F1000.000
G1 X146.030 Y4.400 Z-2.000 F1000.000
G1 X95.515 Y4.400 Z-2.000 F1000.000
G1 X95.515 Y0.000 Z-2.000 F1000.000
G2 X92.515 Y-3.000 Z-2.000 I-3.000 J0.000 K0.000 F1000.000
G1 X68.515 Y-3.000 Z-2.000 F1000.000
G2 X65.515 Y0.000 Z-2.000 I0.000 J3.000 K0.000 F1000.000
G1 X65.515 Y4.400 Z-2.000 F1000.000
G1 X15.000 Y4.400 Z-2.000 F1000.000
G1 X15.000 Y0.000 Z-2.000 F1000.000
G2 X12.000 Y-3.000 Z-2.000 I-3.000 J0.000 K0.000 F1000.000
G1 X0.000 Y-3.000 Z-2.000 F1000.000
G2 X-3.000 Y0.000 Z-2.000 I0.000 J3.000 K0.000 F1000.000
G1 X-3.000 Y9.036 Z-2.000 F1000.000
G2 X0.000 Y12.036 Z-2.000 I3.000 J0.000 K0.000 F1000.000
G1 X0.000 Y37.662 Z-2.000 F1000.000
G2 X-3.000 Y40.662 Z-2.000 I0.000 J3.000 K0.000 F1000.000
G1 X-3.000 Y49.698 Z-2.000 F1000.000
G2 X0.000 Y52.698 Z-2.000 I3.000 J0.000 K0.000 F1000.000
G1 X0.000 Y87.360 Z-2.000 F1000.000
G2 X3.000 Y90.360 Z-2.000 I3.000 J0.000 K0.000 F1000.000
G1 X71.515 Y90.360 Z-2.000 F1000.000
G2 X74.515 Y93.360 Z-2.000 I3.000 J0.000 K0.000 F1000.000
G1 X86.515 Y93.360 Z-2.000 F1000.000
G2 X89.515 Y90.360 Z-2.000 I0.000 J-3.000 K0.000 F1000.000
G1 X158.030 Y90.360 Z-2.000 F1000.000
G2 X160.151 Y89.481 Z-2.000 I0.000 J-3.000 K0.000 F1000.000
G1 X160.151 Y89.481 Z-3.000 F1000.000
G2 X161.030 Y87.360 Z-3.000 I-2.121 J-2.121 K0.000 F1000.000
G1 X161.030 Y52.698 Z-3.000 F1000.000
G2 X164.030 Y49.698 Z-3.000 I0.000 J-3.000 K0.000 F1000.000
G1 X164.030 Y40.662 Z-3.000 F1000.000
G2 X161.030 Y37.662 Z-3.000 I-3.000 J0.000 K0.000 F1000.000
G1 X161.030 Y12.036 Z-3.000 F1000.000
G2 X164.030 Y9.036 Z-3.000 I0.000 J-3.000 K0.000 F1000.000
G1 X164.030 Y0.000 Z-3.000 F1000.000
G2 X161.030 Y-3.000 Z-3.000 I-3.000 J0.000 K0.000 F1000.000
G1 X149.030 Y-3.000 Z-3.000 F1000.000
G2 X146.030 Y0.000 Z-3.000 I0.000 J3.000 K0.000 F1000.000
G1 X146.030 Y4.400 Z-3.000 F1000.000
G1 X95.515 Y4.400 Z-3.000 F1000.000
G1 X95.515 Y0.000 Z-3.000 F1000.000
G2 X92.515 Y-3.000 Z-3.000 I-3.000 J0.000 K0.000 F1000.000
G1 X68.515 Y-3.000 Z-3.000 F1000.000
G2 X65.515 Y0.000 Z-3.000 I0.000 J3.000 K0.000 F1000.000
G1 X65.515 Y4.400 Z-3.000 F1000.000
G1 X15.000 Y4.400 Z-3.000 F1000.000
G1 X15.000 Y0.000 Z-3.000 F1000.000
G2 X12.000 Y-3.000 Z-3.000 I-3.000 J0.000 K0.000 F1000.000
G1 X0.000 Y-3.000 Z-3.000 F1000.000
G2 X-3.000 Y0.000 Z-3.000 I0.000 J3.000 K0.000 F1000.000
G1 X-3.000 Y9.036 Z-3.000 F1000.000
G2 X0.000 Y12.036 Z-3.000 I3.000 J0.000 K0.000 F1000.000
G1 X0.000 Y37.662 Z-3.000 F1000.000
G2 X-3.000 Y40.662 Z-3.000 I0.000 J3.000 K0.000 F1000.000
G1 X-3.000 Y49.698 Z-3.000 F1000.000
G2 X0.000 Y52.698 Z-3.000 I3.000 J0.000 K0.000 F1000.000
G1 X0.000 Y87.360 Z-3.000 F1000.000
G2 X3.000 Y90.360 Z-3.000 I3.000 J0.000 K0.000 F1000.000
G1 X71.515 Y90.360 Z-3.000 F1000.000
G2 X74.515 Y93.360 Z-3.000 I3.000 J0.000 K0.000 F1000.000
G1 X86.515 Y93.360 Z-3.000 F1000.000
G2 X89.515 Y90.360 Z-3.000 I0.000 J-3.000 K0.000 F1000.000
G1 X158.030 Y90.360 Z-3.000 F1000.000
G2 X160.151 Y89.481 Z-3.000 I0.000 J-3.000 K0.000 F1000.000
G0 Z5.000
G0 Z5.000
(Finish operation: Profile001)
(Begin operation: Profile002)
(Path: Profile002)
(Profile002)
(Compensated Tool Path. Diameter: 6.0)
G0 Z5.000
G0 X114.167 Y72.560
G0 Z3.000
G1 X114.167 Y72.560 Z-1.000 F1000.000
G1 X114.167 Y42.660 Z-1.000 F1000.000
G1 X46.863 Y42.660 Z-1.000 F1000.000
G1 X46.863 Y72.560 Z-1.000 F1000.000
G1 X114.167 Y72.560 Z-1.000 F1000.000
G1 X114.167 Y72.560 Z-2.000 F1000.000
G1 X114.167 Y42.660 Z-2.000 F1000.000
G1 X46.863 Y42.660 Z-2.000 F1000.000
G1 X46.863 Y72.560 Z-2.000 F1000.000
G1 X114.167 Y72.560 Z-2.000 F1000.000
G1 X114.167 Y72.560 Z-3.000 F1000.000
G1 X114.167 Y42.660 Z-3.000 F1000.000
G1 X46.863 Y42.660 Z-3.000 F1000.000
G1 X46.863 Y72.560 Z-3.000 F1000.000
G1 X114.167 Y72.560 Z-3.000 F1000.000
G0 Z5.000
G0 Z5.000
(Finish operation: Profile002)
(Begin operation: Pocket_Shape001)
(Path: Pocket_Shape001)
(Pocket_Shape001)
G0 Z5.000
(Finish operation: Pocket_Shape001)
(Begin postamble)
M5
G17 G90
M2
