(Exported by FreeCAD)
(Post Processor: grbl_post)
(Output Time:2024-11-20 16:19:52.939192)
(Begin preamble)
G17 G90
G21
(Begin operation: Fixture)
(Path: Fixture)
G54
(Finish operation: Fixture)
(Begin operation: surfacing003)
(Path: surfacing003)
(surfacing003)
(Begin toolchange)
( M6 T2 )
M3 S10000
(Finish operation: surfacing003)
(Begin operation: RampEntryDressup)
(Path: RampEntryDressup)
G0 X0.000 Y0.000 Z5.000
G0 X747.300 Y12.700 Z5.000
G0 X747.300 Y12.700 Z3.000
G1 X747.300 Y16.164 Z1.000 F400.000
G1 X747.300 Y12.700 Z-1.000 F400.000
G1 X747.300 Y23.476 Z-1.000 F400.000
G1 X736.524 Y12.700 Z-1.000 F400.000
G1 X725.747 Y12.700 Z-1.000 F400.000
G1 X747.300 Y34.253 Z-1.000 F400.000
G1 X747.300 Y45.029 Z-1.000 F400.000
G1 X714.971 Y12.700 Z-1.000 F400.000
G1 X704.195 Y12.700 Z-1.000 F400.000
G1 X747.300 Y55.805 Z-1.000 F400.000
G1 X747.300 Y66.582 Z-1.000 F400.000
G1 X693.418 Y12.700 Z-1.000 F400.000
G1 X682.642 Y12.700 Z-1.000 F400.000
G1 X747.300 Y77.358 Z-1.000 F400.000
G1 X747.300 Y88.134 Z-1.000 F400.000
G1 X671.866 Y12.700 Z-1.000 F400.000
G1 X661.090 Y12.700 Z-1.000 F400.000
G1 X747.300 Y98.910 Z-1.000 F400.000
G1 X747.300 Y109.687 Z-1.000 F400.000
G1 X650.313 Y12.700 Z-1.000 F400.000
G1 X639.537 Y12.700 Z-1.000 F400.000
G1 X747.300 Y120.463 Z-1.000 F400.000
G1 X747.300 Y131.239 Z-1.000 F400.000
G1 X628.761 Y12.700 Z-1.000 F400.000
G1 X617.984 Y12.700 Z-1.000 F400.000
G1 X747.300 Y142.016 Z-1.000 F400.000
G1 X747.300 Y152.792 Z-1.000 F400.000
G1 X607.208 Y12.700 Z-1.000 F400.000
G1 X596.432 Y12.700 Z-1.000 F400.000
G1 X747.300 Y163.568 Z-1.000 F400.000
G1 X747.300 Y174.345 Z-1.000 F400.000
G1 X585.655 Y12.700 Z-1.000 F400.000
G1 X574.879 Y12.700 Z-1.000 F400.000
G1 X747.300 Y185.121 Z-1.000 F400.000
G1 X747.300 Y195.897 Z-1.000 F400.000
G1 X564.103 Y12.700 Z-1.000 F400.000
G1 X553.326 Y12.700 Z-1.000 F400.000
G1 X747.300 Y206.674 Z-1.000 F400.000
G1 X747.300 Y217.450 Z-1.000 F400.000
G1 X542.550 Y12.700 Z-1.000 F400.000
G1 X531.774 Y12.700 Z-1.000 F400.000
G1 X747.300 Y228.226 Z-1.000 F400.000
G1 X747.300 Y239.002 Z-1.000 F400.000
G1 X520.998 Y12.700 Z-1.000 F400.000
G1 X510.221 Y12.700 Z-1.000 F400.000
G1 X747.300 Y249.779 Z-1.000 F400.000
G1 X747.300 Y260.555 Z-1.000 F400.000
G1 X499.445 Y12.700 Z-1.000 F400.000
G1 X488.669 Y12.700 Z-1.000 F400.000
G1 X747.300 Y271.331 Z-1.000 F400.000
G1 X747.300 Y282.108 Z-1.000 F400.000
G1 X477.892 Y12.700 Z-1.000 F400.000
G1 X467.116 Y12.700 Z-1.000 F400.000
G1 X747.300 Y292.884 Z-1.000 F400.000
G1 X747.300 Y303.660 Z-1.000 F400.000
G1 X456.340 Y12.700 Z-1.000 F400.000
G1 X445.563 Y12.700 Z-1.000 F400.000
G1 X747.300 Y314.437 Z-1.000 F400.000
G1 X747.300 Y325.213 Z-1.000 F400.000
G1 X434.787 Y12.700 Z-1.000 F400.000
G1 X424.011 Y12.700 Z-1.000 F400.000
G1 X747.300 Y335.989 Z-1.000 F400.000
G1 X747.300 Y346.766 Z-1.000 F400.000
G1 X413.234 Y12.700 Z-1.000 F400.000
G1 X402.458 Y12.700 Z-1.000 F400.000
G1 X747.300 Y357.542 Z-1.000 F400.000
G1 X747.300 Y368.318 Z-1.000 F400.000
G1 X391.682 Y12.700 Z-1.000 F400.000
G1 X380.906 Y12.700 Z-1.000 F400.000
G1 X747.300 Y379.094 Z-1.000 F400.000
G1 X747.300 Y389.871 Z-1.000 F400.000
G1 X370.129 Y12.700 Z-1.000 F400.000
G1 X359.353 Y12.700 Z-1.000 F400.000
G1 X747.300 Y400.647 Z-1.000 F400.000
G1 X747.300 Y411.423 Z-1.000 F400.000
G1 X348.577 Y12.700 Z-1.000 F400.000
G1 X337.800 Y12.700 Z-1.000 F400.000
G1 X747.300 Y422.200 Z-1.000 F400.000
G1 X747.300 Y432.976 Z-1.000 F400.000
G1 X327.024 Y12.700 Z-1.000 F400.000
G1 X316.248 Y12.700 Z-1.000 F400.000
G1 X747.300 Y443.752 Z-1.000 F400.000
G1 X747.300 Y454.529 Z-1.000 F400.000
G1 X305.471 Y12.700 Z-1.000 F400.000
G1 X294.695 Y12.700 Z-1.000 F400.000
G1 X747.300 Y465.305 Z-1.000 F400.000
G1 X747.300 Y476.081 Z-1.000 F400.000
G1 X283.919 Y12.700 Z-1.000 F400.000
G1 X273.142 Y12.700 Z-1.000 F400.000
G1 X747.300 Y486.858 Z-1.000 F400.000
G1 X747.300 Y497.634 Z-1.000 F400.000
G1 X262.366 Y12.700 Z-1.000 F400.000
G1 X251.590 Y12.700 Z-1.000 F400.000
G1 X747.300 Y508.410 Z-1.000 F400.000
G1 X747.300 Y519.186 Z-1.000 F400.000
G1 X240.814 Y12.700 Z-1.000 F400.000
G1 X230.037 Y12.700 Z-1.000 F400.000
G1 X747.300 Y529.963 Z-1.000 F400.000
G1 X747.300 Y540.739 Z-1.000 F400.000
G1 X219.261 Y12.700 Z-1.000 F400.000
G1 X208.485 Y12.700 Z-1.000 F400.000
G1 X747.300 Y551.515 Z-1.000 F400.000
G1 X747.300 Y562.292 Z-1.000 F400.000
G1 X197.708 Y12.700 Z-1.000 F400.000
G1 X186.932 Y12.700 Z-1.000 F400.000
G1 X747.300 Y573.068 Z-1.000 F400.000
G1 X747.300 Y583.844 Z-1.000 F400.000
G1 X176.156 Y12.700 Z-1.000 F400.000
G1 X165.379 Y12.700 Z-1.000 F400.000
G1 X747.300 Y594.621 Z-1.000 F400.000
G1 X747.300 Y605.397 Z-1.000 F400.000
G1 X154.603 Y12.700 Z-1.000 F400.000
G1 X143.827 Y12.700 Z-1.000 F400.000
G1 X747.300 Y616.173 Z-1.000 F400.000
G1 X747.300 Y626.950 Z-1.000 F400.000
G1 X133.050 Y12.700 Z-1.000 F400.000
G1 X122.274 Y12.700 Z-1.000 F400.000
G1 X747.300 Y637.726 Z-1.000 F400.000
G1 X747.300 Y648.502 Z-1.000 F400.000
G1 X111.498 Y12.700 Z-1.000 F400.000
G1 X100.722 Y12.700 Z-1.000 F400.000
G1 X745.322 Y657.300 Z-1.000 F400.000
G1 X734.545 Y657.300 Z-1.000 F400.000
G1 X89.945 Y12.700 Z-1.000 F400.000
G1 X79.169 Y12.700 Z-1.000 F400.000
G1 X723.769 Y657.300 Z-1.000 F400.000
G1 X712.993 Y657.300 Z-1.000 F400.000
G1 X68.393 Y12.700 Z-1.000 F400.000
G1 X57.616 Y12.700 Z-1.000 F400.000
G1 X702.216 Y657.300 Z-1.000 F400.000
G1 X691.440 Y657.300 Z-1.000 F400.000
G1 X46.840 Y12.700 Z-1.000 F400.000
G1 X36.064 Y12.700 Z-1.000 F400.000
G1 X680.664 Y657.300 Z-1.000 F400.000
G1 X669.887 Y657.300 Z-1.000 F400.000
G1 X25.287 Y12.700 Z-1.000 F400.000
G1 X14.511 Y12.700 Z-1.000 F400.000
G1 X659.111 Y657.300 Z-1.000 F400.000
G1 X648.335 Y657.300 Z-1.000 F400.000
G1 X12.700 Y21.665 Z-1.000 F400.000
G1 X12.700 Y32.442 Z-1.000 F400.000
G1 X637.558 Y657.300 Z-1.000 F400.000
G1 X626.782 Y657.300 Z-1.000 F400.000
G1 X12.700 Y43.218 Z-1.000 F400.000
G1 X12.700 Y53.994 Z-1.000 F400.000
G1 X616.006 Y657.300 Z-1.000 F400.000
G1 X605.230 Y657.300 Z-1.000 F400.000
G1 X12.700 Y64.770 Z-1.000 F400.000
G1 X12.700 Y75.547 Z-1.000 F400.000
G1 X594.453 Y657.300 Z-1.000 F400.000
G1 X583.677 Y657.300 Z-1.000 F400.000
G1 X12.700 Y86.323 Z-1.000 F400.000
G1 X12.700 Y97.099 Z-1.000 F400.000
G1 X572.901 Y657.300 Z-1.000 F400.000
G1 X562.124 Y657.300 Z-1.000 F400.000
G1 X12.700 Y107.876 Z-1.000 F400.000
G1 X12.700 Y118.652 Z-1.000 F400.000
G1 X551.348 Y657.300 Z-1.000 F400.000
G1 X540.572 Y657.300 Z-1.000 F400.000
G1 X12.700 Y129.428 Z-1.000 F400.000
G1 X12.700 Y140.205 Z-1.000 F400.000
G1 X529.795 Y657.300 Z-1.000 F400.000
G1 X519.019 Y657.300 Z-1.000 F400.000
G1 X12.700 Y150.981 Z-1.000 F400.000
G1 X12.700 Y161.757 Z-1.000 F400.000
G1 X508.243 Y657.300 Z-1.000 F400.000
G1 X497.466 Y657.300 Z-1.000 F400.000
G1 X12.700 Y172.534 Z-1.000 F400.000
G1 X12.700 Y183.310 Z-1.000 F400.000
G1 X486.690 Y657.300 Z-1.000 F400.000
G1 X475.914 Y657.300 Z-1.000 F400.000
G1 X12.700 Y194.086 Z-1.000 F400.000
G1 X12.700 Y204.862 Z-1.000 F400.000
G1 X465.138 Y657.300 Z-1.000 F400.000
G1 X454.361 Y657.300 Z-1.000 F400.000
G1 X12.700 Y215.639 Z-1.000 F400.000
G1 X12.700 Y226.415 Z-1.000 F400.000
G1 X443.585 Y657.300 Z-1.000 F400.000
G1 X432.809 Y657.300 Z-1.000 F400.000
G1 X12.700 Y237.191 Z-1.000 F400.000
G1 X12.700 Y247.968 Z-1.000 F400.000
G1 X422.032 Y657.300 Z-1.000 F400.000
G1 X411.256 Y657.300 Z-1.000 F400.000
G1 X12.700 Y258.744 Z-1.000 F400.000
G1 X12.700 Y269.520 Z-1.000 F400.000
G1 X400.480 Y657.300 Z-1.000 F400.000
G1 X389.703 Y657.300 Z-1.000 F400.000
G1 X12.700 Y280.297 Z-1.000 F400.000
G1 X12.700 Y291.073 Z-1.000 F400.000
G1 X378.927 Y657.300 Z-1.000 F400.000
G1 X368.151 Y657.300 Z-1.000 F400.000
G1 X12.700 Y301.849 Z-1.000 F400.000
G1 X12.700 Y312.626 Z-1.000 F400.000
G1 X357.374 Y657.300 Z-1.000 F400.000
G1 X346.598 Y657.300 Z-1.000 F400.000
G1 X12.700 Y323.402 Z-1.000 F400.000
G1 X12.700 Y334.178 Z-1.000 F400.000
G1 X335.822 Y657.300 Z-1.000 F400.000
G1 X325.046 Y657.300 Z-1.000 F400.000
G1 X12.700 Y344.954 Z-1.000 F400.000
G1 X12.700 Y355.731 Z-1.000 F400.000
G1 X314.269 Y657.300 Z-1.000 F400.000
G1 X303.493 Y657.300 Z-1.000 F400.000
G1 X12.700 Y366.507 Z-1.000 F400.000
G1 X12.700 Y377.283 Z-1.000 F400.000
G1 X292.717 Y657.300 Z-1.000 F400.000
G1 X281.940 Y657.300 Z-1.000 F400.000
G1 X12.700 Y388.060 Z-1.000 F400.000
G1 X12.700 Y398.836 Z-1.000 F400.000
G1 X271.164 Y657.300 Z-1.000 F400.000
G1 X260.388 Y657.300 Z-1.000 F400.000
G1 X12.700 Y409.612 Z-1.000 F400.000
G1 X12.700 Y420.389 Z-1.000 F400.000
G1 X249.611 Y657.300 Z-1.000 F400.000
G1 X238.835 Y657.300 Z-1.000 F400.000
G1 X12.700 Y431.165 Z-1.000 F400.000
G1 X12.700 Y441.941 Z-1.000 F400.000
G1 X228.059 Y657.300 Z-1.000 F400.000
G1 X217.282 Y657.300 Z-1.000 F400.000
G1 X12.700 Y452.718 Z-1.000 F400.000
G1 X12.700 Y463.494 Z-1.000 F400.000
G1 X206.506 Y657.300 Z-1.000 F400.000
G1 X195.730 Y657.300 Z-1.000 F400.000
G1 X12.700 Y474.270 Z-1.000 F400.000
G1 X12.700 Y485.046 Z-1.000 F400.000
G1 X184.954 Y657.300 Z-1.000 F400.000
G1 X174.177 Y657.300 Z-1.000 F400.000
G1 X12.700 Y495.823 Z-1.000 F400.000
G1 X12.700 Y506.599 Z-1.000 F400.000
G1 X163.401 Y657.300 Z-1.000 F400.000
G1 X152.625 Y657.300 Z-1.000 F400.000
G1 X12.700 Y517.375 Z-1.000 F400.000
G1 X12.700 Y528.152 Z-1.000 F400.000
G1 X141.848 Y657.300 Z-1.000 F400.000
G1 X131.072 Y657.300 Z-1.000 F400.000
G1 X12.700 Y538.928 Z-1.000 F400.000
G1 X12.700 Y549.704 Z-1.000 F400.000
G1 X120.296 Y657.300 Z-1.000 F400.000
G1 X109.519 Y657.300 Z-1.000 F400.000
G1 X12.700 Y560.481 Z-1.000 F400.000
G1 X12.700 Y571.257 Z-1.000 F400.000
G1 X98.743 Y657.300 Z-1.000 F400.000
G1 X87.967 Y657.300 Z-1.000 F400.000
G1 X12.700 Y582.033 Z-1.000 F400.000
G1 X12.700 Y592.809 Z-1.000 F400.000
G1 X77.191 Y657.300 Z-1.000 F400.000
G1 X66.414 Y657.300 Z-1.000 F400.000
G1 X12.700 Y603.586 Z-1.000 F400.000
G1 X12.700 Y614.362 Z-1.000 F400.000
G1 X55.638 Y657.300 Z-1.000 F400.000
G1 X44.862 Y657.300 Z-1.000 F400.000
G1 X12.700 Y625.138 Z-1.000 F400.000
G1 X12.700 Y635.915 Z-1.000 F400.000
G1 X34.085 Y657.300 Z-1.000 F400.000
G1 X23.309 Y657.300 Z-1.000 F400.000
G1 X12.700 Y646.691 Z-1.000 F400.000
G1 X12.700 Y657.300 Z-1.000 F400.000
G1 X23.309 Y657.300 Z-1.000 F400.000
G0 X23.309 Y657.300 Z5.000
(Finish operation: RampEntryDressup)
(Begin postamble)
M5
G17 G90
M2
