(Exported by FreeCAD)
(Post Processor: grbl_post)
(Output Time:2024-06-26 11:53:12.462151)
(Begin preamble)
G17 G90
G21
(Begin operation: Fixture)
(Path: Fixture)
G54
(Finish operation: Fixture)
(Begin operation: 1mm_endmill003)
(Path: 1mm_endmill003)
(1mm_endmill003)
(Begin toolchange)
( M6 T3 )
(Finish operation: 1mm_endmill003)
(Begin operation: DressupTag001)
(Path: DressupTag001)
G0 Z5.000
G0 X134.241 Y33.208 Z5.000
G0 X134.241 Y33.208 Z3.000
G1 X134.241 Y33.208 Z-3.000
G2 X132.470 Y28.977 Z-3.000 I-1.752 J-1.753 K0.000
G1 X115.945 Y28.977 Z-3.000
G1 X114.445 Y28.977 Z-1.500
G1 X107.965 Y28.977 Z-1.500
G1 X106.465 Y28.977 Z-3.000
G1 X73.415 Y28.977 Z-3.000
G1 X71.915 Y28.977 Z-1.500
G1 X65.435 Y28.977 Z-1.500
G1 X63.935 Y28.977 Z-3.000
G1 X47.410 Y28.977 Z-3.000
G1 X47.002 Y29.009 Z-3.000
G2 X47.410 Y33.935 Z-3.000 I0.388 J2.448 K0.000
G1 X106.465 Y33.935 Z-3.000
G1 X107.965 Y33.935 Z-1.500
G1 X114.445 Y33.935 Z-1.500
G1 X115.945 Y33.935 Z-3.000
G1 X132.470 Y33.935 Z-3.000
G1 X132.878 Y33.903 Z-3.000
G2 X134.241 Y33.208 Z-3.000 I-0.388 J-2.448 K0.000
G0 X134.241 Y33.208 Z5.000
(Finish operation: DressupTag001)
(Begin operation: DressupTag002)
(Path: DressupTag002)
G0 Z5.000
G0 X134.241 Y65.414 Z5.000
G0 X134.241 Y65.414 Z3.000
G1 X134.241 Y65.414 Z-3.000
G2 X132.470 Y61.183 Z-3.000 I-1.752 J-1.753 K0.000
G1 X115.945 Y61.183 Z-3.000
G1 X114.445 Y61.183 Z-1.500
G1 X107.965 Y61.183 Z-1.500
G1 X106.465 Y61.183 Z-3.000
G1 X73.415 Y61.183 Z-3.000
G1 X71.915 Y61.183 Z-1.500
G1 X65.435 Y61.183 Z-1.500
G1 X63.935 Y61.183 Z-3.000
G1 X47.410 Y61.183 Z-3.000
G1 X47.002 Y61.215 Z-3.000
G2 X47.410 Y66.141 Z-3.000 I0.388 J2.448 K0.000
G1 X106.465 Y66.141 Z-3.000
G1 X107.965 Y66.141 Z-1.500
G1 X114.445 Y66.141 Z-1.500
G1 X115.945 Y66.141 Z-3.000
G1 X132.470 Y66.141 Z-3.000
G1 X132.878 Y66.109 Z-3.000
G2 X134.241 Y65.414 Z-3.000 I-0.388 J-2.448 K0.000
G0 X134.241 Y65.414 Z5.000
(Finish operation: DressupTag002)
(Begin operation: DressupTag003)
(Path: DressupTag003)
G0 Z5.000
G0 X134.241 Y97.620 Z5.000
G0 X134.241 Y97.620 Z3.000
G1 X134.241 Y97.620 Z-3.000
G2 X132.470 Y93.389 Z-3.000 I-1.752 J-1.753 K0.000
G1 X115.945 Y93.389 Z-3.000
G1 X114.445 Y93.389 Z-1.500
G1 X107.965 Y93.389 Z-1.500
G1 X106.465 Y93.389 Z-3.000
G1 X73.415 Y93.389 Z-3.000
G1 X71.915 Y93.389 Z-1.500
G1 X65.435 Y93.389 Z-1.500
G1 X63.935 Y93.389 Z-3.000
G1 X47.410 Y93.389 Z-3.000
G1 X47.002 Y93.421 Z-3.000
G2 X47.410 Y98.347 Z-3.000 I0.388 J2.448 K0.000
G1 X106.465 Y98.347 Z-3.000
G1 X107.965 Y98.347 Z-1.500
G1 X114.445 Y98.347 Z-1.500
G1 X115.945 Y98.347 Z-3.000
G1 X132.470 Y98.347 Z-3.000
G1 X132.878 Y98.315 Z-3.000
G2 X134.241 Y97.620 Z-3.000 I-0.388 J-2.448 K0.000
G0 X134.241 Y97.620 Z5.000
(Finish operation: DressupTag003)
(Begin operation: DressupTag004)
(Path: DressupTag004)
G0 Z5.000
G0 X134.241 Y129.827 Z5.000
G0 X134.241 Y129.827 Z3.000
G1 X134.241 Y129.827 Z-3.000
G2 X134.846 Y128.840 Z-3.000 I-1.755 J-1.755 K0.000
G2 X132.470 Y125.595 Z-3.000 I-2.358 J-0.765 K0.000
G1 X115.945 Y125.595 Z-3.000
G1 X114.445 Y125.595 Z-1.500
G1 X107.965 Y125.595 Z-1.500
G1 X106.465 Y125.595 Z-3.000
G1 X73.415 Y125.595 Z-3.000
G1 X71.915 Y125.595 Z-1.500
G1 X65.435 Y125.595 Z-1.500
G1 X63.935 Y125.595 Z-3.000
G1 X47.410 Y125.595 Z-3.000
G1 X47.002 Y125.627 Z-3.000
G2 X47.410 Y130.553 Z-3.000 I0.388 J2.448 K0.000
G1 X106.465 Y130.553 Z-3.000
G1 X107.965 Y130.553 Z-1.500
G1 X114.445 Y130.553 Z-1.500
G1 X115.945 Y130.553 Z-3.000
G1 X132.470 Y130.553 Z-3.000
G2 X134.241 Y129.827 Z-3.000 I0.016 J-2.482 K0.000
G0 X134.241 Y129.827 Z5.000
(Finish operation: DressupTag004)
(Begin operation: 6mm_endmill001)
(Path: 6mm_endmill001)
(6mm_endmill001)
(Begin toolchange)
( M6 T2 )
M3 S10000
(Finish operation: 6mm_endmill001)
(Begin operation: DressupTag)
(Path: DressupTag)
G0 Z5.000
G0 X179.751 Y159.401 Z5.000
G0 X179.751 Y159.401 Z3.000
G1 X179.751 Y159.401 Z-1.000 F1000.000
G2 X180.630 Y157.280 Z-1.000 I-2.121 J-2.121 K0.000 F1000.000
G1 X180.630 Y136.341 Z-1.000 F1000.000
G2 X182.880 Y133.442 Z-1.000 I-0.733 J-2.892 K0.000 F1000.000
G1 X182.880 Y93.184 Z-1.000 F1000.000
G2 X180.630 Y90.289 Z-1.000 I-2.979 J-0.007 K0.000 F1000.000
G1 X180.630 Y69.245 Z-1.000 F1000.000
G2 X182.880 Y66.346 Z-1.000 I-0.733 J-2.892 K0.000 F1000.000
G1 X182.880 Y26.088 Z-1.000 F1000.000
G2 X180.630 Y23.193 Z-1.000 I-2.979 J-0.007 K0.000 F1000.000
G1 X180.630 Y2.250 Z-1.000 F1000.000
G2 X178.111 Y-0.711 Z-1.000 I-3.000 J0.000 K0.000 F1000.000
G2 X176.829 Y-0.750 Z-1.000 I-0.882 J7.923 K0.000 F1000.000
G2 X173.930 Y-3.000 Z-1.000 I-2.892 J0.733 K0.000 F1000.000
G1 X167.930 Y-3.000 Z-1.000 F1000.000
G2 X165.035 Y-0.750 Z-1.000 I-0.007 J2.979 K0.000 F1000.000
G1 X95.839 Y-0.750 Z-1.000 F1000.000
G2 X92.940 Y-3.000 Z-1.000 I-2.892 J0.733 K0.000 F1000.000
G1 X86.940 Y-3.000 Z-1.000 F1000.000
G2 X84.045 Y-0.750 Z-1.000 I-0.007 J2.979 K0.000 F1000.000
G1 X14.849 Y-0.750 Z-1.000 F1000.000
G2 X11.950 Y-3.000 Z-1.000 I-2.892 J0.733 K0.000 F1000.000
G1 X5.950 Y-3.000 Z-1.000 F1000.000
G2 X3.055 Y-0.750 Z-1.000 I-0.007 J2.979 K0.000 F1000.000
G1 X2.250 Y-0.750 Z-1.000 F1000.000
G2 X-0.750 Y2.250 Z-1.000 I0.000 J3.000 K0.000 F1000.000
G1 X-0.750 Y23.189 Z-1.000 F1000.000
G2 X-3.000 Y26.088 Z-1.000 I0.733 J2.892 K0.000 F1000.000
G1 X-3.000 Y66.346 Z-1.000 F1000.000
G2 X-0.750 Y69.241 Z-1.000 I2.979 J0.007 K0.000 F1000.000
G1 X-0.750 Y90.285 Z-1.000 F1000.000
G2 X-3.000 Y93.184 Z-1.000 I0.733 J2.892 K0.000 F1000.000
G1 X-3.000 Y133.442 Z-1.000 F1000.000
G2 X-0.750 Y136.337 Z-1.000 I2.979 J0.007 K0.000 F1000.000
G1 X-0.750 Y157.280 Z-1.000 F1000.000
G2 X1.769 Y160.241 Z-1.000 I3.000 J-0.000 K0.000 F1000.000
G2 X3.051 Y160.280 Z-1.000 I0.882 J-7.923 K0.000 F1000.000
G2 X5.950 Y162.530 Z-1.000 I2.892 J-0.733 K0.000 F1000.000
G1 X11.950 Y162.530 Z-1.000 F1000.000
G2 X14.845 Y160.280 Z-1.000 I0.007 J-2.979 K0.000 F1000.000
G1 X84.041 Y160.280 Z-1.000 F1000.000
G2 X86.940 Y162.530 Z-1.000 I2.892 J-0.733 K0.000 F1000.000
G1 X92.940 Y162.530 Z-1.000 F1000.000
G2 X95.835 Y160.280 Z-1.000 I0.007 J-2.979 K0.000 F1000.000
G1 X165.031 Y160.280 Z-1.000 F1000.000
G2 X167.930 Y162.530 Z-1.000 I2.892 J-0.733 K0.000 F1000.000
G1 X173.930 Y162.530 Z-1.000 F1000.000
G2 X176.825 Y160.280 Z-1.000 I0.007 J-2.979 K0.000 F1000.000
G1 X177.630 Y160.280 Z-1.000 F1000.000
G2 X179.751 Y159.401 Z-1.000 I-0.000 J-3.000 K0.000 F1000.000
G1 X179.751 Y159.401 Z-2.000 F1000.000
G2 X180.630 Y157.280 Z-2.000 I-2.121 J-2.121 K0.000 F1000.000
G1 X180.630 Y136.341 Z-2.000 F1000.000
G2 X182.880 Y133.442 Z-2.000 I-0.733 J-2.892 K0.000 F1000.000
G1 X182.880 Y118.758 Z-2.000 F1000.000
G1 X182.880 Y118.258 Z-1.500 F1000.000
G1 X182.880 Y108.368 Z-1.500 F1000.000
G1 X182.880 Y107.868 Z-2.000 F1000.000
G1 X182.880 Y93.184 Z-2.000 F1000.000
G2 X180.630 Y90.289 Z-2.000 I-2.979 J-0.007 K0.000 F1000.000
G1 X180.630 Y69.245 Z-2.000 F1000.000
G2 X182.880 Y66.346 Z-2.000 I-0.733 J-2.892 K0.000 F1000.000
G1 X182.880 Y26.088 Z-2.000 F1000.000
G2 X180.630 Y23.193 Z-2.000 I-2.979 J-0.007 K0.000 F1000.000
G1 X180.630 Y2.250 Z-2.000 F1000.000
G2 X178.111 Y-0.711 Z-2.000 I-3.000 J0.000 K0.000 F1000.000
G2 X176.829 Y-0.750 Z-2.000 I-0.882 J7.923 K0.000 F1000.000
G2 X173.930 Y-3.000 Z-2.000 I-2.892 J0.733 K0.000 F1000.000
G1 X167.930 Y-3.000 Z-2.000 F1000.000
G2 X165.035 Y-0.750 Z-2.000 I-0.007 J2.979 K0.000 F1000.000
G1 X135.882 Y-0.750 Z-2.000 F1000.000
G1 X135.382 Y-0.750 Z-1.500 F1000.000
G1 X125.492 Y-0.750 Z-1.500 F1000.000
G1 X124.992 Y-0.750 Z-2.000 F1000.000
G1 X95.839 Y-0.750 Z-2.000 F1000.000
G2 X92.940 Y-3.000 Z-2.000 I-2.892 J0.733 K0.000 F1000.000
G1 X86.940 Y-3.000 Z-2.000 F1000.000
G2 X84.045 Y-0.750 Z-2.000 I-0.007 J2.979 K0.000 F1000.000
G1 X14.849 Y-0.750 Z-2.000 F1000.000
G2 X11.950 Y-3.000 Z-2.000 I-2.892 J0.733 K0.000 F1000.000
G1 X5.950 Y-3.000 Z-2.000 F1000.000
G2 X3.055 Y-0.750 Z-2.000 I-0.007 J2.979 K0.000 F1000.000
G1 X2.250 Y-0.750 Z-2.000 F1000.000
G2 X-0.750 Y2.250 Z-2.000 I0.000 J3.000 K0.000 F1000.000
G1 X-0.750 Y23.189 Z-2.000 F1000.000
G2 X-3.000 Y26.088 Z-2.000 I0.733 J2.892 K0.000 F1000.000
G1 X-3.000 Y40.772 Z-2.000 F1000.000
G1 X-3.000 Y41.272 Z-1.500 F1000.000
G1 X-3.000 Y51.162 Z-1.500 F1000.000
G1 X-3.000 Y51.662 Z-2.000 F1000.000
G1 X-3.000 Y66.346 Z-2.000 F1000.000
G2 X-0.750 Y69.241 Z-2.000 I2.979 J0.007 K0.000 F1000.000
G1 X-0.750 Y90.285 Z-2.000 F1000.000
G2 X-3.000 Y93.184 Z-2.000 I0.733 J2.892 K0.000 F1000.000
G1 X-3.000 Y133.442 Z-2.000 F1000.000
G2 X-0.750 Y136.337 Z-2.000 I2.979 J0.007 K0.000 F1000.000
G1 X-0.750 Y157.280 Z-2.000 F1000.000
G2 X1.769 Y160.241 Z-2.000 I3.000 J-0.000 K0.000 F1000.000
G2 X3.051 Y160.280 Z-2.000 I0.882 J-7.923 K0.000 F1000.000
G2 X5.950 Y162.530 Z-2.000 I2.892 J-0.733 K0.000 F1000.000
G1 X11.950 Y162.530 Z-2.000 F1000.000
G2 X14.845 Y160.280 Z-2.000 I0.007 J-2.979 K0.000 F1000.000
G1 X43.998 Y160.280 Z-2.000 F1000.000
G1 X44.498 Y160.280 Z-1.500 F1000.000
G1 X54.388 Y160.280 Z-1.500 F1000.000
G1 X54.888 Y160.280 Z-2.000 F1000.000
G1 X84.041 Y160.280 Z-2.000 F1000.000
G2 X86.940 Y162.530 Z-2.000 I2.892 J-0.733 K0.000 F1000.000
G1 X92.940 Y162.530 Z-2.000 F1000.000
G2 X95.835 Y160.280 Z-2.000 I0.007 J-2.979 K0.000 F1000.000
G1 X165.031 Y160.280 Z-2.000 F1000.000
G2 X167.930 Y162.530 Z-2.000 I2.892 J-0.733 K0.000 F1000.000
G1 X173.930 Y162.530 Z-2.000 F1000.000
G2 X176.825 Y160.280 Z-2.000 I0.007 J-2.979 K0.000 F1000.000
G1 X177.630 Y160.280 Z-2.000 F1000.000
G2 X179.751 Y159.401 Z-2.000 I-0.000 J-3.000 K0.000 F1000.000
G1 X179.751 Y159.401 Z-3.000 F1000.000
G2 X180.630 Y157.280 Z-3.000 I-2.121 J-2.121 K0.000 F1000.000
G1 X180.630 Y136.341 Z-3.000 F1000.000
G2 X182.880 Y133.442 Z-3.000 I-0.733 J-2.892 K0.000 F1000.000
G1 X182.880 Y119.758 Z-3.000 F1000.000
G1 X182.880 Y118.258 Z-1.500 F1000.000
G1 X182.880 Y108.368 Z-1.500 F1000.000
G1 X182.880 Y106.868 Z-3.000 F1000.000
G1 X182.880 Y93.184 Z-3.000 F1000.000
G2 X180.630 Y90.289 Z-3.000 I-2.979 J-0.007 K0.000 F1000.000
G1 X180.630 Y69.245 Z-3.000 F1000.000
G2 X182.880 Y66.346 Z-3.000 I-0.733 J-2.892 K0.000 F1000.000
G1 X182.880 Y26.088 Z-3.000 F1000.000
G2 X180.630 Y23.193 Z-3.000 I-2.979 J-0.007 K0.000 F1000.000
G1 X180.630 Y2.250 Z-3.000 F1000.000
G2 X178.111 Y-0.711 Z-3.000 I-3.000 J0.000 K0.000 F1000.000
G2 X176.829 Y-0.750 Z-3.000 I-0.882 J7.923 K0.000 F1000.000
G2 X173.930 Y-3.000 Z-3.000 I-2.892 J0.733 K0.000 F1000.000
G1 X167.930 Y-3.000 Z-3.000 F1000.000
G2 X165.035 Y-0.750 Z-3.000 I-0.007 J2.979 K0.000 F1000.000
G1 X136.882 Y-0.750 Z-3.000 F1000.000
G1 X135.382 Y-0.750 Z-1.500 F1000.000
G1 X125.492 Y-0.750 Z-1.500 F1000.000
G1 X123.992 Y-0.750 Z-3.000 F1000.000
G1 X95.839 Y-0.750 Z-3.000 F1000.000
G2 X92.940 Y-3.000 Z-3.000 I-2.892 J0.733 K0.000 F1000.000
G1 X86.940 Y-3.000 Z-3.000 F1000.000
G2 X84.045 Y-0.750 Z-3.000 I-0.007 J2.979 K0.000 F1000.000
G1 X14.849 Y-0.750 Z-3.000 F1000.000
G2 X11.950 Y-3.000 Z-3.000 I-2.892 J0.733 K0.000 F1000.000
G1 X5.950 Y-3.000 Z-3.000 F1000.000
G2 X3.055 Y-0.750 Z-3.000 I-0.007 J2.979 K0.000 F1000.000
G1 X2.250 Y-0.750 Z-3.000 F1000.000
G2 X-0.750 Y2.250 Z-3.000 I0.000 J3.000 K0.000 F1000.000
G1 X-0.750 Y23.189 Z-3.000 F1000.000
G2 X-3.000 Y26.088 Z-3.000 I0.733 J2.892 K0.000 F1000.000
G1 X-3.000 Y39.772 Z-3.000 F1000.000
G1 X-3.000 Y41.272 Z-1.500 F1000.000
G1 X-3.000 Y51.162 Z-1.500 F1000.000
G1 X-3.000 Y52.662 Z-3.000 F1000.000
G1 X-3.000 Y66.346 Z-3.000 F1000.000
G2 X-0.750 Y69.241 Z-3.000 I2.979 J0.007 K0.000 F1000.000
G1 X-0.750 Y90.285 Z-3.000 F1000.000
G2 X-3.000 Y93.184 Z-3.000 I0.733 J2.892 K0.000 F1000.000
G1 X-3.000 Y133.442 Z-3.000 F1000.000
G2 X-0.750 Y136.337 Z-3.000 I2.979 J0.007 K0.000 F1000.000
G1 X-0.750 Y157.280 Z-3.000 F1000.000
G2 X1.769 Y160.241 Z-3.000 I3.000 J-0.000 K0.000 F1000.000
G2 X3.051 Y160.280 Z-3.000 I0.882 J-7.923 K0.000 F1000.000
G2 X5.950 Y162.530 Z-3.000 I2.892 J-0.733 K0.000 F1000.000
G1 X11.950 Y162.530 Z-3.000 F1000.000
G2 X14.845 Y160.280 Z-3.000 I0.007 J-2.979 K0.000 F1000.000
G1 X42.998 Y160.280 Z-3.000 F1000.000
G1 X44.498 Y160.280 Z-1.500 F1000.000
G1 X54.388 Y160.280 Z-1.500 F1000.000
G1 X55.888 Y160.280 Z-3.000 F1000.000
G1 X84.041 Y160.280 Z-3.000 F1000.000
G2 X86.940 Y162.530 Z-3.000 I2.892 J-0.733 K0.000 F1000.000
G1 X92.940 Y162.530 Z-3.000 F1000.000
G2 X95.835 Y160.280 Z-3.000 I0.007 J-2.979 K0.000 F1000.000
G1 X165.031 Y160.280 Z-3.000 F1000.000
G2 X167.930 Y162.530 Z-3.000 I2.892 J-0.733 K0.000 F1000.000
G1 X173.930 Y162.530 Z-3.000 F1000.000
G2 X176.825 Y160.280 Z-3.000 I0.007 J-2.979 K0.000 F1000.000
G1 X177.630 Y160.280 Z-3.000 F1000.000
G2 X179.751 Y159.401 Z-3.000 I-0.000 J-3.000 K0.000 F1000.000
G0 X179.751 Y159.401 Z5.000
(Finish operation: DressupTag)
(Begin postamble)
M5
G17 G90
M2
