(Exported by FreeCAD)
(Post Processor: grbl_post)
(Output Time:2025-04-20 11:51:07.202793)
(Begin preamble)
G17 G90
G21
(Begin operation: Fixture)
(Path: Fixture)
G54
(Finish operation: Fixture)
(Begin operation: endmill_compression_635_spe001)
(Path: endmill_compression_635_spe001)
(endmill_compression_635_spe001)
(Begin toolchange)
( M6 T2 )
M3 S1800
(Finish operation: endmill_compression_635_spe001)
(Begin operation: Profile)
(Path: Profile)
(Profile)
(Compensated Tool Path. Diameter: 6.35)
G0 Z25.000
G0 X79.957 Y80.105
G0 Z23.000
G1 X79.957 Y80.105 Z18.250 F500.000
G2 X57.991 Y19.519 Z18.250 I-25.155 J-25.155 K0.000 F500.000
G2 X19.371 Y51.762 Z18.250 I-3.189 J35.431 K0.000 F500.000
G2 X51.613 Y90.381 Z18.250 I35.431 J3.189 K0.000 F500.000
G2 X79.957 Y80.105 Z18.250 I3.189 J-35.431 K0.000 F500.000
G1 X79.957 Y80.105 Z16.500 F500.000
G2 X57.991 Y19.519 Z16.500 I-25.155 J-25.155 K0.000 F500.000
G2 X19.371 Y51.762 Z16.500 I-3.189 J35.431 K0.000 F500.000
G2 X51.613 Y90.381 Z16.500 I35.431 J3.189 K0.000 F500.000
G2 X79.957 Y80.105 Z16.500 I3.189 J-35.431 K0.000 F500.000
G1 X79.957 Y80.105 Z14.750 F500.000
G2 X57.991 Y19.519 Z14.750 I-25.155 J-25.155 K0.000 F500.000
G2 X19.371 Y51.762 Z14.750 I-3.189 J35.431 K0.000 F500.000
G2 X51.613 Y90.381 Z14.750 I35.431 J3.189 K0.000 F500.000
G2 X79.957 Y80.105 Z14.750 I3.189 J-35.431 K0.000 F500.000
G1 X79.957 Y80.105 Z13.000 F500.000
G2 X57.991 Y19.519 Z13.000 I-25.155 J-25.155 K0.000 F500.000
G2 X19.371 Y51.762 Z13.000 I-3.189 J35.431 K0.000 F500.000
G2 X51.613 Y90.381 Z13.000 I35.431 J3.189 K0.000 F500.000
G2 X79.957 Y80.105 Z13.000 I3.189 J-35.431 K0.000 F500.000
G1 X79.957 Y80.105 Z11.250 F500.000
G2 X57.991 Y19.519 Z11.250 I-25.155 J-25.155 K0.000 F500.000
G2 X19.371 Y51.762 Z11.250 I-3.189 J35.431 K0.000 F500.000
G2 X51.613 Y90.381 Z11.250 I35.431 J3.189 K0.000 F500.000
G2 X79.957 Y80.105 Z11.250 I3.189 J-35.431 K0.000 F500.000
G1 X79.957 Y80.105 Z9.500 F500.000
G2 X57.991 Y19.519 Z9.500 I-25.155 J-25.155 K0.000 F500.000
G2 X19.371 Y51.762 Z9.500 I-3.189 J35.431 K0.000 F500.000
G2 X51.613 Y90.381 Z9.500 I35.431 J3.189 K0.000 F500.000
G2 X79.957 Y80.105 Z9.500 I3.189 J-35.431 K0.000 F500.000
G1 X79.957 Y80.105 Z7.750 F500.000
G2 X57.991 Y19.519 Z7.750 I-25.155 J-25.155 K0.000 F500.000
G2 X19.371 Y51.762 Z7.750 I-3.189 J35.431 K0.000 F500.000
G2 X51.613 Y90.381 Z7.750 I35.431 J3.189 K0.000 F500.000
G2 X79.957 Y80.105 Z7.750 I3.189 J-35.431 K0.000 F500.000
G1 X79.957 Y80.105 Z6.000 F500.000
G2 X57.991 Y19.519 Z6.000 I-25.155 J-25.155 K0.000 F500.000
G2 X19.371 Y51.762 Z6.000 I-3.189 J35.431 K0.000 F500.000
G2 X51.613 Y90.381 Z6.000 I35.431 J3.189 K0.000 F500.000
G2 X79.957 Y80.105 Z6.000 I3.189 J-35.431 K0.000 F500.000
G1 X79.957 Y80.105 Z4.250 F500.000
G2 X57.991 Y19.519 Z4.250 I-25.155 J-25.155 K0.000 F500.000
G2 X19.371 Y51.762 Z4.250 I-3.189 J35.431 K0.000 F500.000
G2 X51.613 Y90.381 Z4.250 I35.431 J3.189 K0.000 F500.000
G2 X79.957 Y80.105 Z4.250 I3.189 J-35.431 K0.000 F500.000
G1 X79.957 Y80.105 Z2.500 F500.000
G2 X57.991 Y19.519 Z2.500 I-25.155 J-25.155 K0.000 F500.000
G2 X19.371 Y51.762 Z2.500 I-3.189 J35.431 K0.000 F500.000
G2 X51.613 Y90.381 Z2.500 I35.431 J3.189 K0.000 F500.000
G2 X79.957 Y80.105 Z2.500 I3.189 J-35.431 K0.000 F500.000
G1 X79.957 Y80.105 Z0.750 F500.000
G2 X57.991 Y19.519 Z0.750 I-25.155 J-25.155 K0.000 F500.000
G2 X19.371 Y51.762 Z0.750 I-3.189 J35.431 K0.000 F500.000
G2 X51.613 Y90.381 Z0.750 I35.431 J3.189 K0.000 F500.000
G2 X79.957 Y80.105 Z0.750 I3.189 J-35.431 K0.000 F500.000
G1 X79.957 Y80.105 Z0.000 F500.000
G2 X57.991 Y19.519 Z0.000 I-25.155 J-25.155 K0.000 F500.000
G2 X19.371 Y51.762 Z0.000 I-3.189 J35.431 K0.000 F500.000
G2 X51.613 Y90.381 Z0.000 I35.431 J3.189 K0.000 F500.000
G2 X79.957 Y80.105 Z0.000 I3.189 J-35.431 K0.000 F500.000
G0 Z25.000
G0 Z25.000
(Finish operation: Profile)
(Begin operation: Profile001)
(Path: Profile001)
(Profile001)
(Compensated Tool Path. Diameter: 6.35)
G0 Z25.000
G0 X95.937 Y96.086
G0 Z23.000
G1 X95.937 Y96.086 Z18.250 F500.000
G2 X58.163 Y-3.127 Z18.250 I-41.136 J-41.136 K0.000 F500.000
G2 X-3.275 Y51.589 Z18.250 I-3.361 J58.077 K0.000 F500.000
G2 X51.441 Y113.028 Z18.250 I58.077 J3.361 K0.000 F500.000
G2 X95.937 Y96.086 Z18.250 I3.361 J-58.077 K0.000 F500.000
G1 X95.937 Y96.086 Z16.500 F500.000
G2 X58.163 Y-3.127 Z16.500 I-41.136 J-41.136 K0.000 F500.000
G2 X-3.275 Y51.589 Z16.500 I-3.361 J58.077 K0.000 F500.000
G2 X51.441 Y113.028 Z16.500 I58.077 J3.361 K0.000 F500.000
G2 X95.937 Y96.086 Z16.500 I3.361 J-58.077 K0.000 F500.000
G1 X95.937 Y96.086 Z14.750 F500.000
G2 X58.163 Y-3.127 Z14.750 I-41.136 J-41.136 K0.000 F500.000
G2 X-3.275 Y51.589 Z14.750 I-3.361 J58.077 K0.000 F500.000
G2 X51.441 Y113.028 Z14.750 I58.077 J3.361 K0.000 F500.000
G2 X95.937 Y96.086 Z14.750 I3.361 J-58.077 K0.000 F500.000
G1 X95.937 Y96.086 Z13.000 F500.000
G2 X58.163 Y-3.127 Z13.000 I-41.136 J-41.136 K0.000 F500.000
G2 X-3.275 Y51.589 Z13.000 I-3.361 J58.077 K0.000 F500.000
G2 X51.441 Y113.028 Z13.000 I58.077 J3.361 K0.000 F500.000
G2 X95.937 Y96.086 Z13.000 I3.361 J-58.077 K0.000 F500.000
G1 X95.937 Y96.086 Z11.250 F500.000
G2 X58.163 Y-3.127 Z11.250 I-41.136 J-41.136 K0.000 F500.000
G2 X-3.275 Y51.589 Z11.250 I-3.361 J58.077 K0.000 F500.000
G2 X51.441 Y113.028 Z11.250 I58.077 J3.361 K0.000 F500.000
G2 X95.937 Y96.086 Z11.250 I3.361 J-58.077 K0.000 F500.000
G1 X95.937 Y96.086 Z9.500 F500.000
G2 X58.163 Y-3.127 Z9.500 I-41.136 J-41.136 K0.000 F500.000
G2 X-3.275 Y51.589 Z9.500 I-3.361 J58.077 K0.000 F500.000
G2 X51.441 Y113.028 Z9.500 I58.077 J3.361 K0.000 F500.000
G2 X95.937 Y96.086 Z9.500 I3.361 J-58.077 K0.000 F500.000
G1 X95.937 Y96.086 Z7.750 F500.000
G2 X58.163 Y-3.127 Z7.750 I-41.136 J-41.136 K0.000 F500.000
G2 X-3.275 Y51.589 Z7.750 I-3.361 J58.077 K0.000 F500.000
G2 X51.441 Y113.028 Z7.750 I58.077 J3.361 K0.000 F500.000
G2 X95.937 Y96.086 Z7.750 I3.361 J-58.077 K0.000 F500.000
G1 X95.937 Y96.086 Z6.000 F500.000
G2 X58.163 Y-3.127 Z6.000 I-41.136 J-41.136 K0.000 F500.000
G2 X-3.275 Y51.589 Z6.000 I-3.361 J58.077 K0.000 F500.000
G2 X51.441 Y113.028 Z6.000 I58.077 J3.361 K0.000 F500.000
G2 X95.937 Y96.086 Z6.000 I3.361 J-58.077 K0.000 F500.000
G1 X95.937 Y96.086 Z4.250 F500.000
G2 X58.163 Y-3.127 Z4.250 I-41.136 J-41.136 K0.000 F500.000
G2 X-3.275 Y51.589 Z4.250 I-3.361 J58.077 K0.000 F500.000
G2 X51.441 Y113.028 Z4.250 I58.077 J3.361 K0.000 F500.000
G2 X95.937 Y96.086 Z4.250 I3.361 J-58.077 K0.000 F500.000
G1 X95.937 Y96.086 Z2.500 F500.000
G2 X58.163 Y-3.127 Z2.500 I-41.136 J-41.136 K0.000 F500.000
G2 X-3.275 Y51.589 Z2.500 I-3.361 J58.077 K0.000 F500.000
G2 X51.441 Y113.028 Z2.500 I58.077 J3.361 K0.000 F500.000
G2 X95.937 Y96.086 Z2.500 I3.361 J-58.077 K0.000 F500.000
G1 X95.937 Y96.086 Z0.750 F500.000
G2 X58.163 Y-3.127 Z0.750 I-41.136 J-41.136 K0.000 F500.000
G2 X-3.275 Y51.589 Z0.750 I-3.361 J58.077 K0.000 F500.000
G2 X51.441 Y113.028 Z0.750 I58.077 J3.361 K0.000 F500.000
G2 X95.937 Y96.086 Z0.750 I3.361 J-58.077 K0.000 F500.000
G1 X95.937 Y96.086 Z0.000 F500.000
G2 X58.163 Y-3.127 Z0.000 I-41.136 J-41.136 K0.000 F500.000
G2 X-3.275 Y51.589 Z0.000 I-3.361 J58.077 K0.000 F500.000
G2 X51.441 Y113.028 Z0.000 I58.077 J3.361 K0.000 F500.000
G2 X95.937 Y96.086 Z0.000 I3.361 J-58.077 K0.000 F500.000
G0 Z25.000
G0 Z25.000
(Finish operation: Profile001)
(Begin postamble)
M5
G17 G90
M2
