(Exported by FreeCAD)
(Post Processor: grbl_post)
(Output Time:2025-05-12 11:16:12.644533)
(Begin preamble)
G17 G90
G21
(Begin operation: Fixture)
(Path: Fixture)
G54
(Finish operation: Fixture)
(Begin operation: endmill_up_3175_spe001)
(Path: endmill_up_3175_spe001)
(endmill_up_3175_spe001)
(Begin toolchange)
( M6 T2 )
M3 S18000
(Finish operation: endmill_up_3175_spe001)
(Begin operation: Profile)
(Path: Profile)
(Profile)
(Compensated Tool Path. Diameter: 3.17)
G0 Z23.000
G0 X257.415 Y208.415
G0 Z21.000
G1 X257.415 Y208.415 Z17.000 F300.000
G1 X257.415 Y11.585 Z17.000 F300.000
G1 X251.585 Y11.585 Z17.000 F300.000
G1 X251.585 Y208.415 Z17.000 F300.000
G1 X257.415 Y208.415 Z17.000 F300.000
G0 Z23.000
G0 X247.415 Z23.000
G0 X247.415 Z21.000
G1 X247.415 Y208.415 Z17.000 F300.000
G1 X247.415 Y11.585 Z17.000 F300.000
G1 X241.585 Y11.585 Z17.000 F300.000
G1 X241.585 Y208.415 Z17.000 F300.000
G1 X247.415 Y208.415 Z17.000 F300.000
G0 Z23.000
G0 X237.415 Z23.000
G0 X237.415 Z21.000
G1 X237.415 Y208.415 Z17.000 F300.000
G1 X237.415 Y11.585 Z17.000 F300.000
G1 X231.585 Y11.585 Z17.000 F300.000
G1 X231.585 Y208.415 Z17.000 F300.000
G1 X237.415 Y208.415 Z17.000 F300.000
G0 Z23.000
G0 X227.415 Z23.000
G0 X227.415 Z21.000
G1 X227.415 Y208.415 Z17.000 F300.000
G1 X227.415 Y11.585 Z17.000 F300.000
G1 X221.585 Y11.585 Z17.000 F300.000
G1 X221.585 Y208.415 Z17.000 F300.000
G1 X227.415 Y208.415 Z17.000 F300.000
G0 Z23.000
G0 X217.415 Z23.000
G0 X217.415 Z21.000
G1 X217.415 Y208.415 Z17.000 F300.000
G1 X217.415 Y11.585 Z17.000 F300.000
G1 X211.585 Y11.585 Z17.000 F300.000
G1 X211.585 Y208.415 Z17.000 F300.000
G1 X217.415 Y208.415 Z17.000 F300.000
G0 Z23.000
G0 X207.415 Z23.000
G0 X207.415 Z21.000
G1 X207.415 Y208.415 Z17.000 F300.000
G1 X207.415 Y11.585 Z17.000 F300.000
G1 X201.585 Y11.585 Z17.000 F300.000
G1 X201.585 Y208.415 Z17.000 F300.000
G1 X207.415 Y208.415 Z17.000 F300.000
G0 Z23.000
G0 X197.415 Z23.000
G0 X197.415 Z21.000
G1 X197.415 Y208.415 Z17.000 F300.000
G1 X197.415 Y11.585 Z17.000 F300.000
G1 X191.585 Y11.585 Z17.000 F300.000
G1 X191.585 Y208.415 Z17.000 F300.000
G1 X197.415 Y208.415 Z17.000 F300.000
G0 Z23.000
G0 X187.415 Z23.000
G0 X187.415 Z21.000
G1 X187.415 Y208.415 Z17.000 F300.000
G1 X187.415 Y11.585 Z17.000 F300.000
G1 X181.585 Y11.585 Z17.000 F300.000
G1 X181.585 Y208.415 Z17.000 F300.000
G1 X187.415 Y208.415 Z17.000 F300.000
G0 Z23.000
G0 X177.415 Z23.000
G0 X177.415 Z21.000
G1 X177.415 Y208.415 Z17.000 F300.000
G1 X177.415 Y11.585 Z17.000 F300.000
G1 X171.585 Y11.585 Z17.000 F300.000
G1 X171.585 Y208.415 Z17.000 F300.000
G1 X177.415 Y208.415 Z17.000 F300.000
G0 Z23.000
G0 X167.415 Z23.000
G0 X167.415 Z21.000
G1 X167.415 Y208.415 Z17.000 F300.000
G1 X167.415 Y11.585 Z17.000 F300.000
G1 X161.585 Y11.585 Z17.000 F300.000
G1 X161.585 Y208.415 Z17.000 F300.000
G1 X167.415 Y208.415 Z17.000 F300.000
G0 Z23.000
G0 X157.415 Z23.000
G0 X157.415 Z21.000
G1 X157.415 Y208.415 Z17.000 F300.000
G1 X157.415 Y11.585 Z17.000 F300.000
G1 X151.585 Y11.585 Z17.000 F300.000
G1 X151.585 Y208.415 Z17.000 F300.000
G1 X157.415 Y208.415 Z17.000 F300.000
G0 Z23.000
G0 X147.415 Z23.000
G0 X147.415 Z21.000
G1 X147.415 Y208.415 Z17.000 F300.000
G1 X147.415 Y11.585 Z17.000 F300.000
G1 X141.585 Y11.585 Z17.000 F300.000
G1 X141.585 Y208.415 Z17.000 F300.000
G1 X147.415 Y208.415 Z17.000 F300.000
G0 Z23.000
G0 X137.415 Z23.000
G0 X137.415 Z21.000
G1 X137.415 Y208.415 Z17.000 F300.000
G1 X137.415 Y11.585 Z17.000 F300.000
G1 X131.585 Y11.585 Z17.000 F300.000
G1 X131.585 Y208.415 Z17.000 F300.000
G1 X137.415 Y208.415 Z17.000 F300.000
G0 Z23.000
G0 X127.415 Z23.000
G0 X127.415 Z21.000
G1 X127.415 Y208.415 Z17.000 F300.000
G1 X127.415 Y11.585 Z17.000 F300.000
G1 X121.585 Y11.585 Z17.000 F300.000
G1 X121.585 Y208.415 Z17.000 F300.000
G1 X127.415 Y208.415 Z17.000 F300.000
G0 Z23.000
G0 X117.415 Z23.000
G0 X117.415 Z21.000
G1 X117.415 Y208.415 Z17.000 F300.000
G1 X117.415 Y11.585 Z17.000 F300.000
G1 X111.585 Y11.585 Z17.000 F300.000
G1 X111.585 Y208.415 Z17.000 F300.000
G1 X117.415 Y208.415 Z17.000 F300.000
G0 Z23.000
G0 X107.415 Z23.000
G0 X107.415 Z21.000
G1 X107.415 Y208.415 Z17.000 F300.000
G1 X107.415 Y11.585 Z17.000 F300.000
G1 X101.585 Y11.585 Z17.000 F300.000
G1 X101.585 Y208.415 Z17.000 F300.000
G1 X107.415 Y208.415 Z17.000 F300.000
G0 Z23.000
G0 X97.415 Z23.000
G0 X97.415 Z21.000
G1 X97.415 Y208.415 Z17.000 F300.000
G1 X97.415 Y11.585 Z17.000 F300.000
G1 X91.585 Y11.585 Z17.000 F300.000
G1 X91.585 Y208.415 Z17.000 F300.000
G1 X97.415 Y208.415 Z17.000 F300.000
G0 Z23.000
G0 X87.415 Z23.000
G0 X87.415 Z21.000
G1 X87.415 Y208.415 Z17.000 F300.000
G1 X87.415 Y11.585 Z17.000 F300.000
G1 X81.585 Y11.585 Z17.000 F300.000
G1 X81.585 Y208.415 Z17.000 F300.000
G1 X87.415 Y208.415 Z17.000 F300.000
G0 Z23.000
G0 X77.415 Z23.000
G0 X77.415 Z21.000
G1 X77.415 Y208.415 Z17.000 F300.000
G1 X77.415 Y11.585 Z17.000 F300.000
G1 X71.585 Y11.585 Z17.000 F300.000
G1 X71.585 Y208.415 Z17.000 F300.000
G1 X77.415 Y208.415 Z17.000 F300.000
G0 Z23.000
G0 X67.415 Z23.000
G0 X67.415 Z21.000
G1 X67.415 Y208.415 Z17.000 F300.000
G1 X67.415 Y11.585 Z17.000 F300.000
G1 X61.585 Y11.585 Z17.000 F300.000
G1 X61.585 Y208.415 Z17.000 F300.000
G1 X67.415 Y208.415 Z17.000 F300.000
G0 Z23.000
G0 X57.415 Z23.000
G0 X57.415 Z21.000
G1 X57.415 Y208.415 Z17.000 F300.000
G1 X57.415 Y11.585 Z17.000 F300.000
G1 X51.585 Y11.585 Z17.000 F300.000
G1 X51.585 Y208.415 Z17.000 F300.000
G1 X57.415 Y208.415 Z17.000 F300.000
G0 Z23.000
G0 X47.415 Z23.000
G0 X47.415 Z21.000
G1 X47.415 Y208.415 Z17.000 F300.000
G1 X47.415 Y11.585 Z17.000 F300.000
G1 X41.585 Y11.585 Z17.000 F300.000
G1 X41.585 Y208.415 Z17.000 F300.000
G1 X47.415 Y208.415 Z17.000 F300.000
G0 Z23.000
G0 X37.415 Z23.000
G0 X37.415 Z21.000
G1 X37.415 Y208.415 Z17.000 F300.000
G1 X37.415 Y11.585 Z17.000 F300.000
G1 X31.585 Y11.585 Z17.000 F300.000
G1 X31.585 Y208.415 Z17.000 F300.000
G1 X37.415 Y208.415 Z17.000 F300.000
G0 Z23.000
G0 X27.415 Z23.000
G0 X27.415 Z21.000
G1 X27.415 Y208.415 Z17.000 F300.000
G1 X27.415 Y11.585 Z17.000 F300.000
G1 X21.585 Y11.585 Z17.000 F300.000
G1 X21.585 Y208.415 Z17.000 F300.000
G1 X27.415 Y208.415 Z17.000 F300.000
G0 Z23.000
G0 X17.415 Z23.000
G0 X17.415 Z21.000
G1 X17.415 Y208.415 Z17.000 F300.000
G1 X17.415 Y11.585 Z17.000 F300.000
G1 X11.585 Y11.585 Z17.000 F300.000
G1 X11.585 Y208.415 Z17.000 F300.000
G1 X17.415 Y208.415 Z17.000 F300.000
G0 Z23.000
G0 Z23.000
(Finish operation: Profile)
(Begin postamble)
M5
G17 G90
M2
