(Exported by FreeCAD)
(Post Processor: grbl_post)
(Output Time:2025-04-18 10:12:08.349947)
(Begin preamble)
G17 G90
G21
(Begin operation: Fixture)
(Path: Fixture)
G54
(Finish operation: Fixture)
(Begin operation: endmill_compression_635_spe001)
(Path: endmill_compression_635_spe001)
(endmill_compression_635_spe001)
(Begin toolchange)
( M6 T3 )
M3 S18000
(Finish operation: endmill_compression_635_spe001)
(Begin operation: LeadInOutDressup)
(Path: LeadInOutDressup)
(Profile)
(Compensated Tool Path. Diameter: 6.35)
G0 X51.290 Y65.432 Z23.000
G0 Z21.000
G1 Z16.500 F500.000
G2 X65.432 Y65.432 Z16.500 I7.071 J-7.071 K-0.000 F500.000
G1 X65.432 Y65.432 Z16.500 F500.000
G2 X52.443 Y28.313 Z16.500 I-15.432 J-15.432 K0.000 F500.000
G2 X28.313 Y47.557 Z16.500 I-2.443 J21.687 K0.000 F500.000
G2 X47.557 Y71.687 Z16.500 I21.687 J2.443 K0.000 F500.000
G2 X65.432 Y65.432 Z16.500 I2.443 J-21.687 K0.000 F500.000
G2 X65.432 Y51.290 Z16.500 I-7.071 J-7.071 K-0.000 F500.000
G0 Z23.000
G0 X51.290 Y65.432 Z23.000
G0 Z21.000
G1 Z15.000 F500.000
G2 X65.432 Y65.432 Z15.000 I7.071 J-7.071 K-0.000 F500.000
G1 X65.432 Y65.432 Z15.000 F500.000
G2 X52.443 Y28.313 Z15.000 I-15.432 J-15.432 K0.000 F500.000
G2 X28.313 Y47.557 Z15.000 I-2.443 J21.687 K0.000 F500.000
G2 X47.557 Y71.687 Z15.000 I21.687 J2.443 K0.000 F500.000
G2 X65.432 Y65.432 Z15.000 I2.443 J-21.687 K0.000 F500.000
G2 X65.432 Y51.290 Z15.000 I-7.071 J-7.071 K-0.000 F500.000
G0 Z23.000
G0 X51.290 Y65.432 Z23.000
G0 Z21.000
G1 Z13.500 F500.000
G2 X65.432 Y65.432 Z13.500 I7.071 J-7.071 K-0.000 F500.000
G1 X65.432 Y65.432 Z13.500 F500.000
G2 X52.443 Y28.313 Z13.500 I-15.432 J-15.432 K0.000 F500.000
G2 X28.313 Y47.557 Z13.500 I-2.443 J21.687 K0.000 F500.000
G2 X47.557 Y71.687 Z13.500 I21.687 J2.443 K0.000 F500.000
G2 X65.432 Y65.432 Z13.500 I2.443 J-21.687 K0.000 F500.000
G2 X65.432 Y51.290 Z13.500 I-7.071 J-7.071 K-0.000 F500.000
G0 Z23.000
G0 X51.290 Y65.432 Z23.000
G0 Z21.000
G1 Z12.000 F500.000
G2 X65.432 Y65.432 Z12.000 I7.071 J-7.071 K-0.000 F500.000
G1 X65.432 Y65.432 Z12.000 F500.000
G2 X52.443 Y28.313 Z12.000 I-15.432 J-15.432 K0.000 F500.000
G2 X28.313 Y47.557 Z12.000 I-2.443 J21.687 K0.000 F500.000
G2 X47.557 Y71.687 Z12.000 I21.687 J2.443 K0.000 F500.000
G2 X65.432 Y65.432 Z12.000 I2.443 J-21.687 K0.000 F500.000
G2 X65.432 Y51.290 Z12.000 I-7.071 J-7.071 K-0.000 F500.000
G0 Z23.000
G0 X51.290 Y65.432 Z23.000
G0 Z21.000
G1 Z10.500 F500.000
G2 X65.432 Y65.432 Z10.500 I7.071 J-7.071 K-0.000 F500.000
G1 X65.432 Y65.432 Z10.500 F500.000
G2 X52.443 Y28.313 Z10.500 I-15.432 J-15.432 K0.000 F500.000
G2 X28.313 Y47.557 Z10.500 I-2.443 J21.687 K0.000 F500.000
G2 X47.557 Y71.687 Z10.500 I21.687 J2.443 K0.000 F500.000
G2 X65.432 Y65.432 Z10.500 I2.443 J-21.687 K0.000 F500.000
G2 X65.432 Y51.290 Z10.500 I-7.071 J-7.071 K-0.000 F500.000
G0 Z23.000
G0 X51.290 Y65.432 Z23.000
G0 Z21.000
G1 Z9.000 F500.000
G2 X65.432 Y65.432 Z9.000 I7.071 J-7.071 K-0.000 F500.000
G1 X65.432 Y65.432 Z9.000 F500.000
G2 X52.443 Y28.313 Z9.000 I-15.432 J-15.432 K0.000 F500.000
G2 X28.313 Y47.557 Z9.000 I-2.443 J21.687 K0.000 F500.000
G2 X47.557 Y71.687 Z9.000 I21.687 J2.443 K0.000 F500.000
G2 X65.432 Y65.432 Z9.000 I2.443 J-21.687 K0.000 F500.000
G2 X65.432 Y51.290 Z9.000 I-7.071 J-7.071 K-0.000 F500.000
G0 Z23.000
G0 X51.290 Y65.432 Z23.000
G0 Z21.000
G1 Z7.500 F500.000
G2 X65.432 Y65.432 Z7.500 I7.071 J-7.071 K-0.000 F500.000
G1 X65.432 Y65.432 Z7.500 F500.000
G2 X52.443 Y28.313 Z7.500 I-15.432 J-15.432 K0.000 F500.000
G2 X28.313 Y47.557 Z7.500 I-2.443 J21.687 K0.000 F500.000
G2 X47.557 Y71.687 Z7.500 I21.687 J2.443 K0.000 F500.000
G2 X65.432 Y65.432 Z7.500 I2.443 J-21.687 K0.000 F500.000
G2 X65.432 Y51.290 Z7.500 I-7.071 J-7.071 K-0.000 F500.000
G0 Z23.000
G0 X51.290 Y65.432 Z23.000
G0 Z21.000
G1 Z6.000 F500.000
G2 X65.432 Y65.432 Z6.000 I7.071 J-7.071 K-0.000 F500.000
G1 X65.432 Y65.432 Z6.000 F500.000
G2 X52.443 Y28.313 Z6.000 I-15.432 J-15.432 K0.000 F500.000
G2 X28.313 Y47.557 Z6.000 I-2.443 J21.687 K0.000 F500.000
G2 X47.557 Y71.687 Z6.000 I21.687 J2.443 K0.000 F500.000
G2 X65.432 Y65.432 Z6.000 I2.443 J-21.687 K0.000 F500.000
G2 X65.432 Y51.290 Z6.000 I-7.071 J-7.071 K-0.000 F500.000
G0 Z23.000
G0 X51.290 Y65.432 Z23.000
G0 Z21.000
G1 Z4.500 F500.000
G2 X65.432 Y65.432 Z4.500 I7.071 J-7.071 K-0.000 F500.000
G1 X65.432 Y65.432 Z4.500 F500.000
G2 X52.443 Y28.313 Z4.500 I-15.432 J-15.432 K0.000 F500.000
G2 X28.313 Y47.557 Z4.500 I-2.443 J21.687 K0.000 F500.000
G2 X47.557 Y71.687 Z4.500 I21.687 J2.443 K0.000 F500.000
G2 X65.432 Y65.432 Z4.500 I2.443 J-21.687 K0.000 F500.000
G2 X65.432 Y51.290 Z4.500 I-7.071 J-7.071 K-0.000 F500.000
G0 Z23.000
G0 X51.290 Y65.432 Z23.000
G0 Z21.000
G1 Z3.000 F500.000
G2 X65.432 Y65.432 Z3.000 I7.071 J-7.071 K-0.000 F500.000
G1 X65.432 Y65.432 Z3.000 F500.000
G2 X52.443 Y28.313 Z3.000 I-15.432 J-15.432 K0.000 F500.000
G2 X28.313 Y47.557 Z3.000 I-2.443 J21.687 K0.000 F500.000
G2 X47.557 Y71.687 Z3.000 I21.687 J2.443 K0.000 F500.000
G2 X65.432 Y65.432 Z3.000 I2.443 J-21.687 K0.000 F500.000
G2 X65.432 Y51.290 Z3.000 I-7.071 J-7.071 K-0.000 F500.000
G0 Z23.000
G0 X51.290 Y65.432 Z23.000
G0 Z21.000
G1 Z1.500 F500.000
G2 X65.432 Y65.432 Z1.500 I7.071 J-7.071 K-0.000 F500.000
G1 X65.432 Y65.432 Z1.500 F500.000
G2 X52.443 Y28.313 Z1.500 I-15.432 J-15.432 K0.000 F500.000
G2 X28.313 Y47.557 Z1.500 I-2.443 J21.687 K0.000 F500.000
G2 X47.557 Y71.687 Z1.500 I21.687 J2.443 K0.000 F500.000
G2 X65.432 Y65.432 Z1.500 I2.443 J-21.687 K0.000 F500.000
G2 X65.432 Y51.290 Z1.500 I-7.071 J-7.071 K-0.000 F500.000
G0 Z23.000
G0 X51.290 Y65.432 Z23.000
G0 Z21.000
G1 Z0.000 F500.000
G2 X65.432 Y65.432 Z0.000 I7.071 J-7.071 K-0.000 F500.000
G1 X65.432 Y65.432 Z0.000 F500.000
G2 X52.443 Y28.313 Z0.000 I-15.432 J-15.432 K0.000 F500.000
G2 X28.313 Y47.557 Z0.000 I-2.443 J21.687 K0.000 F500.000
G2 X47.557 Y71.687 Z0.000 I21.687 J2.443 K0.000 F500.000
G2 X65.432 Y65.432 Z0.000 I2.443 J-21.687 K0.000 F500.000
G2 X65.432 Y51.290 Z0.000 I-7.071 J-7.071 K-0.000 F500.000
G0 Z23.000
(Finish operation: LeadInOutDressup)
(Begin postamble)
M5
G17 G90
M2
