(Exported by FreeCAD)
(Post Processor: grbl_post)
(Output Time:2025-05-12 11:16:23.457833)
(Begin preamble)
G17 G90
G21
(Begin operation: Fixture)
(Path: Fixture)
G54
(Finish operation: Fixture)
(Begin operation: endmill_up_3175_spe003)
(Path: endmill_up_3175_spe003)
(endmill_up_3175_spe003)
(Begin toolchange)
( M6 T2 )
M3 S18000
(Finish operation: endmill_up_3175_spe003)
(Begin operation: Profile001)
(Path: Profile001)
(Profile001)
(Compensated Tool Path. Diameter: 3.17)
G0 Z23.000
G0 X298.415 Y207.415
G0 Z21.000
G1 X298.415 Y207.415 Z17.000 F300.000
G1 X298.415 Y201.585 Z17.000 F300.000
G1 X11.585 Y201.585 Z17.000 F300.000
G1 X11.585 Y207.415 Z17.000 F300.000
G1 X298.415 Y207.415 Z17.000 F300.000
G0 Z23.000
G0 Y197.415 Z23.000
G0 Y197.415 Z21.000
G1 X298.415 Y197.415 Z17.000 F300.000
G1 X298.415 Y191.585 Z17.000 F300.000
G1 X11.585 Y191.585 Z17.000 F300.000
G1 X11.585 Y197.415 Z17.000 F300.000
G1 X298.415 Y197.415 Z17.000 F300.000
G0 Z23.000
G0 Y187.415 Z23.000
G0 Y187.415 Z21.000
G1 X298.415 Y187.415 Z17.000 F300.000
G1 X298.415 Y181.585 Z17.000 F300.000
G1 X11.585 Y181.585 Z17.000 F300.000
G1 X11.585 Y187.415 Z17.000 F300.000
G1 X298.415 Y187.415 Z17.000 F300.000
G0 Z23.000
G0 Y177.415 Z23.000
G0 Y177.415 Z21.000
G1 X298.415 Y177.415 Z17.000 F300.000
G1 X298.415 Y171.585 Z17.000 F300.000
G1 X11.585 Y171.585 Z17.000 F300.000
G1 X11.585 Y177.415 Z17.000 F300.000
G1 X298.415 Y177.415 Z17.000 F300.000
G0 Z23.000
G0 Y167.415 Z23.000
G0 Y167.415 Z21.000
G1 X298.415 Y167.415 Z17.000 F300.000
G1 X298.415 Y161.585 Z17.000 F300.000
G1 X11.585 Y161.585 Z17.000 F300.000
G1 X11.585 Y167.415 Z17.000 F300.000
G1 X298.415 Y167.415 Z17.000 F300.000
G0 Z23.000
G0 Y157.415 Z23.000
G0 Y157.415 Z21.000
G1 X298.415 Y157.415 Z17.000 F300.000
G1 X298.415 Y151.585 Z17.000 F300.000
G1 X11.585 Y151.585 Z17.000 F300.000
G1 X11.585 Y157.415 Z17.000 F300.000
G1 X298.415 Y157.415 Z17.000 F300.000
G0 Z23.000
G0 Y147.415 Z23.000
G0 Y147.415 Z21.000
G1 X298.415 Y147.415 Z17.000 F300.000
G1 X298.415 Y141.585 Z17.000 F300.000
G1 X11.585 Y141.585 Z17.000 F300.000
G1 X11.585 Y147.415 Z17.000 F300.000
G1 X298.415 Y147.415 Z17.000 F300.000
G0 Z23.000
G0 Y137.415 Z23.000
G0 Y137.415 Z21.000
G1 X298.415 Y137.415 Z17.000 F300.000
G1 X298.415 Y131.585 Z17.000 F300.000
G1 X11.585 Y131.585 Z17.000 F300.000
G1 X11.585 Y137.415 Z17.000 F300.000
G1 X298.415 Y137.415 Z17.000 F300.000
G0 Z23.000
G0 Y127.415 Z23.000
G0 Y127.415 Z21.000
G1 X298.415 Y127.415 Z17.000 F300.000
G1 X298.415 Y121.585 Z17.000 F300.000
G1 X11.585 Y121.585 Z17.000 F300.000
G1 X11.585 Y127.415 Z17.000 F300.000
G1 X298.415 Y127.415 Z17.000 F300.000
G0 Z23.000
G0 Y117.415 Z23.000
G0 Y117.415 Z21.000
G1 X298.415 Y117.415 Z17.000 F300.000
G1 X298.415 Y111.585 Z17.000 F300.000
G1 X11.585 Y111.585 Z17.000 F300.000
G1 X11.585 Y117.415 Z17.000 F300.000
G1 X298.415 Y117.415 Z17.000 F300.000
G0 Z23.000
G0 Y107.415 Z23.000
G0 Y107.415 Z21.000
G1 X298.415 Y107.415 Z17.000 F300.000
G1 X298.415 Y101.585 Z17.000 F300.000
G1 X11.585 Y101.585 Z17.000 F300.000
G1 X11.585 Y107.415 Z17.000 F300.000
G1 X298.415 Y107.415 Z17.000 F300.000
G0 Z23.000
G0 Y97.415 Z23.000
G0 Y97.415 Z21.000
G1 X298.415 Y97.415 Z17.000 F300.000
G1 X298.415 Y91.585 Z17.000 F300.000
G1 X11.585 Y91.585 Z17.000 F300.000
G1 X11.585 Y97.415 Z17.000 F300.000
G1 X298.415 Y97.415 Z17.000 F300.000
G0 Z23.000
G0 Y87.415 Z23.000
G0 Y87.415 Z21.000
G1 X298.415 Y87.415 Z17.000 F300.000
G1 X298.415 Y81.585 Z17.000 F300.000
G1 X11.585 Y81.585 Z17.000 F300.000
G1 X11.585 Y87.415 Z17.000 F300.000
G1 X298.415 Y87.415 Z17.000 F300.000
G0 Z23.000
G0 Y77.415 Z23.000
G0 Y77.415 Z21.000
G1 X298.415 Y77.415 Z17.000 F300.000
G1 X298.415 Y71.585 Z17.000 F300.000
G1 X11.585 Y71.585 Z17.000 F300.000
G1 X11.585 Y77.415 Z17.000 F300.000
G1 X298.415 Y77.415 Z17.000 F300.000
G0 Z23.000
G0 Y67.415 Z23.000
G0 Y67.415 Z21.000
G1 X298.415 Y67.415 Z17.000 F300.000
G1 X298.415 Y61.585 Z17.000 F300.000
G1 X11.585 Y61.585 Z17.000 F300.000
G1 X11.585 Y67.415 Z17.000 F300.000
G1 X298.415 Y67.415 Z17.000 F300.000
G0 Z23.000
G0 Y57.415 Z23.000
G0 Y57.415 Z21.000
G1 X298.415 Y57.415 Z17.000 F300.000
G1 X298.415 Y51.585 Z17.000 F300.000
G1 X11.585 Y51.585 Z17.000 F300.000
G1 X11.585 Y57.415 Z17.000 F300.000
G1 X298.415 Y57.415 Z17.000 F300.000
G0 Z23.000
G0 Y47.415 Z23.000
G0 Y47.415 Z21.000
G1 X298.415 Y47.415 Z17.000 F300.000
G1 X298.415 Y41.585 Z17.000 F300.000
G1 X11.585 Y41.585 Z17.000 F300.000
G1 X11.585 Y47.415 Z17.000 F300.000
G1 X298.415 Y47.415 Z17.000 F300.000
G0 Z23.000
G0 Y37.415 Z23.000
G0 Y37.415 Z21.000
G1 X298.415 Y37.415 Z17.000 F300.000
G1 X298.415 Y31.585 Z17.000 F300.000
G1 X11.585 Y31.585 Z17.000 F300.000
G1 X11.585 Y37.415 Z17.000 F300.000
G1 X298.415 Y37.415 Z17.000 F300.000
G0 Z23.000
G0 Y27.415 Z23.000
G0 Y27.415 Z21.000
G1 X298.415 Y27.415 Z17.000 F300.000
G1 X298.415 Y21.585 Z17.000 F300.000
G1 X11.585 Y21.585 Z17.000 F300.000
G1 X11.585 Y27.415 Z17.000 F300.000
G1 X298.415 Y27.415 Z17.000 F300.000
G0 Z23.000
G0 Y17.415 Z23.000
G0 Y17.415 Z21.000
G1 X298.415 Y17.415 Z17.000 F300.000
G1 X298.415 Y11.585 Z17.000 F300.000
G1 X11.585 Y11.585 Z17.000 F300.000
G1 X11.585 Y17.415 Z17.000 F300.000
G1 X298.415 Y17.415 Z17.000 F300.000
G0 Z23.000
G0 Z23.000
(Finish operation: Profile001)
(Begin postamble)
M5
G17 G90
M2
