(Exported by FreeCAD)
(Post Processor: grbl_post)
(Output Time:2025-04-20 11:21:45.446745)
(Begin preamble)
G17 G90
G21
(Begin operation: Fixture)
(Path: Fixture)
G54
(Finish operation: Fixture)
(Begin operation: endmill_compression_635_spe001)
(Path: endmill_compression_635_spe001)
(endmill_compression_635_spe001)
(Begin toolchange)
( M6 T2 )
M3 S18000
(Finish operation: endmill_compression_635_spe001)
(Begin operation: Profile)
(Path: Profile)
(Profile)
(Compensated Tool Path. Diameter: 6.35)
G0 Z25.000
G0 X34.396 Y34.396
G0 Z23.000
G1 X34.396 Y34.396 Z17.000 F400.000
G2 X24.609 Y5.809 Z17.000 I-11.896 J-11.896 K0.000 F400.000
G2 X5.809 Y20.391 Z17.000 I-2.109 J16.691 K0.000 F400.000
G2 X20.391 Y39.191 Z17.000 I16.691 J2.109 K0.000 F400.000
G2 X34.396 Y34.396 Z17.000 I2.109 J-16.691 K0.000 F400.000
G1 X34.396 Y34.396 Z14.000 F400.000
G2 X24.609 Y5.809 Z14.000 I-11.896 J-11.896 K0.000 F400.000
G2 X5.809 Y20.391 Z14.000 I-2.109 J16.691 K0.000 F400.000
G2 X20.391 Y39.191 Z14.000 I16.691 J2.109 K0.000 F400.000
G2 X34.396 Y34.396 Z14.000 I2.109 J-16.691 K0.000 F400.000
G1 X34.396 Y34.396 Z11.000 F400.000
G2 X24.609 Y5.809 Z11.000 I-11.896 J-11.896 K0.000 F400.000
G2 X5.809 Y20.391 Z11.000 I-2.109 J16.691 K0.000 F400.000
G2 X20.391 Y39.191 Z11.000 I16.691 J2.109 K0.000 F400.000
G2 X34.396 Y34.396 Z11.000 I2.109 J-16.691 K0.000 F400.000
G1 X34.396 Y34.396 Z8.000 F400.000
G2 X24.609 Y5.809 Z8.000 I-11.896 J-11.896 K0.000 F400.000
G2 X5.809 Y20.391 Z8.000 I-2.109 J16.691 K0.000 F400.000
G2 X20.391 Y39.191 Z8.000 I16.691 J2.109 K0.000 F400.000
G2 X34.396 Y34.396 Z8.000 I2.109 J-16.691 K0.000 F400.000
G1 X34.396 Y34.396 Z5.000 F400.000
G2 X24.609 Y5.809 Z5.000 I-11.896 J-11.896 K0.000 F400.000
G2 X5.809 Y20.391 Z5.000 I-2.109 J16.691 K0.000 F400.000
G2 X20.391 Y39.191 Z5.000 I16.691 J2.109 K0.000 F400.000
G2 X34.396 Y34.396 Z5.000 I2.109 J-16.691 K0.000 F400.000
G1 X34.396 Y34.396 Z2.000 F400.000
G2 X24.609 Y5.809 Z2.000 I-11.896 J-11.896 K0.000 F400.000
G2 X5.809 Y20.391 Z2.000 I-2.109 J16.691 K0.000 F400.000
G2 X20.391 Y39.191 Z2.000 I16.691 J2.109 K0.000 F400.000
G2 X34.396 Y34.396 Z2.000 I2.109 J-16.691 K0.000 F400.000
G1 X34.396 Y34.396 Z0.000 F400.000
G2 X24.609 Y5.809 Z0.000 I-11.896 J-11.896 K0.000 F400.000
G2 X5.809 Y20.391 Z0.000 I-2.109 J16.691 K0.000 F400.000
G2 X20.391 Y39.191 Z0.000 I16.691 J2.109 K0.000 F400.000
G2 X34.396 Y34.396 Z0.000 I2.109 J-16.691 K0.000 F400.000
G0 Z25.000
G0 Z25.000
(Finish operation: Profile)
(Begin postamble)
M5
G17 G90
M2
