(Exported by FreeCAD)
(Post Processor: script_module)
(Output Time:2025-05-17 11:06:13.560764)
(Begin preamble)
G17 G90
G21
(Begin operation: Fixture)
(Path: Fixture)
G54
(Finish operation: Fixture)
(Begin operation: endmill_compression_3175_spe001)
(Path: endmill_compression_3175_spe001)
(endmill_compression_3175_spe001)
(Begin toolchange)
( M6 T2 )
M3 S18000
(Finish operation: endmill_compression_3175_spe001)
(Begin operation: Pocket_Shape)
(Path: Pocket_Shape)
(Pocket_Shape)
G0 Z15.000
G0 X233.096 Y233.120
G0 Z13.000
G1 X233.096 Y233.120 Z9.500 F600.000
G1 X234.409 Y231.807 Z9.500 F600.000
G0 Z15.000
G0 Y231.383 Z15.000
G0 Y231.383 Z13.000
G1 X234.409 Y231.383 Z9.500 F600.000
G1 X39.316 Y36.290 Z9.500 F600.000
G0 Z15.000
G0 X38.892 Z15.000
G0 X38.892 Z13.000
G1 X38.892 Y36.290 Z9.500 F600.000
G1 X37.579 Y37.603 Z9.500 F600.000
G0 Z15.000
G0 Y38.028 Z15.000
G0 Y38.028 Z13.000
G1 X37.579 Y38.028 Z9.500 F600.000
G1 X232.671 Y233.120 Z9.500 F600.000
G0 Z15.000
G0 X232.088 Z15.000
G0 X232.088 Z13.000
G1 X232.088 Y233.120 Z9.500 F600.000
G1 X234.409 Y230.799 Z9.500 F600.000
G0 Z15.000
G0 Y230.375 Z15.000
G0 Y230.375 Z13.000
G1 X234.409 Y230.375 Z9.500 F600.000
G1 X40.324 Y36.290 Z9.500 F600.000
G0 Z15.000
G0 X39.900 Z15.000
G0 X39.900 Z13.000
G1 X39.900 Y36.290 Z9.500 F600.000
G1 X37.579 Y38.611 Z9.500 F600.000
G0 Z15.000
G0 Y39.036 Z15.000
G0 Y39.036 Z13.000
G1 X37.579 Y39.036 Z9.500 F600.000
G1 X231.663 Y233.120 Z9.500 F600.000
G0 Z15.000
G0 X228.613 Z15.000
G0 X228.613 Z13.000
G1 X228.613 Y233.120 Z9.500 F600.000
G1 X234.409 Y227.324 Z9.500 F600.000
G0 Z15.000
G0 Y226.900 Z15.000
G0 Y226.900 Z13.000
G1 X234.409 Y226.900 Z9.500 F600.000
G1 X43.799 Y36.290 Z9.500 F600.000
G0 Z15.000
G0 X43.375 Z15.000
G0 X43.375 Z13.000
G1 X43.375 Y36.290 Z9.500 F600.000
G1 X37.579 Y42.086 Z9.500 F600.000
G0 Z15.000
G0 Y42.511 Z15.000
G0 Y42.511 Z13.000
G1 X37.579 Y42.511 Z9.500 F600.000
G1 X228.188 Y233.120 Z9.500 F600.000
G0 Z15.000
G0 X227.605 Z15.000
G0 X227.605 Z13.000
G1 X227.605 Y233.120 Z9.500 F600.000
G1 X234.409 Y226.316 Z9.500 F600.000
G0 Z15.000
G0 Y225.892 Z15.000
G0 Y225.892 Z13.000
G1 X234.409 Y225.892 Z9.500 F600.000
G1 X44.807 Y36.290 Z9.500 F600.000
G0 Z15.000
G0 X44.383 Z15.000
G0 X44.383 Z13.000
G1 X44.383 Y36.290 Z9.500 F600.000
G1 X37.579 Y43.094 Z9.500 F600.000
G0 Z15.000
G0 Y43.519 Z15.000
G0 Y43.519 Z13.000
G1 X37.579 Y43.519 Z9.500 F600.000
G1 X227.180 Y233.120 Z9.500 F600.000
G0 Z15.000
G0 X224.130 Z15.000
G0 X224.130 Z13.000
G1 X224.130 Y233.120 Z9.500 F600.000
G1 X234.409 Y222.841 Z9.500 F600.000
G0 Z15.000
G0 Y222.416 Z15.000
G0 Y222.416 Z13.000
G1 X234.409 Y222.416 Z9.500 F600.000
G1 X48.282 Y36.290 Z9.500 F600.000
G0 Z15.000
G0 X47.858 Z15.000
G0 X47.858 Z13.000
G1 X47.858 Y36.290 Z9.500 F600.000
G1 X37.579 Y46.569 Z9.500 F600.000
G0 Z15.000
G0 Y46.994 Z15.000
G0 Y46.994 Z13.000
G1 X37.579 Y46.994 Z9.500 F600.000
G1 X223.705 Y233.120 Z9.500 F600.000
G0 Z15.000
G0 X223.122 Z15.000
G0 X223.122 Z13.000
G1 X223.122 Y233.120 Z9.500 F600.000
G1 X234.409 Y221.833 Z9.500 F600.000
G0 Z15.000
G0 Y221.409 Z15.000
G0 Y221.409 Z13.000
G1 X234.409 Y221.409 Z9.500 F600.000
G1 X49.290 Y36.290 Z9.500 F600.000
G0 Z15.000
G0 X48.866 Z15.000
G0 X48.866 Z13.000
G1 X48.866 Y36.290 Z9.500 F600.000
G1 X37.579 Y47.577 Z9.500 F600.000
G0 Z15.000
G0 Y48.002 Z15.000
G0 Y48.002 Z13.000
G1 X37.579 Y48.002 Z9.500 F600.000
G1 X222.697 Y233.120 Z9.500 F600.000
G0 Z15.000
G0 X219.647 Z15.000
G0 X219.647 Z13.000
G1 X219.647 Y233.120 Z9.500 F600.000
G1 X234.409 Y218.358 Z9.500 F600.000
G0 Z15.000
G0 Y217.933 Z15.000
G0 Y217.933 Z13.000
G1 X234.409 Y217.933 Z9.500 F600.000
G1 X52.765 Y36.290 Z9.500 F600.000
G0 Z15.000
G0 X52.341 Z15.000
G0 X52.341 Z13.000
G1 X52.341 Y36.290 Z9.500 F600.000
G1 X37.579 Y51.052 Z9.500 F600.000
G0 Z15.000
G0 Y51.477 Z15.000
G0 Y51.477 Z13.000
G1 X37.579 Y51.477 Z9.500 F600.000
G1 X219.222 Y233.120 Z9.500 F600.000
G0 Z15.000
G0 X218.639 Z15.000
G0 X218.639 Z13.000
G1 X218.639 Y233.120 Z9.500 F600.000
G1 X234.409 Y217.350 Z9.500 F600.000
G0 Z15.000
G0 Y216.926 Z15.000
G0 Y216.926 Z13.000
G1 X234.409 Y216.926 Z9.500 F600.000
G1 X53.773 Y36.290 Z9.500 F600.000
G0 Z15.000
G0 X53.349 Z15.000
G0 X53.349 Z13.000
G1 X53.349 Y36.290 Z9.500 F600.000
G1 X37.579 Y52.060 Z9.500 F600.000
G0 Z15.000
G0 Y52.485 Z15.000
G0 Y52.485 Z13.000
G1 X37.579 Y52.485 Z9.500 F600.000
G1 X218.214 Y233.120 Z9.500 F600.000
G0 Z15.000
G0 X215.163 Z15.000
G0 X215.163 Z13.000
G1 X215.163 Y233.120 Z9.500 F600.000
G1 X234.409 Y213.875 Z9.500 F600.000
G0 Z15.000
G0 Y213.450 Z15.000
G0 Y213.450 Z13.000
G1 X234.409 Y213.450 Z9.500 F600.000
G1 X57.249 Y36.290 Z9.500 F600.000
G0 Z15.000
G0 X56.824 Z15.000
G0 X56.824 Z13.000
G1 X56.824 Y36.290 Z9.500 F600.000
G1 X37.579 Y55.535 Z9.500 F600.000
G0 Z15.000
G0 Y55.960 Z15.000
G0 Y55.960 Z13.000
G1 X37.579 Y55.960 Z9.500 F600.000
G1 X214.739 Y233.120 Z9.500 F600.000
G0 Z15.000
G0 X214.156 Z15.000
G0 X214.156 Z13.000
G1 X214.156 Y233.120 Z9.500 F600.000
G1 X234.409 Y212.867 Z9.500 F600.000
G0 Z15.000
G0 Y212.442 Z15.000
G0 Y212.442 Z13.000
G1 X234.409 Y212.442 Z9.500 F600.000
G1 X58.256 Y36.290 Z9.500 F600.000
G0 Z15.000
G0 X57.832 Z15.000
G0 X57.832 Z13.000
G1 X57.832 Y36.290 Z9.500 F600.000
G1 X37.579 Y56.543 Z9.500 F600.000
G0 Z15.000
G0 Y56.968 Z15.000
G0 Y56.968 Z13.000
G1 X37.579 Y56.968 Z9.500 F600.000
G1 X213.731 Y233.120 Z9.500 F600.000
G0 Z15.000
G0 X210.680 Z15.000
G0 X210.680 Z13.000
G1 X210.680 Y233.120 Z9.500 F600.000
G1 X234.409 Y209.392 Z9.500 F600.000
G0 Z15.000
G0 Y208.967 Z15.000
G0 Y208.967 Z13.000
G1 X234.409 Y208.967 Z9.500 F600.000
G1 X61.732 Y36.290 Z9.500 F600.000
G0 Z15.000
G0 X61.307 Z15.000
G0 X61.307 Z13.000
G1 X61.307 Y36.290 Z9.500 F600.000
G1 X37.579 Y60.019 Z9.500 F600.000
G0 Z15.000
G0 Y60.443 Z15.000
G0 Y60.443 Z13.000
G1 X37.579 Y60.443 Z9.500 F600.000
G1 X210.256 Y233.120 Z9.500 F600.000
G0 Z15.000
G0 X209.672 Z15.000
G0 X209.672 Z13.000
G1 X209.672 Y233.120 Z9.500 F600.000
G1 X234.409 Y208.384 Z9.500 F600.000
G0 Z15.000
G0 Y207.959 Z15.000
G0 Y207.959 Z13.000
G1 X234.409 Y207.959 Z9.500 F600.000
G1 X62.740 Y36.290 Z9.500 F600.000
G0 Z15.000
G0 X62.315 Z15.000
G0 X62.315 Z13.000
G1 X62.315 Y36.290 Z9.500 F600.000
G1 X37.579 Y61.026 Z9.500 F600.000
G0 Z15.000
G0 Y61.451 Z15.000
G0 Y61.451 Z13.000
G1 X37.579 Y61.451 Z9.500 F600.000
G1 X209.248 Y233.120 Z9.500 F600.000
G0 Z15.000
G0 X206.197 Z15.000
G0 X206.197 Z13.000
G1 X206.197 Y233.120 Z9.500 F600.000
G1 X234.409 Y204.909 Z9.500 F600.000
G0 Z15.000
G0 Y204.484 Z15.000
G0 Y204.484 Z13.000
G1 X234.409 Y204.484 Z9.500 F600.000
G1 X66.215 Y36.290 Z9.500 F600.000
G0 Z15.000
G0 X65.790 Z15.000
G0 X65.790 Z13.000
G1 X65.790 Y36.290 Z9.500 F600.000
G1 X37.579 Y64.502 Z9.500 F600.000
G0 Z15.000
G0 Y64.926 Z15.000
G0 Y64.926 Z13.000
G1 X37.579 Y64.926 Z9.500 F600.000
G1 X205.773 Y233.120 Z9.500 F600.000
G0 Z15.000
G0 X205.189 Z15.000
G0 X205.189 Z13.000
G1 X205.189 Y233.120 Z9.500 F600.000
G1 X234.409 Y203.901 Z9.500 F600.000
G0 Z15.000
G0 Y203.476 Z15.000
G0 Y203.476 Z13.000
G1 X234.409 Y203.476 Z9.500 F600.000
G1 X67.223 Y36.290 Z9.500 F600.000
G0 Z15.000
G0 X66.798 Z15.000
G0 X66.798 Z13.000
G1 X66.798 Y36.290 Z9.500 F600.000
G1 X37.579 Y65.510 Z9.500 F600.000
G0 Z15.000
G0 Y65.934 Z15.000
G0 Y65.934 Z13.000
G1 X37.579 Y65.934 Z9.500 F600.000
G1 X204.765 Y233.120 Z9.500 F600.000
G0 Z15.000
G0 X201.714 Z15.000
G0 X201.714 Z13.000
G1 X201.714 Y233.120 Z9.500 F600.000
G1 X234.409 Y200.426 Z9.500 F600.000
G0 Z15.000
G0 Y200.001 Z15.000
G0 Y200.001 Z13.000
G1 X234.409 Y200.001 Z9.500 F600.000
G1 X70.698 Y36.290 Z9.500 F600.000
G0 Z15.000
G0 X70.273 Z15.000
G0 X70.273 Z13.000
G1 X70.273 Y36.290 Z9.500 F600.000
G1 X37.579 Y68.985 Z9.500 F600.000
G0 Z15.000
G0 Y69.409 Z15.000
G0 Y69.409 Z13.000
G1 X37.579 Y69.409 Z9.500 F600.000
G1 X201.290 Y233.120 Z9.500 F600.000
G0 Z15.000
G0 X200.706 Z15.000
G0 X200.706 Z13.000
G1 X200.706 Y233.120 Z9.500 F600.000
G1 X234.409 Y199.418 Z9.500 F600.000
G0 Z15.000
G0 Y198.993 Z15.000
G0 Y198.993 Z13.000
G1 X234.409 Y198.993 Z9.500 F600.000
G1 X71.706 Y36.290 Z9.500 F600.000
G0 Z15.000
G0 X71.281 Z15.000
G0 X71.281 Z13.000
G1 X71.281 Y36.290 Z9.500 F600.000
G1 X37.579 Y69.993 Z9.500 F600.000
G0 Z15.000
G0 Y70.417 Z15.000
G0 Y70.417 Z13.000
G1 X37.579 Y70.417 Z9.500 F600.000
G1 X200.282 Y233.120 Z9.500 F600.000
G0 Z15.000
G0 X197.231 Z15.000
G0 X197.231 Z13.000
G1 X197.231 Y233.120 Z9.500 F600.000
G1 X234.409 Y195.943 Z9.500 F600.000
G0 Z15.000
G0 Y195.518 Z15.000
G0 Y195.518 Z13.000
G1 X234.409 Y195.518 Z9.500 F600.000
G1 X75.181 Y36.290 Z9.500 F600.000
G0 Z15.000
G0 X74.756 Z15.000
G0 X74.756 Z13.000
G1 X74.756 Y36.290 Z9.500 F600.000
G1 X37.579 Y73.468 Z9.500 F600.000
G0 Z15.000
G0 Y73.892 Z15.000
G0 Y73.892 Z13.000
G1 X37.579 Y73.892 Z9.500 F600.000
G1 X196.807 Y233.120 Z9.500 F600.000
G0 Z15.000
G0 X196.223 Z15.000
G0 X196.223 Z13.000
G1 X196.223 Y233.120 Z9.500 F600.000
G1 X234.409 Y194.935 Z9.500 F600.000
G0 Z15.000
G0 Y194.510 Z15.000
G0 Y194.510 Z13.000
G1 X234.409 Y194.510 Z9.500 F600.000
G1 X76.189 Y36.290 Z9.500 F600.000
G0 Z15.000
G0 X75.764 Z15.000
G0 X75.764 Z13.000
G1 X75.764 Y36.290 Z9.500 F600.000
G1 X37.579 Y74.476 Z9.500 F600.000
G0 Z15.000
G0 Y74.900 Z15.000
G0 Y74.900 Z13.000
G1 X37.579 Y74.900 Z9.500 F600.000
G1 X195.799 Y233.120 Z9.500 F600.000
G0 Z15.000
G0 X192.748 Z15.000
G0 X192.748 Z13.000
G1 X192.748 Y233.120 Z9.500 F600.000
G1 X234.409 Y191.460 Z9.500 F600.000
G0 Z15.000
G0 Y191.035 Z15.000
G0 Y191.035 Z13.000
G1 X234.409 Y191.035 Z9.500 F600.000
G1 X79.664 Y36.290 Z9.500 F600.000
G0 Z15.000
G0 X79.239 Z15.000
G0 X79.239 Z13.000
G1 X79.239 Y36.290 Z9.500 F600.000
G1 X37.579 Y77.951 Z9.500 F600.000
G0 Z15.000
G0 Y78.375 Z15.000
G0 Y78.375 Z13.000
G1 X37.579 Y78.375 Z9.500 F600.000
G1 X192.324 Y233.120 Z9.500 F600.000
G0 Z15.000
G0 X191.740 Z15.000
G0 X191.740 Z13.000
G1 X191.740 Y233.120 Z9.500 F600.000
G1 X234.409 Y190.452 Z9.500 F600.000
G0 Z15.000
G0 Y190.027 Z15.000
G0 Y190.027 Z13.000
G1 X234.409 Y190.027 Z9.500 F600.000
G1 X80.672 Y36.290 Z9.500 F600.000
G0 Z15.000
G0 X80.247 Z15.000
G0 X80.247 Z13.000
G1 X80.247 Y36.290 Z9.500 F600.000
G1 X37.579 Y78.959 Z9.500 F600.000
G0 Z15.000
G0 Y79.383 Z15.000
G0 Y79.383 Z13.000
G1 X37.579 Y79.383 Z9.500 F600.000
G1 X191.316 Y233.120 Z9.500 F600.000
G0 Z15.000
G0 X188.265 Z15.000
G0 X188.265 Z13.000
G1 X188.265 Y233.120 Z9.500 F600.000
G1 X234.409 Y186.977 Z9.500 F600.000
G0 Z15.000
G0 Y186.552 Z15.000
G0 Y186.552 Z13.000
G1 X234.409 Y186.552 Z9.500 F600.000
G1 X84.147 Y36.290 Z9.500 F600.000
G0 Z15.000
G0 X83.722 Z15.000
G0 X83.722 Z13.000
G1 X83.722 Y36.290 Z9.500 F600.000
G1 X37.579 Y82.434 Z9.500 F600.000
G0 Z15.000
G0 Y82.858 Z15.000
G0 Y82.858 Z13.000
G1 X37.579 Y82.858 Z9.500 F600.000
G1 X187.841 Y233.120 Z9.500 F600.000
G0 Z15.000
G0 X187.257 Z15.000
G0 X187.257 Z13.000
G1 X187.257 Y233.120 Z9.500 F600.000
G1 X234.409 Y185.969 Z9.500 F600.000
G0 Z15.000
G0 Y185.544 Z15.000
G0 Y185.544 Z13.000
G1 X234.409 Y185.544 Z9.500 F600.000
G1 X85.155 Y36.290 Z9.500 F600.000
G0 Z15.000
G0 X84.730 Z15.000
G0 X84.730 Z13.000
G1 X84.730 Y36.290 Z9.500 F600.000
G1 X37.579 Y83.442 Z9.500 F600.000
G0 Z15.000
G0 Y83.866 Z15.000
G0 Y83.866 Z13.000
G1 X37.579 Y83.866 Z9.500 F600.000
G1 X186.833 Y233.120 Z9.500 F600.000
G0 Z15.000
G0 X183.782 Z15.000
G0 X183.782 Z13.000
G1 X183.782 Y233.120 Z9.500 F600.000
G1 X234.409 Y182.493 Z9.500 F600.000
G0 Z15.000
G0 Y182.069 Z15.000
G0 Y182.069 Z13.000
G1 X234.409 Y182.069 Z9.500 F600.000
G1 X88.630 Y36.290 Z9.500 F600.000
G0 Z15.000
G0 X88.205 Z15.000
G0 X88.205 Z13.000
G1 X88.205 Y36.290 Z9.500 F600.000
G1 X37.579 Y86.917 Z9.500 F600.000
G0 Z15.000
G0 Y87.341 Z15.000
G0 Y87.341 Z13.000
G1 X37.579 Y87.341 Z9.500 F600.000
G1 X183.358 Y233.120 Z9.500 F600.000
G0 Z15.000
G0 X182.774 Z15.000
G0 X182.774 Z13.000
G1 X182.774 Y233.120 Z9.500 F600.000
G1 X234.409 Y181.486 Z9.500 F600.000
G0 Z15.000
G0 Y181.061 Z15.000
G0 Y181.061 Z13.000
G1 X234.409 Y181.061 Z9.500 F600.000
G1 X89.638 Y36.290 Z9.500 F600.000
G0 Z15.000
G0 X89.213 Z15.000
G0 X89.213 Z13.000
G1 X89.213 Y36.290 Z9.500 F600.000
G1 X37.579 Y87.925 Z9.500 F600.000
G0 Z15.000
G0 Y88.349 Z15.000
G0 Y88.349 Z13.000
G1 X37.579 Y88.349 Z9.500 F600.000
G1 X182.350 Y233.120 Z9.500 F600.000
G0 Z15.000
G0 X179.299 Z15.000
G0 X179.299 Z13.000
G1 X179.299 Y233.120 Z9.500 F600.000
G1 X234.409 Y178.010 Z9.500 F600.000
G0 Z15.000
G0 Y177.586 Z15.000
G0 Y177.586 Z13.000
G1 X234.409 Y177.586 Z9.500 F600.000
G1 X93.113 Y36.290 Z9.500 F600.000
G0 Z15.000
G0 X92.688 Z15.000
G0 X92.688 Z13.000
G1 X92.688 Y36.290 Z9.500 F600.000
G1 X37.579 Y91.400 Z9.500 F600.000
G0 Z15.000
G0 Y91.824 Z15.000
G0 Y91.824 Z13.000
G1 X37.579 Y91.824 Z9.500 F600.000
G1 X178.875 Y233.120 Z9.500 F600.000
G0 Z15.000
G0 X178.291 Z15.000
G0 X178.291 Z13.000
G1 X178.291 Y233.120 Z9.500 F600.000
G1 X234.409 Y177.003 Z9.500 F600.000
G0 Z15.000
G0 Y176.578 Z15.000
G0 Y176.578 Z13.000
G1 X234.409 Y176.578 Z9.500 F600.000
G1 X94.121 Y36.290 Z9.500 F600.000
G0 Z15.000
G0 X93.696 Z15.000
G0 X93.696 Z13.000
G1 X93.696 Y36.290 Z9.500 F600.000
G1 X37.579 Y92.408 Z9.500 F600.000
G0 Z15.000
G0 Y92.832 Z15.000
G0 Y92.832 Z13.000
G1 X37.579 Y92.832 Z9.500 F600.000
G1 X177.867 Y233.120 Z9.500 F600.000
G0 Z15.000
G0 X174.816 Z15.000
G0 X174.816 Z13.000
G1 X174.816 Y233.120 Z9.500 F600.000
G1 X234.409 Y173.527 Z9.500 F600.000
G0 Z15.000
G0 Y173.103 Z15.000
G0 Y173.103 Z13.000
G1 X234.409 Y173.103 Z9.500 F600.000
G1 X97.596 Y36.290 Z9.500 F600.000
G0 Z15.000
G0 X97.172 Z15.000
G0 X97.172 Z13.000
G1 X97.172 Y36.290 Z9.500 F600.000
G1 X37.579 Y95.883 Z9.500 F600.000
G0 Z15.000
G0 Y96.307 Z15.000
G0 Y96.307 Z13.000
G1 X37.579 Y96.307 Z9.500 F600.000
G1 X174.391 Y233.120 Z9.500 F600.000
G0 Z15.000
G0 X173.808 Z15.000
G0 X173.808 Z13.000
G1 X173.808 Y233.120 Z9.500 F600.000
G1 X234.409 Y172.519 Z9.500 F600.000
G0 Z15.000
G0 Y172.095 Z15.000
G0 Y172.095 Z13.000
G1 X234.409 Y172.095 Z9.500 F600.000
G1 X98.604 Y36.290 Z9.500 F600.000
G0 Z15.000
G0 X98.179 Z15.000
G0 X98.179 Z13.000
G1 X98.179 Y36.290 Z9.500 F600.000
G1 X37.579 Y96.891 Z9.500 F600.000
G0 Z15.000
G0 Y97.315 Z15.000
G0 Y97.315 Z13.000
G1 X37.579 Y97.315 Z9.500 F600.000
G1 X173.384 Y233.120 Z9.500 F600.000
G0 Z15.000
G0 X170.333 Z15.000
G0 X170.333 Z13.000
G1 X170.333 Y233.120 Z9.500 F600.000
G1 X234.409 Y169.044 Z9.500 F600.000
G0 Z15.000
G0 Y168.620 Z15.000
G0 Y168.620 Z13.000
G1 X234.409 Y168.620 Z9.500 F600.000
G1 X102.079 Y36.290 Z9.500 F600.000
G0 Z15.000
G0 X101.655 Z15.000
G0 X101.655 Z13.000
G1 X101.655 Y36.290 Z9.500 F600.000
G1 X37.579 Y100.366 Z9.500 F600.000
G0 Z15.000
G0 Y100.791 Z15.000
G0 Y100.791 Z13.000
G1 X37.579 Y100.791 Z9.500 F600.000
G1 X169.908 Y233.120 Z9.500 F600.000
G0 Z15.000
G0 X169.325 Z15.000
G0 X169.325 Z13.000
G1 X169.325 Y233.120 Z9.500 F600.000
G1 X234.409 Y168.036 Z9.500 F600.000
G0 Z15.000
G0 Y167.612 Z15.000
G0 Y167.612 Z13.000
G1 X234.409 Y167.612 Z9.500 F600.000
G1 X103.087 Y36.290 Z9.500 F600.000
G0 Z15.000
G0 X102.663 Z15.000
G0 X102.663 Z13.000
G1 X102.663 Y36.290 Z9.500 F600.000
G1 X37.579 Y101.374 Z9.500 F600.000
G0 Z15.000
G0 Y101.798 Z15.000
G0 Y101.798 Z13.000
G1 X37.579 Y101.798 Z9.500 F600.000
G1 X168.900 Y233.120 Z9.500 F600.000
G0 Z15.000
G0 X165.850 Z15.000
G0 X165.850 Z13.000
G1 X165.850 Y233.120 Z9.500 F600.000
G1 X234.409 Y164.561 Z9.500 F600.000
G0 Z15.000
G0 Y164.137 Z15.000
G0 Y164.137 Z13.000
G1 X234.409 Y164.137 Z9.500 F600.000
G1 X106.562 Y36.290 Z9.500 F600.000
G0 Z15.000
G0 X106.138 Z15.000
G0 X106.138 Z13.000
G1 X106.138 Y36.290 Z9.500 F600.000
G1 X37.579 Y104.849 Z9.500 F600.000
G0 Z15.000
G0 Y105.274 Z15.000
G0 Y105.274 Z13.000
G1 X37.579 Y105.274 Z9.500 F600.000
G1 X165.425 Y233.120 Z9.500 F600.000
G0 Z15.000
G0 X164.842 Z15.000
G0 X164.842 Z13.000
G1 X164.842 Y233.120 Z9.500 F600.000
G1 X234.409 Y163.553 Z9.500 F600.000
G0 Z15.000
G0 Y163.129 Z15.000
G0 Y163.129 Z13.000
G1 X234.409 Y163.129 Z9.500 F600.000
G1 X107.570 Y36.290 Z9.500 F600.000
G0 Z15.000
G0 X107.146 Z15.000
G0 X107.146 Z13.000
G1 X107.146 Y36.290 Z9.500 F600.000
G1 X37.579 Y105.857 Z9.500 F600.000
G0 Z15.000
G0 Y106.282 Z15.000
G0 Y106.282 Z13.000
G1 X37.579 Y106.282 Z9.500 F600.000
G1 X164.417 Y233.120 Z9.500 F600.000
G0 Z15.000
G0 X161.367 Z15.000
G0 X161.367 Z13.000
G1 X161.367 Y233.120 Z9.500 F600.000
G1 X234.409 Y160.078 Z9.500 F600.000
G0 Z15.000
G0 Y159.654 Z15.000
G0 Y159.654 Z13.000
G1 X234.409 Y159.654 Z9.500 F600.000
G1 X111.045 Y36.290 Z9.500 F600.000
G0 Z15.000
G0 X110.621 Z15.000
G0 X110.621 Z13.000
G1 X110.621 Y36.290 Z9.500 F600.000
G1 X37.579 Y109.332 Z9.500 F600.000
G0 Z15.000
G0 Y109.757 Z15.000
G0 Y109.757 Z13.000
G1 X37.579 Y109.757 Z9.500 F600.000
G1 X160.942 Y233.120 Z9.500 F600.000
G0 Z15.000
G0 X160.359 Z15.000
G0 X160.359 Z13.000
G1 X160.359 Y233.120 Z9.500 F600.000
G1 X234.409 Y159.070 Z9.500 F600.000
G0 Z15.000
G0 Y158.646 Z15.000
G0 Y158.646 Z13.000
G1 X234.409 Y158.646 Z9.500 F600.000
G1 X112.053 Y36.290 Z9.500 F600.000
G0 Z15.000
G0 X111.629 Z15.000
G0 X111.629 Z13.000
G1 X111.629 Y36.290 Z9.500 F600.000
G1 X37.579 Y110.340 Z9.500 F600.000
G0 Z15.000
G0 Y110.765 Z15.000
G0 Y110.765 Z13.000
G1 X37.579 Y110.765 Z9.500 F600.000
G1 X159.934 Y233.120 Z9.500 F600.000
G0 Z15.000
G0 X156.884 Z15.000
G0 X156.884 Z13.000
G1 X156.884 Y233.120 Z9.500 F600.000
G1 X234.409 Y155.595 Z9.500 F600.000
G0 Z15.000
G0 Y155.171 Z15.000
G0 Y155.171 Z13.000
G1 X234.409 Y155.171 Z9.500 F600.000
G1 X115.528 Y36.290 Z9.500 F600.000
G0 Z15.000
G0 X115.104 Z15.000
G0 X115.104 Z13.000
G1 X115.104 Y36.290 Z9.500 F600.000
G1 X37.579 Y113.815 Z9.500 F600.000
G0 Z15.000
G0 Y114.240 Z15.000
G0 Y114.240 Z13.000
G1 X37.579 Y114.240 Z9.500 F600.000
G1 X156.459 Y233.120 Z9.500 F600.000
G0 Z15.000
G0 X155.876 Z15.000
G0 X155.876 Z13.000
G1 X155.876 Y233.120 Z9.500 F600.000
G1 X234.409 Y154.587 Z9.500 F600.000
G0 Z15.000
G0 Y154.163 Z15.000
G0 Y154.163 Z13.000
G1 X234.409 Y154.163 Z9.500 F600.000
G1 X116.536 Y36.290 Z9.500 F600.000
G0 Z15.000
G0 X116.112 Z15.000
G0 X116.112 Z13.000
G1 X116.112 Y36.290 Z9.500 F600.000
G1 X37.579 Y114.823 Z9.500 F600.000
G0 Z15.000
G0 Y115.248 Z15.000
G0 Y115.248 Z13.000
G1 X37.579 Y115.248 Z9.500 F600.000
G1 X155.451 Y233.120 Z9.500 F600.000
G0 Z15.000
G0 X152.401 Z15.000
G0 X152.401 Z13.000
G1 X152.401 Y233.120 Z9.500 F600.000
G1 X234.409 Y151.112 Z9.500 F600.000
G0 Z15.000
G0 Y150.688 Z15.000
G0 Y150.688 Z13.000
G1 X234.409 Y150.688 Z9.500 F600.000
G1 X120.011 Y36.290 Z9.500 F600.000
G0 Z15.000
G0 X119.587 Z15.000
G0 X119.587 Z13.000
G1 X119.587 Y36.290 Z9.500 F600.000
G1 X37.579 Y118.298 Z9.500 F600.000
G0 Z15.000
G0 Y118.723 Z15.000
G0 Y118.723 Z13.000
G1 X37.579 Y118.723 Z9.500 F600.000
G1 X151.976 Y233.120 Z9.500 F600.000
G0 Z15.000
G0 X151.393 Z15.000
G0 X151.393 Z13.000
G1 X151.393 Y233.120 Z9.500 F600.000
G1 X234.409 Y150.104 Z9.500 F600.000
G0 Z15.000
G0 Y149.680 Z15.000
G0 Y149.680 Z13.000
G1 X234.409 Y149.680 Z9.500 F600.000
G1 X121.019 Y36.290 Z9.500 F600.000
G0 Z15.000
G0 X120.595 Z15.000
G0 X120.595 Z13.000
G1 X120.595 Y36.290 Z9.500 F600.000
G1 X37.579 Y119.306 Z9.500 F600.000
G0 Z15.000
G0 Y119.731 Z15.000
G0 Y119.731 Z13.000
G1 X37.579 Y119.731 Z9.500 F600.000
G1 X150.968 Y233.120 Z9.500 F600.000
G0 Z15.000
G0 X147.918 Z15.000
G0 X147.918 Z13.000
G1 X147.918 Y233.120 Z9.500 F600.000
G1 X234.409 Y146.629 Z9.500 F600.000
G0 Z15.000
G0 Y146.205 Z15.000
G0 Y146.205 Z13.000
G1 X234.409 Y146.205 Z9.500 F600.000
G1 X124.494 Y36.290 Z9.500 F600.000
G0 Z15.000
G0 X124.070 Z15.000
G0 X124.070 Z13.000
G1 X124.070 Y36.290 Z9.500 F600.000
G1 X37.579 Y122.781 Z9.500 F600.000
G0 Z15.000
G0 Y123.206 Z15.000
G0 Y123.206 Z13.000
G1 X37.579 Y123.206 Z9.500 F600.000
G1 X147.493 Y233.120 Z9.500 F600.000
G0 Z15.000
G0 X146.910 Z15.000
G0 X146.910 Z13.000
G1 X146.910 Y233.120 Z9.500 F600.000
G1 X234.409 Y145.621 Z9.500 F600.000
G0 Z15.000
G0 Y145.197 Z15.000
G0 Y145.197 Z13.000
G1 X234.409 Y145.197 Z9.500 F600.000
G1 X125.502 Y36.290 Z9.500 F600.000
G0 Z15.000
G0 X125.078 Z15.000
G0 X125.078 Z13.000
G1 X125.078 Y36.290 Z9.500 F600.000
G1 X37.579 Y123.789 Z9.500 F600.000
G0 Z15.000
G0 Y124.214 Z15.000
G0 Y124.214 Z13.000
G1 X37.579 Y124.214 Z9.500 F600.000
G1 X146.485 Y233.120 Z9.500 F600.000
G0 Z15.000
G0 X143.435 Z15.000
G0 X143.435 Z13.000
G1 X143.435 Y233.120 Z9.500 F600.000
G1 X234.409 Y142.146 Z9.500 F600.000
G0 Z15.000
G0 Y141.721 Z15.000
G0 Y141.721 Z13.000
G1 X234.409 Y141.721 Z9.500 F600.000
G1 X128.977 Y36.290 Z9.500 F600.000
G0 Z15.000
G0 X128.553 Z15.000
G0 X128.553 Z13.000
G1 X128.553 Y36.290 Z9.500 F600.000
G1 X37.579 Y127.264 Z9.500 F600.000
G0 Z15.000
G0 Y127.689 Z15.000
G0 Y127.689 Z13.000
G1 X37.579 Y127.689 Z9.500 F600.000
G1 X143.010 Y233.120 Z9.500 F600.000
G0 Z15.000
G0 X142.427 Z15.000
G0 X142.427 Z13.000
G1 X142.427 Y233.120 Z9.500 F600.000
G1 X234.409 Y141.138 Z9.500 F600.000
G0 Z15.000
G0 Y140.714 Z15.000
G0 Y140.714 Z13.000
G1 X234.409 Y140.714 Z9.500 F600.000
G1 X129.985 Y36.290 Z9.500 F600.000
G0 Z15.000
G0 X129.561 Z15.000
G0 X129.561 Z13.000
G1 X129.561 Y36.290 Z9.500 F600.000
G1 X37.579 Y128.272 Z9.500 F600.000
G0 Z15.000
G0 Y128.697 Z15.000
G0 Y128.697 Z13.000
G1 X37.579 Y128.697 Z9.500 F600.000
G1 X142.002 Y233.120 Z9.500 F600.000
G0 Z15.000
G0 X138.952 Z15.000
G0 X138.952 Z13.000
G1 X138.952 Y233.120 Z9.500 F600.000
G1 X234.409 Y137.663 Z9.500 F600.000
G0 Z15.000
G0 Y137.238 Z15.000
G0 Y137.238 Z13.000
G1 X234.409 Y137.238 Z9.500 F600.000
G1 X133.461 Y36.290 Z9.500 F600.000
G0 Z15.000
G0 X133.036 Z15.000
G0 X133.036 Z13.000
G1 X133.036 Y36.290 Z9.500 F600.000
G1 X37.579 Y131.747 Z9.500 F600.000
G0 Z15.000
G0 Y132.172 Z15.000
G0 Y132.172 Z13.000
G1 X37.579 Y132.172 Z9.500 F600.000
G1 X138.527 Y233.120 Z9.500 F600.000
G0 Z15.000
G0 X137.944 Z15.000
G0 X137.944 Z13.000
G1 X137.944 Y233.120 Z9.500 F600.000
G1 X234.409 Y136.655 Z9.500 F600.000
G0 Z15.000
G0 Y136.230 Z15.000
G0 Y136.230 Z13.000
G1 X234.409 Y136.230 Z9.500 F600.000
G1 X134.468 Y36.290 Z9.500 F600.000
G0 Z15.000
G0 X134.044 Z15.000
G0 X134.044 Z13.000
G1 X134.044 Y36.290 Z9.500 F600.000
G1 X37.579 Y132.755 Z9.500 F600.000
G0 Z15.000
G0 Y133.180 Z15.000
G0 Y133.180 Z13.000
G1 X37.579 Y133.180 Z9.500 F600.000
G1 X137.519 Y233.120 Z9.500 F600.000
G0 Z15.000
G0 X134.468 Z15.000
G0 X134.468 Z13.000
G1 X134.468 Y233.120 Z9.500 F600.000
G1 X234.409 Y133.180 Z9.500 F600.000
G0 Z15.000
G0 Y132.755 Z15.000
G0 Y132.755 Z13.000
G1 X234.409 Y132.755 Z9.500 F600.000
G1 X137.944 Y36.290 Z9.500 F600.000
G0 Z15.000
G0 X137.519 Z15.000
G0 X137.519 Z13.000
G1 X137.519 Y36.290 Z9.500 F600.000
G1 X37.579 Y136.230 Z9.500 F600.000
G0 Z15.000
G0 Y136.655 Z15.000
G0 Y136.655 Z13.000
G1 X37.579 Y136.655 Z9.500 F600.000
G1 X134.044 Y233.120 Z9.500 F600.000
G0 Z15.000
G0 X133.461 Z15.000
G0 X133.461 Z13.000
G1 X133.461 Y233.120 Z9.500 F600.000
G1 X234.409 Y132.172 Z9.500 F600.000
G0 Z15.000
G0 Y131.747 Z15.000
G0 Y131.747 Z13.000
G1 X234.409 Y131.747 Z9.500 F600.000
G1 X138.952 Y36.290 Z9.500 F600.000
G0 Z15.000
G0 X138.527 Z15.000
G0 X138.527 Z13.000
G1 X138.527 Y36.290 Z9.500 F600.000
G1 X37.579 Y137.238 Z9.500 F600.000
G0 Z15.000
G0 Y137.663 Z15.000
G0 Y137.663 Z13.000
G1 X37.579 Y137.663 Z9.500 F600.000
G1 X133.036 Y233.120 Z9.500 F600.000
G0 Z15.000
G0 X129.985 Z15.000
G0 X129.985 Z13.000
G1 X129.985 Y233.120 Z9.500 F600.000
G1 X234.409 Y128.697 Z9.500 F600.000
G0 Z15.000
G0 Y128.272 Z15.000
G0 Y128.272 Z13.000
G1 X234.409 Y128.272 Z9.500 F600.000
G1 X142.427 Y36.290 Z9.500 F600.000
G0 Z15.000
G0 X142.002 Z15.000
G0 X142.002 Z13.000
G1 X142.002 Y36.290 Z9.500 F600.000
G1 X37.579 Y140.714 Z9.500 F600.000
G0 Z15.000
G0 Y141.138 Z15.000
G0 Y141.138 Z13.000
G1 X37.579 Y141.138 Z9.500 F600.000
G1 X129.561 Y233.120 Z9.500 F600.000
G0 Z15.000
G0 X128.977 Z15.000
G0 X128.977 Z13.000
G1 X128.977 Y233.120 Z9.500 F600.000
G1 X234.409 Y127.689 Z9.500 F600.000
G0 Z15.000
G0 Y127.264 Z15.000
G0 Y127.264 Z13.000
G1 X234.409 Y127.264 Z9.500 F600.000
G1 X143.435 Y36.290 Z9.500 F600.000
G0 Z15.000
G0 X143.010 Z15.000
G0 X143.010 Z13.000
G1 X143.010 Y36.290 Z9.500 F600.000
G1 X37.579 Y141.721 Z9.500 F600.000
G0 Z15.000
G0 Y142.146 Z15.000
G0 Y142.146 Z13.000
G1 X37.579 Y142.146 Z9.500 F600.000
G1 X128.553 Y233.120 Z9.500 F600.000
G0 Z15.000
G0 X125.502 Z15.000
G0 X125.502 Z13.000
G1 X125.502 Y233.120 Z9.500 F600.000
G1 X234.409 Y124.214 Z9.500 F600.000
G0 Z15.000
G0 Y123.789 Z15.000
G0 Y123.789 Z13.000
G1 X234.409 Y123.789 Z9.500 F600.000
G1 X146.910 Y36.290 Z9.500 F600.000
G0 Z15.000
G0 X146.485 Z15.000
G0 X146.485 Z13.000
G1 X146.485 Y36.290 Z9.500 F600.000
G1 X37.579 Y145.197 Z9.500 F600.000
G0 Z15.000
G0 Y145.621 Z15.000
G0 Y145.621 Z13.000
G1 X37.579 Y145.621 Z9.500 F600.000
G1 X125.078 Y233.120 Z9.500 F600.000
G0 Z15.000
G0 X124.494 Z15.000
G0 X124.494 Z13.000
G1 X124.494 Y233.120 Z9.500 F600.000
G1 X234.409 Y123.206 Z9.500 F600.000
G0 Z15.000
G0 Y122.781 Z15.000
G0 Y122.781 Z13.000
G1 X234.409 Y122.781 Z9.500 F600.000
G1 X147.918 Y36.290 Z9.500 F600.000
G0 Z15.000
G0 X147.493 Z15.000
G0 X147.493 Z13.000
G1 X147.493 Y36.290 Z9.500 F600.000
G1 X37.579 Y146.205 Z9.500 F600.000
G0 Z15.000
G0 Y146.629 Z15.000
G0 Y146.629 Z13.000
G1 X37.579 Y146.629 Z9.500 F600.000
G1 X124.070 Y233.120 Z9.500 F600.000
G0 Z15.000
G0 X121.019 Z15.000
G0 X121.019 Z13.000
G1 X121.019 Y233.120 Z9.500 F600.000
G1 X234.409 Y119.731 Z9.500 F600.000
G0 Z15.000
G0 Y119.306 Z15.000
G0 Y119.306 Z13.000
G1 X234.409 Y119.306 Z9.500 F600.000
G1 X151.393 Y36.290 Z9.500 F600.000
G0 Z15.000
G0 X150.968 Z15.000
G0 X150.968 Z13.000
G1 X150.968 Y36.290 Z9.500 F600.000
G1 X37.579 Y149.680 Z9.500 F600.000
G0 Z15.000
G0 Y150.104 Z15.000
G0 Y150.104 Z13.000
G1 X37.579 Y150.104 Z9.500 F600.000
G1 X120.595 Y233.120 Z9.500 F600.000
G0 Z15.000
G0 X120.011 Z15.000
G0 X120.011 Z13.000
G1 X120.011 Y233.120 Z9.500 F600.000
G1 X234.409 Y118.723 Z9.500 F600.000
G0 Z15.000
G0 Y118.298 Z15.000
G0 Y118.298 Z13.000
G1 X234.409 Y118.298 Z9.500 F600.000
G1 X152.401 Y36.290 Z9.500 F600.000
G0 Z15.000
G0 X151.976 Z15.000
G0 X151.976 Z13.000
G1 X151.976 Y36.290 Z9.500 F600.000
G1 X37.579 Y150.688 Z9.500 F600.000
G0 Z15.000
G0 Y151.112 Z15.000
G0 Y151.112 Z13.000
G1 X37.579 Y151.112 Z9.500 F600.000
G1 X119.587 Y233.120 Z9.500 F600.000
G0 Z15.000
G0 X116.536 Z15.000
G0 X116.536 Z13.000
G1 X116.536 Y233.120 Z9.500 F600.000
G1 X234.409 Y115.248 Z9.500 F600.000
G0 Z15.000
G0 Y114.823 Z15.000
G0 Y114.823 Z13.000
G1 X234.409 Y114.823 Z9.500 F600.000
G1 X155.876 Y36.290 Z9.500 F600.000
G0 Z15.000
G0 X155.451 Z15.000
G0 X155.451 Z13.000
G1 X155.451 Y36.290 Z9.500 F600.000
G1 X37.579 Y154.163 Z9.500 F600.000
G0 Z15.000
G0 Y154.587 Z15.000
G0 Y154.587 Z13.000
G1 X37.579 Y154.587 Z9.500 F600.000
G1 X116.112 Y233.120 Z9.500 F600.000
G0 Z15.000
G0 X115.528 Z15.000
G0 X115.528 Z13.000
G1 X115.528 Y233.120 Z9.500 F600.000
G1 X234.409 Y114.240 Z9.500 F600.000
G0 Z15.000
G0 Y113.815 Z15.000
G0 Y113.815 Z13.000
G1 X234.409 Y113.815 Z9.500 F600.000
G1 X156.884 Y36.290 Z9.500 F600.000
G0 Z15.000
G0 X156.459 Z15.000
G0 X156.459 Z13.000
G1 X156.459 Y36.290 Z9.500 F600.000
G1 X37.579 Y155.171 Z9.500 F600.000
G0 Z15.000
G0 Y155.595 Z15.000
G0 Y155.595 Z13.000
G1 X37.579 Y155.595 Z9.500 F600.000
G1 X115.104 Y233.120 Z9.500 F600.000
G0 Z15.000
G0 X112.053 Z15.000
G0 X112.053 Z13.000
G1 X112.053 Y233.120 Z9.500 F600.000
G1 X234.409 Y110.765 Z9.500 F600.000
G0 Z15.000
G0 Y110.340 Z15.000
G0 Y110.340 Z13.000
G1 X234.409 Y110.340 Z9.500 F600.000
G1 X160.359 Y36.290 Z9.500 F600.000
G0 Z15.000
G0 X159.934 Z15.000
G0 X159.934 Z13.000
G1 X159.934 Y36.290 Z9.500 F600.000
G1 X37.579 Y158.646 Z9.500 F600.000
G0 Z15.000
G0 Y159.070 Z15.000
G0 Y159.070 Z13.000
G1 X37.579 Y159.070 Z9.500 F600.000
G1 X111.629 Y233.120 Z9.500 F600.000
G0 Z15.000
G0 X111.045 Z15.000
G0 X111.045 Z13.000
G1 X111.045 Y233.120 Z9.500 F600.000
G1 X234.409 Y109.757 Z9.500 F600.000
G0 Z15.000
G0 Y109.332 Z15.000
G0 Y109.332 Z13.000
G1 X234.409 Y109.332 Z9.500 F600.000
G1 X161.367 Y36.290 Z9.500 F600.000
G0 Z15.000
G0 X160.942 Z15.000
G0 X160.942 Z13.000
G1 X160.942 Y36.290 Z9.500 F600.000
G1 X37.579 Y159.654 Z9.500 F600.000
G0 Z15.000
G0 Y160.078 Z15.000
G0 Y160.078 Z13.000
G1 X37.579 Y160.078 Z9.500 F600.000
G1 X110.621 Y233.120 Z9.500 F600.000
G0 Z15.000
G0 X107.570 Z15.000
G0 X107.570 Z13.000
G1 X107.570 Y233.120 Z9.500 F600.000
G1 X234.409 Y106.282 Z9.500 F600.000
G0 Z15.000
G0 Y105.857 Z15.000
G0 Y105.857 Z13.000
G1 X234.409 Y105.857 Z9.500 F600.000
G1 X164.842 Y36.290 Z9.500 F600.000
G0 Z15.000
G0 X164.417 Z15.000
G0 X164.417 Z13.000
G1 X164.417 Y36.290 Z9.500 F600.000
G1 X37.579 Y163.129 Z9.500 F600.000
G0 Z15.000
G0 Y163.553 Z15.000
G0 Y163.553 Z13.000
G1 X37.579 Y163.553 Z9.500 F600.000
G1 X107.146 Y233.120 Z9.500 F600.000
G0 Z15.000
G0 X106.562 Z15.000
G0 X106.562 Z13.000
G1 X106.562 Y233.120 Z9.500 F600.000
G1 X234.409 Y105.274 Z9.500 F600.000
G0 Z15.000
G0 Y104.849 Z15.000
G0 Y104.849 Z13.000
G1 X234.409 Y104.849 Z9.500 F600.000
G1 X165.850 Y36.290 Z9.500 F600.000
G0 Z15.000
G0 X165.425 Z15.000
G0 X165.425 Z13.000
G1 X165.425 Y36.290 Z9.500 F600.000
G1 X37.579 Y164.137 Z9.500 F600.000
G0 Z15.000
G0 Y164.561 Z15.000
G0 Y164.561 Z13.000
G1 X37.579 Y164.561 Z9.500 F600.000
G1 X106.138 Y233.120 Z9.500 F600.000
G0 Z15.000
G0 X103.087 Z15.000
G0 X103.087 Z13.000
G1 X103.087 Y233.120 Z9.500 F600.000
G1 X234.409 Y101.798 Z9.500 F600.000
G0 Z15.000
G0 Y101.374 Z15.000
G0 Y101.374 Z13.000
G1 X234.409 Y101.374 Z9.500 F600.000
G1 X169.325 Y36.290 Z9.500 F600.000
G0 Z15.000
G0 X168.900 Z15.000
G0 X168.900 Z13.000
G1 X168.900 Y36.290 Z9.500 F600.000
G1 X37.579 Y167.612 Z9.500 F600.000
G0 Z15.000
G0 Y168.036 Z15.000
G0 Y168.036 Z13.000
G1 X37.579 Y168.036 Z9.500 F600.000
G1 X102.663 Y233.120 Z9.500 F600.000
G0 Z15.000
G0 X102.079 Z15.000
G0 X102.079 Z13.000
G1 X102.079 Y233.120 Z9.500 F600.000
G1 X234.409 Y100.791 Z9.500 F600.000
G0 Z15.000
G0 Y100.366 Z15.000
G0 Y100.366 Z13.000
G1 X234.409 Y100.366 Z9.500 F600.000
G1 X170.333 Y36.290 Z9.500 F600.000
G0 Z15.000
G0 X169.908 Z15.000
G0 X169.908 Z13.000
G1 X169.908 Y36.290 Z9.500 F600.000
G1 X37.579 Y168.620 Z9.500 F600.000
G0 Z15.000
G0 Y169.044 Z15.000
G0 Y169.044 Z13.000
G1 X37.579 Y169.044 Z9.500 F600.000
G1 X101.655 Y233.120 Z9.500 F600.000
G0 Z15.000
G0 X98.604 Z15.000
G0 X98.604 Z13.000
G1 X98.604 Y233.120 Z9.500 F600.000
G1 X234.409 Y97.315 Z9.500 F600.000
G0 Z15.000
G0 Y96.891 Z15.000
G0 Y96.891 Z13.000
G1 X234.409 Y96.891 Z9.500 F600.000
G1 X173.808 Y36.290 Z9.500 F600.000
G0 Z15.000
G0 X173.384 Z15.000
G0 X173.384 Z13.000
G1 X173.384 Y36.290 Z9.500 F600.000
G1 X37.579 Y172.095 Z9.500 F600.000
G0 Z15.000
G0 Y172.519 Z15.000
G0 Y172.519 Z13.000
G1 X37.579 Y172.519 Z9.500 F600.000
G1 X98.179 Y233.120 Z9.500 F600.000
G0 Z15.000
G0 X97.596 Z15.000
G0 X97.596 Z13.000
G1 X97.596 Y233.120 Z9.500 F600.000
G1 X234.409 Y96.307 Z9.500 F600.000
G0 Z15.000
G0 Y95.883 Z15.000
G0 Y95.883 Z13.000
G1 X234.409 Y95.883 Z9.500 F600.000
G1 X174.816 Y36.290 Z9.500 F600.000
G0 Z15.000
G0 X174.391 Z15.000
G0 X174.391 Z13.000
G1 X174.391 Y36.290 Z9.500 F600.000
G1 X37.579 Y173.103 Z9.500 F600.000
G0 Z15.000
G0 Y173.527 Z15.000
G0 Y173.527 Z13.000
G1 X37.579 Y173.527 Z9.500 F600.000
G1 X97.172 Y233.120 Z9.500 F600.000
G0 Z15.000
G0 X94.121 Z15.000
G0 X94.121 Z13.000
G1 X94.121 Y233.120 Z9.500 F600.000
G1 X234.409 Y92.832 Z9.500 F600.000
G0 Z15.000
G0 Y92.408 Z15.000
G0 Y92.408 Z13.000
G1 X234.409 Y92.408 Z9.500 F600.000
G1 X178.291 Y36.290 Z9.500 F600.000
G0 Z15.000
G0 X177.867 Z15.000
G0 X177.867 Z13.000
G1 X177.867 Y36.290 Z9.500 F600.000
G1 X37.579 Y176.578 Z9.500 F600.000
G0 Z15.000
G0 Y177.003 Z15.000
G0 Y177.003 Z13.000
G1 X37.579 Y177.003 Z9.500 F600.000
G1 X93.696 Y233.120 Z9.500 F600.000
G0 Z15.000
G0 X93.113 Z15.000
G0 X93.113 Z13.000
G1 X93.113 Y233.120 Z9.500 F600.000
G1 X234.409 Y91.824 Z9.500 F600.000
G0 Z15.000
G0 Y91.400 Z15.000
G0 Y91.400 Z13.000
G1 X234.409 Y91.400 Z9.500 F600.000
G1 X179.299 Y36.290 Z9.500 F600.000
G0 Z15.000
G0 X178.875 Z15.000
G0 X178.875 Z13.000
G1 X178.875 Y36.290 Z9.500 F600.000
G1 X37.579 Y177.586 Z9.500 F600.000
G0 Z15.000
G0 Y178.010 Z15.000
G0 Y178.010 Z13.000
G1 X37.579 Y178.010 Z9.500 F600.000
G1 X92.688 Y233.120 Z9.500 F600.000
G0 Z15.000
G0 X89.638 Z15.000
G0 X89.638 Z13.000
G1 X89.638 Y233.120 Z9.500 F600.000
G1 X234.409 Y88.349 Z9.500 F600.000
G0 Z15.000
G0 Y87.925 Z15.000
G0 Y87.925 Z13.000
G1 X234.409 Y87.925 Z9.500 F600.000
G1 X182.774 Y36.290 Z9.500 F600.000
G0 Z15.000
G0 X182.350 Z15.000
G0 X182.350 Z13.000
G1 X182.350 Y36.290 Z9.500 F600.000
G1 X37.579 Y181.061 Z9.500 F600.000
G0 Z15.000
G0 Y181.486 Z15.000
G0 Y181.486 Z13.000
G1 X37.579 Y181.486 Z9.500 F600.000
G1 X89.213 Y233.120 Z9.500 F600.000
G0 Z15.000
G0 X88.630 Z15.000
G0 X88.630 Z13.000
G1 X88.630 Y233.120 Z9.500 F600.000
G1 X234.409 Y87.341 Z9.500 F600.000
G0 Z15.000
G0 Y86.917 Z15.000
G0 Y86.917 Z13.000
G1 X234.409 Y86.917 Z9.500 F600.000
G1 X183.782 Y36.290 Z9.500 F600.000
G0 Z15.000
G0 X183.358 Z15.000
G0 X183.358 Z13.000
G1 X183.358 Y36.290 Z9.500 F600.000
G1 X37.579 Y182.069 Z9.500 F600.000
G0 Z15.000
G0 Y182.493 Z15.000
G0 Y182.493 Z13.000
G1 X37.579 Y182.493 Z9.500 F600.000
G1 X88.205 Y233.120 Z9.500 F600.000
G0 Z15.000
G0 X85.155 Z15.000
G0 X85.155 Z13.000
G1 X85.155 Y233.120 Z9.500 F600.000
G1 X234.409 Y83.866 Z9.500 F600.000
G0 Z15.000
G0 Y83.442 Z15.000
G0 Y83.442 Z13.000
G1 X234.409 Y83.442 Z9.500 F600.000
G1 X187.257 Y36.290 Z9.500 F600.000
G0 Z15.000
G0 X186.833 Z15.000
G0 X186.833 Z13.000
G1 X186.833 Y36.290 Z9.500 F600.000
G1 X37.579 Y185.544 Z9.500 F600.000
G0 Z15.000
G0 Y185.969 Z15.000
G0 Y185.969 Z13.000
G1 X37.579 Y185.969 Z9.500 F600.000
G1 X84.730 Y233.120 Z9.500 F600.000
G0 Z15.000
G0 X84.147 Z15.000
G0 X84.147 Z13.000
G1 X84.147 Y233.120 Z9.500 F600.000
G1 X234.409 Y82.858 Z9.500 F600.000
G0 Z15.000
G0 Y82.434 Z15.000
G0 Y82.434 Z13.000
G1 X234.409 Y82.434 Z9.500 F600.000
G1 X188.265 Y36.290 Z9.500 F600.000
G0 Z15.000
G0 X187.841 Z15.000
G0 X187.841 Z13.000
G1 X187.841 Y36.290 Z9.500 F600.000
G1 X37.579 Y186.552 Z9.500 F600.000
G0 Z15.000
G0 Y186.977 Z15.000
G0 Y186.977 Z13.000
G1 X37.579 Y186.977 Z9.500 F600.000
G1 X83.722 Y233.120 Z9.500 F600.000
G0 Z15.000
G0 X80.672 Z15.000
G0 X80.672 Z13.000
G1 X80.672 Y233.120 Z9.500 F600.000
G1 X234.409 Y79.383 Z9.500 F600.000
G0 Z15.000
G0 Y78.959 Z15.000
G0 Y78.959 Z13.000
G1 X234.409 Y78.959 Z9.500 F600.000
G1 X191.740 Y36.290 Z9.500 F600.000
G0 Z15.000
G0 X191.316 Z15.000
G0 X191.316 Z13.000
G1 X191.316 Y36.290 Z9.500 F600.000
G1 X37.579 Y190.027 Z9.500 F600.000
G0 Z15.000
G0 Y190.452 Z15.000
G0 Y190.452 Z13.000
G1 X37.579 Y190.452 Z9.500 F600.000
G1 X80.247 Y233.120 Z9.500 F600.000
G0 Z15.000
G0 X79.664 Z15.000
G0 X79.664 Z13.000
G1 X79.664 Y233.120 Z9.500 F600.000
G1 X234.409 Y78.375 Z9.500 F600.000
G0 Z15.000
G0 Y77.951 Z15.000
G0 Y77.951 Z13.000
G1 X234.409 Y77.951 Z9.500 F600.000
G1 X192.748 Y36.290 Z9.500 F600.000
G0 Z15.000
G0 X192.324 Z15.000
G0 X192.324 Z13.000
G1 X192.324 Y36.290 Z9.500 F600.000
G1 X37.579 Y191.035 Z9.500 F600.000
G0 Z15.000
G0 Y191.460 Z15.000
G0 Y191.460 Z13.000
G1 X37.579 Y191.460 Z9.500 F600.000
G1 X79.239 Y233.120 Z9.500 F600.000
G0 Z15.000
G0 X76.189 Z15.000
G0 X76.189 Z13.000
G1 X76.189 Y233.120 Z9.500 F600.000
G1 X234.409 Y74.900 Z9.500 F600.000
G0 Z15.000
G0 Y74.476 Z15.000
G0 Y74.476 Z13.000
G1 X234.409 Y74.476 Z9.500 F600.000
G1 X196.223 Y36.290 Z9.500 F600.000
G0 Z15.000
G0 X195.799 Z15.000
G0 X195.799 Z13.000
G1 X195.799 Y36.290 Z9.500 F600.000
G1 X37.579 Y194.510 Z9.500 F600.000
G0 Z15.000
G0 Y194.935 Z15.000
G0 Y194.935 Z13.000
G1 X37.579 Y194.935 Z9.500 F600.000
G1 X75.764 Y233.120 Z9.500 F600.000
G0 Z15.000
G0 X75.181 Z15.000
G0 X75.181 Z13.000
G1 X75.181 Y233.120 Z9.500 F600.000
G1 X234.409 Y73.892 Z9.500 F600.000
G0 Z15.000
G0 Y73.468 Z15.000
G0 Y73.468 Z13.000
G1 X234.409 Y73.468 Z9.500 F600.000
G1 X197.231 Y36.290 Z9.500 F600.000
G0 Z15.000
G0 X196.807 Z15.000
G0 X196.807 Z13.000
G1 X196.807 Y36.290 Z9.500 F600.000
G1 X37.579 Y195.518 Z9.500 F600.000
G0 Z15.000
G0 Y195.943 Z15.000
G0 Y195.943 Z13.000
G1 X37.579 Y195.943 Z9.500 F600.000
G1 X74.756 Y233.120 Z9.500 F600.000
G0 Z15.000
G0 X71.706 Z15.000
G0 X71.706 Z13.000
G1 X71.706 Y233.120 Z9.500 F600.000
G1 X234.409 Y70.417 Z9.500 F600.000
G0 Z15.000
G0 Y69.993 Z15.000
G0 Y69.993 Z13.000
G1 X234.409 Y69.993 Z9.500 F600.000
G1 X200.706 Y36.290 Z9.500 F600.000
G0 Z15.000
G0 X200.282 Z15.000
G0 X200.282 Z13.000
G1 X200.282 Y36.290 Z9.500 F600.000
G1 X37.579 Y198.993 Z9.500 F600.000
G0 Z15.000
G0 Y199.418 Z15.000
G0 Y199.418 Z13.000
G1 X37.579 Y199.418 Z9.500 F600.000
G1 X71.281 Y233.120 Z9.500 F600.000
G0 Z15.000
G0 X70.698 Z15.000
G0 X70.698 Z13.000
G1 X70.698 Y233.120 Z9.500 F600.000
G1 X234.409 Y69.409 Z9.500 F600.000
G0 Z15.000
G0 Y68.985 Z15.000
G0 Y68.985 Z13.000
G1 X234.409 Y68.985 Z9.500 F600.000
G1 X201.714 Y36.290 Z9.500 F600.000
G0 Z15.000
G0 X201.290 Z15.000
G0 X201.290 Z13.000
G1 X201.290 Y36.290 Z9.500 F600.000
G1 X37.579 Y200.001 Z9.500 F600.000
G0 Z15.000
G0 Y200.426 Z15.000
G0 Y200.426 Z13.000
G1 X37.579 Y200.426 Z9.500 F600.000
G1 X70.273 Y233.120 Z9.500 F600.000
G0 Z15.000
G0 X67.223 Z15.000
G0 X67.223 Z13.000
G1 X67.223 Y233.120 Z9.500 F600.000
G1 X234.409 Y65.934 Z9.500 F600.000
G0 Z15.000
G0 Y65.510 Z15.000
G0 Y65.510 Z13.000
G1 X234.409 Y65.510 Z9.500 F600.000
G1 X205.189 Y36.290 Z9.500 F600.000
G0 Z15.000
G0 X204.765 Z15.000
G0 X204.765 Z13.000
G1 X204.765 Y36.290 Z9.500 F600.000
G1 X37.579 Y203.476 Z9.500 F600.000
G0 Z15.000
G0 Y203.901 Z15.000
G0 Y203.901 Z13.000
G1 X37.579 Y203.901 Z9.500 F600.000
G1 X66.798 Y233.120 Z9.500 F600.000
G0 Z15.000
G0 X66.215 Z15.000
G0 X66.215 Z13.000
G1 X66.215 Y233.120 Z9.500 F600.000
G1 X234.409 Y64.926 Z9.500 F600.000
G0 Z15.000
G0 Y64.502 Z15.000
G0 Y64.502 Z13.000
G1 X234.409 Y64.502 Z9.500 F600.000
G1 X206.197 Y36.290 Z9.500 F600.000
G0 Z15.000
G0 X205.773 Z15.000
G0 X205.773 Z13.000
G1 X205.773 Y36.290 Z9.500 F600.000
G1 X37.579 Y204.484 Z9.500 F600.000
G0 Z15.000
G0 Y204.909 Z15.000
G0 Y204.909 Z13.000
G1 X37.579 Y204.909 Z9.500 F600.000
G1 X65.790 Y233.120 Z9.500 F600.000
G0 Z15.000
G0 X62.740 Z15.000
G0 X62.740 Z13.000
G1 X62.740 Y233.120 Z9.500 F600.000
G1 X234.409 Y61.451 Z9.500 F600.000
G0 Z15.000
G0 Y61.026 Z15.000
G0 Y61.026 Z13.000
G1 X234.409 Y61.026 Z9.500 F600.000
G1 X209.672 Y36.290 Z9.500 F600.000
G0 Z15.000
G0 X209.248 Z15.000
G0 X209.248 Z13.000
G1 X209.248 Y36.290 Z9.500 F600.000
G1 X37.579 Y207.959 Z9.500 F600.000
G0 Z15.000
G0 Y208.384 Z15.000
G0 Y208.384 Z13.000
G1 X37.579 Y208.384 Z9.500 F600.000
G1 X62.315 Y233.120 Z9.500 F600.000
G0 Z15.000
G0 X61.732 Z15.000
G0 X61.732 Z13.000
G1 X61.732 Y233.120 Z9.500 F600.000
G1 X234.409 Y60.443 Z9.500 F600.000
G0 Z15.000
G0 Y60.019 Z15.000
G0 Y60.019 Z13.000
G1 X234.409 Y60.019 Z9.500 F600.000
G1 X210.680 Y36.290 Z9.500 F600.000
G0 Z15.000
G0 X210.256 Z15.000
G0 X210.256 Z13.000
G1 X210.256 Y36.290 Z9.500 F600.000
G1 X37.579 Y208.967 Z9.500 F600.000
G0 Z15.000
G0 Y209.392 Z15.000
G0 Y209.392 Z13.000
G1 X37.579 Y209.392 Z9.500 F600.000
G1 X61.307 Y233.120 Z9.500 F600.000
G0 Z15.000
G0 X58.256 Z15.000
G0 X58.256 Z13.000
G1 X58.256 Y233.120 Z9.500 F600.000
G1 X234.409 Y56.968 Z9.500 F600.000
G0 Z15.000
G0 Y56.543 Z15.000
G0 Y56.543 Z13.000
G1 X234.409 Y56.543 Z9.500 F600.000
G1 X214.156 Y36.290 Z9.500 F600.000
G0 Z15.000
G0 X213.731 Z15.000
G0 X213.731 Z13.000
G1 X213.731 Y36.290 Z9.500 F600.000
G1 X37.579 Y212.442 Z9.500 F600.000
G0 Z15.000
G0 Y212.867 Z15.000
G0 Y212.867 Z13.000
G1 X37.579 Y212.867 Z9.500 F600.000
G1 X57.832 Y233.120 Z9.500 F600.000
G0 Z15.000
G0 X57.249 Z15.000
G0 X57.249 Z13.000
G1 X57.249 Y233.120 Z9.500 F600.000
G1 X234.409 Y55.960 Z9.500 F600.000
G0 Z15.000
G0 Y55.535 Z15.000
G0 Y55.535 Z13.000
G1 X234.409 Y55.535 Z9.500 F600.000
G1 X215.163 Y36.290 Z9.500 F600.000
G0 Z15.000
G0 X214.739 Z15.000
G0 X214.739 Z13.000
G1 X214.739 Y36.290 Z9.500 F600.000
G1 X37.579 Y213.450 Z9.500 F600.000
G0 Z15.000
G0 Y213.875 Z15.000
G0 Y213.875 Z13.000
G1 X37.579 Y213.875 Z9.500 F600.000
G1 X56.824 Y233.120 Z9.500 F600.000
G0 Z15.000
G0 X53.773 Z15.000
G0 X53.773 Z13.000
G1 X53.773 Y233.120 Z9.500 F600.000
G1 X234.409 Y52.485 Z9.500 F600.000
G0 Z15.000
G0 Y52.060 Z15.000
G0 Y52.060 Z13.000
G1 X234.409 Y52.060 Z9.500 F600.000
G1 X218.639 Y36.290 Z9.500 F600.000
G0 Z15.000
G0 X218.214 Z15.000
G0 X218.214 Z13.000
G1 X218.214 Y36.290 Z9.500 F600.000
G1 X37.579 Y216.926 Z9.500 F600.000
G0 Z15.000
G0 Y217.350 Z15.000
G0 Y217.350 Z13.000
G1 X37.579 Y217.350 Z9.500 F600.000
G1 X53.349 Y233.120 Z9.500 F600.000
G0 Z15.000
G0 X52.765 Z15.000
G0 X52.765 Z13.000
G1 X52.765 Y233.120 Z9.500 F600.000
G1 X234.409 Y51.477 Z9.500 F600.000
G0 Z15.000
G0 Y51.052 Z15.000
G0 Y51.052 Z13.000
G1 X234.409 Y51.052 Z9.500 F600.000
G1 X219.647 Y36.290 Z9.500 F600.000
G0 Z15.000
G0 X219.222 Z15.000
G0 X219.222 Z13.000
G1 X219.222 Y36.290 Z9.500 F600.000
G1 X37.579 Y217.933 Z9.500 F600.000
G0 Z15.000
G0 Y218.358 Z15.000
G0 Y218.358 Z13.000
G1 X37.579 Y218.358 Z9.500 F600.000
G1 X52.341 Y233.120 Z9.500 F600.000
G0 Z15.000
G0 X49.290 Z15.000
G0 X49.290 Z13.000
G1 X49.290 Y233.120 Z9.500 F600.000
G1 X234.409 Y48.002 Z9.500 F600.000
G0 Z15.000
G0 Y47.577 Z15.000
G0 Y47.577 Z13.000
G1 X234.409 Y47.577 Z9.500 F600.000
G1 X223.122 Y36.290 Z9.500 F600.000
G0 Z15.000
G0 X222.697 Z15.000
G0 X222.697 Z13.000
G1 X222.697 Y36.290 Z9.500 F600.000
G1 X37.579 Y221.409 Z9.500 F600.000
G0 Z15.000
G0 Y221.833 Z15.000
G0 Y221.833 Z13.000
G1 X37.579 Y221.833 Z9.500 F600.000
G1 X48.866 Y233.120 Z9.500 F600.000
G0 Z15.000
G0 X48.282 Z15.000
G0 X48.282 Z13.000
G1 X48.282 Y233.120 Z9.500 F600.000
G1 X234.409 Y46.994 Z9.500 F600.000
G0 Z15.000
G0 Y46.569 Z15.000
G0 Y46.569 Z13.000
G1 X234.409 Y46.569 Z9.500 F600.000
G1 X224.130 Y36.290 Z9.500 F600.000
G0 Z15.000
G0 X223.705 Z15.000
G0 X223.705 Z13.000
G1 X223.705 Y36.290 Z9.500 F600.000
G1 X37.579 Y222.416 Z9.500 F600.000
G0 Z15.000
G0 Y222.841 Z15.000
G0 Y222.841 Z13.000
G1 X37.579 Y222.841 Z9.500 F600.000
G1 X47.858 Y233.120 Z9.500 F600.000
G0 Z15.000
G0 X44.807 Z15.000
G0 X44.807 Z13.000
G1 X44.807 Y233.120 Z9.500 F600.000
G1 X234.409 Y43.519 Z9.500 F600.000
G0 Z15.000
G0 Y43.094 Z15.000
G0 Y43.094 Z13.000
G1 X234.409 Y43.094 Z9.500 F600.000
G1 X227.605 Y36.290 Z9.500 F600.000
G0 Z15.000
G0 X227.180 Z15.000
G0 X227.180 Z13.000
G1 X227.180 Y36.290 Z9.500 F600.000
G1 X37.579 Y225.892 Z9.500 F600.000
G0 Z15.000
G0 Y226.316 Z15.000
G0 Y226.316 Z13.000
G1 X37.579 Y226.316 Z9.500 F600.000
G1 X44.383 Y233.120 Z9.500 F600.000
G0 Z15.000
G0 X43.799 Z15.000
G0 X43.799 Z13.000
G1 X43.799 Y233.120 Z9.500 F600.000
G1 X234.409 Y42.511 Z9.500 F600.000
G0 Z15.000
G0 Y42.086 Z15.000
G0 Y42.086 Z13.000
G1 X234.409 Y42.086 Z9.500 F600.000
G1 X228.613 Y36.290 Z9.500 F600.000
G0 Z15.000
G0 X228.188 Z15.000
G0 X228.188 Z13.000
G1 X228.188 Y36.290 Z9.500 F600.000
G1 X37.579 Y226.900 Z9.500 F600.000
G0 Z15.000
G0 Y227.324 Z15.000
G0 Y227.324 Z13.000
G1 X37.579 Y227.324 Z9.500 F600.000
G1 X43.375 Y233.120 Z9.500 F600.000
G0 Z15.000
G0 X40.324 Z15.000
G0 X40.324 Z13.000
G1 X40.324 Y233.120 Z9.500 F600.000
G1 X234.409 Y39.036 Z9.500 F600.000
G0 Z15.000
G0 Y38.611 Z15.000
G0 Y38.611 Z13.000
G1 X234.409 Y38.611 Z9.500 F600.000
G1 X232.088 Y36.290 Z9.500 F600.000
G0 Z15.000
G0 X231.663 Z15.000
G0 X231.663 Z13.000
G1 X231.663 Y36.290 Z9.500 F600.000
G1 X37.579 Y230.375 Z9.500 F600.000
G0 Z15.000
G0 Y230.799 Z15.000
G0 Y230.799 Z13.000
G1 X37.579 Y230.799 Z9.500 F600.000
G1 X39.900 Y233.120 Z9.500 F600.000
G0 Z15.000
G0 X39.316 Z15.000
G0 X39.316 Z13.000
G1 X39.316 Y233.120 Z9.500 F600.000
G1 X234.409 Y38.028 Z9.500 F600.000
G0 Z15.000
G0 Y37.603 Z15.000
G0 Y37.603 Z13.000
G1 X234.409 Y37.603 Z9.500 F600.000
G1 X233.096 Y36.290 Z9.500 F600.000
G0 Z15.000
G0 X232.671 Z15.000
G0 X232.671 Z13.000
G1 X232.671 Y36.290 Z9.500 F600.000
G1 X37.579 Y231.383 Z9.500 F600.000
G0 Z15.000
G0 Y231.807 Z15.000
G0 Y231.807 Z13.000
G1 X37.579 Y231.807 Z9.500 F600.000
G1 X38.892 Y233.120 Z9.500 F600.000
G1 X38.892 Y233.120 Z9.000 F600.000
G1 X37.579 Y231.807 Z9.000 F600.000
G0 Z15.000
G0 Y231.383 Z15.000
G0 Y231.383 Z13.000
G1 X37.579 Y231.383 Z9.000 F600.000
G1 X232.671 Y36.290 Z9.000 F600.000
G0 Z15.000
G0 X233.096 Z15.000
G0 X233.096 Z13.000
G1 X233.096 Y36.290 Z9.000 F600.000
G1 X234.409 Y37.603 Z9.000 F600.000
G0 Z15.000
G0 Y38.028 Z15.000
G0 Y38.028 Z13.000
G1 X234.409 Y38.028 Z9.000 F600.000
G1 X39.316 Y233.120 Z9.000 F600.000
G0 Z15.000
G0 X39.900 Z15.000
G0 X39.900 Z13.000
G1 X39.900 Y233.120 Z9.000 F600.000
G1 X37.579 Y230.799 Z9.000 F600.000
G0 Z15.000
G0 Y230.375 Z15.000
G0 Y230.375 Z13.000
G1 X37.579 Y230.375 Z9.000 F600.000
G1 X231.663 Y36.290 Z9.000 F600.000
G0 Z15.000
G0 X232.088 Z15.000
G0 X232.088 Z13.000
G1 X232.088 Y36.290 Z9.000 F600.000
G1 X234.409 Y38.611 Z9.000 F600.000
G0 Z15.000
G0 Y39.036 Z15.000
G0 Y39.036 Z13.000
G1 X234.409 Y39.036 Z9.000 F600.000
G1 X40.324 Y233.120 Z9.000 F600.000
G0 Z15.000
G0 X43.375 Z15.000
G0 X43.375 Z13.000
G1 X43.375 Y233.120 Z9.000 F600.000
G1 X37.579 Y227.324 Z9.000 F600.000
G0 Z15.000
G0 Y226.900 Z15.000
G0 Y226.900 Z13.000
G1 X37.579 Y226.900 Z9.000 F600.000
G1 X228.188 Y36.290 Z9.000 F600.000
G0 Z15.000
G0 X228.613 Z15.000
G0 X228.613 Z13.000
G1 X228.613 Y36.290 Z9.000 F600.000
G1 X234.409 Y42.086 Z9.000 F600.000
G0 Z15.000
G0 Y42.511 Z15.000
G0 Y42.511 Z13.000
G1 X234.409 Y42.511 Z9.000 F600.000
G1 X43.799 Y233.120 Z9.000 F600.000
G0 Z15.000
G0 X44.383 Z15.000
G0 X44.383 Z13.000
G1 X44.383 Y233.120 Z9.000 F600.000
G1 X37.579 Y226.316 Z9.000 F600.000
G0 Z15.000
G0 Y225.892 Z15.000
G0 Y225.892 Z13.000
G1 X37.579 Y225.892 Z9.000 F600.000
G1 X227.180 Y36.290 Z9.000 F600.000
G0 Z15.000
G0 X227.605 Z15.000
G0 X227.605 Z13.000
G1 X227.605 Y36.290 Z9.000 F600.000
G1 X234.409 Y43.094 Z9.000 F600.000
G0 Z15.000
G0 Y43.519 Z15.000
G0 Y43.519 Z13.000
G1 X234.409 Y43.519 Z9.000 F600.000
G1 X44.807 Y233.120 Z9.000 F600.000
G0 Z15.000
G0 X47.858 Z15.000
G0 X47.858 Z13.000
G1 X47.858 Y233.120 Z9.000 F600.000
G1 X37.579 Y222.841 Z9.000 F600.000
G0 Z15.000
G0 Y222.416 Z15.000
G0 Y222.416 Z13.000
G1 X37.579 Y222.416 Z9.000 F600.000
G1 X223.705 Y36.290 Z9.000 F600.000
G0 Z15.000
G0 X224.130 Z15.000
G0 X224.130 Z13.000
G1 X224.130 Y36.290 Z9.000 F600.000
G1 X234.409 Y46.569 Z9.000 F600.000
G0 Z15.000
G0 Y46.994 Z15.000
G0 Y46.994 Z13.000
G1 X234.409 Y46.994 Z9.000 F600.000
G1 X48.282 Y233.120 Z9.000 F600.000
G0 Z15.000
G0 X48.866 Z15.000
G0 X48.866 Z13.000
G1 X48.866 Y233.120 Z9.000 F600.000
G1 X37.579 Y221.833 Z9.000 F600.000
G0 Z15.000
G0 Y221.409 Z15.000
G0 Y221.409 Z13.000
G1 X37.579 Y221.409 Z9.000 F600.000
G1 X222.697 Y36.290 Z9.000 F600.000
G0 Z15.000
G0 X223.122 Z15.000
G0 X223.122 Z13.000
G1 X223.122 Y36.290 Z9.000 F600.000
G1 X234.409 Y47.577 Z9.000 F600.000
G0 Z15.000
G0 Y48.002 Z15.000
G0 Y48.002 Z13.000
G1 X234.409 Y48.002 Z9.000 F600.000
G1 X49.290 Y233.120 Z9.000 F600.000
G0 Z15.000
G0 X52.341 Z15.000
G0 X52.341 Z13.000
G1 X52.341 Y233.120 Z9.000 F600.000
G1 X37.579 Y218.358 Z9.000 F600.000
G0 Z15.000
G0 Y217.933 Z15.000
G0 Y217.933 Z13.000
G1 X37.579 Y217.933 Z9.000 F600.000
G1 X219.222 Y36.290 Z9.000 F600.000
G0 Z15.000
G0 X219.647 Z15.000
G0 X219.647 Z13.000
G1 X219.647 Y36.290 Z9.000 F600.000
G1 X234.409 Y51.052 Z9.000 F600.000
G0 Z15.000
G0 Y51.477 Z15.000
G0 Y51.477 Z13.000
G1 X234.409 Y51.477 Z9.000 F600.000
G1 X52.765 Y233.120 Z9.000 F600.000
G0 Z15.000
G0 X53.349 Z15.000
G0 X53.349 Z13.000
G1 X53.349 Y233.120 Z9.000 F600.000
G1 X37.579 Y217.350 Z9.000 F600.000
G0 Z15.000
G0 Y216.926 Z15.000
G0 Y216.926 Z13.000
G1 X37.579 Y216.926 Z9.000 F600.000
G1 X218.214 Y36.290 Z9.000 F600.000
G0 Z15.000
G0 X218.639 Z15.000
G0 X218.639 Z13.000
G1 X218.639 Y36.290 Z9.000 F600.000
G1 X234.409 Y52.060 Z9.000 F600.000
G0 Z15.000
G0 Y52.485 Z15.000
G0 Y52.485 Z13.000
G1 X234.409 Y52.485 Z9.000 F600.000
G1 X53.773 Y233.120 Z9.000 F600.000
G0 Z15.000
G0 X56.824 Z15.000
G0 X56.824 Z13.000
G1 X56.824 Y233.120 Z9.000 F600.000
G1 X37.579 Y213.875 Z9.000 F600.000
G0 Z15.000
G0 Y213.450 Z15.000
G0 Y213.450 Z13.000
G1 X37.579 Y213.450 Z9.000 F600.000
G1 X214.739 Y36.290 Z9.000 F600.000
G0 Z15.000
G0 X215.163 Z15.000
G0 X215.163 Z13.000
G1 X215.163 Y36.290 Z9.000 F600.000
G1 X234.409 Y55.535 Z9.000 F600.000
G0 Z15.000
G0 Y55.960 Z15.000
G0 Y55.960 Z13.000
G1 X234.409 Y55.960 Z9.000 F600.000
G1 X57.249 Y233.120 Z9.000 F600.000
G0 Z15.000
G0 X57.832 Z15.000
G0 X57.832 Z13.000
G1 X57.832 Y233.120 Z9.000 F600.000
G1 X37.579 Y212.867 Z9.000 F600.000
G0 Z15.000
G0 Y212.442 Z15.000
G0 Y212.442 Z13.000
G1 X37.579 Y212.442 Z9.000 F600.000
G1 X213.731 Y36.290 Z9.000 F600.000
G0 Z15.000
G0 X214.156 Z15.000
G0 X214.156 Z13.000
G1 X214.156 Y36.290 Z9.000 F600.000
G1 X234.409 Y56.543 Z9.000 F600.000
G0 Z15.000
G0 Y56.968 Z15.000
G0 Y56.968 Z13.000
G1 X234.409 Y56.968 Z9.000 F600.000
G1 X58.256 Y233.120 Z9.000 F600.000
G0 Z15.000
G0 X61.307 Z15.000
G0 X61.307 Z13.000
G1 X61.307 Y233.120 Z9.000 F600.000
G1 X37.579 Y209.392 Z9.000 F600.000
G0 Z15.000
G0 Y208.967 Z15.000
G0 Y208.967 Z13.000
G1 X37.579 Y208.967 Z9.000 F600.000
G1 X210.256 Y36.290 Z9.000 F600.000
G0 Z15.000
G0 X210.680 Z15.000
G0 X210.680 Z13.000
G1 X210.680 Y36.290 Z9.000 F600.000
G1 X234.409 Y60.019 Z9.000 F600.000
G0 Z15.000
G0 Y60.443 Z15.000
G0 Y60.443 Z13.000
G1 X234.409 Y60.443 Z9.000 F600.000
G1 X61.732 Y233.120 Z9.000 F600.000
G0 Z15.000
G0 X62.315 Z15.000
G0 X62.315 Z13.000
G1 X62.315 Y233.120 Z9.000 F600.000
G1 X37.579 Y208.384 Z9.000 F600.000
G0 Z15.000
G0 Y207.959 Z15.000
G0 Y207.959 Z13.000
G1 X37.579 Y207.959 Z9.000 F600.000
G1 X209.248 Y36.290 Z9.000 F600.000
G0 Z15.000
G0 X209.672 Z15.000
G0 X209.672 Z13.000
G1 X209.672 Y36.290 Z9.000 F600.000
G1 X234.409 Y61.026 Z9.000 F600.000
G0 Z15.000
G0 Y61.451 Z15.000
G0 Y61.451 Z13.000
G1 X234.409 Y61.451 Z9.000 F600.000
G1 X62.740 Y233.120 Z9.000 F600.000
G0 Z15.000
G0 X65.790 Z15.000
G0 X65.790 Z13.000
G1 X65.790 Y233.120 Z9.000 F600.000
G1 X37.579 Y204.909 Z9.000 F600.000
G0 Z15.000
G0 Y204.484 Z15.000
G0 Y204.484 Z13.000
G1 X37.579 Y204.484 Z9.000 F600.000
G1 X205.773 Y36.290 Z9.000 F600.000
G0 Z15.000
G0 X206.197 Z15.000
G0 X206.197 Z13.000
G1 X206.197 Y36.290 Z9.000 F600.000
G1 X234.409 Y64.502 Z9.000 F600.000
G0 Z15.000
G0 Y64.926 Z15.000
G0 Y64.926 Z13.000
G1 X234.409 Y64.926 Z9.000 F600.000
G1 X66.215 Y233.120 Z9.000 F600.000
G0 Z15.000
G0 X66.798 Z15.000
G0 X66.798 Z13.000
G1 X66.798 Y233.120 Z9.000 F600.000
G1 X37.579 Y203.901 Z9.000 F600.000
G0 Z15.000
G0 Y203.476 Z15.000
G0 Y203.476 Z13.000
G1 X37.579 Y203.476 Z9.000 F600.000
G1 X204.765 Y36.290 Z9.000 F600.000
G0 Z15.000
G0 X205.189 Z15.000
G0 X205.189 Z13.000
G1 X205.189 Y36.290 Z9.000 F600.000
G1 X234.409 Y65.510 Z9.000 F600.000
G0 Z15.000
G0 Y65.934 Z15.000
G0 Y65.934 Z13.000
G1 X234.409 Y65.934 Z9.000 F600.000
G1 X67.223 Y233.120 Z9.000 F600.000
G0 Z15.000
G0 X70.273 Z15.000
G0 X70.273 Z13.000
G1 X70.273 Y233.120 Z9.000 F600.000
G1 X37.579 Y200.426 Z9.000 F600.000
G0 Z15.000
G0 Y200.001 Z15.000
G0 Y200.001 Z13.000
G1 X37.579 Y200.001 Z9.000 F600.000
G1 X201.290 Y36.290 Z9.000 F600.000
G0 Z15.000
G0 X201.714 Z15.000
G0 X201.714 Z13.000
G1 X201.714 Y36.290 Z9.000 F600.000
G1 X234.409 Y68.985 Z9.000 F600.000
G0 Z15.000
G0 Y69.409 Z15.000
G0 Y69.409 Z13.000
G1 X234.409 Y69.409 Z9.000 F600.000
G1 X70.698 Y233.120 Z9.000 F600.000
G0 Z15.000
G0 X71.281 Z15.000
G0 X71.281 Z13.000
G1 X71.281 Y233.120 Z9.000 F600.000
G1 X37.579 Y199.418 Z9.000 F600.000
G0 Z15.000
G0 Y198.993 Z15.000
G0 Y198.993 Z13.000
G1 X37.579 Y198.993 Z9.000 F600.000
G1 X200.282 Y36.290 Z9.000 F600.000
G0 Z15.000
G0 X200.706 Z15.000
G0 X200.706 Z13.000
G1 X200.706 Y36.290 Z9.000 F600.000
G1 X234.409 Y69.993 Z9.000 F600.000
G0 Z15.000
G0 Y70.417 Z15.000
G0 Y70.417 Z13.000
G1 X234.409 Y70.417 Z9.000 F600.000
G1 X71.706 Y233.120 Z9.000 F600.000
G0 Z15.000
G0 X74.756 Z15.000
G0 X74.756 Z13.000
G1 X74.756 Y233.120 Z9.000 F600.000
G1 X37.579 Y195.943 Z9.000 F600.000
G0 Z15.000
G0 Y195.518 Z15.000
G0 Y195.518 Z13.000
G1 X37.579 Y195.518 Z9.000 F600.000
G1 X196.807 Y36.290 Z9.000 F600.000
G0 Z15.000
G0 X197.231 Z15.000
G0 X197.231 Z13.000
G1 X197.231 Y36.290 Z9.000 F600.000
G1 X234.409 Y73.468 Z9.000 F600.000
G0 Z15.000
G0 Y73.892 Z15.000
G0 Y73.892 Z13.000
G1 X234.409 Y73.892 Z9.000 F600.000
G1 X75.181 Y233.120 Z9.000 F600.000
G0 Z15.000
G0 X75.764 Z15.000
G0 X75.764 Z13.000
G1 X75.764 Y233.120 Z9.000 F600.000
G1 X37.579 Y194.935 Z9.000 F600.000
G0 Z15.000
G0 Y194.510 Z15.000
G0 Y194.510 Z13.000
G1 X37.579 Y194.510 Z9.000 F600.000
G1 X195.799 Y36.290 Z9.000 F600.000
G0 Z15.000
G0 X196.223 Z15.000
G0 X196.223 Z13.000
G1 X196.223 Y36.290 Z9.000 F600.000
G1 X234.409 Y74.476 Z9.000 F600.000
G0 Z15.000
G0 Y74.900 Z15.000
G0 Y74.900 Z13.000
G1 X234.409 Y74.900 Z9.000 F600.000
G1 X76.189 Y233.120 Z9.000 F600.000
G0 Z15.000
G0 X79.239 Z15.000
G0 X79.239 Z13.000
G1 X79.239 Y233.120 Z9.000 F600.000
G1 X37.579 Y191.460 Z9.000 F600.000
G0 Z15.000
G0 Y191.035 Z15.000
G0 Y191.035 Z13.000
G1 X37.579 Y191.035 Z9.000 F600.000
G1 X192.324 Y36.290 Z9.000 F600.000
G0 Z15.000
G0 X192.748 Z15.000
G0 X192.748 Z13.000
G1 X192.748 Y36.290 Z9.000 F600.000
G1 X234.409 Y77.951 Z9.000 F600.000
G0 Z15.000
G0 Y78.375 Z15.000
G0 Y78.375 Z13.000
G1 X234.409 Y78.375 Z9.000 F600.000
G1 X79.664 Y233.120 Z9.000 F600.000
G0 Z15.000
G0 X80.247 Z15.000
G0 X80.247 Z13.000
G1 X80.247 Y233.120 Z9.000 F600.000
G1 X37.579 Y190.452 Z9.000 F600.000
G0 Z15.000
G0 Y190.027 Z15.000
G0 Y190.027 Z13.000
G1 X37.579 Y190.027 Z9.000 F600.000
G1 X191.316 Y36.290 Z9.000 F600.000
G0 Z15.000
G0 X191.740 Z15.000
G0 X191.740 Z13.000
G1 X191.740 Y36.290 Z9.000 F600.000
G1 X234.409 Y78.959 Z9.000 F600.000
G0 Z15.000
G0 Y79.383 Z15.000
G0 Y79.383 Z13.000
G1 X234.409 Y79.383 Z9.000 F600.000
G1 X80.672 Y233.120 Z9.000 F600.000
G0 Z15.000
G0 X83.722 Z15.000
G0 X83.722 Z13.000
G1 X83.722 Y233.120 Z9.000 F600.000
G1 X37.579 Y186.977 Z9.000 F600.000
G0 Z15.000
G0 Y186.552 Z15.000
G0 Y186.552 Z13.000
G1 X37.579 Y186.552 Z9.000 F600.000
G1 X187.841 Y36.290 Z9.000 F600.000
G0 Z15.000
G0 X188.265 Z15.000
G0 X188.265 Z13.000
G1 X188.265 Y36.290 Z9.000 F600.000
G1 X234.409 Y82.434 Z9.000 F600.000
G0 Z15.000
G0 Y82.858 Z15.000
G0 Y82.858 Z13.000
G1 X234.409 Y82.858 Z9.000 F600.000
G1 X84.147 Y233.120 Z9.000 F600.000
G0 Z15.000
G0 X84.730 Z15.000
G0 X84.730 Z13.000
G1 X84.730 Y233.120 Z9.000 F600.000
G1 X37.579 Y185.969 Z9.000 F600.000
G0 Z15.000
G0 Y185.544 Z15.000
G0 Y185.544 Z13.000
G1 X37.579 Y185.544 Z9.000 F600.000
G1 X186.833 Y36.290 Z9.000 F600.000
G0 Z15.000
G0 X187.257 Z15.000
G0 X187.257 Z13.000
G1 X187.257 Y36.290 Z9.000 F600.000
G1 X234.409 Y83.442 Z9.000 F600.000
G0 Z15.000
G0 Y83.866 Z15.000
G0 Y83.866 Z13.000
G1 X234.409 Y83.866 Z9.000 F600.000
G1 X85.155 Y233.120 Z9.000 F600.000
G0 Z15.000
G0 X88.205 Z15.000
G0 X88.205 Z13.000
G1 X88.205 Y233.120 Z9.000 F600.000
G1 X37.579 Y182.493 Z9.000 F600.000
G0 Z15.000
G0 Y182.069 Z15.000
G0 Y182.069 Z13.000
G1 X37.579 Y182.069 Z9.000 F600.000
G1 X183.358 Y36.290 Z9.000 F600.000
G0 Z15.000
G0 X183.782 Z15.000
G0 X183.782 Z13.000
G1 X183.782 Y36.290 Z9.000 F600.000
G1 X234.409 Y86.917 Z9.000 F600.000
G0 Z15.000
G0 Y87.341 Z15.000
G0 Y87.341 Z13.000
G1 X234.409 Y87.341 Z9.000 F600.000
G1 X88.630 Y233.120 Z9.000 F600.000
G0 Z15.000
G0 X89.213 Z15.000
G0 X89.213 Z13.000
G1 X89.213 Y233.120 Z9.000 F600.000
G1 X37.579 Y181.486 Z9.000 F600.000
G0 Z15.000
G0 Y181.061 Z15.000
G0 Y181.061 Z13.000
G1 X37.579 Y181.061 Z9.000 F600.000
G1 X182.350 Y36.290 Z9.000 F600.000
G0 Z15.000
G0 X182.774 Z15.000
G0 X182.774 Z13.000
G1 X182.774 Y36.290 Z9.000 F600.000
G1 X234.409 Y87.925 Z9.000 F600.000
G0 Z15.000
G0 Y88.349 Z15.000
G0 Y88.349 Z13.000
G1 X234.409 Y88.349 Z9.000 F600.000
G1 X89.638 Y233.120 Z9.000 F600.000
G0 Z15.000
G0 X92.688 Z15.000
G0 X92.688 Z13.000
G1 X92.688 Y233.120 Z9.000 F600.000
G1 X37.579 Y178.010 Z9.000 F600.000
G0 Z15.000
G0 Y177.586 Z15.000
G0 Y177.586 Z13.000
G1 X37.579 Y177.586 Z9.000 F600.000
G1 X178.875 Y36.290 Z9.000 F600.000
G0 Z15.000
G0 X179.299 Z15.000
G0 X179.299 Z13.000
G1 X179.299 Y36.290 Z9.000 F600.000
G1 X234.409 Y91.400 Z9.000 F600.000
G0 Z15.000
G0 Y91.824 Z15.000
G0 Y91.824 Z13.000
G1 X234.409 Y91.824 Z9.000 F600.000
G1 X93.113 Y233.120 Z9.000 F600.000
G0 Z15.000
G0 X93.696 Z15.000
G0 X93.696 Z13.000
G1 X93.696 Y233.120 Z9.000 F600.000
G1 X37.579 Y177.003 Z9.000 F600.000
G0 Z15.000
G0 Y176.578 Z15.000
G0 Y176.578 Z13.000
G1 X37.579 Y176.578 Z9.000 F600.000
G1 X177.867 Y36.290 Z9.000 F600.000
G0 Z15.000
G0 X178.291 Z15.000
G0 X178.291 Z13.000
G1 X178.291 Y36.290 Z9.000 F600.000
G1 X234.409 Y92.408 Z9.000 F600.000
G0 Z15.000
G0 Y92.832 Z15.000
G0 Y92.832 Z13.000
G1 X234.409 Y92.832 Z9.000 F600.000
G1 X94.121 Y233.120 Z9.000 F600.000
G0 Z15.000
G0 X97.172 Z15.000
G0 X97.172 Z13.000
G1 X97.172 Y233.120 Z9.000 F600.000
G1 X37.579 Y173.527 Z9.000 F600.000
G0 Z15.000
G0 Y173.103 Z15.000
G0 Y173.103 Z13.000
G1 X37.579 Y173.103 Z9.000 F600.000
G1 X174.391 Y36.290 Z9.000 F600.000
G0 Z15.000
G0 X174.816 Z15.000
G0 X174.816 Z13.000
G1 X174.816 Y36.290 Z9.000 F600.000
G1 X234.409 Y95.883 Z9.000 F600.000
G0 Z15.000
G0 Y96.307 Z15.000
G0 Y96.307 Z13.000
G1 X234.409 Y96.307 Z9.000 F600.000
G1 X97.596 Y233.120 Z9.000 F600.000
G0 Z15.000
G0 X98.179 Z15.000
G0 X98.179 Z13.000
G1 X98.179 Y233.120 Z9.000 F600.000
G1 X37.579 Y172.519 Z9.000 F600.000
G0 Z15.000
G0 Y172.095 Z15.000
G0 Y172.095 Z13.000
G1 X37.579 Y172.095 Z9.000 F600.000
G1 X173.384 Y36.290 Z9.000 F600.000
G0 Z15.000
G0 X173.808 Z15.000
G0 X173.808 Z13.000
G1 X173.808 Y36.290 Z9.000 F600.000
G1 X234.409 Y96.891 Z9.000 F600.000
G0 Z15.000
G0 Y97.315 Z15.000
G0 Y97.315 Z13.000
G1 X234.409 Y97.315 Z9.000 F600.000
G1 X98.604 Y233.120 Z9.000 F600.000
G0 Z15.000
G0 X101.655 Z15.000
G0 X101.655 Z13.000
G1 X101.655 Y233.120 Z9.000 F600.000
G1 X37.579 Y169.044 Z9.000 F600.000
G0 Z15.000
G0 Y168.620 Z15.000
G0 Y168.620 Z13.000
G1 X37.579 Y168.620 Z9.000 F600.000
G1 X169.908 Y36.290 Z9.000 F600.000
G0 Z15.000
G0 X170.333 Z15.000
G0 X170.333 Z13.000
G1 X170.333 Y36.290 Z9.000 F600.000
G1 X234.409 Y100.366 Z9.000 F600.000
G0 Z15.000
G0 Y100.791 Z15.000
G0 Y100.791 Z13.000
G1 X234.409 Y100.791 Z9.000 F600.000
G1 X102.079 Y233.120 Z9.000 F600.000
G0 Z15.000
G0 X102.663 Z15.000
G0 X102.663 Z13.000
G1 X102.663 Y233.120 Z9.000 F600.000
G1 X37.579 Y168.036 Z9.000 F600.000
G0 Z15.000
G0 Y167.612 Z15.000
G0 Y167.612 Z13.000
G1 X37.579 Y167.612 Z9.000 F600.000
G1 X168.900 Y36.290 Z9.000 F600.000
G0 Z15.000
G0 X169.325 Z15.000
G0 X169.325 Z13.000
G1 X169.325 Y36.290 Z9.000 F600.000
G1 X234.409 Y101.374 Z9.000 F600.000
G0 Z15.000
G0 Y101.798 Z15.000
G0 Y101.798 Z13.000
G1 X234.409 Y101.798 Z9.000 F600.000
G1 X103.087 Y233.120 Z9.000 F600.000
G0 Z15.000
G0 X106.138 Z15.000
G0 X106.138 Z13.000
G1 X106.138 Y233.120 Z9.000 F600.000
G1 X37.579 Y164.561 Z9.000 F600.000
G0 Z15.000
G0 Y164.137 Z15.000
G0 Y164.137 Z13.000
G1 X37.579 Y164.137 Z9.000 F600.000
G1 X165.425 Y36.290 Z9.000 F600.000
G0 Z15.000
G0 X165.850 Z15.000
G0 X165.850 Z13.000
G1 X165.850 Y36.290 Z9.000 F600.000
G1 X234.409 Y104.849 Z9.000 F600.000
G0 Z15.000
G0 Y105.274 Z15.000
G0 Y105.274 Z13.000
G1 X234.409 Y105.274 Z9.000 F600.000
G1 X106.562 Y233.120 Z9.000 F600.000
G0 Z15.000
G0 X107.146 Z15.000
G0 X107.146 Z13.000
G1 X107.146 Y233.120 Z9.000 F600.000
G1 X37.579 Y163.553 Z9.000 F600.000
G0 Z15.000
G0 Y163.129 Z15.000
G0 Y163.129 Z13.000
G1 X37.579 Y163.129 Z9.000 F600.000
G1 X164.417 Y36.290 Z9.000 F600.000
G0 Z15.000
G0 X164.842 Z15.000
G0 X164.842 Z13.000
G1 X164.842 Y36.290 Z9.000 F600.000
G1 X234.409 Y105.857 Z9.000 F600.000
G0 Z15.000
G0 Y106.282 Z15.000
G0 Y106.282 Z13.000
G1 X234.409 Y106.282 Z9.000 F600.000
G1 X107.570 Y233.120 Z9.000 F600.000
G0 Z15.000
G0 X110.621 Z15.000
G0 X110.621 Z13.000
G1 X110.621 Y233.120 Z9.000 F600.000
G1 X37.579 Y160.078 Z9.000 F600.000
G0 Z15.000
G0 Y159.654 Z15.000
G0 Y159.654 Z13.000
G1 X37.579 Y159.654 Z9.000 F600.000
G1 X160.942 Y36.290 Z9.000 F600.000
G0 Z15.000
G0 X161.367 Z15.000
G0 X161.367 Z13.000
G1 X161.367 Y36.290 Z9.000 F600.000
G1 X234.409 Y109.332 Z9.000 F600.000
G0 Z15.000
G0 Y109.757 Z15.000
G0 Y109.757 Z13.000
G1 X234.409 Y109.757 Z9.000 F600.000
G1 X111.045 Y233.120 Z9.000 F600.000
G0 Z15.000
G0 X111.629 Z15.000
G0 X111.629 Z13.000
G1 X111.629 Y233.120 Z9.000 F600.000
G1 X37.579 Y159.070 Z9.000 F600.000
G0 Z15.000
G0 Y158.646 Z15.000
G0 Y158.646 Z13.000
G1 X37.579 Y158.646 Z9.000 F600.000
G1 X159.934 Y36.290 Z9.000 F600.000
G0 Z15.000
G0 X160.359 Z15.000
G0 X160.359 Z13.000
G1 X160.359 Y36.290 Z9.000 F600.000
G1 X234.409 Y110.340 Z9.000 F600.000
G0 Z15.000
G0 Y110.765 Z15.000
G0 Y110.765 Z13.000
G1 X234.409 Y110.765 Z9.000 F600.000
G1 X112.053 Y233.120 Z9.000 F600.000
G0 Z15.000
G0 X115.104 Z15.000
G0 X115.104 Z13.000
G1 X115.104 Y233.120 Z9.000 F600.000
G1 X37.579 Y155.595 Z9.000 F600.000
G0 Z15.000
G0 Y155.171 Z15.000
G0 Y155.171 Z13.000
G1 X37.579 Y155.171 Z9.000 F600.000
G1 X156.459 Y36.290 Z9.000 F600.000
G0 Z15.000
G0 X156.884 Z15.000
G0 X156.884 Z13.000
G1 X156.884 Y36.290 Z9.000 F600.000
G1 X234.409 Y113.815 Z9.000 F600.000
G0 Z15.000
G0 Y114.240 Z15.000
G0 Y114.240 Z13.000
G1 X234.409 Y114.240 Z9.000 F600.000
G1 X115.528 Y233.120 Z9.000 F600.000
G0 Z15.000
G0 X116.112 Z15.000
G0 X116.112 Z13.000
G1 X116.112 Y233.120 Z9.000 F600.000
G1 X37.579 Y154.587 Z9.000 F600.000
G0 Z15.000
G0 Y154.163 Z15.000
G0 Y154.163 Z13.000
G1 X37.579 Y154.163 Z9.000 F600.000
G1 X155.451 Y36.290 Z9.000 F600.000
G0 Z15.000
G0 X155.876 Z15.000
G0 X155.876 Z13.000
G1 X155.876 Y36.290 Z9.000 F600.000
G1 X234.409 Y114.823 Z9.000 F600.000
G0 Z15.000
G0 Y115.248 Z15.000
G0 Y115.248 Z13.000
G1 X234.409 Y115.248 Z9.000 F600.000
G1 X116.536 Y233.120 Z9.000 F600.000
G0 Z15.000
G0 X119.587 Z15.000
G0 X119.587 Z13.000
G1 X119.587 Y233.120 Z9.000 F600.000
G1 X37.579 Y151.112 Z9.000 F600.000
G0 Z15.000
G0 Y150.688 Z15.000
G0 Y150.688 Z13.000
G1 X37.579 Y150.688 Z9.000 F600.000
G1 X151.976 Y36.290 Z9.000 F600.000
G0 Z15.000
G0 X152.401 Z15.000
G0 X152.401 Z13.000
G1 X152.401 Y36.290 Z9.000 F600.000
G1 X234.409 Y118.298 Z9.000 F600.000
G0 Z15.000
G0 Y118.723 Z15.000
G0 Y118.723 Z13.000
G1 X234.409 Y118.723 Z9.000 F600.000
G1 X120.011 Y233.120 Z9.000 F600.000
G0 Z15.000
G0 X120.595 Z15.000
G0 X120.595 Z13.000
G1 X120.595 Y233.120 Z9.000 F600.000
G1 X37.579 Y150.104 Z9.000 F600.000
G0 Z15.000
G0 Y149.680 Z15.000
G0 Y149.680 Z13.000
G1 X37.579 Y149.680 Z9.000 F600.000
G1 X150.968 Y36.290 Z9.000 F600.000
G0 Z15.000
G0 X151.393 Z15.000
G0 X151.393 Z13.000
G1 X151.393 Y36.290 Z9.000 F600.000
G1 X234.409 Y119.306 Z9.000 F600.000
G0 Z15.000
G0 Y119.731 Z15.000
G0 Y119.731 Z13.000
G1 X234.409 Y119.731 Z9.000 F600.000
G1 X121.019 Y233.120 Z9.000 F600.000
G0 Z15.000
G0 X124.070 Z15.000
G0 X124.070 Z13.000
G1 X124.070 Y233.120 Z9.000 F600.000
G1 X37.579 Y146.629 Z9.000 F600.000
G0 Z15.000
G0 Y146.205 Z15.000
G0 Y146.205 Z13.000
G1 X37.579 Y146.205 Z9.000 F600.000
G1 X147.493 Y36.290 Z9.000 F600.000
G0 Z15.000
G0 X147.918 Z15.000
G0 X147.918 Z13.000
G1 X147.918 Y36.290 Z9.000 F600.000
G1 X234.409 Y122.781 Z9.000 F600.000
G0 Z15.000
G0 Y123.206 Z15.000
G0 Y123.206 Z13.000
G1 X234.409 Y123.206 Z9.000 F600.000
G1 X124.494 Y233.120 Z9.000 F600.000
G0 Z15.000
G0 X125.078 Z15.000
G0 X125.078 Z13.000
G1 X125.078 Y233.120 Z9.000 F600.000
G1 X37.579 Y145.621 Z9.000 F600.000
G0 Z15.000
G0 Y145.197 Z15.000
G0 Y145.197 Z13.000
G1 X37.579 Y145.197 Z9.000 F600.000
G1 X146.485 Y36.290 Z9.000 F600.000
G0 Z15.000
G0 X146.910 Z15.000
G0 X146.910 Z13.000
G1 X146.910 Y36.290 Z9.000 F600.000
G1 X234.409 Y123.789 Z9.000 F600.000
G0 Z15.000
G0 Y124.214 Z15.000
G0 Y124.214 Z13.000
G1 X234.409 Y124.214 Z9.000 F600.000
G1 X125.502 Y233.120 Z9.000 F600.000
G0 Z15.000
G0 X128.553 Z15.000
G0 X128.553 Z13.000
G1 X128.553 Y233.120 Z9.000 F600.000
G1 X37.579 Y142.146 Z9.000 F600.000
G0 Z15.000
G0 Y141.721 Z15.000
G0 Y141.721 Z13.000
G1 X37.579 Y141.721 Z9.000 F600.000
G1 X143.010 Y36.290 Z9.000 F600.000
G0 Z15.000
G0 X143.435 Z15.000
G0 X143.435 Z13.000
G1 X143.435 Y36.290 Z9.000 F600.000
G1 X234.409 Y127.264 Z9.000 F600.000
G0 Z15.000
G0 Y127.689 Z15.000
G0 Y127.689 Z13.000
G1 X234.409 Y127.689 Z9.000 F600.000
G1 X128.977 Y233.120 Z9.000 F600.000
G0 Z15.000
G0 X129.561 Z15.000
G0 X129.561 Z13.000
G1 X129.561 Y233.120 Z9.000 F600.000
G1 X37.579 Y141.138 Z9.000 F600.000
G0 Z15.000
G0 Y140.714 Z15.000
G0 Y140.714 Z13.000
G1 X37.579 Y140.714 Z9.000 F600.000
G1 X142.002 Y36.290 Z9.000 F600.000
G0 Z15.000
G0 X142.427 Z15.000
G0 X142.427 Z13.000
G1 X142.427 Y36.290 Z9.000 F600.000
G1 X234.409 Y128.272 Z9.000 F600.000
G0 Z15.000
G0 Y128.697 Z15.000
G0 Y128.697 Z13.000
G1 X234.409 Y128.697 Z9.000 F600.000
G1 X129.985 Y233.120 Z9.000 F600.000
G0 Z15.000
G0 X133.036 Z15.000
G0 X133.036 Z13.000
G1 X133.036 Y233.120 Z9.000 F600.000
G1 X37.579 Y137.663 Z9.000 F600.000
G0 Z15.000
G0 Y137.238 Z15.000
G0 Y137.238 Z13.000
G1 X37.579 Y137.238 Z9.000 F600.000
G1 X138.527 Y36.290 Z9.000 F600.000
G0 Z15.000
G0 X138.952 Z15.000
G0 X138.952 Z13.000
G1 X138.952 Y36.290 Z9.000 F600.000
G1 X234.409 Y131.747 Z9.000 F600.000
G0 Z15.000
G0 Y132.172 Z15.000
G0 Y132.172 Z13.000
G1 X234.409 Y132.172 Z9.000 F600.000
G1 X133.461 Y233.120 Z9.000 F600.000
G0 Z15.000
G0 X134.044 Z15.000
G0 X134.044 Z13.000
G1 X134.044 Y233.120 Z9.000 F600.000
G1 X37.579 Y136.655 Z9.000 F600.000
G0 Z15.000
G0 Y136.230 Z15.000
G0 Y136.230 Z13.000
G1 X37.579 Y136.230 Z9.000 F600.000
G1 X137.519 Y36.290 Z9.000 F600.000
G0 Z15.000
G0 X137.944 Z15.000
G0 X137.944 Z13.000
G1 X137.944 Y36.290 Z9.000 F600.000
G1 X234.409 Y132.755 Z9.000 F600.000
G0 Z15.000
G0 Y133.180 Z15.000
G0 Y133.180 Z13.000
G1 X234.409 Y133.180 Z9.000 F600.000
G1 X134.468 Y233.120 Z9.000 F600.000
G0 Z15.000
G0 X137.519 Z15.000
G0 X137.519 Z13.000
G1 X137.519 Y233.120 Z9.000 F600.000
G1 X37.579 Y133.180 Z9.000 F600.000
G0 Z15.000
G0 Y132.755 Z15.000
G0 Y132.755 Z13.000
G1 X37.579 Y132.755 Z9.000 F600.000
G1 X134.044 Y36.290 Z9.000 F600.000
G0 Z15.000
G0 X134.468 Z15.000
G0 X134.468 Z13.000
G1 X134.468 Y36.290 Z9.000 F600.000
G1 X234.409 Y136.230 Z9.000 F600.000
G0 Z15.000
G0 Y136.655 Z15.000
G0 Y136.655 Z13.000
G1 X234.409 Y136.655 Z9.000 F600.000
G1 X137.944 Y233.120 Z9.000 F600.000
G0 Z15.000
G0 X138.527 Z15.000
G0 X138.527 Z13.000
G1 X138.527 Y233.120 Z9.000 F600.000
G1 X37.579 Y132.172 Z9.000 F600.000
G0 Z15.000
G0 Y131.747 Z15.000
G0 Y131.747 Z13.000
G1 X37.579 Y131.747 Z9.000 F600.000
G1 X133.036 Y36.290 Z9.000 F600.000
G0 Z15.000
G0 X133.461 Z15.000
G0 X133.461 Z13.000
G1 X133.461 Y36.290 Z9.000 F600.000
G1 X234.409 Y137.238 Z9.000 F600.000
G0 Z15.000
G0 Y137.663 Z15.000
G0 Y137.663 Z13.000
G1 X234.409 Y137.663 Z9.000 F600.000
G1 X138.952 Y233.120 Z9.000 F600.000
G0 Z15.000
G0 X142.002 Z15.000
G0 X142.002 Z13.000
G1 X142.002 Y233.120 Z9.000 F600.000
G1 X37.579 Y128.697 Z9.000 F600.000
G0 Z15.000
G0 Y128.272 Z15.000
G0 Y128.272 Z13.000
G1 X37.579 Y128.272 Z9.000 F600.000
G1 X129.561 Y36.290 Z9.000 F600.000
G0 Z15.000
G0 X129.985 Z15.000
G0 X129.985 Z13.000
G1 X129.985 Y36.290 Z9.000 F600.000
G1 X234.409 Y140.714 Z9.000 F600.000
G0 Z15.000
G0 Y141.138 Z15.000
G0 Y141.138 Z13.000
G1 X234.409 Y141.138 Z9.000 F600.000
G1 X142.427 Y233.120 Z9.000 F600.000
G0 Z15.000
G0 X143.010 Z15.000
G0 X143.010 Z13.000
G1 X143.010 Y233.120 Z9.000 F600.000
G1 X37.579 Y127.689 Z9.000 F600.000
G0 Z15.000
G0 Y127.264 Z15.000
G0 Y127.264 Z13.000
G1 X37.579 Y127.264 Z9.000 F600.000
G1 X128.553 Y36.290 Z9.000 F600.000
G0 Z15.000
G0 X128.977 Z15.000
G0 X128.977 Z13.000
G1 X128.977 Y36.290 Z9.000 F600.000
G1 X234.409 Y141.721 Z9.000 F600.000
G0 Z15.000
G0 Y142.146 Z15.000
G0 Y142.146 Z13.000
G1 X234.409 Y142.146 Z9.000 F600.000
G1 X143.435 Y233.120 Z9.000 F600.000
G0 Z15.000
G0 X146.485 Z15.000
G0 X146.485 Z13.000
G1 X146.485 Y233.120 Z9.000 F600.000
G1 X37.579 Y124.214 Z9.000 F600.000
G0 Z15.000
G0 Y123.789 Z15.000
G0 Y123.789 Z13.000
G1 X37.579 Y123.789 Z9.000 F600.000
G1 X125.078 Y36.290 Z9.000 F600.000
G0 Z15.000
G0 X125.502 Z15.000
G0 X125.502 Z13.000
G1 X125.502 Y36.290 Z9.000 F600.000
G1 X234.409 Y145.197 Z9.000 F600.000
G0 Z15.000
G0 Y145.621 Z15.000
G0 Y145.621 Z13.000
G1 X234.409 Y145.621 Z9.000 F600.000
G1 X146.910 Y233.120 Z9.000 F600.000
G0 Z15.000
G0 X147.493 Z15.000
G0 X147.493 Z13.000
G1 X147.493 Y233.120 Z9.000 F600.000
G1 X37.579 Y123.206 Z9.000 F600.000
G0 Z15.000
G0 Y122.781 Z15.000
G0 Y122.781 Z13.000
G1 X37.579 Y122.781 Z9.000 F600.000
G1 X124.070 Y36.290 Z9.000 F600.000
G0 Z15.000
G0 X124.494 Z15.000
G0 X124.494 Z13.000
G1 X124.494 Y36.290 Z9.000 F600.000
G1 X234.409 Y146.205 Z9.000 F600.000
G0 Z15.000
G0 Y146.629 Z15.000
G0 Y146.629 Z13.000
G1 X234.409 Y146.629 Z9.000 F600.000
G1 X147.918 Y233.120 Z9.000 F600.000
G0 Z15.000
G0 X150.968 Z15.000
G0 X150.968 Z13.000
G1 X150.968 Y233.120 Z9.000 F600.000
G1 X37.579 Y119.731 Z9.000 F600.000
G0 Z15.000
G0 Y119.306 Z15.000
G0 Y119.306 Z13.000
G1 X37.579 Y119.306 Z9.000 F600.000
G1 X120.595 Y36.290 Z9.000 F600.000
G0 Z15.000
G0 X121.019 Z15.000
G0 X121.019 Z13.000
G1 X121.019 Y36.290 Z9.000 F600.000
G1 X234.409 Y149.680 Z9.000 F600.000
G0 Z15.000
G0 Y150.104 Z15.000
G0 Y150.104 Z13.000
G1 X234.409 Y150.104 Z9.000 F600.000
G1 X151.393 Y233.120 Z9.000 F600.000
G0 Z15.000
G0 X151.976 Z15.000
G0 X151.976 Z13.000
G1 X151.976 Y233.120 Z9.000 F600.000
G1 X37.579 Y118.723 Z9.000 F600.000
G0 Z15.000
G0 Y118.298 Z15.000
G0 Y118.298 Z13.000
G1 X37.579 Y118.298 Z9.000 F600.000
G1 X119.587 Y36.290 Z9.000 F600.000
G0 Z15.000
G0 X120.011 Z15.000
G0 X120.011 Z13.000
G1 X120.011 Y36.290 Z9.000 F600.000
G1 X234.409 Y150.688 Z9.000 F600.000
G0 Z15.000
G0 Y151.112 Z15.000
G0 Y151.112 Z13.000
G1 X234.409 Y151.112 Z9.000 F600.000
G1 X152.401 Y233.120 Z9.000 F600.000
G0 Z15.000
G0 X155.451 Z15.000
G0 X155.451 Z13.000
G1 X155.451 Y233.120 Z9.000 F600.000
G1 X37.579 Y115.248 Z9.000 F600.000
G0 Z15.000
G0 Y114.823 Z15.000
G0 Y114.823 Z13.000
G1 X37.579 Y114.823 Z9.000 F600.000
G1 X116.112 Y36.290 Z9.000 F600.000
G0 Z15.000
G0 X116.536 Z15.000
G0 X116.536 Z13.000
G1 X116.536 Y36.290 Z9.000 F600.000
G1 X234.409 Y154.163 Z9.000 F600.000
G0 Z15.000
G0 Y154.587 Z15.000
G0 Y154.587 Z13.000
G1 X234.409 Y154.587 Z9.000 F600.000
G1 X155.876 Y233.120 Z9.000 F600.000
G0 Z15.000
G0 X156.459 Z15.000
G0 X156.459 Z13.000
G1 X156.459 Y233.120 Z9.000 F600.000
G1 X37.579 Y114.240 Z9.000 F600.000
G0 Z15.000
G0 Y113.815 Z15.000
G0 Y113.815 Z13.000
G1 X37.579 Y113.815 Z9.000 F600.000
G1 X115.104 Y36.290 Z9.000 F600.000
G0 Z15.000
G0 X115.528 Z15.000
G0 X115.528 Z13.000
G1 X115.528 Y36.290 Z9.000 F600.000
G1 X234.409 Y155.171 Z9.000 F600.000
G0 Z15.000
G0 Y155.595 Z15.000
G0 Y155.595 Z13.000
G1 X234.409 Y155.595 Z9.000 F600.000
G1 X156.884 Y233.120 Z9.000 F600.000
G0 Z15.000
G0 X159.934 Z15.000
G0 X159.934 Z13.000
G1 X159.934 Y233.120 Z9.000 F600.000
G1 X37.579 Y110.765 Z9.000 F600.000
G0 Z15.000
G0 Y110.340 Z15.000
G0 Y110.340 Z13.000
G1 X37.579 Y110.340 Z9.000 F600.000
G1 X111.629 Y36.290 Z9.000 F600.000
G0 Z15.000
G0 X112.053 Z15.000
G0 X112.053 Z13.000
G1 X112.053 Y36.290 Z9.000 F600.000
G1 X234.409 Y158.646 Z9.000 F600.000
G0 Z15.000
G0 Y159.070 Z15.000
G0 Y159.070 Z13.000
G1 X234.409 Y159.070 Z9.000 F600.000
G1 X160.359 Y233.120 Z9.000 F600.000
G0 Z15.000
G0 X160.942 Z15.000
G0 X160.942 Z13.000
G1 X160.942 Y233.120 Z9.000 F600.000
G1 X37.579 Y109.757 Z9.000 F600.000
G0 Z15.000
G0 Y109.332 Z15.000
G0 Y109.332 Z13.000
G1 X37.579 Y109.332 Z9.000 F600.000
G1 X110.621 Y36.290 Z9.000 F600.000
G0 Z15.000
G0 X111.045 Z15.000
G0 X111.045 Z13.000
G1 X111.045 Y36.290 Z9.000 F600.000
G1 X234.409 Y159.654 Z9.000 F600.000
G0 Z15.000
G0 Y160.078 Z15.000
G0 Y160.078 Z13.000
G1 X234.409 Y160.078 Z9.000 F600.000
G1 X161.367 Y233.120 Z9.000 F600.000
G0 Z15.000
G0 X164.417 Z15.000
G0 X164.417 Z13.000
G1 X164.417 Y233.120 Z9.000 F600.000
G1 X37.579 Y106.282 Z9.000 F600.000
G0 Z15.000
G0 Y105.857 Z15.000
G0 Y105.857 Z13.000
G1 X37.579 Y105.857 Z9.000 F600.000
G1 X107.146 Y36.290 Z9.000 F600.000
G0 Z15.000
G0 X107.570 Z15.000
G0 X107.570 Z13.000
G1 X107.570 Y36.290 Z9.000 F600.000
G1 X234.409 Y163.129 Z9.000 F600.000
G0 Z15.000
G0 Y163.553 Z15.000
G0 Y163.553 Z13.000
G1 X234.409 Y163.553 Z9.000 F600.000
G1 X164.842 Y233.120 Z9.000 F600.000
G0 Z15.000
G0 X165.425 Z15.000
G0 X165.425 Z13.000
G1 X165.425 Y233.120 Z9.000 F600.000
G1 X37.579 Y105.274 Z9.000 F600.000
G0 Z15.000
G0 Y104.849 Z15.000
G0 Y104.849 Z13.000
G1 X37.579 Y104.849 Z9.000 F600.000
G1 X106.138 Y36.290 Z9.000 F600.000
G0 Z15.000
G0 X106.562 Z15.000
G0 X106.562 Z13.000
G1 X106.562 Y36.290 Z9.000 F600.000
G1 X234.409 Y164.137 Z9.000 F600.000
G0 Z15.000
G0 Y164.561 Z15.000
G0 Y164.561 Z13.000
G1 X234.409 Y164.561 Z9.000 F600.000
G1 X165.850 Y233.120 Z9.000 F600.000
G0 Z15.000
G0 X168.900 Z15.000
G0 X168.900 Z13.000
G1 X168.900 Y233.120 Z9.000 F600.000
G1 X37.579 Y101.798 Z9.000 F600.000
G0 Z15.000
G0 Y101.374 Z15.000
G0 Y101.374 Z13.000
G1 X37.579 Y101.374 Z9.000 F600.000
G1 X102.663 Y36.290 Z9.000 F600.000
G0 Z15.000
G0 X103.087 Z15.000
G0 X103.087 Z13.000
G1 X103.087 Y36.290 Z9.000 F600.000
G1 X234.409 Y167.612 Z9.000 F600.000
G0 Z15.000
G0 Y168.036 Z15.000
G0 Y168.036 Z13.000
G1 X234.409 Y168.036 Z9.000 F600.000
G1 X169.325 Y233.120 Z9.000 F600.000
G0 Z15.000
G0 X169.908 Z15.000
G0 X169.908 Z13.000
G1 X169.908 Y233.120 Z9.000 F600.000
G1 X37.579 Y100.791 Z9.000 F600.000
G0 Z15.000
G0 Y100.366 Z15.000
G0 Y100.366 Z13.000
G1 X37.579 Y100.366 Z9.000 F600.000
G1 X101.655 Y36.290 Z9.000 F600.000
G0 Z15.000
G0 X102.079 Z15.000
G0 X102.079 Z13.000
G1 X102.079 Y36.290 Z9.000 F600.000
G1 X234.409 Y168.620 Z9.000 F600.000
G0 Z15.000
G0 Y169.044 Z15.000
G0 Y169.044 Z13.000
G1 X234.409 Y169.044 Z9.000 F600.000
G1 X170.333 Y233.120 Z9.000 F600.000
G0 Z15.000
G0 X173.384 Z15.000
G0 X173.384 Z13.000
G1 X173.384 Y233.120 Z9.000 F600.000
G1 X37.579 Y97.315 Z9.000 F600.000
G0 Z15.000
G0 Y96.891 Z15.000
G0 Y96.891 Z13.000
G1 X37.579 Y96.891 Z9.000 F600.000
G1 X98.179 Y36.290 Z9.000 F600.000
G0 Z15.000
G0 X98.604 Z15.000
G0 X98.604 Z13.000
G1 X98.604 Y36.290 Z9.000 F600.000
G1 X234.409 Y172.095 Z9.000 F600.000
G0 Z15.000
G0 Y172.519 Z15.000
G0 Y172.519 Z13.000
G1 X234.409 Y172.519 Z9.000 F600.000
G1 X173.808 Y233.120 Z9.000 F600.000
G0 Z15.000
G0 X174.391 Z15.000
G0 X174.391 Z13.000
G1 X174.391 Y233.120 Z9.000 F600.000
G1 X37.579 Y96.307 Z9.000 F600.000
G0 Z15.000
G0 Y95.883 Z15.000
G0 Y95.883 Z13.000
G1 X37.579 Y95.883 Z9.000 F600.000
G1 X97.172 Y36.290 Z9.000 F600.000
G0 Z15.000
G0 X97.596 Z15.000
G0 X97.596 Z13.000
G1 X97.596 Y36.290 Z9.000 F600.000
G1 X234.409 Y173.103 Z9.000 F600.000
G0 Z15.000
G0 Y173.527 Z15.000
G0 Y173.527 Z13.000
G1 X234.409 Y173.527 Z9.000 F600.000
G1 X174.816 Y233.120 Z9.000 F600.000
G0 Z15.000
G0 X177.867 Z15.000
G0 X177.867 Z13.000
G1 X177.867 Y233.120 Z9.000 F600.000
G1 X37.579 Y92.832 Z9.000 F600.000
G0 Z15.000
G0 Y92.408 Z15.000
G0 Y92.408 Z13.000
G1 X37.579 Y92.408 Z9.000 F600.000
G1 X93.696 Y36.290 Z9.000 F600.000
G0 Z15.000
G0 X94.121 Z15.000
G0 X94.121 Z13.000
G1 X94.121 Y36.290 Z9.000 F600.000
G1 X234.409 Y176.578 Z9.000 F600.000
G0 Z15.000
G0 Y177.003 Z15.000
G0 Y177.003 Z13.000
G1 X234.409 Y177.003 Z9.000 F600.000
G1 X178.291 Y233.120 Z9.000 F600.000
G0 Z15.000
G0 X178.875 Z15.000
G0 X178.875 Z13.000
G1 X178.875 Y233.120 Z9.000 F600.000
G1 X37.579 Y91.824 Z9.000 F600.000
G0 Z15.000
G0 Y91.400 Z15.000
G0 Y91.400 Z13.000
G1 X37.579 Y91.400 Z9.000 F600.000
G1 X92.688 Y36.290 Z9.000 F600.000
G0 Z15.000
G0 X93.113 Z15.000
G0 X93.113 Z13.000
G1 X93.113 Y36.290 Z9.000 F600.000
G1 X234.409 Y177.586 Z9.000 F600.000
G0 Z15.000
G0 Y178.010 Z15.000
G0 Y178.010 Z13.000
G1 X234.409 Y178.010 Z9.000 F600.000
G1 X179.299 Y233.120 Z9.000 F600.000
G0 Z15.000
G0 X182.350 Z15.000
G0 X182.350 Z13.000
G1 X182.350 Y233.120 Z9.000 F600.000
G1 X37.579 Y88.349 Z9.000 F600.000
G0 Z15.000
G0 Y87.925 Z15.000
G0 Y87.925 Z13.000
G1 X37.579 Y87.925 Z9.000 F600.000
G1 X89.213 Y36.290 Z9.000 F600.000
G0 Z15.000
G0 X89.638 Z15.000
G0 X89.638 Z13.000
G1 X89.638 Y36.290 Z9.000 F600.000
G1 X234.409 Y181.061 Z9.000 F600.000
G0 Z15.000
G0 Y181.486 Z15.000
G0 Y181.486 Z13.000
G1 X234.409 Y181.486 Z9.000 F600.000
G1 X182.774 Y233.120 Z9.000 F600.000
G0 Z15.000
G0 X183.358 Z15.000
G0 X183.358 Z13.000
G1 X183.358 Y233.120 Z9.000 F600.000
G1 X37.579 Y87.341 Z9.000 F600.000
G0 Z15.000
G0 Y86.917 Z15.000
G0 Y86.917 Z13.000
G1 X37.579 Y86.917 Z9.000 F600.000
G1 X88.205 Y36.290 Z9.000 F600.000
G0 Z15.000
G0 X88.630 Z15.000
G0 X88.630 Z13.000
G1 X88.630 Y36.290 Z9.000 F600.000
G1 X234.409 Y182.069 Z9.000 F600.000
G0 Z15.000
G0 Y182.493 Z15.000
G0 Y182.493 Z13.000
G1 X234.409 Y182.493 Z9.000 F600.000
G1 X183.782 Y233.120 Z9.000 F600.000
G0 Z15.000
G0 X186.833 Z15.000
G0 X186.833 Z13.000
G1 X186.833 Y233.120 Z9.000 F600.000
G1 X37.579 Y83.866 Z9.000 F600.000
G0 Z15.000
G0 Y83.442 Z15.000
G0 Y83.442 Z13.000
G1 X37.579 Y83.442 Z9.000 F600.000
G1 X84.730 Y36.290 Z9.000 F600.000
G0 Z15.000
G0 X85.155 Z15.000
G0 X85.155 Z13.000
G1 X85.155 Y36.290 Z9.000 F600.000
G1 X234.409 Y185.544 Z9.000 F600.000
G0 Z15.000
G0 Y185.969 Z15.000
G0 Y185.969 Z13.000
G1 X234.409 Y185.969 Z9.000 F600.000
G1 X187.257 Y233.120 Z9.000 F600.000
G0 Z15.000
G0 X187.841 Z15.000
G0 X187.841 Z13.000
G1 X187.841 Y233.120 Z9.000 F600.000
G1 X37.579 Y82.858 Z9.000 F600.000
G0 Z15.000
G0 Y82.434 Z15.000
G0 Y82.434 Z13.000
G1 X37.579 Y82.434 Z9.000 F600.000
G1 X83.722 Y36.290 Z9.000 F600.000
G0 Z15.000
G0 X84.147 Z15.000
G0 X84.147 Z13.000
G1 X84.147 Y36.290 Z9.000 F600.000
G1 X234.409 Y186.552 Z9.000 F600.000
G0 Z15.000
G0 Y186.977 Z15.000
G0 Y186.977 Z13.000
G1 X234.409 Y186.977 Z9.000 F600.000
G1 X188.265 Y233.120 Z9.000 F600.000
G0 Z15.000
G0 X191.316 Z15.000
G0 X191.316 Z13.000
G1 X191.316 Y233.120 Z9.000 F600.000
G1 X37.579 Y79.383 Z9.000 F600.000
G0 Z15.000
G0 Y78.959 Z15.000
G0 Y78.959 Z13.000
G1 X37.579 Y78.959 Z9.000 F600.000
G1 X80.247 Y36.290 Z9.000 F600.000
G0 Z15.000
G0 X80.672 Z15.000
G0 X80.672 Z13.000
G1 X80.672 Y36.290 Z9.000 F600.000
G1 X234.409 Y190.027 Z9.000 F600.000
G0 Z15.000
G0 Y190.452 Z15.000
G0 Y190.452 Z13.000
G1 X234.409 Y190.452 Z9.000 F600.000
G1 X191.740 Y233.120 Z9.000 F600.000
G0 Z15.000
G0 X192.324 Z15.000
G0 X192.324 Z13.000
G1 X192.324 Y233.120 Z9.000 F600.000
G1 X37.579 Y78.375 Z9.000 F600.000
G0 Z15.000
G0 Y77.951 Z15.000
G0 Y77.951 Z13.000
G1 X37.579 Y77.951 Z9.000 F600.000
G1 X79.239 Y36.290 Z9.000 F600.000
G0 Z15.000
G0 X79.664 Z15.000
G0 X79.664 Z13.000
G1 X79.664 Y36.290 Z9.000 F600.000
G1 X234.409 Y191.035 Z9.000 F600.000
G0 Z15.000
G0 Y191.460 Z15.000
G0 Y191.460 Z13.000
G1 X234.409 Y191.460 Z9.000 F600.000
G1 X192.748 Y233.120 Z9.000 F600.000
G0 Z15.000
G0 X195.799 Z15.000
G0 X195.799 Z13.000
G1 X195.799 Y233.120 Z9.000 F600.000
G1 X37.579 Y74.900 Z9.000 F600.000
G0 Z15.000
G0 Y74.476 Z15.000
G0 Y74.476 Z13.000
G1 X37.579 Y74.476 Z9.000 F600.000
G1 X75.764 Y36.290 Z9.000 F600.000
G0 Z15.000
G0 X76.189 Z15.000
G0 X76.189 Z13.000
G1 X76.189 Y36.290 Z9.000 F600.000
G1 X234.409 Y194.510 Z9.000 F600.000
G0 Z15.000
G0 Y194.935 Z15.000
G0 Y194.935 Z13.000
G1 X234.409 Y194.935 Z9.000 F600.000
G1 X196.223 Y233.120 Z9.000 F600.000
G0 Z15.000
G0 X196.807 Z15.000
G0 X196.807 Z13.000
G1 X196.807 Y233.120 Z9.000 F600.000
G1 X37.579 Y73.892 Z9.000 F600.000
G0 Z15.000
G0 Y73.468 Z15.000
G0 Y73.468 Z13.000
G1 X37.579 Y73.468 Z9.000 F600.000
G1 X74.756 Y36.290 Z9.000 F600.000
G0 Z15.000
G0 X75.181 Z15.000
G0 X75.181 Z13.000
G1 X75.181 Y36.290 Z9.000 F600.000
G1 X234.409 Y195.518 Z9.000 F600.000
G0 Z15.000
G0 Y195.943 Z15.000
G0 Y195.943 Z13.000
G1 X234.409 Y195.943 Z9.000 F600.000
G1 X197.231 Y233.120 Z9.000 F600.000
G0 Z15.000
G0 X200.282 Z15.000
G0 X200.282 Z13.000
G1 X200.282 Y233.120 Z9.000 F600.000
G1 X37.579 Y70.417 Z9.000 F600.000
G0 Z15.000
G0 Y69.993 Z15.000
G0 Y69.993 Z13.000
G1 X37.579 Y69.993 Z9.000 F600.000
G1 X71.281 Y36.290 Z9.000 F600.000
G0 Z15.000
G0 X71.706 Z15.000
G0 X71.706 Z13.000
G1 X71.706 Y36.290 Z9.000 F600.000
G1 X234.409 Y198.993 Z9.000 F600.000
G0 Z15.000
G0 Y199.418 Z15.000
G0 Y199.418 Z13.000
G1 X234.409 Y199.418 Z9.000 F600.000
G1 X200.706 Y233.120 Z9.000 F600.000
G0 Z15.000
G0 X201.290 Z15.000
G0 X201.290 Z13.000
G1 X201.290 Y233.120 Z9.000 F600.000
G1 X37.579 Y69.409 Z9.000 F600.000
G0 Z15.000
G0 Y68.985 Z15.000
G0 Y68.985 Z13.000
G1 X37.579 Y68.985 Z9.000 F600.000
G1 X70.273 Y36.290 Z9.000 F600.000
G0 Z15.000
G0 X70.698 Z15.000
G0 X70.698 Z13.000
G1 X70.698 Y36.290 Z9.000 F600.000
G1 X234.409 Y200.001 Z9.000 F600.000
G0 Z15.000
G0 Y200.426 Z15.000
G0 Y200.426 Z13.000
G1 X234.409 Y200.426 Z9.000 F600.000
G1 X201.714 Y233.120 Z9.000 F600.000
G0 Z15.000
G0 X204.765 Z15.000
G0 X204.765 Z13.000
G1 X204.765 Y233.120 Z9.000 F600.000
G1 X37.579 Y65.934 Z9.000 F600.000
G0 Z15.000
G0 Y65.510 Z15.000
G0 Y65.510 Z13.000
G1 X37.579 Y65.510 Z9.000 F600.000
G1 X66.798 Y36.290 Z9.000 F600.000
G0 Z15.000
G0 X67.223 Z15.000
G0 X67.223 Z13.000
G1 X67.223 Y36.290 Z9.000 F600.000
G1 X234.409 Y203.476 Z9.000 F600.000
G0 Z15.000
G0 Y203.901 Z15.000
G0 Y203.901 Z13.000
G1 X234.409 Y203.901 Z9.000 F600.000
G1 X205.189 Y233.120 Z9.000 F600.000
G0 Z15.000
G0 X205.773 Z15.000
G0 X205.773 Z13.000
G1 X205.773 Y233.120 Z9.000 F600.000
G1 X37.579 Y64.926 Z9.000 F600.000
G0 Z15.000
G0 Y64.502 Z15.000
G0 Y64.502 Z13.000
G1 X37.579 Y64.502 Z9.000 F600.000
G1 X65.790 Y36.290 Z9.000 F600.000
G0 Z15.000
G0 X66.215 Z15.000
G0 X66.215 Z13.000
G1 X66.215 Y36.290 Z9.000 F600.000
G1 X234.409 Y204.484 Z9.000 F600.000
G0 Z15.000
G0 Y204.909 Z15.000
G0 Y204.909 Z13.000
G1 X234.409 Y204.909 Z9.000 F600.000
G1 X206.197 Y233.120 Z9.000 F600.000
G0 Z15.000
G0 X209.248 Z15.000
G0 X209.248 Z13.000
G1 X209.248 Y233.120 Z9.000 F600.000
G1 X37.579 Y61.451 Z9.000 F600.000
G0 Z15.000
G0 Y61.026 Z15.000
G0 Y61.026 Z13.000
G1 X37.579 Y61.026 Z9.000 F600.000
G1 X62.315 Y36.290 Z9.000 F600.000
G0 Z15.000
G0 X62.740 Z15.000
G0 X62.740 Z13.000
G1 X62.740 Y36.290 Z9.000 F600.000
G1 X234.409 Y207.959 Z9.000 F600.000
G0 Z15.000
G0 Y208.384 Z15.000
G0 Y208.384 Z13.000
G1 X234.409 Y208.384 Z9.000 F600.000
G1 X209.672 Y233.120 Z9.000 F600.000
G0 Z15.000
G0 X210.256 Z15.000
G0 X210.256 Z13.000
G1 X210.256 Y233.120 Z9.000 F600.000
G1 X37.579 Y60.443 Z9.000 F600.000
G0 Z15.000
G0 Y60.019 Z15.000
G0 Y60.019 Z13.000
G1 X37.579 Y60.019 Z9.000 F600.000
G1 X61.307 Y36.290 Z9.000 F600.000
G0 Z15.000
G0 X61.732 Z15.000
G0 X61.732 Z13.000
G1 X61.732 Y36.290 Z9.000 F600.000
G1 X234.409 Y208.967 Z9.000 F600.000
G0 Z15.000
G0 Y209.392 Z15.000
G0 Y209.392 Z13.000
G1 X234.409 Y209.392 Z9.000 F600.000
G1 X210.680 Y233.120 Z9.000 F600.000
G0 Z15.000
G0 X213.731 Z15.000
G0 X213.731 Z13.000
G1 X213.731 Y233.120 Z9.000 F600.000
G1 X37.579 Y56.968 Z9.000 F600.000
G0 Z15.000
G0 Y56.543 Z15.000
G0 Y56.543 Z13.000
G1 X37.579 Y56.543 Z9.000 F600.000
G1 X57.832 Y36.290 Z9.000 F600.000
G0 Z15.000
G0 X58.256 Z15.000
G0 X58.256 Z13.000
G1 X58.256 Y36.290 Z9.000 F600.000
G1 X234.409 Y212.442 Z9.000 F600.000
G0 Z15.000
G0 Y212.867 Z15.000
G0 Y212.867 Z13.000
G1 X234.409 Y212.867 Z9.000 F600.000
G1 X214.156 Y233.120 Z9.000 F600.000
G0 Z15.000
G0 X214.739 Z15.000
G0 X214.739 Z13.000
G1 X214.739 Y233.120 Z9.000 F600.000
G1 X37.579 Y55.960 Z9.000 F600.000
G0 Z15.000
G0 Y55.535 Z15.000
G0 Y55.535 Z13.000
G1 X37.579 Y55.535 Z9.000 F600.000
G1 X56.824 Y36.290 Z9.000 F600.000
G0 Z15.000
G0 X57.249 Z15.000
G0 X57.249 Z13.000
G1 X57.249 Y36.290 Z9.000 F600.000
G1 X234.409 Y213.450 Z9.000 F600.000
G0 Z15.000
G0 Y213.875 Z15.000
G0 Y213.875 Z13.000
G1 X234.409 Y213.875 Z9.000 F600.000
G1 X215.163 Y233.120 Z9.000 F600.000
G0 Z15.000
G0 X218.214 Z15.000
G0 X218.214 Z13.000
G1 X218.214 Y233.120 Z9.000 F600.000
G1 X37.579 Y52.485 Z9.000 F600.000
G0 Z15.000
G0 Y52.060 Z15.000
G0 Y52.060 Z13.000
G1 X37.579 Y52.060 Z9.000 F600.000
G1 X53.349 Y36.290 Z9.000 F600.000
G0 Z15.000
G0 X53.773 Z15.000
G0 X53.773 Z13.000
G1 X53.773 Y36.290 Z9.000 F600.000
G1 X234.409 Y216.926 Z9.000 F600.000
G0 Z15.000
G0 Y217.350 Z15.000
G0 Y217.350 Z13.000
G1 X234.409 Y217.350 Z9.000 F600.000
G1 X218.639 Y233.120 Z9.000 F600.000
G0 Z15.000
G0 X219.222 Z15.000
G0 X219.222 Z13.000
G1 X219.222 Y233.120 Z9.000 F600.000
G1 X37.579 Y51.477 Z9.000 F600.000
G0 Z15.000
G0 Y51.052 Z15.000
G0 Y51.052 Z13.000
G1 X37.579 Y51.052 Z9.000 F600.000
G1 X52.341 Y36.290 Z9.000 F600.000
G0 Z15.000
G0 X52.765 Z15.000
G0 X52.765 Z13.000
G1 X52.765 Y36.290 Z9.000 F600.000
G1 X234.409 Y217.933 Z9.000 F600.000
G0 Z15.000
G0 Y218.358 Z15.000
G0 Y218.358 Z13.000
G1 X234.409 Y218.358 Z9.000 F600.000
G1 X219.647 Y233.120 Z9.000 F600.000
G0 Z15.000
G0 X222.697 Z15.000
G0 X222.697 Z13.000
G1 X222.697 Y233.120 Z9.000 F600.000
G1 X37.579 Y48.002 Z9.000 F600.000
G0 Z15.000
G0 Y47.577 Z15.000
G0 Y47.577 Z13.000
G1 X37.579 Y47.577 Z9.000 F600.000
G1 X48.866 Y36.290 Z9.000 F600.000
G0 Z15.000
G0 X49.290 Z15.000
G0 X49.290 Z13.000
G1 X49.290 Y36.290 Z9.000 F600.000
G1 X234.409 Y221.409 Z9.000 F600.000
G0 Z15.000
G0 Y221.833 Z15.000
G0 Y221.833 Z13.000
G1 X234.409 Y221.833 Z9.000 F600.000
G1 X223.122 Y233.120 Z9.000 F600.000
G0 Z15.000
G0 X223.705 Z15.000
G0 X223.705 Z13.000
G1 X223.705 Y233.120 Z9.000 F600.000
G1 X37.579 Y46.994 Z9.000 F600.000
G0 Z15.000
G0 Y46.569 Z15.000
G0 Y46.569 Z13.000
G1 X37.579 Y46.569 Z9.000 F600.000
G1 X47.858 Y36.290 Z9.000 F600.000
G0 Z15.000
G0 X48.282 Z15.000
G0 X48.282 Z13.000
G1 X48.282 Y36.290 Z9.000 F600.000
G1 X234.409 Y222.416 Z9.000 F600.000
G0 Z15.000
G0 Y222.841 Z15.000
G0 Y222.841 Z13.000
G1 X234.409 Y222.841 Z9.000 F600.000
G1 X224.130 Y233.120 Z9.000 F600.000
G0 Z15.000
G0 X227.180 Z15.000
G0 X227.180 Z13.000
G1 X227.180 Y233.120 Z9.000 F600.000
G1 X37.579 Y43.519 Z9.000 F600.000
G0 Z15.000
G0 Y43.094 Z15.000
G0 Y43.094 Z13.000
G1 X37.579 Y43.094 Z9.000 F600.000
G1 X44.383 Y36.290 Z9.000 F600.000
G0 Z15.000
G0 X44.807 Z15.000
G0 X44.807 Z13.000
G1 X44.807 Y36.290 Z9.000 F600.000
G1 X234.409 Y225.892 Z9.000 F600.000
G0 Z15.000
G0 Y226.316 Z15.000
G0 Y226.316 Z13.000
G1 X234.409 Y226.316 Z9.000 F600.000
G1 X227.605 Y233.120 Z9.000 F600.000
G0 Z15.000
G0 X228.188 Z15.000
G0 X228.188 Z13.000
G1 X228.188 Y233.120 Z9.000 F600.000
G1 X37.579 Y42.511 Z9.000 F600.000
G0 Z15.000
G0 Y42.086 Z15.000
G0 Y42.086 Z13.000
G1 X37.579 Y42.086 Z9.000 F600.000
G1 X43.375 Y36.290 Z9.000 F600.000
G0 Z15.000
G0 X43.799 Z15.000
G0 X43.799 Z13.000
G1 X43.799 Y36.290 Z9.000 F600.000
G1 X234.409 Y226.900 Z9.000 F600.000
G0 Z15.000
G0 Y227.324 Z15.000
G0 Y227.324 Z13.000
G1 X234.409 Y227.324 Z9.000 F600.000
G1 X228.613 Y233.120 Z9.000 F600.000
G0 Z15.000
G0 X231.663 Z15.000
G0 X231.663 Z13.000
G1 X231.663 Y233.120 Z9.000 F600.000
G1 X37.579 Y39.036 Z9.000 F600.000
G0 Z15.000
G0 Y38.611 Z15.000
G0 Y38.611 Z13.000
G1 X37.579 Y38.611 Z9.000 F600.000
G1 X39.900 Y36.290 Z9.000 F600.000
G0 Z15.000
G0 X40.324 Z15.000
G0 X40.324 Z13.000
G1 X40.324 Y36.290 Z9.000 F600.000
G1 X234.409 Y230.375 Z9.000 F600.000
G0 Z15.000
G0 Y230.799 Z15.000
G0 Y230.799 Z13.000
G1 X234.409 Y230.799 Z9.000 F600.000
G1 X232.088 Y233.120 Z9.000 F600.000
G0 Z15.000
G0 X232.671 Z15.000
G0 X232.671 Z13.000
G1 X232.671 Y233.120 Z9.000 F600.000
G1 X37.579 Y38.028 Z9.000 F600.000
G0 Z15.000
G0 Y37.603 Z15.000
G0 Y37.603 Z13.000
G1 X37.579 Y37.603 Z9.000 F600.000
G1 X38.892 Y36.290 Z9.000 F600.000
G0 Z15.000
G0 X39.316 Z15.000
G0 X39.316 Z13.000
G1 X39.316 Y36.290 Z9.000 F600.000
G1 X234.409 Y231.383 Z9.000 F600.000
G0 Z15.000
G0 Y231.807 Z15.000
G0 Y231.807 Z13.000
G1 X234.409 Y231.807 Z9.000 F600.000
G1 X233.096 Y233.120 Z9.000 F600.000
G1 X233.096 Y233.120 Z8.500 F600.000
G1 X234.409 Y231.807 Z8.500 F600.000
G0 Z15.000
G0 Y231.383 Z15.000
G0 Y231.383 Z13.000
G1 X234.409 Y231.383 Z8.500 F600.000
G1 X39.316 Y36.290 Z8.500 F600.000
G0 Z15.000
G0 X38.892 Z15.000
G0 X38.892 Z13.000
G1 X38.892 Y36.290 Z8.500 F600.000
G1 X37.579 Y37.603 Z8.500 F600.000
G0 Z15.000
G0 Y38.028 Z15.000
G0 Y38.028 Z13.000
G1 X37.579 Y38.028 Z8.500 F600.000
G1 X232.671 Y233.120 Z8.500 F600.000
G0 Z15.000
G0 X232.088 Z15.000
G0 X232.088 Z13.000
G1 X232.088 Y233.120 Z8.500 F600.000
G1 X234.409 Y230.799 Z8.500 F600.000
G0 Z15.000
G0 Y230.375 Z15.000
G0 Y230.375 Z13.000
G1 X234.409 Y230.375 Z8.500 F600.000
G1 X40.324 Y36.290 Z8.500 F600.000
G0 Z15.000
G0 X39.900 Z15.000
G0 X39.900 Z13.000
G1 X39.900 Y36.290 Z8.500 F600.000
G1 X37.579 Y38.611 Z8.500 F600.000
G0 Z15.000
G0 Y39.036 Z15.000
G0 Y39.036 Z13.000
G1 X37.579 Y39.036 Z8.500 F600.000
G1 X231.663 Y233.120 Z8.500 F600.000
G0 Z15.000
G0 X228.613 Z15.000
G0 X228.613 Z13.000
G1 X228.613 Y233.120 Z8.500 F600.000
G1 X234.409 Y227.324 Z8.500 F600.000
G0 Z15.000
G0 Y226.900 Z15.000
G0 Y226.900 Z13.000
G1 X234.409 Y226.900 Z8.500 F600.000
G1 X43.799 Y36.290 Z8.500 F600.000
G0 Z15.000
G0 X43.375 Z15.000
G0 X43.375 Z13.000
G1 X43.375 Y36.290 Z8.500 F600.000
G1 X37.579 Y42.086 Z8.500 F600.000
G0 Z15.000
G0 Y42.511 Z15.000
G0 Y42.511 Z13.000
G1 X37.579 Y42.511 Z8.500 F600.000
G1 X228.188 Y233.120 Z8.500 F600.000
G0 Z15.000
G0 X227.605 Z15.000
G0 X227.605 Z13.000
G1 X227.605 Y233.120 Z8.500 F600.000
G1 X234.409 Y226.316 Z8.500 F600.000
G0 Z15.000
G0 Y225.892 Z15.000
G0 Y225.892 Z13.000
G1 X234.409 Y225.892 Z8.500 F600.000
G1 X44.807 Y36.290 Z8.500 F600.000
G0 Z15.000
G0 X44.383 Z15.000
G0 X44.383 Z13.000
G1 X44.383 Y36.290 Z8.500 F600.000
G1 X37.579 Y43.094 Z8.500 F600.000
G0 Z15.000
G0 Y43.519 Z15.000
G0 Y43.519 Z13.000
G1 X37.579 Y43.519 Z8.500 F600.000
G1 X227.180 Y233.120 Z8.500 F600.000
G0 Z15.000
G0 X224.130 Z15.000
G0 X224.130 Z13.000
G1 X224.130 Y233.120 Z8.500 F600.000
G1 X234.409 Y222.841 Z8.500 F600.000
G0 Z15.000
G0 Y222.416 Z15.000
G0 Y222.416 Z13.000
G1 X234.409 Y222.416 Z8.500 F600.000
G1 X48.282 Y36.290 Z8.500 F600.000
G0 Z15.000
G0 X47.858 Z15.000
G0 X47.858 Z13.000
G1 X47.858 Y36.290 Z8.500 F600.000
G1 X37.579 Y46.569 Z8.500 F600.000
G0 Z15.000
G0 Y46.994 Z15.000
G0 Y46.994 Z13.000
G1 X37.579 Y46.994 Z8.500 F600.000
G1 X223.705 Y233.120 Z8.500 F600.000
G0 Z15.000
G0 X223.122 Z15.000
G0 X223.122 Z13.000
G1 X223.122 Y233.120 Z8.500 F600.000
G1 X234.409 Y221.833 Z8.500 F600.000
G0 Z15.000
G0 Y221.409 Z15.000
G0 Y221.409 Z13.000
G1 X234.409 Y221.409 Z8.500 F600.000
G1 X49.290 Y36.290 Z8.500 F600.000
G0 Z15.000
G0 X48.866 Z15.000
G0 X48.866 Z13.000
G1 X48.866 Y36.290 Z8.500 F600.000
G1 X37.579 Y47.577 Z8.500 F600.000
G0 Z15.000
G0 Y48.002 Z15.000
G0 Y48.002 Z13.000
G1 X37.579 Y48.002 Z8.500 F600.000
G1 X222.697 Y233.120 Z8.500 F600.000
G0 Z15.000
G0 X219.647 Z15.000
G0 X219.647 Z13.000
G1 X219.647 Y233.120 Z8.500 F600.000
G1 X234.409 Y218.358 Z8.500 F600.000
G0 Z15.000
G0 Y217.933 Z15.000
G0 Y217.933 Z13.000
G1 X234.409 Y217.933 Z8.500 F600.000
G1 X52.765 Y36.290 Z8.500 F600.000
G0 Z15.000
G0 X52.341 Z15.000
G0 X52.341 Z13.000
G1 X52.341 Y36.290 Z8.500 F600.000
G1 X37.579 Y51.052 Z8.500 F600.000
G0 Z15.000
G0 Y51.477 Z15.000
G0 Y51.477 Z13.000
G1 X37.579 Y51.477 Z8.500 F600.000
G1 X219.222 Y233.120 Z8.500 F600.000
G0 Z15.000
G0 X218.639 Z15.000
G0 X218.639 Z13.000
G1 X218.639 Y233.120 Z8.500 F600.000
G1 X234.409 Y217.350 Z8.500 F600.000
G0 Z15.000
G0 Y216.926 Z15.000
G0 Y216.926 Z13.000
G1 X234.409 Y216.926 Z8.500 F600.000
G1 X53.773 Y36.290 Z8.500 F600.000
G0 Z15.000
G0 X53.349 Z15.000
G0 X53.349 Z13.000
G1 X53.349 Y36.290 Z8.500 F600.000
G1 X37.579 Y52.060 Z8.500 F600.000
G0 Z15.000
G0 Y52.485 Z15.000
G0 Y52.485 Z13.000
G1 X37.579 Y52.485 Z8.500 F600.000
G1 X218.214 Y233.120 Z8.500 F600.000
G0 Z15.000
G0 X215.163 Z15.000
G0 X215.163 Z13.000
G1 X215.163 Y233.120 Z8.500 F600.000
G1 X234.409 Y213.875 Z8.500 F600.000
G0 Z15.000
G0 Y213.450 Z15.000
G0 Y213.450 Z13.000
G1 X234.409 Y213.450 Z8.500 F600.000
G1 X57.249 Y36.290 Z8.500 F600.000
G0 Z15.000
G0 X56.824 Z15.000
G0 X56.824 Z13.000
G1 X56.824 Y36.290 Z8.500 F600.000
G1 X37.579 Y55.535 Z8.500 F600.000
G0 Z15.000
G0 Y55.960 Z15.000
G0 Y55.960 Z13.000
G1 X37.579 Y55.960 Z8.500 F600.000
G1 X214.739 Y233.120 Z8.500 F600.000
G0 Z15.000
G0 X214.156 Z15.000
G0 X214.156 Z13.000
G1 X214.156 Y233.120 Z8.500 F600.000
G1 X234.409 Y212.867 Z8.500 F600.000
G0 Z15.000
G0 Y212.442 Z15.000
G0 Y212.442 Z13.000
G1 X234.409 Y212.442 Z8.500 F600.000
G1 X58.256 Y36.290 Z8.500 F600.000
G0 Z15.000
G0 X57.832 Z15.000
G0 X57.832 Z13.000
G1 X57.832 Y36.290 Z8.500 F600.000
G1 X37.579 Y56.543 Z8.500 F600.000
G0 Z15.000
G0 Y56.968 Z15.000
G0 Y56.968 Z13.000
G1 X37.579 Y56.968 Z8.500 F600.000
G1 X213.731 Y233.120 Z8.500 F600.000
G0 Z15.000
G0 X210.680 Z15.000
G0 X210.680 Z13.000
G1 X210.680 Y233.120 Z8.500 F600.000
G1 X234.409 Y209.392 Z8.500 F600.000
G0 Z15.000
G0 Y208.967 Z15.000
G0 Y208.967 Z13.000
G1 X234.409 Y208.967 Z8.500 F600.000
G1 X61.732 Y36.290 Z8.500 F600.000
G0 Z15.000
G0 X61.307 Z15.000
G0 X61.307 Z13.000
G1 X61.307 Y36.290 Z8.500 F600.000
G1 X37.579 Y60.019 Z8.500 F600.000
G0 Z15.000
G0 Y60.443 Z15.000
G0 Y60.443 Z13.000
G1 X37.579 Y60.443 Z8.500 F600.000
G1 X210.256 Y233.120 Z8.500 F600.000
G0 Z15.000
G0 X209.672 Z15.000
G0 X209.672 Z13.000
G1 X209.672 Y233.120 Z8.500 F600.000
G1 X234.409 Y208.384 Z8.500 F600.000
G0 Z15.000
G0 Y207.959 Z15.000
G0 Y207.959 Z13.000
G1 X234.409 Y207.959 Z8.500 F600.000
G1 X62.740 Y36.290 Z8.500 F600.000
G0 Z15.000
G0 X62.315 Z15.000
G0 X62.315 Z13.000
G1 X62.315 Y36.290 Z8.500 F600.000
G1 X37.579 Y61.026 Z8.500 F600.000
G0 Z15.000
G0 Y61.451 Z15.000
G0 Y61.451 Z13.000
G1 X37.579 Y61.451 Z8.500 F600.000
G1 X209.248 Y233.120 Z8.500 F600.000
G0 Z15.000
G0 X206.197 Z15.000
G0 X206.197 Z13.000
G1 X206.197 Y233.120 Z8.500 F600.000
G1 X234.409 Y204.909 Z8.500 F600.000
G0 Z15.000
G0 Y204.484 Z15.000
G0 Y204.484 Z13.000
G1 X234.409 Y204.484 Z8.500 F600.000
G1 X66.215 Y36.290 Z8.500 F600.000
G0 Z15.000
G0 X65.790 Z15.000
G0 X65.790 Z13.000
G1 X65.790 Y36.290 Z8.500 F600.000
G1 X37.579 Y64.502 Z8.500 F600.000
G0 Z15.000
G0 Y64.926 Z15.000
G0 Y64.926 Z13.000
G1 X37.579 Y64.926 Z8.500 F600.000
G1 X205.773 Y233.120 Z8.500 F600.000
G0 Z15.000
G0 X205.189 Z15.000
G0 X205.189 Z13.000
G1 X205.189 Y233.120 Z8.500 F600.000
G1 X234.409 Y203.901 Z8.500 F600.000
G0 Z15.000
G0 Y203.476 Z15.000
G0 Y203.476 Z13.000
G1 X234.409 Y203.476 Z8.500 F600.000
G1 X67.223 Y36.290 Z8.500 F600.000
G0 Z15.000
G0 X66.798 Z15.000
G0 X66.798 Z13.000
G1 X66.798 Y36.290 Z8.500 F600.000
G1 X37.579 Y65.510 Z8.500 F600.000
G0 Z15.000
G0 Y65.934 Z15.000
G0 Y65.934 Z13.000
G1 X37.579 Y65.934 Z8.500 F600.000
G1 X204.765 Y233.120 Z8.500 F600.000
G0 Z15.000
G0 X201.714 Z15.000
G0 X201.714 Z13.000
G1 X201.714 Y233.120 Z8.500 F600.000
G1 X234.409 Y200.426 Z8.500 F600.000
G0 Z15.000
G0 Y200.001 Z15.000
G0 Y200.001 Z13.000
G1 X234.409 Y200.001 Z8.500 F600.000
G1 X70.698 Y36.290 Z8.500 F600.000
G0 Z15.000
G0 X70.273 Z15.000
G0 X70.273 Z13.000
G1 X70.273 Y36.290 Z8.500 F600.000
G1 X37.579 Y68.985 Z8.500 F600.000
G0 Z15.000
G0 Y69.409 Z15.000
G0 Y69.409 Z13.000
G1 X37.579 Y69.409 Z8.500 F600.000
G1 X201.290 Y233.120 Z8.500 F600.000
G0 Z15.000
G0 X200.706 Z15.000
G0 X200.706 Z13.000
G1 X200.706 Y233.120 Z8.500 F600.000
G1 X234.409 Y199.418 Z8.500 F600.000
G0 Z15.000
G0 Y198.993 Z15.000
G0 Y198.993 Z13.000
G1 X234.409 Y198.993 Z8.500 F600.000
G1 X71.706 Y36.290 Z8.500 F600.000
G0 Z15.000
G0 X71.281 Z15.000
G0 X71.281 Z13.000
G1 X71.281 Y36.290 Z8.500 F600.000
G1 X37.579 Y69.993 Z8.500 F600.000
G0 Z15.000
G0 Y70.417 Z15.000
G0 Y70.417 Z13.000
G1 X37.579 Y70.417 Z8.500 F600.000
G1 X200.282 Y233.120 Z8.500 F600.000
G0 Z15.000
G0 X197.231 Z15.000
G0 X197.231 Z13.000
G1 X197.231 Y233.120 Z8.500 F600.000
G1 X234.409 Y195.943 Z8.500 F600.000
G0 Z15.000
G0 Y195.518 Z15.000
G0 Y195.518 Z13.000
G1 X234.409 Y195.518 Z8.500 F600.000
G1 X75.181 Y36.290 Z8.500 F600.000
G0 Z15.000
G0 X74.756 Z15.000
G0 X74.756 Z13.000
G1 X74.756 Y36.290 Z8.500 F600.000
G1 X37.579 Y73.468 Z8.500 F600.000
G0 Z15.000
G0 Y73.892 Z15.000
G0 Y73.892 Z13.000
G1 X37.579 Y73.892 Z8.500 F600.000
G1 X196.807 Y233.120 Z8.500 F600.000
G0 Z15.000
G0 X196.223 Z15.000
G0 X196.223 Z13.000
G1 X196.223 Y233.120 Z8.500 F600.000
G1 X234.409 Y194.935 Z8.500 F600.000
G0 Z15.000
G0 Y194.510 Z15.000
G0 Y194.510 Z13.000
G1 X234.409 Y194.510 Z8.500 F600.000
G1 X76.189 Y36.290 Z8.500 F600.000
G0 Z15.000
G0 X75.764 Z15.000
G0 X75.764 Z13.000
G1 X75.764 Y36.290 Z8.500 F600.000
G1 X37.579 Y74.476 Z8.500 F600.000
G0 Z15.000
G0 Y74.900 Z15.000
G0 Y74.900 Z13.000
G1 X37.579 Y74.900 Z8.500 F600.000
G1 X195.799 Y233.120 Z8.500 F600.000
G0 Z15.000
G0 X192.748 Z15.000
G0 X192.748 Z13.000
G1 X192.748 Y233.120 Z8.500 F600.000
G1 X234.409 Y191.460 Z8.500 F600.000
G0 Z15.000
G0 Y191.035 Z15.000
G0 Y191.035 Z13.000
G1 X234.409 Y191.035 Z8.500 F600.000
G1 X79.664 Y36.290 Z8.500 F600.000
G0 Z15.000
G0 X79.239 Z15.000
G0 X79.239 Z13.000
G1 X79.239 Y36.290 Z8.500 F600.000
G1 X37.579 Y77.951 Z8.500 F600.000
G0 Z15.000
G0 Y78.375 Z15.000
G0 Y78.375 Z13.000
G1 X37.579 Y78.375 Z8.500 F600.000
G1 X192.324 Y233.120 Z8.500 F600.000
G0 Z15.000
G0 X191.740 Z15.000
G0 X191.740 Z13.000
G1 X191.740 Y233.120 Z8.500 F600.000
G1 X234.409 Y190.452 Z8.500 F600.000
G0 Z15.000
G0 Y190.027 Z15.000
G0 Y190.027 Z13.000
G1 X234.409 Y190.027 Z8.500 F600.000
G1 X80.672 Y36.290 Z8.500 F600.000
G0 Z15.000
G0 X80.247 Z15.000
G0 X80.247 Z13.000
G1 X80.247 Y36.290 Z8.500 F600.000
G1 X37.579 Y78.959 Z8.500 F600.000
G0 Z15.000
G0 Y79.383 Z15.000
G0 Y79.383 Z13.000
G1 X37.579 Y79.383 Z8.500 F600.000
G1 X191.316 Y233.120 Z8.500 F600.000
G0 Z15.000
G0 X188.265 Z15.000
G0 X188.265 Z13.000
G1 X188.265 Y233.120 Z8.500 F600.000
G1 X234.409 Y186.977 Z8.500 F600.000
G0 Z15.000
G0 Y186.552 Z15.000
G0 Y186.552 Z13.000
G1 X234.409 Y186.552 Z8.500 F600.000
G1 X84.147 Y36.290 Z8.500 F600.000
G0 Z15.000
G0 X83.722 Z15.000
G0 X83.722 Z13.000
G1 X83.722 Y36.290 Z8.500 F600.000
G1 X37.579 Y82.434 Z8.500 F600.000
G0 Z15.000
G0 Y82.858 Z15.000
G0 Y82.858 Z13.000
G1 X37.579 Y82.858 Z8.500 F600.000
G1 X187.841 Y233.120 Z8.500 F600.000
G0 Z15.000
G0 X187.257 Z15.000
G0 X187.257 Z13.000
G1 X187.257 Y233.120 Z8.500 F600.000
G1 X234.409 Y185.969 Z8.500 F600.000
G0 Z15.000
G0 Y185.544 Z15.000
G0 Y185.544 Z13.000
G1 X234.409 Y185.544 Z8.500 F600.000
G1 X85.155 Y36.290 Z8.500 F600.000
G0 Z15.000
G0 X84.730 Z15.000
G0 X84.730 Z13.000
G1 X84.730 Y36.290 Z8.500 F600.000
G1 X37.579 Y83.442 Z8.500 F600.000
G0 Z15.000
G0 Y83.866 Z15.000
G0 Y83.866 Z13.000
G1 X37.579 Y83.866 Z8.500 F600.000
G1 X186.833 Y233.120 Z8.500 F600.000
G0 Z15.000
G0 X183.782 Z15.000
G0 X183.782 Z13.000
G1 X183.782 Y233.120 Z8.500 F600.000
G1 X234.409 Y182.493 Z8.500 F600.000
G0 Z15.000
G0 Y182.069 Z15.000
G0 Y182.069 Z13.000
G1 X234.409 Y182.069 Z8.500 F600.000
G1 X88.630 Y36.290 Z8.500 F600.000
G0 Z15.000
G0 X88.205 Z15.000
G0 X88.205 Z13.000
G1 X88.205 Y36.290 Z8.500 F600.000
G1 X37.579 Y86.917 Z8.500 F600.000
G0 Z15.000
G0 Y87.341 Z15.000
G0 Y87.341 Z13.000
G1 X37.579 Y87.341 Z8.500 F600.000
G1 X183.358 Y233.120 Z8.500 F600.000
G0 Z15.000
G0 X182.774 Z15.000
G0 X182.774 Z13.000
G1 X182.774 Y233.120 Z8.500 F600.000
G1 X234.409 Y181.486 Z8.500 F600.000
G0 Z15.000
G0 Y181.061 Z15.000
G0 Y181.061 Z13.000
G1 X234.409 Y181.061 Z8.500 F600.000
G1 X89.638 Y36.290 Z8.500 F600.000
G0 Z15.000
G0 X89.213 Z15.000
G0 X89.213 Z13.000
G1 X89.213 Y36.290 Z8.500 F600.000
G1 X37.579 Y87.925 Z8.500 F600.000
G0 Z15.000
G0 Y88.349 Z15.000
G0 Y88.349 Z13.000
G1 X37.579 Y88.349 Z8.500 F600.000
G1 X182.350 Y233.120 Z8.500 F600.000
G0 Z15.000
G0 X179.299 Z15.000
G0 X179.299 Z13.000
G1 X179.299 Y233.120 Z8.500 F600.000
G1 X234.409 Y178.010 Z8.500 F600.000
G0 Z15.000
G0 Y177.586 Z15.000
G0 Y177.586 Z13.000
G1 X234.409 Y177.586 Z8.500 F600.000
G1 X93.113 Y36.290 Z8.500 F600.000
G0 Z15.000
G0 X92.688 Z15.000
G0 X92.688 Z13.000
G1 X92.688 Y36.290 Z8.500 F600.000
G1 X37.579 Y91.400 Z8.500 F600.000
G0 Z15.000
G0 Y91.824 Z15.000
G0 Y91.824 Z13.000
G1 X37.579 Y91.824 Z8.500 F600.000
G1 X178.875 Y233.120 Z8.500 F600.000
G0 Z15.000
G0 X178.291 Z15.000
G0 X178.291 Z13.000
G1 X178.291 Y233.120 Z8.500 F600.000
G1 X234.409 Y177.003 Z8.500 F600.000
G0 Z15.000
G0 Y176.578 Z15.000
G0 Y176.578 Z13.000
G1 X234.409 Y176.578 Z8.500 F600.000
G1 X94.121 Y36.290 Z8.500 F600.000
G0 Z15.000
G0 X93.696 Z15.000
G0 X93.696 Z13.000
G1 X93.696 Y36.290 Z8.500 F600.000
G1 X37.579 Y92.408 Z8.500 F600.000
G0 Z15.000
G0 Y92.832 Z15.000
G0 Y92.832 Z13.000
G1 X37.579 Y92.832 Z8.500 F600.000
G1 X177.867 Y233.120 Z8.500 F600.000
G0 Z15.000
G0 X174.816 Z15.000
G0 X174.816 Z13.000
G1 X174.816 Y233.120 Z8.500 F600.000
G1 X234.409 Y173.527 Z8.500 F600.000
G0 Z15.000
G0 Y173.103 Z15.000
G0 Y173.103 Z13.000
G1 X234.409 Y173.103 Z8.500 F600.000
G1 X97.596 Y36.290 Z8.500 F600.000
G0 Z15.000
G0 X97.172 Z15.000
G0 X97.172 Z13.000
G1 X97.172 Y36.290 Z8.500 F600.000
G1 X37.579 Y95.883 Z8.500 F600.000
G0 Z15.000
G0 Y96.307 Z15.000
G0 Y96.307 Z13.000
G1 X37.579 Y96.307 Z8.500 F600.000
G1 X174.391 Y233.120 Z8.500 F600.000
G0 Z15.000
G0 X173.808 Z15.000
