(Exported by FreeCAD)
(Post Processor: script_module)
(Output Time:2025-05-17 11:05:54.920983)
(Begin preamble)
G17 G90
G21
(Begin operation: Fixture)
(Path: Fixture)
G54
(Finish operation: Fixture)
(Begin operation: endmill_compression_3175_spe001)
(Path: endmill_compression_3175_spe001)
(endmill_compression_3175_spe001)
(Begin toolchange)
( M6 T2 )
M3 S18000
(Finish operation: endmill_compression_3175_spe001)
(Begin operation: Pocket_Shape)
(Path: Pocket_Shape)
(Pocket_Shape)
G0 Z15.000
G0 X232.671 Y233.120
G0 Z13.000
G1 X232.671 Y233.120 Z9.500 F600.000
G1 X37.579 Y38.028 Z9.500 F600.000
G0 Z15.000
G0 X40.324 Y36.290 Z15.000
G0 X40.324 Y36.290 Z13.000
G1 X40.324 Y36.290 Z9.500 F600.000
G1 X234.409 Y230.375 Z9.500 F600.000
G0 Z15.000
G0 Y225.892 Z15.000
G0 Y225.892 Z13.000
G1 X234.409 Y225.892 Z9.500 F600.000
G1 X44.807 Y36.290 Z9.500 F600.000
G0 Z15.000
G0 X49.290 Z15.000
G0 X49.290 Z13.000
G1 X49.290 Y36.290 Z9.500 F600.000
G1 X234.409 Y221.409 Z9.500 F600.000
G0 Z15.000
G0 Y216.926 Z15.000
G0 Y216.926 Z13.000
G1 X234.409 Y216.926 Z9.500 F600.000
G1 X53.773 Y36.290 Z9.500 F600.000
G0 Z15.000
G0 X58.256 Z15.000
G0 X58.256 Z13.000
G1 X58.256 Y36.290 Z9.500 F600.000
G1 X234.409 Y212.442 Z9.500 F600.000
G0 Z15.000
G0 Y207.959 Z15.000
G0 Y207.959 Z13.000
G1 X234.409 Y207.959 Z9.500 F600.000
G1 X62.740 Y36.290 Z9.500 F600.000
G0 Z15.000
G0 X67.223 Z15.000
G0 X67.223 Z13.000
G1 X67.223 Y36.290 Z9.500 F600.000
G1 X234.409 Y203.476 Z9.500 F600.000
G0 Z15.000
G0 Y198.993 Z15.000
G0 Y198.993 Z13.000
G1 X234.409 Y198.993 Z9.500 F600.000
G1 X71.706 Y36.290 Z9.500 F600.000
G0 Z15.000
G0 X76.189 Z15.000
G0 X76.189 Z13.000
G1 X76.189 Y36.290 Z9.500 F600.000
G1 X234.409 Y194.510 Z9.500 F600.000
G0 Z15.000
G0 Y190.027 Z15.000
G0 Y190.027 Z13.000
G1 X234.409 Y190.027 Z9.500 F600.000
G1 X80.672 Y36.290 Z9.500 F600.000
G0 Z15.000
G0 X85.155 Z15.000
G0 X85.155 Z13.000
G1 X85.155 Y36.290 Z9.500 F600.000
G1 X234.409 Y185.544 Z9.500 F600.000
G0 Z15.000
G0 Y181.061 Z15.000
G0 Y181.061 Z13.000
G1 X234.409 Y181.061 Z9.500 F600.000
G1 X89.638 Y36.290 Z9.500 F600.000
G0 Z15.000
G0 X94.121 Z15.000
G0 X94.121 Z13.000
G1 X94.121 Y36.290 Z9.500 F600.000
G1 X234.409 Y176.578 Z9.500 F600.000
G0 Z15.000
G0 Y172.095 Z15.000
G0 Y172.095 Z13.000
G1 X234.409 Y172.095 Z9.500 F600.000
G1 X98.604 Y36.290 Z9.500 F600.000
G0 Z15.000
G0 X103.087 Z15.000
G0 X103.087 Z13.000
G1 X103.087 Y36.290 Z9.500 F600.000
G1 X234.409 Y167.612 Z9.500 F600.000
G0 Z15.000
G0 Y163.129 Z15.000
G0 Y163.129 Z13.000
G1 X234.409 Y163.129 Z9.500 F600.000
G1 X107.570 Y36.290 Z9.500 F600.000
G0 Z15.000
G0 X112.053 Z15.000
G0 X112.053 Z13.000
G1 X112.053 Y36.290 Z9.500 F600.000
G1 X234.409 Y158.646 Z9.500 F600.000
G0 Z15.000
G0 Y154.163 Z15.000
G0 Y154.163 Z13.000
G1 X234.409 Y154.163 Z9.500 F600.000
G1 X116.536 Y36.290 Z9.500 F600.000
G0 Z15.000
G0 X121.019 Z15.000
G0 X121.019 Z13.000
G1 X121.019 Y36.290 Z9.500 F600.000
G1 X234.409 Y149.680 Z9.500 F600.000
G0 Z15.000
G0 Y145.197 Z15.000
G0 Y145.197 Z13.000
G1 X234.409 Y145.197 Z9.500 F600.000
G1 X125.502 Y36.290 Z9.500 F600.000
G0 Z15.000
G0 X129.985 Z15.000
G0 X129.985 Z13.000
G1 X129.985 Y36.290 Z9.500 F600.000
G1 X234.409 Y140.714 Z9.500 F600.000
G0 Z15.000
G0 Y136.230 Z15.000
G0 Y136.230 Z13.000
G1 X234.409 Y136.230 Z9.500 F600.000
G1 X134.468 Y36.290 Z9.500 F600.000
G0 Z15.000
G0 X138.952 Z15.000
G0 X138.952 Z13.000
G1 X138.952 Y36.290 Z9.500 F600.000
G1 X234.409 Y131.747 Z9.500 F600.000
G0 Z15.000
G0 Y127.264 Z15.000
G0 Y127.264 Z13.000
G1 X234.409 Y127.264 Z9.500 F600.000
G1 X143.435 Y36.290 Z9.500 F600.000
G0 Z15.000
G0 X147.918 Z15.000
G0 X147.918 Z13.000
G1 X147.918 Y36.290 Z9.500 F600.000
G1 X234.409 Y122.781 Z9.500 F600.000
G0 Z15.000
G0 Y118.298 Z15.000
G0 Y118.298 Z13.000
G1 X234.409 Y118.298 Z9.500 F600.000
G1 X152.401 Y36.290 Z9.500 F600.000
G0 Z15.000
G0 X156.884 Z15.000
G0 X156.884 Z13.000
G1 X156.884 Y36.290 Z9.500 F600.000
G1 X234.409 Y113.815 Z9.500 F600.000
G0 Z15.000
G0 Y109.332 Z15.000
G0 Y109.332 Z13.000
G1 X234.409 Y109.332 Z9.500 F600.000
G1 X161.367 Y36.290 Z9.500 F600.000
G0 Z15.000
G0 X165.850 Z15.000
G0 X165.850 Z13.000
G1 X165.850 Y36.290 Z9.500 F600.000
G1 X234.409 Y104.849 Z9.500 F600.000
G0 Z15.000
G0 Y100.366 Z15.000
G0 Y100.366 Z13.000
G1 X234.409 Y100.366 Z9.500 F600.000
G1 X170.333 Y36.290 Z9.500 F600.000
G0 Z15.000
G0 X174.816 Z15.000
G0 X174.816 Z13.000
G1 X174.816 Y36.290 Z9.500 F600.000
G1 X234.409 Y95.883 Z9.500 F600.000
G0 Z15.000
G0 Y91.400 Z15.000
G0 Y91.400 Z13.000
G1 X234.409 Y91.400 Z9.500 F600.000
G1 X179.299 Y36.290 Z9.500 F600.000
G0 Z15.000
G0 X183.782 Z15.000
G0 X183.782 Z13.000
G1 X183.782 Y36.290 Z9.500 F600.000
G1 X234.409 Y86.917 Z9.500 F600.000
G0 Z15.000
G0 Y82.434 Z15.000
G0 Y82.434 Z13.000
G1 X234.409 Y82.434 Z9.500 F600.000
G1 X188.265 Y36.290 Z9.500 F600.000
G0 Z15.000
G0 X192.748 Z15.000
G0 X192.748 Z13.000
G1 X192.748 Y36.290 Z9.500 F600.000
G1 X234.409 Y77.951 Z9.500 F600.000
G0 Z15.000
G0 Y73.468 Z15.000
G0 Y73.468 Z13.000
G1 X234.409 Y73.468 Z9.500 F600.000
G1 X197.231 Y36.290 Z9.500 F600.000
G0 Z15.000
G0 X201.714 Z15.000
G0 X201.714 Z13.000
G1 X201.714 Y36.290 Z9.500 F600.000
G1 X234.409 Y68.985 Z9.500 F600.000
G0 Z15.000
G0 Y64.502 Z15.000
G0 Y64.502 Z13.000
G1 X234.409 Y64.502 Z9.500 F600.000
G1 X206.197 Y36.290 Z9.500 F600.000
G0 Z15.000
G0 X210.680 Z15.000
G0 X210.680 Z13.000
G1 X210.680 Y36.290 Z9.500 F600.000
G1 X234.409 Y60.019 Z9.500 F600.000
G0 Z15.000
G0 Y55.535 Z15.000
G0 Y55.535 Z13.000
G1 X234.409 Y55.535 Z9.500 F600.000
G1 X215.163 Y36.290 Z9.500 F600.000
G0 Z15.000
G0 X219.647 Z15.000
G0 X219.647 Z13.000
G1 X219.647 Y36.290 Z9.500 F600.000
G1 X234.409 Y51.052 Z9.500 F600.000
G0 Z15.000
G0 Y46.569 Z15.000
G0 Y46.569 Z13.000
G1 X234.409 Y46.569 Z9.500 F600.000
G1 X224.130 Y36.290 Z9.500 F600.000
G0 Z15.000
G0 X228.613 Z15.000
G0 X228.613 Z13.000
G1 X228.613 Y36.290 Z9.500 F600.000
G1 X234.409 Y42.086 Z9.500 F600.000
G0 Z15.000
G0 Y37.603 Z15.000
G0 Y37.603 Z13.000
G1 X234.409 Y37.603 Z9.500 F600.000
G1 X233.096 Y36.290 Z9.500 F600.000
G0 Z15.000
G0 X37.579 Y42.511 Z15.000
G0 X37.579 Y42.511 Z13.000
G1 X37.579 Y42.511 Z9.500 F600.000
G1 X228.188 Y233.120 Z9.500 F600.000
G0 Z15.000
G0 X223.705 Z15.000
G0 X223.705 Z13.000
G1 X223.705 Y233.120 Z9.500 F600.000
G1 X37.579 Y46.994 Z9.500 F600.000
G0 Z15.000
G0 Y51.477 Z15.000
G0 Y51.477 Z13.000
G1 X37.579 Y51.477 Z9.500 F600.000
G1 X219.222 Y233.120 Z9.500 F600.000
G0 Z15.000
G0 X214.739 Z15.000
G0 X214.739 Z13.000
G1 X214.739 Y233.120 Z9.500 F600.000
G1 X37.579 Y55.960 Z9.500 F600.000
G0 Z15.000
G0 Y60.443 Z15.000
G0 Y60.443 Z13.000
G1 X37.579 Y60.443 Z9.500 F600.000
G1 X210.256 Y233.120 Z9.500 F600.000
G0 Z15.000
G0 X205.773 Z15.000
G0 X205.773 Z13.000
G1 X205.773 Y233.120 Z9.500 F600.000
G1 X37.579 Y64.926 Z9.500 F600.000
G0 Z15.000
G0 Y69.409 Z15.000
G0 Y69.409 Z13.000
G1 X37.579 Y69.409 Z9.500 F600.000
G1 X201.290 Y233.120 Z9.500 F600.000
G0 Z15.000
G0 X196.807 Z15.000
G0 X196.807 Z13.000
G1 X196.807 Y233.120 Z9.500 F600.000
G1 X37.579 Y73.892 Z9.500 F600.000
G0 Z15.000
G0 Y78.375 Z15.000
G0 Y78.375 Z13.000
G1 X37.579 Y78.375 Z9.500 F600.000
G1 X192.324 Y233.120 Z9.500 F600.000
G0 Z15.000
G0 X187.841 Z15.000
G0 X187.841 Z13.000
G1 X187.841 Y233.120 Z9.500 F600.000
G1 X37.579 Y82.858 Z9.500 F600.000
G0 Z15.000
G0 Y87.341 Z15.000
G0 Y87.341 Z13.000
G1 X37.579 Y87.341 Z9.500 F600.000
G1 X183.358 Y233.120 Z9.500 F600.000
G0 Z15.000
G0 X178.875 Z15.000
G0 X178.875 Z13.000
G1 X178.875 Y233.120 Z9.500 F600.000
G1 X37.579 Y91.824 Z9.500 F600.000
G0 Z15.000
G0 Y96.307 Z15.000
G0 Y96.307 Z13.000
G1 X37.579 Y96.307 Z9.500 F600.000
G1 X174.391 Y233.120 Z9.500 F600.000
G0 Z15.000
G0 X169.908 Z15.000
G0 X169.908 Z13.000
G1 X169.908 Y233.120 Z9.500 F600.000
G1 X37.579 Y100.791 Z9.500 F600.000
G0 Z15.000
G0 Y105.274 Z15.000
G0 Y105.274 Z13.000
G1 X37.579 Y105.274 Z9.500 F600.000
G1 X165.425 Y233.120 Z9.500 F600.000
G0 Z15.000
G0 X160.942 Z15.000
G0 X160.942 Z13.000
G1 X160.942 Y233.120 Z9.500 F600.000
G1 X37.579 Y109.757 Z9.500 F600.000
G0 Z15.000
G0 Y114.240 Z15.000
G0 Y114.240 Z13.000
G1 X37.579 Y114.240 Z9.500 F600.000
G1 X156.459 Y233.120 Z9.500 F600.000
G0 Z15.000
G0 X151.976 Z15.000
G0 X151.976 Z13.000
G1 X151.976 Y233.120 Z9.500 F600.000
G1 X37.579 Y118.723 Z9.500 F600.000
G0 Z15.000
G0 Y123.206 Z15.000
G0 Y123.206 Z13.000
G1 X37.579 Y123.206 Z9.500 F600.000
G1 X147.493 Y233.120 Z9.500 F600.000
G0 Z15.000
G0 X143.010 Z15.000
G0 X143.010 Z13.000
G1 X143.010 Y233.120 Z9.500 F600.000
G1 X37.579 Y127.689 Z9.500 F600.000
G0 Z15.000
G0 Y132.172 Z15.000
G0 Y132.172 Z13.000
G1 X37.579 Y132.172 Z9.500 F600.000
G1 X138.527 Y233.120 Z9.500 F600.000
G0 Z15.000
G0 X134.044 Z15.000
G0 X134.044 Z13.000
G1 X134.044 Y233.120 Z9.500 F600.000
G1 X37.579 Y136.655 Z9.500 F600.000
G0 Z15.000
G0 Y141.138 Z15.000
G0 Y141.138 Z13.000
G1 X37.579 Y141.138 Z9.500 F600.000
G1 X129.561 Y233.120 Z9.500 F600.000
G0 Z15.000
G0 X125.078 Z15.000
G0 X125.078 Z13.000
G1 X125.078 Y233.120 Z9.500 F600.000
G1 X37.579 Y145.621 Z9.500 F600.000
G0 Z15.000
G0 Y150.104 Z15.000
G0 Y150.104 Z13.000
G1 X37.579 Y150.104 Z9.500 F600.000
G1 X120.595 Y233.120 Z9.500 F600.000
G0 Z15.000
G0 X116.112 Z15.000
G0 X116.112 Z13.000
G1 X116.112 Y233.120 Z9.500 F600.000
G1 X37.579 Y154.587 Z9.500 F600.000
G0 Z15.000
G0 Y159.070 Z15.000
G0 Y159.070 Z13.000
G1 X37.579 Y159.070 Z9.500 F600.000
G1 X111.629 Y233.120 Z9.500 F600.000
G0 Z15.000
G0 X107.146 Z15.000
G0 X107.146 Z13.000
G1 X107.146 Y233.120 Z9.500 F600.000
G1 X37.579 Y163.553 Z9.500 F600.000
G0 Z15.000
G0 Y168.036 Z15.000
G0 Y168.036 Z13.000
G1 X37.579 Y168.036 Z9.500 F600.000
G1 X102.663 Y233.120 Z9.500 F600.000
G0 Z15.000
G0 X98.179 Z15.000
G0 X98.179 Z13.000
G1 X98.179 Y233.120 Z9.500 F600.000
G1 X37.579 Y172.519 Z9.500 F600.000
G0 Z15.000
G0 Y177.003 Z15.000
G0 Y177.003 Z13.000
G1 X37.579 Y177.003 Z9.500 F600.000
G1 X93.696 Y233.120 Z9.500 F600.000
G0 Z15.000
G0 X89.213 Z15.000
G0 X89.213 Z13.000
G1 X89.213 Y233.120 Z9.500 F600.000
G1 X37.579 Y181.486 Z9.500 F600.000
G0 Z15.000
G0 Y185.969 Z15.000
G0 Y185.969 Z13.000
G1 X37.579 Y185.969 Z9.500 F600.000
G1 X84.730 Y233.120 Z9.500 F600.000
G0 Z15.000
G0 X80.247 Z15.000
G0 X80.247 Z13.000
G1 X80.247 Y233.120 Z9.500 F600.000
G1 X37.579 Y190.452 Z9.500 F600.000
G0 Z15.000
G0 Y194.935 Z15.000
G0 Y194.935 Z13.000
G1 X37.579 Y194.935 Z9.500 F600.000
G1 X75.764 Y233.120 Z9.500 F600.000
G0 Z15.000
G0 X71.281 Z15.000
G0 X71.281 Z13.000
G1 X71.281 Y233.120 Z9.500 F600.000
G1 X37.579 Y199.418 Z9.500 F600.000
G0 Z15.000
G0 Y203.901 Z15.000
G0 Y203.901 Z13.000
G1 X37.579 Y203.901 Z9.500 F600.000
G1 X66.798 Y233.120 Z9.500 F600.000
G0 Z15.000
G0 X62.315 Z15.000
G0 X62.315 Z13.000
G1 X62.315 Y233.120 Z9.500 F600.000
G1 X37.579 Y208.384 Z9.500 F600.000
G0 Z15.000
G0 Y212.867 Z15.000
G0 Y212.867 Z13.000
G1 X37.579 Y212.867 Z9.500 F600.000
G1 X57.832 Y233.120 Z9.500 F600.000
G0 Z15.000
G0 X53.349 Z15.000
G0 X53.349 Z13.000
G1 X53.349 Y233.120 Z9.500 F600.000
G1 X37.579 Y217.350 Z9.500 F600.000
G0 Z15.000
G0 Y221.833 Z15.000
G0 Y221.833 Z13.000
G1 X37.579 Y221.833 Z9.500 F600.000
G1 X48.866 Y233.120 Z9.500 F600.000
G0 Z15.000
G0 X44.383 Z15.000
G0 X44.383 Z13.000
G1 X44.383 Y233.120 Z9.500 F600.000
G1 X37.579 Y226.316 Z9.500 F600.000
G0 Z15.000
G0 Y230.799 Z15.000
G0 Y230.799 Z13.000
G1 X37.579 Y230.799 Z9.500 F600.000
G1 X39.900 Y233.120 Z9.500 F600.000
G1 X39.900 Y233.120 Z9.000 F600.000
G1 X37.579 Y230.799 Z9.000 F600.000
G0 Z15.000
G0 Y226.316 Z15.000
G0 Y226.316 Z13.000
G1 X37.579 Y226.316 Z9.000 F600.000
G1 X44.383 Y233.120 Z9.000 F600.000
G0 Z15.000
G0 X48.866 Z15.000
G0 X48.866 Z13.000
G1 X48.866 Y233.120 Z9.000 F600.000
G1 X37.579 Y221.833 Z9.000 F600.000
G0 Z15.000
G0 Y217.350 Z15.000
G0 Y217.350 Z13.000
G1 X37.579 Y217.350 Z9.000 F600.000
G1 X53.349 Y233.120 Z9.000 F600.000
G0 Z15.000
G0 X57.832 Z15.000
G0 X57.832 Z13.000
G1 X57.832 Y233.120 Z9.000 F600.000
G1 X37.579 Y212.867 Z9.000 F600.000
G0 Z15.000
G0 Y208.384 Z15.000
G0 Y208.384 Z13.000
G1 X37.579 Y208.384 Z9.000 F600.000
G1 X62.315 Y233.120 Z9.000 F600.000
G0 Z15.000
G0 X66.798 Z15.000
G0 X66.798 Z13.000
G1 X66.798 Y233.120 Z9.000 F600.000
G1 X37.579 Y203.901 Z9.000 F600.000
G0 Z15.000
G0 Y199.418 Z15.000
G0 Y199.418 Z13.000
G1 X37.579 Y199.418 Z9.000 F600.000
G1 X71.281 Y233.120 Z9.000 F600.000
G0 Z15.000
G0 X75.764 Z15.000
G0 X75.764 Z13.000
G1 X75.764 Y233.120 Z9.000 F600.000
G1 X37.579 Y194.935 Z9.000 F600.000
G0 Z15.000
G0 Y190.452 Z15.000
G0 Y190.452 Z13.000
G1 X37.579 Y190.452 Z9.000 F600.000
G1 X80.247 Y233.120 Z9.000 F600.000
G0 Z15.000
G0 X84.730 Z15.000
G0 X84.730 Z13.000
G1 X84.730 Y233.120 Z9.000 F600.000
G1 X37.579 Y185.969 Z9.000 F600.000
G0 Z15.000
G0 Y181.486 Z15.000
G0 Y181.486 Z13.000
G1 X37.579 Y181.486 Z9.000 F600.000
G1 X89.213 Y233.120 Z9.000 F600.000
G0 Z15.000
G0 X93.696 Z15.000
G0 X93.696 Z13.000
G1 X93.696 Y233.120 Z9.000 F600.000
G1 X37.579 Y177.003 Z9.000 F600.000
G0 Z15.000
G0 Y172.519 Z15.000
G0 Y172.519 Z13.000
G1 X37.579 Y172.519 Z9.000 F600.000
G1 X98.179 Y233.120 Z9.000 F600.000
G0 Z15.000
G0 X102.663 Z15.000
G0 X102.663 Z13.000
G1 X102.663 Y233.120 Z9.000 F600.000
G1 X37.579 Y168.036 Z9.000 F600.000
G0 Z15.000
G0 Y163.553 Z15.000
G0 Y163.553 Z13.000
G1 X37.579 Y163.553 Z9.000 F600.000
G1 X107.146 Y233.120 Z9.000 F600.000
G0 Z15.000
G0 X111.629 Z15.000
G0 X111.629 Z13.000
G1 X111.629 Y233.120 Z9.000 F600.000
G1 X37.579 Y159.070 Z9.000 F600.000
G0 Z15.000
G0 Y154.587 Z15.000
G0 Y154.587 Z13.000
G1 X37.579 Y154.587 Z9.000 F600.000
G1 X116.112 Y233.120 Z9.000 F600.000
G0 Z15.000
G0 X120.595 Z15.000
G0 X120.595 Z13.000
G1 X120.595 Y233.120 Z9.000 F600.000
G1 X37.579 Y150.104 Z9.000 F600.000
G0 Z15.000
G0 Y145.621 Z15.000
G0 Y145.621 Z13.000
G1 X37.579 Y145.621 Z9.000 F600.000
G1 X125.078 Y233.120 Z9.000 F600.000
G0 Z15.000
G0 X129.561 Z15.000
G0 X129.561 Z13.000
G1 X129.561 Y233.120 Z9.000 F600.000
G1 X37.579 Y141.138 Z9.000 F600.000
G0 Z15.000
G0 Y136.655 Z15.000
G0 Y136.655 Z13.000
G1 X37.579 Y136.655 Z9.000 F600.000
G1 X134.044 Y233.120 Z9.000 F600.000
G0 Z15.000
G0 X138.527 Z15.000
G0 X138.527 Z13.000
G1 X138.527 Y233.120 Z9.000 F600.000
G1 X37.579 Y132.172 Z9.000 F600.000
G0 Z15.000
G0 Y127.689 Z15.000
G0 Y127.689 Z13.000
G1 X37.579 Y127.689 Z9.000 F600.000
G1 X143.010 Y233.120 Z9.000 F600.000
G0 Z15.000
G0 X147.493 Z15.000
G0 X147.493 Z13.000
G1 X147.493 Y233.120 Z9.000 F600.000
G1 X37.579 Y123.206 Z9.000 F600.000
G0 Z15.000
G0 Y118.723 Z15.000
G0 Y118.723 Z13.000
G1 X37.579 Y118.723 Z9.000 F600.000
G1 X151.976 Y233.120 Z9.000 F600.000
G0 Z15.000
G0 X156.459 Z15.000
G0 X156.459 Z13.000
G1 X156.459 Y233.120 Z9.000 F600.000
G1 X37.579 Y114.240 Z9.000 F600.000
G0 Z15.000
G0 Y109.757 Z15.000
G0 Y109.757 Z13.000
G1 X37.579 Y109.757 Z9.000 F600.000
G1 X160.942 Y233.120 Z9.000 F600.000
G0 Z15.000
G0 X165.425 Z15.000
G0 X165.425 Z13.000
G1 X165.425 Y233.120 Z9.000 F600.000
G1 X37.579 Y105.274 Z9.000 F600.000
G0 Z15.000
G0 Y100.791 Z15.000
G0 Y100.791 Z13.000
G1 X37.579 Y100.791 Z9.000 F600.000
G1 X169.908 Y233.120 Z9.000 F600.000
G0 Z15.000
G0 X174.391 Z15.000
G0 X174.391 Z13.000
G1 X174.391 Y233.120 Z9.000 F600.000
G1 X37.579 Y96.307 Z9.000 F600.000
G0 Z15.000
G0 Y91.824 Z15.000
G0 Y91.824 Z13.000
G1 X37.579 Y91.824 Z9.000 F600.000
G1 X178.875 Y233.120 Z9.000 F600.000
G0 Z15.000
G0 X183.358 Z15.000
G0 X183.358 Z13.000
G1 X183.358 Y233.120 Z9.000 F600.000
G1 X37.579 Y87.341 Z9.000 F600.000
G0 Z15.000
G0 Y82.858 Z15.000
G0 Y82.858 Z13.000
G1 X37.579 Y82.858 Z9.000 F600.000
G1 X187.841 Y233.120 Z9.000 F600.000
G0 Z15.000
G0 X192.324 Z15.000
G0 X192.324 Z13.000
G1 X192.324 Y233.120 Z9.000 F600.000
G1 X37.579 Y78.375 Z9.000 F600.000
G0 Z15.000
G0 Y73.892 Z15.000
G0 Y73.892 Z13.000
G1 X37.579 Y73.892 Z9.000 F600.000
G1 X196.807 Y233.120 Z9.000 F600.000
G0 Z15.000
G0 X201.290 Z15.000
G0 X201.290 Z13.000
G1 X201.290 Y233.120 Z9.000 F600.000
G1 X37.579 Y69.409 Z9.000 F600.000
G0 Z15.000
G0 Y64.926 Z15.000
G0 Y64.926 Z13.000
G1 X37.579 Y64.926 Z9.000 F600.000
G1 X205.773 Y233.120 Z9.000 F600.000
G0 Z15.000
G0 X210.256 Z15.000
G0 X210.256 Z13.000
G1 X210.256 Y233.120 Z9.000 F600.000
G1 X37.579 Y60.443 Z9.000 F600.000
G0 Z15.000
G0 Y55.960 Z15.000
G0 Y55.960 Z13.000
G1 X37.579 Y55.960 Z9.000 F600.000
G1 X214.739 Y233.120 Z9.000 F600.000
G0 Z15.000
G0 X219.222 Z15.000
G0 X219.222 Z13.000
G1 X219.222 Y233.120 Z9.000 F600.000
G1 X37.579 Y51.477 Z9.000 F600.000
G0 Z15.000
G0 Y46.994 Z15.000
G0 Y46.994 Z13.000
G1 X37.579 Y46.994 Z9.000 F600.000
G1 X223.705 Y233.120 Z9.000 F600.000
G0 Z15.000
G0 X228.188 Z15.000
G0 X228.188 Z13.000
G1 X228.188 Y233.120 Z9.000 F600.000
G1 X37.579 Y42.511 Z9.000 F600.000
G0 Z15.000
G0 Y38.028 Z15.000
G0 Y38.028 Z13.000
G1 X37.579 Y38.028 Z9.000 F600.000
G1 X232.671 Y233.120 Z9.000 F600.000
G0 Z15.000
G0 X234.409 Y230.375 Z15.000
G0 X234.409 Y230.375 Z13.000
G1 X234.409 Y230.375 Z9.000 F600.000
G1 X40.324 Y36.290 Z9.000 F600.000
G0 Z15.000
G0 X44.807 Z15.000
G0 X44.807 Z13.000
G1 X44.807 Y36.290 Z9.000 F600.000
G1 X234.409 Y225.892 Z9.000 F600.000
G0 Z15.000
G0 Y221.409 Z15.000
G0 Y221.409 Z13.000
G1 X234.409 Y221.409 Z9.000 F600.000
G1 X49.290 Y36.290 Z9.000 F600.000
G0 Z15.000
G0 X53.773 Z15.000
G0 X53.773 Z13.000
G1 X53.773 Y36.290 Z9.000 F600.000
G1 X234.409 Y216.926 Z9.000 F600.000
G0 Z15.000
G0 Y212.442 Z15.000
G0 Y212.442 Z13.000
G1 X234.409 Y212.442 Z9.000 F600.000
G1 X58.256 Y36.290 Z9.000 F600.000
G0 Z15.000
G0 X62.740 Z15.000
G0 X62.740 Z13.000
G1 X62.740 Y36.290 Z9.000 F600.000
G1 X234.409 Y207.959 Z9.000 F600.000
G0 Z15.000
G0 Y203.476 Z15.000
G0 Y203.476 Z13.000
G1 X234.409 Y203.476 Z9.000 F600.000
G1 X67.223 Y36.290 Z9.000 F600.000
G0 Z15.000
G0 X71.706 Z15.000
G0 X71.706 Z13.000
G1 X71.706 Y36.290 Z9.000 F600.000
G1 X234.409 Y198.993 Z9.000 F600.000
G0 Z15.000
G0 Y194.510 Z15.000
G0 Y194.510 Z13.000
G1 X234.409 Y194.510 Z9.000 F600.000
G1 X76.189 Y36.290 Z9.000 F600.000
G0 Z15.000
G0 X80.672 Z15.000
G0 X80.672 Z13.000
G1 X80.672 Y36.290 Z9.000 F600.000
G1 X234.409 Y190.027 Z9.000 F600.000
G0 Z15.000
G0 Y185.544 Z15.000
G0 Y185.544 Z13.000
G1 X234.409 Y185.544 Z9.000 F600.000
G1 X85.155 Y36.290 Z9.000 F600.000
G0 Z15.000
G0 X89.638 Z15.000
G0 X89.638 Z13.000
G1 X89.638 Y36.290 Z9.000 F600.000
G1 X234.409 Y181.061 Z9.000 F600.000
G0 Z15.000
G0 Y176.578 Z15.000
G0 Y176.578 Z13.000
G1 X234.409 Y176.578 Z9.000 F600.000
G1 X94.121 Y36.290 Z9.000 F600.000
G0 Z15.000
G0 X98.604 Z15.000
G0 X98.604 Z13.000
G1 X98.604 Y36.290 Z9.000 F600.000
G1 X234.409 Y172.095 Z9.000 F600.000
G0 Z15.000
G0 Y167.612 Z15.000
G0 Y167.612 Z13.000
G1 X234.409 Y167.612 Z9.000 F600.000
G1 X103.087 Y36.290 Z9.000 F600.000
G0 Z15.000
G0 X107.570 Z15.000
G0 X107.570 Z13.000
G1 X107.570 Y36.290 Z9.000 F600.000
G1 X234.409 Y163.129 Z9.000 F600.000
G0 Z15.000
G0 Y158.646 Z15.000
G0 Y158.646 Z13.000
G1 X234.409 Y158.646 Z9.000 F600.000
G1 X112.053 Y36.290 Z9.000 F600.000
G0 Z15.000
G0 X116.536 Z15.000
G0 X116.536 Z13.000
G1 X116.536 Y36.290 Z9.000 F600.000
G1 X234.409 Y154.163 Z9.000 F600.000
G0 Z15.000
G0 Y149.680 Z15.000
G0 Y149.680 Z13.000
G1 X234.409 Y149.680 Z9.000 F600.000
G1 X121.019 Y36.290 Z9.000 F600.000
G0 Z15.000
G0 X125.502 Z15.000
G0 X125.502 Z13.000
G1 X125.502 Y36.290 Z9.000 F600.000
G1 X234.409 Y145.197 Z9.000 F600.000
G0 Z15.000
G0 Y140.714 Z15.000
G0 Y140.714 Z13.000
G1 X234.409 Y140.714 Z9.000 F600.000
G1 X129.985 Y36.290 Z9.000 F600.000
G0 Z15.000
G0 X134.468 Z15.000
G0 X134.468 Z13.000
G1 X134.468 Y36.290 Z9.000 F600.000
G1 X234.409 Y136.230 Z9.000 F600.000
G0 Z15.000
G0 Y131.747 Z15.000
G0 Y131.747 Z13.000
G1 X234.409 Y131.747 Z9.000 F600.000
G1 X138.952 Y36.290 Z9.000 F600.000
G0 Z15.000
G0 X143.435 Z15.000
G0 X143.435 Z13.000
G1 X143.435 Y36.290 Z9.000 F600.000
G1 X234.409 Y127.264 Z9.000 F600.000
G0 Z15.000
G0 Y122.781 Z15.000
G0 Y122.781 Z13.000
G1 X234.409 Y122.781 Z9.000 F600.000
G1 X147.918 Y36.290 Z9.000 F600.000
G0 Z15.000
G0 X152.401 Z15.000
G0 X152.401 Z13.000
G1 X152.401 Y36.290 Z9.000 F600.000
G1 X234.409 Y118.298 Z9.000 F600.000
G0 Z15.000
G0 Y113.815 Z15.000
G0 Y113.815 Z13.000
G1 X234.409 Y113.815 Z9.000 F600.000
G1 X156.884 Y36.290 Z9.000 F600.000
G0 Z15.000
G0 X161.367 Z15.000
G0 X161.367 Z13.000
G1 X161.367 Y36.290 Z9.000 F600.000
G1 X234.409 Y109.332 Z9.000 F600.000
G0 Z15.000
G0 Y104.849 Z15.000
G0 Y104.849 Z13.000
G1 X234.409 Y104.849 Z9.000 F600.000
G1 X165.850 Y36.290 Z9.000 F600.000
G0 Z15.000
G0 X170.333 Z15.000
G0 X170.333 Z13.000
G1 X170.333 Y36.290 Z9.000 F600.000
G1 X234.409 Y100.366 Z9.000 F600.000
G0 Z15.000
G0 Y95.883 Z15.000
G0 Y95.883 Z13.000
G1 X234.409 Y95.883 Z9.000 F600.000
G1 X174.816 Y36.290 Z9.000 F600.000
G0 Z15.000
G0 X179.299 Z15.000
G0 X179.299 Z13.000
G1 X179.299 Y36.290 Z9.000 F600.000
G1 X234.409 Y91.400 Z9.000 F600.000
G0 Z15.000
G0 Y86.917 Z15.000
G0 Y86.917 Z13.000
G1 X234.409 Y86.917 Z9.000 F600.000
G1 X183.782 Y36.290 Z9.000 F600.000
G0 Z15.000
G0 X188.265 Z15.000
G0 X188.265 Z13.000
G1 X188.265 Y36.290 Z9.000 F600.000
G1 X234.409 Y82.434 Z9.000 F600.000
G0 Z15.000
G0 Y77.951 Z15.000
G0 Y77.951 Z13.000
G1 X234.409 Y77.951 Z9.000 F600.000
G1 X192.748 Y36.290 Z9.000 F600.000
G0 Z15.000
G0 X197.231 Z15.000
G0 X197.231 Z13.000
G1 X197.231 Y36.290 Z9.000 F600.000
G1 X234.409 Y73.468 Z9.000 F600.000
G0 Z15.000
G0 Y68.985 Z15.000
G0 Y68.985 Z13.000
G1 X234.409 Y68.985 Z9.000 F600.000
G1 X201.714 Y36.290 Z9.000 F600.000
G0 Z15.000
G0 X206.197 Z15.000
G0 X206.197 Z13.000
G1 X206.197 Y36.290 Z9.000 F600.000
G1 X234.409 Y64.502 Z9.000 F600.000
G0 Z15.000
G0 Y60.019 Z15.000
G0 Y60.019 Z13.000
G1 X234.409 Y60.019 Z9.000 F600.000
G1 X210.680 Y36.290 Z9.000 F600.000
G0 Z15.000
G0 X215.163 Z15.000
G0 X215.163 Z13.000
G1 X215.163 Y36.290 Z9.000 F600.000
G1 X234.409 Y55.535 Z9.000 F600.000
G0 Z15.000
G0 Y51.052 Z15.000
G0 Y51.052 Z13.000
G1 X234.409 Y51.052 Z9.000 F600.000
G1 X219.647 Y36.290 Z9.000 F600.000
G0 Z15.000
G0 X224.130 Z15.000
G0 X224.130 Z13.000
G1 X224.130 Y36.290 Z9.000 F600.000
G1 X234.409 Y46.569 Z9.000 F600.000
G0 Z15.000
G0 Y42.086 Z15.000
G0 Y42.086 Z13.000
G1 X234.409 Y42.086 Z9.000 F600.000
G1 X228.613 Y36.290 Z9.000 F600.000
G0 Z15.000
G0 X233.096 Z15.000
G0 X233.096 Z13.000
G1 X233.096 Y36.290 Z9.000 F600.000
G1 X234.409 Y37.603 Z9.000 F600.000
G1 X234.409 Y37.603 Z8.500 F600.000
G1 X233.096 Y36.290 Z8.500 F600.000
G0 Z15.000
G0 X228.613 Z15.000
G0 X228.613 Z13.000
G1 X228.613 Y36.290 Z8.500 F600.000
G1 X234.409 Y42.086 Z8.500 F600.000
G0 Z15.000
G0 Y46.569 Z15.000
G0 Y46.569 Z13.000
G1 X234.409 Y46.569 Z8.500 F600.000
G1 X224.130 Y36.290 Z8.500 F600.000
G0 Z15.000
G0 X219.647 Z15.000
G0 X219.647 Z13.000
G1 X219.647 Y36.290 Z8.500 F600.000
G1 X234.409 Y51.052 Z8.500 F600.000
G0 Z15.000
G0 Y55.535 Z15.000
G0 Y55.535 Z13.000
G1 X234.409 Y55.535 Z8.500 F600.000
G1 X215.163 Y36.290 Z8.500 F600.000
G0 Z15.000
G0 X210.680 Z15.000
G0 X210.680 Z13.000
G1 X210.680 Y36.290 Z8.500 F600.000
G1 X234.409 Y60.019 Z8.500 F600.000
G0 Z15.000
G0 Y64.502 Z15.000
G0 Y64.502 Z13.000
G1 X234.409 Y64.502 Z8.500 F600.000
G1 X206.197 Y36.290 Z8.500 F600.000
G0 Z15.000
G0 X201.714 Z15.000
G0 X201.714 Z13.000
G1 X201.714 Y36.290 Z8.500 F600.000
G1 X234.409 Y68.985 Z8.500 F600.000
G0 Z15.000
G0 Y73.468 Z15.000
G0 Y73.468 Z13.000
G1 X234.409 Y73.468 Z8.500 F600.000
G1 X197.231 Y36.290 Z8.500 F600.000
G0 Z15.000
G0 X192.748 Z15.000
G0 X192.748 Z13.000
G1 X192.748 Y36.290 Z8.500 F600.000
G1 X234.409 Y77.951 Z8.500 F600.000
G0 Z15.000
G0 Y82.434 Z15.000
G0 Y82.434 Z13.000
G1 X234.409 Y82.434 Z8.500 F600.000
G1 X188.265 Y36.290 Z8.500 F600.000
G0 Z15.000
G0 X183.782 Z15.000
G0 X183.782 Z13.000
G1 X183.782 Y36.290 Z8.500 F600.000
G1 X234.409 Y86.917 Z8.500 F600.000
G0 Z15.000
G0 Y91.400 Z15.000
G0 Y91.400 Z13.000
G1 X234.409 Y91.400 Z8.500 F600.000
G1 X179.299 Y36.290 Z8.500 F600.000
G0 Z15.000
G0 X174.816 Z15.000
G0 X174.816 Z13.000
G1 X174.816 Y36.290 Z8.500 F600.000
G1 X234.409 Y95.883 Z8.500 F600.000
G0 Z15.000
G0 Y100.366 Z15.000
G0 Y100.366 Z13.000
G1 X234.409 Y100.366 Z8.500 F600.000
G1 X170.333 Y36.290 Z8.500 F600.000
G0 Z15.000
G0 X165.850 Z15.000
G0 X165.850 Z13.000
G1 X165.850 Y36.290 Z8.500 F600.000
G1 X234.409 Y104.849 Z8.500 F600.000
G0 Z15.000
G0 Y109.332 Z15.000
G0 Y109.332 Z13.000
G1 X234.409 Y109.332 Z8.500 F600.000
G1 X161.367 Y36.290 Z8.500 F600.000
G0 Z15.000
G0 X156.884 Z15.000
G0 X156.884 Z13.000
G1 X156.884 Y36.290 Z8.500 F600.000
G1 X234.409 Y113.815 Z8.500 F600.000
G0 Z15.000
G0 Y118.298 Z15.000
G0 Y118.298 Z13.000
G1 X234.409 Y118.298 Z8.500 F600.000
G1 X152.401 Y36.290 Z8.500 F600.000
G0 Z15.000
G0 X147.918 Z15.000
G0 X147.918 Z13.000
G1 X147.918 Y36.290 Z8.500 F600.000
G1 X234.409 Y122.781 Z8.500 F600.000
G0 Z15.000
G0 Y127.264 Z15.000
G0 Y127.264 Z13.000
G1 X234.409 Y127.264 Z8.500 F600.000
G1 X143.435 Y36.290 Z8.500 F600.000
G0 Z15.000
G0 X138.952 Z15.000
G0 X138.952 Z13.000
G1 X138.952 Y36.290 Z8.500 F600.000
G1 X234.409 Y131.747 Z8.500 F600.000
G0 Z15.000
G0 Y136.230 Z15.000
G0 Y136.230 Z13.000
G1 X234.409 Y136.230 Z8.500 F600.000
G1 X134.468 Y36.290 Z8.500 F600.000
G0 Z15.000
G0 X129.985 Z15.000
G0 X129.985 Z13.000
G1 X129.985 Y36.290 Z8.500 F600.000
G1 X234.409 Y140.714 Z8.500 F600.000
G0 Z15.000
G0 Y145.197 Z15.000
G0 Y145.197 Z13.000
G1 X234.409 Y145.197 Z8.500 F600.000
G1 X125.502 Y36.290 Z8.500 F600.000
G0 Z15.000
G0 X121.019 Z15.000
G0 X121.019 Z13.000
G1 X121.019 Y36.290 Z8.500 F600.000
G1 X234.409 Y149.680 Z8.500 F600.000
G0 Z15.000
G0 Y154.163 Z15.000
G0 Y154.163 Z13.000
G1 X234.409 Y154.163 Z8.500 F600.000
G1 X116.536 Y36.290 Z8.500 F600.000
G0 Z15.000
G0 X112.053 Z15.000
G0 X112.053 Z13.000
G1 X112.053 Y36.290 Z8.500 F600.000
G1 X234.409 Y158.646 Z8.500 F600.000
G0 Z15.000
G0 Y163.129 Z15.000
G0 Y163.129 Z13.000
G1 X234.409 Y163.129 Z8.500 F600.000
G1 X107.570 Y36.290 Z8.500 F600.000
G0 Z15.000
G0 X103.087 Z15.000
G0 X103.087 Z13.000
G1 X103.087 Y36.290 Z8.500 F600.000
G1 X234.409 Y167.612 Z8.500 F600.000
G0 Z15.000
G0 Y172.095 Z15.000
G0 Y172.095 Z13.000
G1 X234.409 Y172.095 Z8.500 F600.000
G1 X98.604 Y36.290 Z8.500 F600.000
G0 Z15.000
G0 X94.121 Z15.000
G0 X94.121 Z13.000
G1 X94.121 Y36.290 Z8.500 F600.000
G1 X234.409 Y176.578 Z8.500 F600.000
G0 Z15.000
G0 Y181.061 Z15.000
G0 Y181.061 Z13.000
G1 X234.409 Y181.061 Z8.500 F600.000
G1 X89.638 Y36.290 Z8.500 F600.000
G0 Z15.000
G0 X85.155 Z15.000
G0 X85.155 Z13.000
G1 X85.155 Y36.290 Z8.500 F600.000
G1 X234.409 Y185.544 Z8.500 F600.000
G0 Z15.000
G0 Y190.027 Z15.000
G0 Y190.027 Z13.000
G1 X234.409 Y190.027 Z8.500 F600.000
G1 X80.672 Y36.290 Z8.500 F600.000
G0 Z15.000
G0 X76.189 Z15.000
G0 X76.189 Z13.000
G1 X76.189 Y36.290 Z8.500 F600.000
G1 X234.409 Y194.510 Z8.500 F600.000
G0 Z15.000
G0 Y198.993 Z15.000
G0 Y198.993 Z13.000
G1 X234.409 Y198.993 Z8.500 F600.000
G1 X71.706 Y36.290 Z8.500 F600.000
G0 Z15.000
G0 X67.223 Z15.000
G0 X67.223 Z13.000
G1 X67.223 Y36.290 Z8.500 F600.000
G1 X234.409 Y203.476 Z8.500 F600.000
G0 Z15.000
G0 Y207.959 Z15.000
G0 Y207.959 Z13.000
G1 X234.409 Y207.959 Z8.500 F600.000
G1 X62.740 Y36.290 Z8.500 F600.000
G0 Z15.000
G0 X58.256 Z15.000
G0 X58.256 Z13.000
G1 X58.256 Y36.290 Z8.500 F600.000
G1 X234.409 Y212.442 Z8.500 F600.000
G0 Z15.000
G0 Y216.926 Z15.000
G0 Y216.926 Z13.000
G1 X234.409 Y216.926 Z8.500 F600.000
G1 X53.773 Y36.290 Z8.500 F600.000
G0 Z15.000
G0 X49.290 Z15.000
G0 X49.290 Z13.000
G1 X49.290 Y36.290 Z8.500 F600.000
G1 X234.409 Y221.409 Z8.500 F600.000
G0 Z15.000
G0 Y225.892 Z15.000
G0 Y225.892 Z13.000
G1 X234.409 Y225.892 Z8.500 F600.000
G1 X44.807 Y36.290 Z8.500 F600.000
G0 Z15.000
G0 X40.324 Z15.000
G0 X40.324 Z13.000
G1 X40.324 Y36.290 Z8.500 F600.000
G1 X234.409 Y230.375 Z8.500 F600.000
G0 Z15.000
G0 X232.671 Y233.120 Z15.000
G0 X232.671 Y233.120 Z13.000
G1 X232.671 Y233.120 Z8.500 F600.000
G1 X37.579 Y38.028 Z8.500 F600.000
G0 Z15.000
G0 Y42.511 Z15.000
G0 Y42.511 Z13.000
G1 X37.579 Y42.511 Z8.500 F600.000
G1 X228.188 Y233.120 Z8.500 F600.000
G0 Z15.000
G0 X223.705 Z15.000
G0 X223.705 Z13.000
G1 X223.705 Y233.120 Z8.500 F600.000
G1 X37.579 Y46.994 Z8.500 F600.000
G0 Z15.000
G0 Y51.477 Z15.000
G0 Y51.477 Z13.000
G1 X37.579 Y51.477 Z8.500 F600.000
G1 X219.222 Y233.120 Z8.500 F600.000
G0 Z15.000
G0 X214.739 Z15.000
G0 X214.739 Z13.000
G1 X214.739 Y233.120 Z8.500 F600.000
G1 X37.579 Y55.960 Z8.500 F600.000
G0 Z15.000
G0 Y60.443 Z15.000
G0 Y60.443 Z13.000
G1 X37.579 Y60.443 Z8.500 F600.000
G1 X210.256 Y233.120 Z8.500 F600.000
G0 Z15.000
G0 X205.773 Z15.000
G0 X205.773 Z13.000
G1 X205.773 Y233.120 Z8.500 F600.000
G1 X37.579 Y64.926 Z8.500 F600.000
G0 Z15.000
G0 Y69.409 Z15.000
G0 Y69.409 Z13.000
G1 X37.579 Y69.409 Z8.500 F600.000
G1 X201.290 Y233.120 Z8.500 F600.000
G0 Z15.000
G0 X196.807 Z15.000
G0 X196.807 Z13.000
G1 X196.807 Y233.120 Z8.500 F600.000
G1 X37.579 Y73.892 Z8.500 F600.000
G0 Z15.000
G0 Y78.375 Z15.000
G0 Y78.375 Z13.000
G1 X37.579 Y78.375 Z8.500 F600.000
G1 X192.324 Y233.120 Z8.500 F600.000
G0 Z15.000
G0 X187.841 Z15.000
G0 X187.841 Z13.000
G1 X187.841 Y233.120 Z8.500 F600.000
G1 X37.579 Y82.858 Z8.500 F600.000
G0 Z15.000
G0 Y87.341 Z15.000
G0 Y87.341 Z13.000
G1 X37.579 Y87.341 Z8.500 F600.000
G1 X183.358 Y233.120 Z8.500 F600.000
G0 Z15.000
G0 X178.875 Z15.000
G0 X178.875 Z13.000
G1 X178.875 Y233.120 Z8.500 F600.000
G1 X37.579 Y91.824 Z8.500 F600.000
G0 Z15.000
G0 Y96.307 Z15.000
G0 Y96.307 Z13.000
G1 X37.579 Y96.307 Z8.500 F600.000
G1 X174.391 Y233.120 Z8.500 F600.000
G0 Z15.000
G0 X169.908 Z15.000
G0 X169.908 Z13.000
G1 X169.908 Y233.120 Z8.500 F600.000
G1 X37.579 Y100.791 Z8.500 F600.000
G0 Z15.000
G0 Y105.274 Z15.000
G0 Y105.274 Z13.000
G1 X37.579 Y105.274 Z8.500 F600.000
G1 X165.425 Y233.120 Z8.500 F600.000
G0 Z15.000
G0 X160.942 Z15.000
G0 X160.942 Z13.000
G1 X160.942 Y233.120 Z8.500 F600.000
G1 X37.579 Y109.757 Z8.500 F600.000
G0 Z15.000
G0 Y114.240 Z15.000
G0 Y114.240 Z13.000
G1 X37.579 Y114.240 Z8.500 F600.000
G1 X156.459 Y233.120 Z8.500 F600.000
G0 Z15.000
G0 X151.976 Z15.000
G0 X151.976 Z13.000
G1 X151.976 Y233.120 Z8.500 F600.000
G1 X37.579 Y118.723 Z8.500 F600.000
G0 Z15.000
G0 Y123.206 Z15.000
G0 Y123.206 Z13.000
G1 X37.579 Y123.206 Z8.500 F600.000
G1 X147.493 Y233.120 Z8.500 F600.000
G0 Z15.000
G0 X143.010 Z15.000
G0 X143.010 Z13.000
G1 X143.010 Y233.120 Z8.500 F600.000
G1 X37.579 Y127.689 Z8.500 F600.000
G0 Z15.000
G0 Y132.172 Z15.000
G0 Y132.172 Z13.000
G1 X37.579 Y132.172 Z8.500 F600.000
G1 X138.527 Y233.120 Z8.500 F600.000
G0 Z15.000
G0 X134.044 Z15.000
G0 X134.044 Z13.000
G1 X134.044 Y233.120 Z8.500 F600.000
G1 X37.579 Y136.655 Z8.500 F600.000
G0 Z15.000
G0 Y141.138 Z15.000
G0 Y141.138 Z13.000
G1 X37.579 Y141.138 Z8.500 F600.000
G1 X129.561 Y233.120 Z8.500 F600.000
G0 Z15.000
G0 X125.078 Z15.000
G0 X125.078 Z13.000
G1 X125.078 Y233.120 Z8.500 F600.000
G1 X37.579 Y145.621 Z8.500 F600.000
G0 Z15.000
G0 Y150.104 Z15.000
G0 Y150.104 Z13.000
G1 X37.579 Y150.104 Z8.500 F600.000
G1 X120.595 Y233.120 Z8.500 F600.000
G0 Z15.000
G0 X116.112 Z15.000
G0 X116.112 Z13.000
G1 X116.112 Y233.120 Z8.500 F600.000
G1 X37.579 Y154.587 Z8.500 F600.000
G0 Z15.000
G0 Y159.070 Z15.000
G0 Y159.070 Z13.000
G1 X37.579 Y159.070 Z8.500 F600.000
G1 X111.629 Y233.120 Z8.500 F600.000
G0 Z15.000
G0 X107.146 Z15.000
G0 X107.146 Z13.000
G1 X107.146 Y233.120 Z8.500 F600.000
G1 X37.579 Y163.553 Z8.500 F600.000
G0 Z15.000
G0 Y168.036 Z15.000
G0 Y168.036 Z13.000
G1 X37.579 Y168.036 Z8.500 F600.000
G1 X102.663 Y233.120 Z8.500 F600.000
G0 Z15.000
G0 X98.179 Z15.000
G0 X98.179 Z13.000
G1 X98.179 Y233.120 Z8.500 F600.000
G1 X37.579 Y172.519 Z8.500 F600.000
G0 Z15.000
G0 Y177.003 Z15.000
G0 Y177.003 Z13.000
G1 X37.579 Y177.003 Z8.500 F600.000
G1 X93.696 Y233.120 Z8.500 F600.000
G0 Z15.000
G0 X89.213 Z15.000
G0 X89.213 Z13.000
G1 X89.213 Y233.120 Z8.500 F600.000
G1 X37.579 Y181.486 Z8.500 F600.000
G0 Z15.000
G0 Y185.969 Z15.000
G0 Y185.969 Z13.000
G1 X37.579 Y185.969 Z8.500 F600.000
G1 X84.730 Y233.120 Z8.500 F600.000
G0 Z15.000
G0 X80.247 Z15.000
G0 X80.247 Z13.000
G1 X80.247 Y233.120 Z8.500 F600.000
G1 X37.579 Y190.452 Z8.500 F600.000
G0 Z15.000
G0 Y194.935 Z15.000
G0 Y194.935 Z13.000
G1 X37.579 Y194.935 Z8.500 F600.000
G1 X75.764 Y233.120 Z8.500 F600.000
G0 Z15.000
G0 X71.281 Z15.000
G0 X71.281 Z13.000
G1 X71.281 Y233.120 Z8.500 F600.000
G1 X37.579 Y199.418 Z8.500 F600.000
G0 Z15.000
G0 Y203.901 Z15.000
G0 Y203.901 Z13.000
G1 X37.579 Y203.901 Z8.500 F600.000
G1 X66.798 Y233.120 Z8.500 F600.000
G0 Z15.000
G0 X62.315 Z15.000
G0 X62.315 Z13.000
G1 X62.315 Y233.120 Z8.500 F600.000
G1 X37.579 Y208.384 Z8.500 F600.000
G0 Z15.000
G0 Y212.867 Z15.000
G0 Y212.867 Z13.000
G1 X37.579 Y212.867 Z8.500 F600.000
G1 X57.832 Y233.120 Z8.500 F600.000
G0 Z15.000
G0 X53.349 Z15.000
G0 X53.349 Z13.000
G1 X53.349 Y233.120 Z8.500 F600.000
G1 X37.579 Y217.350 Z8.500 F600.000
G0 Z15.000
G0 Y221.833 Z15.000
G0 Y221.833 Z13.000
G1 X37.579 Y221.833 Z8.500 F600.000
G1 X48.866 Y233.120 Z8.500 F600.000
G0 Z15.000
G0 X44.383 Z15.000
G0 X44.383 Z13.000
G1 X44.383 Y233.120 Z8.500 F600.000
G1 X37.579 Y226.316 Z8.500 F600.000
G0 Z15.000
G0 Y230.799 Z15.000
G0 Y230.799 Z13.000
G1 X37.579 Y230.799 Z8.500 F600.000
G1 X39.900 Y233.120 Z8.500 F600.000
G1 X39.900 Y233.120 Z8.000 F600.000
G1 X37.579 Y230.799 Z8.000 F600.000
G0 Z15.000
G0 Y226.316 Z15.000
G0 Y226.316 Z13.000
G1 X37.579 Y226.316 Z8.000 F600.000
G1 X44.383 Y233.120 Z8.000 F600.000
G0 Z15.000
G0 X48.866 Z15.000
G0 X48.866 Z13.000
G1 X48.866 Y233.120 Z8.000 F600.000
G1 X37.579 Y221.833 Z8.000 F600.000
G0 Z15.000
G0 Y217.350 Z15.000
G0 Y217.350 Z13.000
G1 X37.579 Y217.350 Z8.000 F600.000
G1 X53.349 Y233.120 Z8.000 F600.000
G0 Z15.000
G0 X57.832 Z15.000
G0 X57.832 Z13.000
G1 X57.832 Y233.120 Z8.000 F600.000
G1 X37.579 Y212.867 Z8.000 F600.000
G0 Z15.000
G0 Y208.384 Z15.000
G0 Y208.384 Z13.000
G1 X37.579 Y208.384 Z8.000 F600.000
G1 X62.315 Y233.120 Z8.000 F600.000
G0 Z15.000
G0 X66.798 Z15.000
G0 X66.798 Z13.000
G1 X66.798 Y233.120 Z8.000 F600.000
G1 X37.579 Y203.901 Z8.000 F600.000
G0 Z15.000
G0 Y199.418 Z15.000
G0 Y199.418 Z13.000
G1 X37.579 Y199.418 Z8.000 F600.000
G1 X71.281 Y233.120 Z8.000 F600.000
G0 Z15.000
G0 X75.764 Z15.000
G0 X75.764 Z13.000
G1 X75.764 Y233.120 Z8.000 F600.000
G1 X37.579 Y194.935 Z8.000 F600.000
G0 Z15.000
G0 Y190.452 Z15.000
G0 Y190.452 Z13.000
G1 X37.579 Y190.452 Z8.000 F600.000
G1 X80.247 Y233.120 Z8.000 F600.000
G0 Z15.000
G0 X84.730 Z15.000
G0 X84.730 Z13.000
G1 X84.730 Y233.120 Z8.000 F600.000
G1 X37.579 Y185.969 Z8.000 F600.000
G0 Z15.000
G0 Y181.486 Z15.000
G0 Y181.486 Z13.000
G1 X37.579 Y181.486 Z8.000 F600.000
G1 X89.213 Y233.120 Z8.000 F600.000
G0 Z15.000
G0 X93.696 Z15.000
G0 X93.696 Z13.000
G1 X93.696 Y233.120 Z8.000 F600.000
G1 X37.579 Y177.003 Z8.000 F600.000
G0 Z15.000
G0 Y172.519 Z15.000
G0 Y172.519 Z13.000
G1 X37.579 Y172.519 Z8.000 F600.000
G1 X98.179 Y233.120 Z8.000 F600.000
G0 Z15.000
G0 X102.663 Z15.000
G0 X102.663 Z13.000
G1 X102.663 Y233.120 Z8.000 F600.000
G1 X37.579 Y168.036 Z8.000 F600.000
G0 Z15.000
G0 Y163.553 Z15.000
G0 Y163.553 Z13.000
G1 X37.579 Y163.553 Z8.000 F600.000
G1 X107.146 Y233.120 Z8.000 F600.000
G0 Z15.000
G0 X111.629 Z15.000
G0 X111.629 Z13.000
G1 X111.629 Y233.120 Z8.000 F600.000
G1 X37.579 Y159.070 Z8.000 F600.000
G0 Z15.000
G0 Y154.587 Z15.000
G0 Y154.587 Z13.000
G1 X37.579 Y154.587 Z8.000 F600.000
G1 X116.112 Y233.120 Z8.000 F600.000
G0 Z15.000
G0 X120.595 Z15.000
G0 X120.595 Z13.000
G1 X120.595 Y233.120 Z8.000 F600.000
G1 X37.579 Y150.104 Z8.000 F600.000
G0 Z15.000
G0 Y145.621 Z15.000
G0 Y145.621 Z13.000
G1 X37.579 Y145.621 Z8.000 F600.000
G1 X125.078 Y233.120 Z8.000 F600.000
G0 Z15.000
G0 X129.561 Z15.000
G0 X129.561 Z13.000
G1 X129.561 Y233.120 Z8.000 F600.000
G1 X37.579 Y141.138 Z8.000 F600.000
G0 Z15.000
G0 Y136.655 Z15.000
G0 Y136.655 Z13.000
G1 X37.579 Y136.655 Z8.000 F600.000
G1 X134.044 Y233.120 Z8.000 F600.000
G0 Z15.000
G0 X138.527 Z15.000
G0 X138.527 Z13.000
G1 X138.527 Y233.120 Z8.000 F600.000
G1 X37.579 Y132.172 Z8.000 F600.000
G0 Z15.000
G0 Y127.689 Z15.000
G0 Y127.689 Z13.000
G1 X37.579 Y127.689 Z8.000 F600.000
G1 X143.010 Y233.120 Z8.000 F600.000
G0 Z15.000
G0 X147.493 Z15.000
G0 X147.493 Z13.000
G1 X147.493 Y233.120 Z8.000 F600.000
G1 X37.579 Y123.206 Z8.000 F600.000
G0 Z15.000
G0 Y118.723 Z15.000
G0 Y118.723 Z13.000
G1 X37.579 Y118.723 Z8.000 F600.000
G1 X151.976 Y233.120 Z8.000 F600.000
G0 Z15.000
G0 X156.459 Z15.000
G0 X156.459 Z13.000
G1 X156.459 Y233.120 Z8.000 F600.000
G1 X37.579 Y114.240 Z8.000 F600.000
G0 Z15.000
G0 Y109.757 Z15.000
G0 Y109.757 Z13.000
G1 X37.579 Y109.757 Z8.000 F600.000
G1 X160.942 Y233.120 Z8.000 F600.000
G0 Z15.000
G0 X165.425 Z15.000
G0 X165.425 Z13.000
G1 X165.425 Y233.120 Z8.000 F600.000
G1 X37.579 Y105.274 Z8.000 F600.000
G0 Z15.000
G0 Y100.791 Z15.000
G0 Y100.791 Z13.000
G1 X37.579 Y100.791 Z8.000 F600.000
G1 X169.908 Y233.120 Z8.000 F600.000
G0 Z15.000
G0 X174.391 Z15.000
G0 X174.391 Z13.000
G1 X174.391 Y233.120 Z8.000 F600.000
G1 X37.579 Y96.307 Z8.000 F600.000
G0 Z15.000
G0 Y91.824 Z15.000
G0 Y91.824 Z13.000
G1 X37.579 Y91.824 Z8.000 F600.000
G1 X178.875 Y233.120 Z8.000 F600.000
G0 Z15.000
G0 X183.358 Z15.000
G0 X183.358 Z13.000
G1 X183.358 Y233.120 Z8.000 F600.000
G1 X37.579 Y87.341 Z8.000 F600.000
G0 Z15.000
G0 Y82.858 Z15.000
G0 Y82.858 Z13.000
G1 X37.579 Y82.858 Z8.000 F600.000
G1 X187.841 Y233.120 Z8.000 F600.000
G0 Z15.000
G0 X192.324 Z15.000
G0 X192.324 Z13.000
G1 X192.324 Y233.120 Z8.000 F600.000
G1 X37.579 Y78.375 Z8.000 F600.000
G0 Z15.000
G0 Y73.892 Z15.000
G0 Y73.892 Z13.000
G1 X37.579 Y73.892 Z8.000 F600.000
G1 X196.807 Y233.120 Z8.000 F600.000
G0 Z15.000
G0 X201.290 Z15.000
G0 X201.290 Z13.000
G1 X201.290 Y233.120 Z8.000 F600.000
G1 X37.579 Y69.409 Z8.000 F600.000
G0 Z15.000
G0 Y64.926 Z15.000
G0 Y64.926 Z13.000
G1 X37.579 Y64.926 Z8.000 F600.000
G1 X205.773 Y233.120 Z8.000 F600.000
G0 Z15.000
G0 X210.256 Z15.000
G0 X210.256 Z13.000
G1 X210.256 Y233.120 Z8.000 F600.000
G1 X37.579 Y60.443 Z8.000 F600.000
G0 Z15.000
G0 Y55.960 Z15.000
G0 Y55.960 Z13.000
G1 X37.579 Y55.960 Z8.000 F600.000
G1 X214.739 Y233.120 Z8.000 F600.000
G0 Z15.000
G0 X219.222 Z15.000
G0 X219.222 Z13.000
G1 X219.222 Y233.120 Z8.000 F600.000
G1 X37.579 Y51.477 Z8.000 F600.000
G0 Z15.000
G0 Y46.994 Z15.000
G0 Y46.994 Z13.000
G1 X37.579 Y46.994 Z8.000 F600.000
G1 X223.705 Y233.120 Z8.000 F600.000
G0 Z15.000
G0 X228.188 Z15.000
G0 X228.188 Z13.000
G1 X228.188 Y233.120 Z8.000 F600.000
G1 X37.579 Y42.511 Z8.000 F600.000
G0 Z15.000
G0 Y38.028 Z15.000
G0 Y38.028 Z13.000
G1 X37.579 Y38.028 Z8.000 F600.000
G1 X232.671 Y233.120 Z8.000 F600.000
G0 Z15.000
G0 X234.409 Y230.375 Z15.000
G0 X234.409 Y230.375 Z13.000
G1 X234.409 Y230.375 Z8.000 F600.000
G1 X40.324 Y36.290 Z8.000 F600.000
G0 Z15.000
G0 X44.807 Z15.000
G0 X44.807 Z13.000
G1 X44.807 Y36.290 Z8.000 F600.000
G1 X234.409 Y225.892 Z8.000 F600.000
G0 Z15.000
G0 Y221.409 Z15.000
G0 Y221.409 Z13.000
G1 X234.409 Y221.409 Z8.000 F600.000
G1 X49.290 Y36.290 Z8.000 F600.000
G0 Z15.000
G0 X53.773 Z15.000
G0 X53.773 Z13.000
G1 X53.773 Y36.290 Z8.000 F600.000
G1 X234.409 Y216.926 Z8.000 F600.000
G0 Z15.000
G0 Y212.442 Z15.000
G0 Y212.442 Z13.000
G1 X234.409 Y212.442 Z8.000 F600.000
G1 X58.256 Y36.290 Z8.000 F600.000
G0 Z15.000
G0 X62.740 Z15.000
G0 X62.740 Z13.000
G1 X62.740 Y36.290 Z8.000 F600.000
G1 X234.409 Y207.959 Z8.000 F600.000
G0 Z15.000
G0 Y203.476 Z15.000
G0 Y203.476 Z13.000
G1 X234.409 Y203.476 Z8.000 F600.000
G1 X67.223 Y36.290 Z8.000 F600.000
G0 Z15.000
G0 X71.706 Z15.000
G0 X71.706 Z13.000
G1 X71.706 Y36.290 Z8.000 F600.000
G1 X234.409 Y198.993 Z8.000 F600.000
G0 Z15.000
G0 Y194.510 Z15.000
G0 Y194.510 Z13.000
G1 X234.409 Y194.510 Z8.000 F600.000
G1 X76.189 Y36.290 Z8.000 F600.000
G0 Z15.000
G0 X80.672 Z15.000
G0 X80.672 Z13.000
G1 X80.672 Y36.290 Z8.000 F600.000
G1 X234.409 Y190.027 Z8.000 F600.000
G0 Z15.000
G0 Y185.544 Z15.000
G0 Y185.544 Z13.000
G1 X234.409 Y185.544 Z8.000 F600.000
G1 X85.155 Y36.290 Z8.000 F600.000
G0 Z15.000
G0 X89.638 Z15.000
G0 X89.638 Z13.000
G1 X89.638 Y36.290 Z8.000 F600.000
G1 X234.409 Y181.061 Z8.000 F600.000
G0 Z15.000
G0 Y176.578 Z15.000
G0 Y176.578 Z13.000
G1 X234.409 Y176.578 Z8.000 F600.000
G1 X94.121 Y36.290 Z8.000 F600.000
G0 Z15.000
G0 X98.604 Z15.000
G0 X98.604 Z13.000
G1 X98.604 Y36.290 Z8.000 F600.000
G1 X234.409 Y172.095 Z8.000 F600.000
G0 Z15.000
G0 Y167.612 Z15.000
G0 Y167.612 Z13.000
G1 X234.409 Y167.612 Z8.000 F600.000
G1 X103.087 Y36.290 Z8.000 F600.000
G0 Z15.000
G0 X107.570 Z15.000
G0 X107.570 Z13.000
G1 X107.570 Y36.290 Z8.000 F600.000
G1 X234.409 Y163.129 Z8.000 F600.000
G0 Z15.000
G0 Y158.646 Z15.000
G0 Y158.646 Z13.000
G1 X234.409 Y158.646 Z8.000 F600.000
G1 X112.053 Y36.290 Z8.000 F600.000
G0 Z15.000
G0 X116.536 Z15.000
G0 X116.536 Z13.000
G1 X116.536 Y36.290 Z8.000 F600.000
G1 X234.409 Y154.163 Z8.000 F600.000
G0 Z15.000
G0 Y149.680 Z15.000
G0 Y149.680 Z13.000
G1 X234.409 Y149.680 Z8.000 F600.000
G1 X121.019 Y36.290 Z8.000 F600.000
G0 Z15.000
G0 X125.502 Z15.000
G0 X125.502 Z13.000
G1 X125.502 Y36.290 Z8.000 F600.000
G1 X234.409 Y145.197 Z8.000 F600.000
G0 Z15.000
G0 Y140.714 Z15.000
G0 Y140.714 Z13.000
G1 X234.409 Y140.714 Z8.000 F600.000
G1 X129.985 Y36.290 Z8.000 F600.000
G0 Z15.000
G0 X134.468 Z15.000
G0 X134.468 Z13.000
G1 X134.468 Y36.290 Z8.000 F600.000
G1 X234.409 Y136.230 Z8.000 F600.000
G0 Z15.000
G0 Y131.747 Z15.000
G0 Y131.747 Z13.000
G1 X234.409 Y131.747 Z8.000 F600.000
G1 X138.952 Y36.290 Z8.000 F600.000
G0 Z15.000
G0 X143.435 Z15.000
G0 X143.435 Z13.000
G1 X143.435 Y36.290 Z8.000 F600.000
G1 X234.409 Y127.264 Z8.000 F600.000
G0 Z15.000
G0 Y122.781 Z15.000
G0 Y122.781 Z13.000
G1 X234.409 Y122.781 Z8.000 F600.000
G1 X147.918 Y36.290 Z8.000 F600.000
G0 Z15.000
G0 X152.401 Z15.000
G0 X152.401 Z13.000
G1 X152.401 Y36.290 Z8.000 F600.000
G1 X234.409 Y118.298 Z8.000 F600.000
G0 Z15.000
G0 Y113.815 Z15.000
G0 Y113.815 Z13.000
G1 X234.409 Y113.815 Z8.000 F600.000
G1 X156.884 Y36.290 Z8.000 F600.000
G0 Z15.000
G0 X161.367 Z15.000
G0 X161.367 Z13.000
G1 X161.367 Y36.290 Z8.000 F600.000
G1 X234.409 Y109.332 Z8.000 F600.000
G0 Z15.000
G0 Y104.849 Z15.000
G0 Y104.849 Z13.000
G1 X234.409 Y104.849 Z8.000 F600.000
G1 X165.850 Y36.290 Z8.000 F600.000
G0 Z15.000
G0 X170.333 Z15.000
G0 X170.333 Z13.000
G1 X170.333 Y36.290 Z8.000 F600.000
G1 X234.409 Y100.366 Z8.000 F600.000
G0 Z15.000
G0 Y95.883 Z15.000
G0 Y95.883 Z13.000
G1 X234.409 Y95.883 Z8.000 F600.000
G1 X174.816 Y36.290 Z8.000 F600.000
G0 Z15.000
G0 X179.299 Z15.000
G0 X179.299 Z13.000
G1 X179.299 Y36.290 Z8.000 F600.000
G1 X234.409 Y91.400 Z8.000 F600.000
G0 Z15.000
G0 Y86.917 Z15.000
G0 Y86.917 Z13.000
G1 X234.409 Y86.917 Z8.000 F600.000
G1 X183.782 Y36.290 Z8.000 F600.000
G0 Z15.000
G0 X188.265 Z15.000
G0 X188.265 Z13.000
G1 X188.265 Y36.290 Z8.000 F600.000
G1 X234.409 Y82.434 Z8.000 F600.000
G0 Z15.000
G0 Y77.951 Z15.000
G0 Y77.951 Z13.000
G1 X234.409 Y77.951 Z8.000 F600.000
G1 X192.748 Y36.290 Z8.000 F600.000
G0 Z15.000
G0 X197.231 Z15.000
G0 X197.231 Z13.000
G1 X197.231 Y36.290 Z8.000 F600.000
G1 X234.409 Y73.468 Z8.000 F600.000
G0 Z15.000
G0 Y68.985 Z15.000
G0 Y68.985 Z13.000
G1 X234.409 Y68.985 Z8.000 F600.000
G1 X201.714 Y36.290 Z8.000 F600.000
G0 Z15.000
G0 X206.197 Z15.000
G0 X206.197 Z13.000
G1 X206.197 Y36.290 Z8.000 F600.000
G1 X234.409 Y64.502 Z8.000 F600.000
G0 Z15.000
G0 Y60.019 Z15.000
G0 Y60.019 Z13.000
G1 X234.409 Y60.019 Z8.000 F600.000
G1 X210.680 Y36.290 Z8.000 F600.000
G0 Z15.000
G0 X215.163 Z15.000
G0 X215.163 Z13.000
G1 X215.163 Y36.290 Z8.000 F600.000
G1 X234.409 Y55.535 Z8.000 F600.000
G0 Z15.000
G0 Y51.052 Z15.000
G0 Y51.052 Z13.000
G1 X234.409 Y51.052 Z8.000 F600.000
G1 X219.647 Y36.290 Z8.000 F600.000
G0 Z15.000
G0 X224.130 Z15.000
G0 X224.130 Z13.000
G1 X224.130 Y36.290 Z8.000 F600.000
G1 X234.409 Y46.569 Z8.000 F600.000
G0 Z15.000
G0 Y42.086 Z15.000
G0 Y42.086 Z13.000
G1 X234.409 Y42.086 Z8.000 F600.000
G1 X228.613 Y36.290 Z8.000 F600.000
G0 Z15.000
G0 X233.096 Z15.000
G0 X233.096 Z13.000
G1 X233.096 Y36.290 Z8.000 F600.000
G1 X234.409 Y37.603 Z8.000 F600.000
G1 X234.409 Y37.603 Z7.500 F600.000
G1 X233.096 Y36.290 Z7.500 F600.000
G0 Z15.000
G0 X228.613 Z15.000
G0 X228.613 Z13.000
G1 X228.613 Y36.290 Z7.500 F600.000
G1 X234.409 Y42.086 Z7.500 F600.000
G0 Z15.000
G0 Y46.569 Z15.000
G0 Y46.569 Z13.000
G1 X234.409 Y46.569 Z7.500 F600.000
G1 X224.130 Y36.290 Z7.500 F600.000
G0 Z15.000
G0 X219.647 Z15.000
G0 X219.647 Z13.000
G1 X219.647 Y36.290 Z7.500 F600.000
G1 X234.409 Y51.052 Z7.500 F600.000
G0 Z15.000
G0 Y55.535 Z15.000
G0 Y55.535 Z13.000
G1 X234.409 Y55.535 Z7.500 F600.000
G1 X215.163 Y36.290 Z7.500 F600.000
G0 Z15.000
G0 X210.680 Z15.000
G0 X210.680 Z13.000
G1 X210.680 Y36.290 Z7.500 F600.000
G1 X234.409 Y60.019 Z7.500 F600.000
G0 Z15.000
G0 Y64.502 Z15.000
G0 Y64.502 Z13.000
G1 X234.409 Y64.502 Z7.500 F600.000
G1 X206.197 Y36.290 Z7.500 F600.000
G0 Z15.000
G0 X201.714 Z15.000
G0 X201.714 Z13.000
G1 X201.714 Y36.290 Z7.500 F600.000
G1 X234.409 Y68.985 Z7.500 F600.000
G0 Z15.000
G0 Y73.468 Z15.000
G0 Y73.468 Z13.000
G1 X234.409 Y73.468 Z7.500 F600.000
G1 X197.231 Y36.290 Z7.500 F600.000
G0 Z15.000
G0 X192.748 Z15.000
G0 X192.748 Z13.000
G1 X192.748 Y36.290 Z7.500 F600.000
G1 X234.409 Y77.951 Z7.500 F600.000
G0 Z15.000
G0 Y82.434 Z15.000
G0 Y82.434 Z13.000
G1 X234.409 Y82.434 Z7.500 F600.000
G1 X188.265 Y36.290 Z7.500 F600.000
G0 Z15.000
G0 X183.782 Z15.000
G0 X183.782 Z13.000
G1 X183.782 Y36.290 Z7.500 F600.000
G1 X234.409 Y86.917 Z7.500 F600.000
G0 Z15.000
G0 Y91.400 Z15.000
G0 Y91.400 Z13.000
G1 X234.409 Y91.400 Z7.500 F600.000
G1 X179.299 Y36.290 Z7.500 F600.000
G0 Z15.000
G0 X174.816 Z15.000
G0 X174.816 Z13.000
G1 X174.816 Y36.290 Z7.500 F600.000
G1 X234.409 Y95.883 Z7.500 F600.000
G0 Z15.000
G0 Y100.366 Z15.000
G0 Y100.366 Z13.000
G1 X234.409 Y100.366 Z7.500 F600.000
G1 X170.333 Y36.290 Z7.500 F600.000
G0 Z15.000
G0 X165.850 Z15.000
G0 X165.850 Z13.000
G1 X165.850 Y36.290 Z7.500 F600.000
G1 X234.409 Y104.849 Z7.500 F600.000
G0 Z15.000
G0 Y109.332 Z15.000
G0 Y109.332 Z13.000
G1 X234.409 Y109.332 Z7.500 F600.000
G1 X161.367 Y36.290 Z7.500 F600.000
G0 Z15.000
G0 X156.884 Z15.000
G0 X156.884 Z13.000
G1 X156.884 Y36.290 Z7.500 F600.000
G1 X234.409 Y113.815 Z7.500 F600.000
G0 Z15.000
G0 Y118.298 Z15.000
G0 Y118.298 Z13.000
G1 X234.409 Y118.298 Z7.500 F600.000
G1 X152.401 Y36.290 Z7.500 F600.000
G0 Z15.000
G0 X147.918 Z15.000
G0 X147.918 Z13.000
G1 X147.918 Y36.290 Z7.500 F600.000
G1 X234.409 Y122.781 Z7.500 F600.000
G0 Z15.000
G0 Y127.264 Z15.000
G0 Y127.264 Z13.000
G1 X234.409 Y127.264 Z7.500 F600.000
G1 X143.435 Y36.290 Z7.500 F600.000
G0 Z15.000
G0 X138.952 Z15.000
G0 X138.952 Z13.000
G1 X138.952 Y36.290 Z7.500 F600.000
G1 X234.409 Y131.747 Z7.500 F600.000
G0 Z15.000
G0 Y136.230 Z15.000
G0 Y136.230 Z13.000
G1 X234.409 Y136.230 Z7.500 F600.000
G1 X134.468 Y36.290 Z7.500 F600.000
G0 Z15.000
G0 X129.985 Z15.000
G0 X129.985 Z13.000
G1 X129.985 Y36.290 Z7.500 F600.000
G1 X234.409 Y140.714 Z7.500 F600.000
G0 Z15.000
G0 Y145.197 Z15.000
G0 Y145.197 Z13.000
G1 X234.409 Y145.197 Z7.500 F600.000
G1 X125.502 Y36.290 Z7.500 F600.000
G0 Z15.000
G0 X121.019 Z15.000
G0 X121.019 Z13.000
G1 X121.019 Y36.290 Z7.500 F600.000
G1 X234.409 Y149.680 Z7.500 F600.000
G0 Z15.000
G0 Y154.163 Z15.000
G0 Y154.163 Z13.000
G1 X234.409 Y154.163 Z7.500 F600.000
G1 X116.536 Y36.290 Z7.500 F600.000
G0 Z15.000
G0 X112.053 Z15.000
G0 X112.053 Z13.000
G1 X112.053 Y36.290 Z7.500 F600.000
G1 X234.409 Y158.646 Z7.500 F600.000
G0 Z15.000
G0 Y163.129 Z15.000
G0 Y163.129 Z13.000
G1 X234.409 Y163.129 Z7.500 F600.000
G1 X107.570 Y36.290 Z7.500 F600.000
G0 Z15.000
G0 X103.087 Z15.000
G0 X103.087 Z13.000
G1 X103.087 Y36.290 Z7.500 F600.000
G1 X234.409 Y167.612 Z7.500 F600.000
G0 Z15.000
G0 Y172.095 Z15.000
G0 Y172.095 Z13.000
G1 X234.409 Y172.095 Z7.500 F600.000
G1 X98.604 Y36.290 Z7.500 F600.000
G0 Z15.000
G0 X94.121 Z15.000
G0 X94.121 Z13.000
G1 X94.121 Y36.290 Z7.500 F600.000
G1 X234.409 Y176.578 Z7.500 F600.000
G0 Z15.000
G0 Y181.061 Z15.000
G0 Y181.061 Z13.000
G1 X234.409 Y181.061 Z7.500 F600.000
G1 X89.638 Y36.290 Z7.500 F600.000
G0 Z15.000
G0 X85.155 Z15.000
G0 X85.155 Z13.000
G1 X85.155 Y36.290 Z7.500 F600.000
G1 X234.409 Y185.544 Z7.500 F600.000
G0 Z15.000
G0 Y190.027 Z15.000
G0 Y190.027 Z13.000
G1 X234.409 Y190.027 Z7.500 F600.000
G1 X80.672 Y36.290 Z7.500 F600.000
G0 Z15.000
G0 X76.189 Z15.000
G0 X76.189 Z13.000
G1 X76.189 Y36.290 Z7.500 F600.000
G1 X234.409 Y194.510 Z7.500 F600.000
G0 Z15.000
G0 Y198.993 Z15.000
G0 Y198.993 Z13.000
G1 X234.409 Y198.993 Z7.500 F600.000
G1 X71.706 Y36.290 Z7.500 F600.000
G0 Z15.000
G0 X67.223 Z15.000
G0 X67.223 Z13.000
G1 X67.223 Y36.290 Z7.500 F600.000
G1 X234.409 Y203.476 Z7.500 F600.000
G0 Z15.000
G0 Y207.959 Z15.000
G0 Y207.959 Z13.000
G1 X234.409 Y207.959 Z7.500 F600.000
G1 X62.740 Y36.290 Z7.500 F600.000
G0 Z15.000
G0 X58.256 Z15.000
G0 X58.256 Z13.000
G1 X58.256 Y36.290 Z7.500 F600.000
G1 X234.409 Y212.442 Z7.500 F600.000
G0 Z15.000
G0 Y216.926 Z15.000
G0 Y216.926 Z13.000
G1 X234.409 Y216.926 Z7.500 F600.000
G1 X53.773 Y36.290 Z7.500 F600.000
G0 Z15.000
G0 X49.290 Z15.000
G0 X49.290 Z13.000
G1 X49.290 Y36.290 Z7.500 F600.000
G1 X234.409 Y221.409 Z7.500 F600.000
G0 Z15.000
G0 Y225.892 Z15.000
G0 Y225.892 Z13.000
G1 X234.409 Y225.892 Z7.500 F600.000
G1 X44.807 Y36.290 Z7.500 F600.000
G0 Z15.000
G0 X40.324 Z15.000
G0 X40.324 Z13.000
G1 X40.324 Y36.290 Z7.500 F600.000
G1 X234.409 Y230.375 Z7.500 F600.000
G0 Z15.000
G0 X232.671 Y233.120 Z15.000
G0 X232.671 Y233.120 Z13.000
G1 X232.671 Y233.120 Z7.500 F600.000
G1 X37.579 Y38.028 Z7.500 F600.000
G0 Z15.000
G0 Y42.511 Z15.000
G0 Y42.511 Z13.000
G1 X37.579 Y42.511 Z7.500 F600.000
G1 X228.188 Y233.120 Z7.500 F600.000
G0 Z15.000
G0 X223.705 Z15.000
G0 X223.705 Z13.000
G1 X223.705 Y233.120 Z7.500 F600.000
G1 X37.579 Y46.994 Z7.500 F600.000
G0 Z15.000
G0 Y51.477 Z15.000
G0 Y51.477 Z13.000
G1 X37.579 Y51.477 Z7.500 F600.000
G1 X219.222 Y233.120 Z7.500 F600.000
G0 Z15.000
G0 X214.739 Z15.000
G0 X214.739 Z13.000
G1 X214.739 Y233.120 Z7.500 F600.000
G1 X37.579 Y55.960 Z7.500 F600.000
G0 Z15.000
G0 Y60.443 Z15.000
G0 Y60.443 Z13.000
G1 X37.579 Y60.443 Z7.500 F600.000
G1 X210.256 Y233.120 Z7.500 F600.000
G0 Z15.000
G0 X205.773 Z15.000
G0 X205.773 Z13.000
G1 X205.773 Y233.120 Z7.500 F600.000
G1 X37.579 Y64.926 Z7.500 F600.000
G0 Z15.000
G0 Y69.409 Z15.000
G0 Y69.409 Z13.000
G1 X37.579 Y69.409 Z7.500 F600.000
G1 X201.290 Y233.120 Z7.500 F600.000
G0 Z15.000
G0 X196.807 Z15.000
G0 X196.807 Z13.000
G1 X196.807 Y233.120 Z7.500 F600.000
G1 X37.579 Y73.892 Z7.500 F600.000
G0 Z15.000
G0 Y78.375 Z15.000
G0 Y78.375 Z13.000
G1 X37.579 Y78.375 Z7.500 F600.000
G1 X192.324 Y233.120 Z7.500 F600.000
G0 Z15.000
G0 X187.841 Z15.000
G0 X187.841 Z13.000
G1 X187.841 Y233.120 Z7.500 F600.000
G1 X37.579 Y82.858 Z7.500 F600.000
G0 Z15.000
G0 Y87.341 Z15.000
G0 Y87.341 Z13.000
G1 X37.579 Y87.341 Z7.500 F600.000
G1 X183.358 Y233.120 Z7.500 F600.000
G0 Z15.000
G0 X178.875 Z15.000
G0 X178.875 Z13.000
G1 X178.875 Y233.120 Z7.500 F600.000
G1 X37.579 Y91.824 Z7.500 F600.000
G0 Z15.000
G0 Y96.307 Z15.000
G0 Y96.307 Z13.000
G1 X37.579 Y96.307 Z7.500 F600.000
G1 X174.391 Y233.120 Z7.500 F600.000
G0 Z15.000
G0 X169.908 Z15.000
G0 X169.908 Z13.000
G1 X169.908 Y233.120 Z7.500 F600.000
G1 X37.579 Y100.791 Z7.500 F600.000
G0 Z15.000
G0 Y105.274 Z15.000
G0 Y105.274 Z13.000
G1 X37.579 Y105.274 Z7.500 F600.000
G1 X165.425 Y233.120 Z7.500 F600.000
G0 Z15.000
G0 X160.942 Z15.000
G0 X160.942 Z13.000
G1 X160.942 Y233.120 Z7.500 F600.000
G1 X37.579 Y109.757 Z7.500 F600.000
G0 Z15.000
G0 Y114.240 Z15.000
G0 Y114.240 Z13.000
G1 X37.579 Y114.240 Z7.500 F600.000
G1 X156.459 Y233.120 Z7.500 F600.000
G0 Z15.000
G0 X151.976 Z15.000
G0 X151.976 Z13.000
G1 X151.976 Y233.120 Z7.500 F600.000
G1 X37.579 Y118.723 Z7.500 F600.000
G0 Z15.000
G0 Y123.206 Z15.000
G0 Y123.206 Z13.000
G1 X37.579 Y123.206 Z7.500 F600.000
G1 X147.493 Y233.120 Z7.500 F600.000
G0 Z15.000
G0 X143.010 Z15.000
G0 X143.010 Z13.000
G1 X143.010 Y233.120 Z7.500 F600.000
G1 X37.579 Y127.689 Z7.500 F600.000
G0 Z15.000
G0 Y132.172 Z15.000
G0 Y132.172 Z13.000
G1 X37.579 Y132.172 Z7.500 F600.000
G1 X138.527 Y233.120 Z7.500 F600.000
G0 Z15.000
G0 X134.044 Z15.000
G0 X134.044 Z13.000
G1 X134.044 Y233.120 Z7.500 F600.000
G1 X37.579 Y136.655 Z7.500 F600.000
G0 Z15.000
G0 Y141.138 Z15.000
G0 Y141.138 Z13.000
G1 X37.579 Y141.138 Z7.500 F600.000
G1 X129.561 Y233.120 Z7.500 F600.000
G0 Z15.000
G0 X125.078 Z15.000
G0 X125.078 Z13.000
G1 X125.078 Y233.120 Z7.500 F600.000
G1 X37.579 Y145.621 Z7.500 F600.000
G0 Z15.000
G0 Y150.104 Z15.000
G0 Y150.104 Z13.000
G1 X37.579 Y150.104 Z7.500 F600.000
G1 X120.595 Y233.120 Z7.500 F600.000
G0 Z15.000
G0 X116.112 Z15.000
G0 X116.112 Z13.000
G1 X116.112 Y233.120 Z7.500 F600.000
G1 X37.579 Y154.587 Z7.500 F600.000
G0 Z15.000
G0 Y159.070 Z15.000
G0 Y159.070 Z13.000
G1 X37.579 Y159.070 Z7.500 F600.000
G1 X111.629 Y233.120 Z7.500 F600.000
G0 Z15.000
G0 X107.146 Z15.000
G0 X107.146 Z13.000
G1 X107.146 Y233.120 Z7.500 F600.000
G1 X37.579 Y163.553 Z7.500 F600.000
G0 Z15.000
G0 Y168.036 Z15.000
G0 Y168.036 Z13.000
G1 X37.579 Y168.036 Z7.500 F600.000
G1 X102.663 Y233.120 Z7.500 F600.000
G0 Z15.000
G0 X98.179 Z15.000
G0 X98.179 Z13.000
G1 X98.179 Y233.120 Z7.500 F600.000
G1 X37.579 Y172.519 Z7.500 F600.000
G0 Z15.000
G0 Y177.003 Z15.000
G0 Y177.003 Z13.000
G1 X37.579 Y177.003 Z7.500 F600.000
G1 X93.696 Y233.120 Z7.500 F600.000
G0 Z15.000
G0 X89.213 Z15.000
G0 X89.213 Z13.000
G1 X89.213 Y233.120 Z7.500 F600.000
G1 X37.579 Y181.486 Z7.500 F600.000
G0 Z15.000
G0 Y185.969 Z15.000
G0 Y185.969 Z13.000
G1 X37.579 Y185.969 Z7.500 F600.000
G1 X84.730 Y233.120 Z7.500 F600.000
G0 Z15.000
G0 X80.247 Z15.000
G0 X80.247 Z13.000
G1 X80.247 Y233.120 Z7.500 F600.000
G1 X37.579 Y190.452 Z7.500 F600.000
G0 Z15.000
G0 Y194.935 Z15.000
G0 Y194.935 Z13.000
G1 X37.579 Y194.935 Z7.500 F600.000
G1 X75.764 Y233.120 Z7.500 F600.000
G0 Z15.000
G0 X71.281 Z15.000
G0 X71.281 Z13.000
G1 X71.281 Y233.120 Z7.500 F600.000
G1 X37.579 Y199.418 Z7.500 F600.000
G0 Z15.000
G0 Y203.901 Z15.000
G0 Y203.901 Z13.000
G1 X37.579 Y203.901 Z7.500 F600.000
G1 X66.798 Y233.120 Z7.500 F600.000
G0 Z15.000
G0 X62.315 Z15.000
G0 X62.315 Z13.000
G1 X62.315 Y233.120 Z7.500 F600.000
G1 X37.579 Y208.384 Z7.500 F600.000
G0 Z15.000
G0 Y212.867 Z15.000
G0 Y212.867 Z13.000
G1 X37.579 Y212.867 Z7.500 F600.000
G1 X57.832 Y233.120 Z7.500 F600.000
G0 Z15.000
G0 X53.349 Z15.000
G0 X53.349 Z13.000
G1 X53.349 Y233.120 Z7.500 F600.000
G1 X37.579 Y217.350 Z7.500 F600.000
G0 Z15.000
G0 Y221.833 Z15.000
G0 Y221.833 Z13.000
G1 X37.579 Y221.833 Z7.500 F600.000
G1 X48.866 Y233.120 Z7.500 F600.000
G0 Z15.000
G0 X44.383 Z15.000
G0 X44.383 Z13.000
G1 X44.383 Y233.120 Z7.500 F600.000
G1 X37.579 Y226.316 Z7.500 F600.000
G0 Z15.000
G0 Y230.799 Z15.000
G0 Y230.799 Z13.000
G1 X37.579 Y230.799 Z7.500 F600.000
G1 X39.900 Y233.120 Z7.500 F600.000
G1 X39.900 Y233.120 Z7.000 F600.000
G1 X37.579 Y230.799 Z7.000 F600.000
G0 Z15.000
G0 Y226.316 Z15.000
G0 Y226.316 Z13.000
G1 X37.579 Y226.316 Z7.000 F600.000
G1 X44.383 Y233.120 Z7.000 F600.000
G0 Z15.000
G0 X48.866 Z15.000
G0 X48.866 Z13.000
G1 X48.866 Y233.120 Z7.000 F600.000
G1 X37.579 Y221.833 Z7.000 F600.000
G0 Z15.000
G0 Y217.350 Z15.000
G0 Y217.350 Z13.000
G1 X37.579 Y217.350 Z7.000 F600.000
G1 X53.349 Y233.120 Z7.000 F600.000
G0 Z15.000
G0 X57.832 Z15.000
G0 X57.832 Z13.000
G1 X57.832 Y233.120 Z7.000 F600.000
G1 X37.579 Y212.867 Z7.000 F600.000
G0 Z15.000
G0 Y208.384 Z15.000
G0 Y208.384 Z13.000
G1 X37.579 Y208.384 Z7.000 F600.000
G1 X62.315 Y233.120 Z7.000 F600.000
G0 Z15.000
G0 X66.798 Z15.000
G0 X66.798 Z13.000
G1 X66.798 Y233.120 Z7.000 F600.000
G1 X37.579 Y203.901 Z7.000 F600.000
G0 Z15.000
G0 Y199.418 Z15.000
G0 Y199.418 Z13.000
G1 X37.579 Y199.418 Z7.000 F600.000
G1 X71.281 Y233.120 Z7.000 F600.000
G0 Z15.000
G0 X75.764 Z15.000
G0 X75.764 Z13.000
G1 X75.764 Y233.120 Z7.000 F600.000
G1 X37.579 Y194.935 Z7.000 F600.000
G0 Z15.000
G0 Y190.452 Z15.000
G0 Y190.452 Z13.000
G1 X37.579 Y190.452 Z7.000 F600.000
G1 X80.247 Y233.120 Z7.000 F600.000
G0 Z15.000
G0 X84.730 Z15.000
G0 X84.730 Z13.000
G1 X84.730 Y233.120 Z7.000 F600.000
G1 X37.579 Y185.969 Z7.000 F600.000
G0 Z15.000
G0 Y181.486 Z15.000
G0 Y181.486 Z13.000
G1 X37.579 Y181.486 Z7.000 F600.000
G1 X89.213 Y233.120 Z7.000 F600.000
G0 Z15.000
G0 X93.696 Z15.000
G0 X93.696 Z13.000
G1 X93.696 Y233.120 Z7.000 F600.000
G1 X37.579 Y177.003 Z7.000 F600.000
G0 Z15.000
G0 Y172.519 Z15.000
G0 Y172.519 Z13.000
G1 X37.579 Y172.519 Z7.000 F600.000
G1 X98.179 Y233.120 Z7.000 F600.000
G0 Z15.000
G0 X102.663 Z15.000
G0 X102.663 Z13.000
G1 X102.663 Y233.120 Z7.000 F600.000
G1 X37.579 Y168.036 Z7.000 F600.000
G0 Z15.000
G0 Y163.553 Z15.000
G0 Y163.553 Z13.000
G1 X37.579 Y163.553 Z7.000 F600.000
G1 X107.146 Y233.120 Z7.000 F600.000
G0 Z15.000
G0 X111.629 Z15.000
G0 X111.629 Z13.000
G1 X111.629 Y233.120 Z7.000 F600.000
G1 X37.579 Y159.070 Z7.000 F600.000
G0 Z15.000
G0 Y154.587 Z15.000
G0 Y154.587 Z13.000
G1 X37.579 Y154.587 Z7.000 F600.000
G1 X116.112 Y233.120 Z7.000 F600.000
G0 Z15.000
G0 X120.595 Z15.000
G0 X120.595 Z13.000
G1 X120.595 Y233.120 Z7.000 F600.000
G1 X37.579 Y150.104 Z7.000 F600.000
G0 Z15.000
G0 Y145.621 Z15.000
G0 Y145.621 Z13.000
G1 X37.579 Y145.621 Z7.000 F600.000
G1 X125.078 Y233.120 Z7.000 F600.000
G0 Z15.000
G0 X129.561 Z15.000
G0 X129.561 Z13.000
G1 X129.561 Y233.120 Z7.000 F600.000
G1 X37.579 Y141.138 Z7.000 F600.000
G0 Z15.000
G0 Y136.655 Z15.000
G0 Y136.655 Z13.000
G1 X37.579 Y136.655 Z7.000 F600.000
G1 X134.044 Y233.120 Z7.000 F600.000
G0 Z15.000
G0 X138.527 Z15.000
G0 X138.527 Z13.000
G1 X138.527 Y233.120 Z7.000 F600.000
G1 X37.579 Y132.172 Z7.000 F600.000
G0 Z15.000
G0 Y127.689 Z15.000
G0 Y127.689 Z13.000
G1 X37.579 Y127.689 Z7.000 F600.000
G1 X143.010 Y233.120 Z7.000 F600.000
G0 Z15.000
G0 X147.493 Z15.000
G0 X147.493 Z13.000
G1 X147.493 Y233.120 Z7.000 F600.000
G1 X37.579 Y123.206 Z7.000 F600.000
G0 Z15.000
G0 Y118.723 Z15.000
G0 Y118.723 Z13.000
G1 X37.579 Y118.723 Z7.000 F600.000
G1 X151.976 Y233.120 Z7.000 F600.000
G0 Z15.000
G0 X156.459 Z15.000
G0 X156.459 Z13.000
G1 X156.459 Y233.120 Z7.000 F600.000
G1 X37.579 Y114.240 Z7.000 F600.000
G0 Z15.000
G0 Y109.757 Z15.000
G0 Y109.757 Z13.000
G1 X37.579 Y109.757 Z7.000 F600.000
G1 X160.942 Y233.120 Z7.000 F600.000
G0 Z15.000
G0 X165.425 Z15.000
G0 X165.425 Z13.000
G1 X165.425 Y233.120 Z7.000 F600.000
G1 X37.579 Y105.274 Z7.000 F600.000
G0 Z15.000
G0 Y100.791 Z15.000
G0 Y100.791 Z13.000
G1 X37.579 Y100.791 Z7.000 F600.000
G1 X169.908 Y233.120 Z7.000 F600.000
G0 Z15.000
G0 X174.391 Z15.000
G0 X174.391 Z13.000
G1 X174.391 Y233.120 Z7.000 F600.000
G1 X37.579 Y96.307 Z7.000 F600.000
G0 Z15.000
G0 Y91.824 Z15.000
G0 Y91.824 Z13.000
G1 X37.579 Y91.824 Z7.000 F600.000
G1 X178.875 Y233.120 Z7.000 F600.000
G0 Z15.000
G0 X183.358 Z15.000
G0 X183.358 Z13.000
G1 X183.358 Y233.120 Z7.000 F600.000
G1 X37.579 Y87.341 Z7.000 F600.000
G0 Z15.000
G0 Y82.858 Z15.000
G0 Y82.858 Z13.000
G1 X37.579 Y82.858 Z7.000 F600.000
G1 X187.841 Y233.120 Z7.000 F600.000
G0 Z15.000
G0 X192.324 Z15.000
G0 X192.324 Z13.000
G1 X192.324 Y233.120 Z7.000 F600.000
G1 X37.579 Y78.375 Z7.000 F600.000
G0 Z15.000
G0 Y73.892 Z15.000
G0 Y73.892 Z13.000
G1 X37.579 Y73.892 Z7.000 F600.000
G1 X196.807 Y233.120 Z7.000 F600.000
G0 Z15.000
G0 X201.290 Z15.000
G0 X201.290 Z13.000
G1 X201.290 Y233.120 Z7.000 F600.000
G1 X37.579 Y69.409 Z7.000 F600.000
G0 Z15.000
G0 Y64.926 Z15.000
G0 Y64.926 Z13.000
G1 X37.579 Y64.926 Z7.000 F600.000
G1 X205.773 Y233.120 Z7.000 F600.000
G0 Z15.000
G0 X210.256 Z15.000
G0 X210.256 Z13.000
G1 X210.256 Y233.120 Z7.000 F600.000
G1 X37.579 Y60.443 Z7.000 F600.000
G0 Z15.000
G0 Y55.960 Z15.000
G0 Y55.960 Z13.000
G1 X37.579 Y55.960 Z7.000 F600.000
G1 X214.739 Y233.120 Z7.000 F600.000
G0 Z15.000
G0 X219.222 Z15.000
G0 X219.222 Z13.000
G1 X219.222 Y233.120 Z7.000 F600.000
G1 X37.579 Y51.477 Z7.000 F600.000
G0 Z15.000
G0 Y46.994 Z15.000
G0 Y46.994 Z13.000
G1 X37.579 Y46.994 Z7.000 F600.000
G1 X223.705 Y233.120 Z7.000 F600.000
G0 Z15.000
G0 X228.188 Z15.000
G0 X228.188 Z13.000
G1 X228.188 Y233.120 Z7.000 F600.000
G1 X37.579 Y42.511 Z7.000 F600.000
G0 Z15.000
G0 Y38.028 Z15.000
G0 Y38.028 Z13.000
G1 X37.579 Y38.028 Z7.000 F600.000
G1 X232.671 Y233.120 Z7.000 F600.000
G0 Z15.000
G0 X234.409 Y230.375 Z15.000
G0 X234.409 Y230.375 Z13.000
G1 X234.409 Y230.375 Z7.000 F600.000
G1 X40.324 Y36.290 Z7.000 F600.000
G0 Z15.000
G0 X44.807 Z15.000
G0 X44.807 Z13.000
G1 X44.807 Y36.290 Z7.000 F600.000
G1 X234.409 Y225.892 Z7.000 F600.000
G0 Z15.000
G0 Y221.409 Z15.000
G0 Y221.409 Z13.000
G1 X234.409 Y221.409 Z7.000 F600.000
G1 X49.290 Y36.290 Z7.000 F600.000
G0 Z15.000
G0 X53.773 Z15.000
G0 X53.773 Z13.000
G1 X53.773 Y36.290 Z7.000 F600.000
G1 X234.409 Y216.926 Z7.000 F600.000
G0 Z15.000
G0 Y212.442 Z15.000
G0 Y212.442 Z13.000
G1 X234.409 Y212.442 Z7.000 F600.000
G1 X58.256 Y36.290 Z7.000 F600.000
G0 Z15.000
G0 X62.740 Z15.000
G0 X62.740 Z13.000
G1 X62.740 Y36.290 Z7.000 F600.000
G1 X234.409 Y207.959 Z7.000 F600.000
G0 Z15.000
G0 Y203.476 Z15.000
G0 Y203.476 Z13.000
G1 X234.409 Y203.476 Z7.000 F600.000
G1 X67.223 Y36.290 Z7.000 F600.000
G0 Z15.000
G0 X71.706 Z15.000
G0 X71.706 Z13.000
G1 X71.706 Y36.290 Z7.000 F600.000
G1 X234.409 Y198.993 Z7.000 F600.000
G0 Z15.000
G0 Y194.510 Z15.000
G0 Y194.510 Z13.000
G1 X234.409 Y194.510 Z7.000 F600.000
G1 X76.189 Y36.290 Z7.000 F600.000
G0 Z15.000
G0 X80.672 Z15.000
G0 X80.672 Z13.000
G1 X80.672 Y36.290 Z7.000 F600.000
G1 X234.409 Y190.027 Z7.000 F600.000
G0 Z15.000
G0 Y185.544 Z15.000
G0 Y185.544 Z13.000
G1 X234.409 Y185.544 Z7.000 F600.000
G1 X85.155 Y36.290 Z7.000 F600.000
G0 Z15.000
G0 X89.638 Z15.000
G0 X89.638 Z13.000
G1 X89.638 Y36.290 Z7.000 F600.000
G1 X234.409 Y181.061 Z7.000 F600.000
G0 Z15.000
G0 Y176.578 Z15.000
G0 Y176.578 Z13.000
G1 X234.409 Y176.578 Z7.000 F600.000
G1 X94.121 Y36.290 Z7.000 F600.000
G0 Z15.000
G0 X98.604 Z15.000
G0 X98.604 Z13.000
G1 X98.604 Y36.290 Z7.000 F600.000
G1 X234.409 Y172.095 Z7.000 F600.000
G0 Z15.000
G0 Y167.612 Z15.000
G0 Y167.612 Z13.000
G1 X234.409 Y167.612 Z7.000 F600.000
G1 X103.087 Y36.290 Z7.000 F600.000
G0 Z15.000
G0 X107.570 Z15.000
G0 X107.570 Z13.000
G1 X107.570 Y36.290 Z7.000 F600.000
G1 X234.409 Y163.129 Z7.000 F600.000
G0 Z15.000
G0 Y158.646 Z15.000
G0 Y158.646 Z13.000
G1 X234.409 Y158.646 Z7.000 F600.000
G1 X112.053 Y36.290 Z7.000 F600.000
G0 Z15.000
G0 X116.536 Z15.000
G0 X116.536 Z13.000
G1 X116.536 Y36.290 Z7.000 F600.000
G1 X234.409 Y154.163 Z7.000 F600.000
G0 Z15.000
G0 Y149.680 Z15.000
G0 Y149.680 Z13.000
G1 X234.409 Y149.680 Z7.000 F600.000
G1 X121.019 Y36.290 Z7.000 F600.000
G0 Z15.000
G0 X125.502 Z15.000
G0 X125.502 Z13.000
G1 X125.502 Y36.290 Z7.000 F600.000
G1 X234.409 Y145.197 Z7.000 F600.000
G0 Z15.000
G0 Y140.714 Z15.000
G0 Y140.714 Z13.000
G1 X234.409 Y140.714 Z7.000 F600.000
G1 X129.985 Y36.290 Z7.000 F600.000
G0 Z15.000
G0 X134.468 Z15.000
G0 X134.468 Z13.000
G1 X134.468 Y36.290 Z7.000 F600.000
G1 X234.409 Y136.230 Z7.000 F600.000
G0 Z15.000
G0 Y131.747 Z15.000
G0 Y131.747 Z13.000
G1 X234.409 Y131.747 Z7.000 F600.000
G1 X138.952 Y36.290 Z7.000 F600.000
G0 Z15.000
G0 X143.435 Z15.000
G0 X143.435 Z13.000
G1 X143.435 Y36.290 Z7.000 F600.000
G1 X234.409 Y127.264 Z7.000 F600.000
G0 Z15.000
G0 Y122.781 Z15.000
G0 Y122.781 Z13.000
G1 X234.409 Y122.781 Z7.000 F600.000
G1 X147.918 Y36.290 Z7.000 F600.000
G0 Z15.000
G0 X152.401 Z15.000
G0 X152.401 Z13.000
G1 X152.401 Y36.290 Z7.000 F600.000
G1 X234.409 Y118.298 Z7.000 F600.000
G0 Z15.000
G0 Y113.815 Z15.000
G0 Y113.815 Z13.000
G1 X234.409 Y113.815 Z7.000 F600.000
G1 X156.884 Y36.290 Z7.000 F600.000
G0 Z15.000
G0 X161.367 Z15.000
G0 X161.367 Z13.000
G1 X161.367 Y36.290 Z7.000 F600.000
G1 X234.409 Y109.332 Z7.000 F600.000
G0 Z15.000
G0 Y104.849 Z15.000
G0 Y104.849 Z13.000
G1 X234.409 Y104.849 Z7.000 F600.000
G1 X165.850 Y36.290 Z7.000 F600.000
G0 Z15.000
G0 X170.333 Z15.000
G0 X170.333 Z13.000
G1 X170.333 Y36.290 Z7.000 F600.000
G1 X234.409 Y100.366 Z7.000 F600.000
G0 Z15.000
G0 Y95.883 Z15.000
G0 Y95.883 Z13.000
G1 X234.409 Y95.883 Z7.000 F600.000
G1 X174.816 Y36.290 Z7.000 F600.000
G0 Z15.000
G0 X179.299 Z15.000
G0 X179.299 Z13.000
G1 X179.299 Y36.290 Z7.000 F600.000
G1 X234.409 Y91.400 Z7.000 F600.000
G0 Z15.000
G0 Y86.917 Z15.000
G0 Y86.917 Z13.000
G1 X234.409 Y86.917 Z7.000 F600.000
G1 X183.782 Y36.290 Z7.000 F600.000
G0 Z15.000
G0 X188.265 Z15.000
G0 X188.265 Z13.000
G1 X188.265 Y36.290 Z7.000 F600.000
G1 X234.409 Y82.434 Z7.000 F600.000
G0 Z15.000
G0 Y77.951 Z15.000
G0 Y77.951 Z13.000
G1 X234.409 Y77.951 Z7.000 F600.000
G1 X192.748 Y36.290 Z7.000 F600.000
G0 Z15.000
G0 X197.231 Z15.000
G0 X197.231 Z13.000
G1 X197.231 Y36.290 Z7.000 F600.000
G1 X234.409 Y73.468 Z7.000 F600.000
G0 Z15.000
G0 Y68.985 Z15.000
G0 Y68.985 Z13.000
G1 X234.409 Y68.985 Z7.000 F600.000
G1 X201.714 Y36.290 Z7.000 F600.000
G0 Z15.000
G0 X206.197 Z15.000
G0 X206.197 Z13.000
G1 X206.197 Y36.290 Z7.000 F600.000
G1 X234.409 Y64.502 Z7.000 F600.000
G0 Z15.000
G0 Y60.019 Z15.000
G0 Y60.019 Z13.000
G1 X234.409 Y60.019 Z7.000 F600.000
G1 X210.680 Y36.290 Z7.000 F600.000
G0 Z15.000
G0 X215.163 Z15.000
G0 X215.163 Z13.000
G1 X215.163 Y36.290 Z7.000 F600.000
G1 X234.409 Y55.535 Z7.000 F600.000
G0 Z15.000
G0 Y51.052 Z15.000
G0 Y51.052 Z13.000
G1 X234.409 Y51.052 Z7.000 F600.000
G1 X219.647 Y36.290 Z7.000 F600.000
G0 Z15.000
G0 X224.130 Z15.000
G0 X224.130 Z13.000
G1 X224.130 Y36.290 Z7.000 F600.000
G1 X234.409 Y46.569 Z7.000 F600.000
G0 Z15.000
G0 Y42.086 Z15.000
G0 Y42.086 Z13.000
G1 X234.409 Y42.086 Z7.000 F600.000
G1 X228.613 Y36.290 Z7.000 F600.000
G0 Z15.000
G0 X233.096 Z15.000
G0 X233.096 Z13.000
G1 X233.096 Y36.290 Z7.000 F600.000
G1 X234.409 Y37.603 Z7.000 F600.000
G1 X234.409 Y37.603 Z6.500 F600.000
G1 X233.096 Y36.290 Z6.500 F600.000
G0 Z15.000
G0 X228.613 Z15.000
G0 X228.613 Z13.000
G1 X228.613 Y36.290 Z6.500 F600.000
G1 X234.409 Y42.086 Z6.500 F600.000
G0 Z15.000
G0 Y46.569 Z15.000
G0 Y46.569 Z13.000
G1 X234.409 Y46.569 Z6.500 F600.000
G1 X224.130 Y36.290 Z6.500 F600.000
G0 Z15.000
G0 X219.647 Z15.000
G0 X219.647 Z13.000
G1 X219.647 Y36.290 Z6.500 F600.000
G1 X234.409 Y51.052 Z6.500 F600.000
G0 Z15.000
G0 Y55.535 Z15.000
G0 Y55.535 Z13.000
G1 X234.409 Y55.535 Z6.500 F600.000
G1 X215.163 Y36.290 Z6.500 F600.000
G0 Z15.000
G0 X210.680 Z15.000
G0 X210.680 Z13.000
G1 X210.680 Y36.290 Z6.500 F600.000
G1 X234.409 Y60.019 Z6.500 F600.000
G0 Z15.000
G0 Y64.502 Z15.000
G0 Y64.502 Z13.000
G1 X234.409 Y64.502 Z6.500 F600.000
G1 X206.197 Y36.290 Z6.500 F600.000
G0 Z15.000
G0 X201.714 Z15.000
G0 X201.714 Z13.000
G1 X201.714 Y36.290 Z6.500 F600.000
G1 X234.409 Y68.985 Z6.500 F600.000
G0 Z15.000
G0 Y73.468 Z15.000
G0 Y73.468 Z13.000
G1 X234.409 Y73.468 Z6.500 F600.000
G1 X197.231 Y36.290 Z6.500 F600.000
G0 Z15.000
G0 X192.748 Z15.000
G0 X192.748 Z13.000
G1 X192.748 Y36.290 Z6.500 F600.000
G1 X234.409 Y77.951 Z6.500 F600.000
G0 Z15.000
G0 Y82.434 Z15.000
G0 Y82.434 Z13.000
G1 X234.409 Y82.434 Z6.500 F600.000
G1 X188.265 Y36.290 Z6.500 F600.000
G0 Z15.000
G0 X183.782 Z15.000
G0 X183.782 Z13.000
G1 X183.782 Y36.290 Z6.500 F600.000
G1 X234.409 Y86.917 Z6.500 F600.000
G0 Z15.000
G0 Y91.400 Z15.000
G0 Y91.400 Z13.000
G1 X234.409 Y91.400 Z6.500 F600.000
G1 X179.299 Y36.290 Z6.500 F600.000
G0 Z15.000
G0 X174.816 Z15.000
G0 X174.816 Z13.000
G1 X174.816 Y36.290 Z6.500 F600.000
G1 X234.409 Y95.883 Z6.500 F600.000
G0 Z15.000
G0 Y100.366 Z15.000
G0 Y100.366 Z13.000
G1 X234.409 Y100.366 Z6.500 F600.000
G1 X170.333 Y36.290 Z6.500 F600.000
G0 Z15.000
G0 X165.850 Z15.000
G0 X165.850 Z13.000
G1 X165.850 Y36.290 Z6.500 F600.000
G1 X234.409 Y104.849 Z6.500 F600.000
G0 Z15.000
G0 Y109.332 Z15.000
G0 Y109.332 Z13.000
G1 X234.409 Y109.332 Z6.500 F600.000
G1 X161.367 Y36.290 Z6.500 F600.000
G0 Z15.000
G0 X156.884 Z15.000
G0 X156.884 Z13.000
G1 X156.884 Y36.290 Z6.500 F600.000
G1 X234.409 Y113.815 Z6.500 F600.000
G0 Z15.000
G0 Y118.298 Z15.000
G0 Y118.298 Z13.000
G1 X234.409 Y118.298 Z6.500 F600.000
G1 X152.401 Y36.290 Z6.500 F600.000
G0 Z15.000
G0 X147.918 Z15.000
G0 X147.918 Z13.000
G1 X147.918 Y36.290 Z6.500 F600.000
G1 X234.409 Y122.781 Z6.500 F600.000
G0 Z15.000
G0 Y127.264 Z15.000
G0 Y127.264 Z13.000
G1 X234.409 Y127.264 Z6.500 F600.000
G1 X143.435 Y36.290 Z6.500 F600.000
G0 Z15.000
G0 X138.952 Z15.000
G0 X138.952 Z13.000
G1 X138.952 Y36.290 Z6.500 F600.000
G1 X234.409 Y131.747 Z6.500 F600.000
G0 Z15.000
G0 Y136.230 Z15.000
G0 Y136.230 Z13.000
G1 X234.409 Y136.230 Z6.500 F600.000
G1 X134.468 Y36.290 Z6.500 F600.000
G0 Z15.000
G0 X129.985 Z15.000
G0 X129.985 Z13.000
G1 X129.985 Y36.290 Z6.500 F600.000
G1 X234.409 Y140.714 Z6.500 F600.000
G0 Z15.000
G0 Y145.197 Z15.000
G0 Y145.197 Z13.000
G1 X234.409 Y145.197 Z6.500 F600.000
G1 X125.502 Y36.290 Z6.500 F600.000
G0 Z15.000
G0 X121.019 Z15.000
G0 X121.019 Z13.000
G1 X121.019 Y36.290 Z6.500 F600.000
G1 X234.409 Y149.680 Z6.500 F600.000
G0 Z15.000
G0 Y154.163 Z15.000
G0 Y154.163 Z13.000
G1 X234.409 Y154.163 Z6.500 F600.000
G1 X116.536 Y36.290 Z6.500 F600.000
G0 Z15.000
G0 X112.053 Z15.000
G0 X112.053 Z13.000
G1 X112.053 Y36.290 Z6.500 F600.000
G1 X234.409 Y158.646 Z6.500 F600.000
G0 Z15.000
G0 Y163.129 Z15.000
G0 Y163.129 Z13.000
G1 X234.409 Y163.129 Z6.500 F600.000
G1 X107.570 Y36.290 Z6.500 F600.000
G0 Z15.000
G0 X103.087 Z15.000
G0 X103.087 Z13.000
G1 X103.087 Y36.290 Z6.500 F600.000
G1 X234.409 Y167.612 Z6.500 F600.000
G0 Z15.000
G0 Y172.095 Z15.000
G0 Y172.095 Z13.000
G1 X234.409 Y172.095 Z6.500 F600.000
G1 X98.604 Y36.290 Z6.500 F600.000
G0 Z15.000
G0 X94.121 Z15.000
G0 X94.121 Z13.000
G1 X94.121 Y36.290 Z6.500 F600.000
G1 X234.409 Y176.578 Z6.500 F600.000
G0 Z15.000
G0 Y181.061 Z15.000
G0 Y181.061 Z13.000
G1 X234.409 Y181.061 Z6.500 F600.000
G1 X89.638 Y36.290 Z6.500 F600.000
G0 Z15.000
G0 X85.155 Z15.000
G0 X85.155 Z13.000
G1 X85.155 Y36.290 Z6.500 F600.000
G1 X234.409 Y185.544 Z6.500 F600.000
G0 Z15.000
G0 Y190.027 Z15.000
G0 Y190.027 Z13.000
G1 X234.409 Y190.027 Z6.500 F600.000
G1 X80.672 Y36.290 Z6.500 F600.000
G0 Z15.000
G0 X76.189 Z15.000
G0 X76.189 Z13.000
G1 X76.189 Y36.290 Z6.500 F600.000
G1 X234.409 Y194.510 Z6.500 F600.000
G0 Z15.000
G0 Y198.993 Z15.000
G0 Y198.993 Z13.000
G1 X234.409 Y198.993 Z6.500 F600.000
G1 X71.706 Y36.290 Z6.500 F600.000
G0 Z15.000
G0 X67.223 Z15.000
G0 X67.223 Z13.000
G1 X67.223 Y36.290 Z6.500 F600.000
G1 X234.409 Y203.476 Z6.500 F600.000
G0 Z15.000
G0 Y207.959 Z15.000
G0 Y207.959 Z13.000
G1 X234.409 Y207.959 Z6.500 F600.000
G1 X62.740 Y36.290 Z6.500 F600.000
G0 Z15.000
G0 X58.256 Z15.000
G0 X58.256 Z13.000
G1 X58.256 Y36.290 Z6.500 F600.000
G1 X234.409 Y212.442 Z6.500 F600.000
G0 Z15.000
G0 Y216.926 Z15.000
G0 Y216.926 Z13.000
G1 X234.409 Y216.926 Z6.500 F600.000
G1 X53.773 Y36.290 Z6.500 F600.000
G0 Z15.000
G0 X49.290 Z15.000
G0 X49.290 Z13.000
G1 X49.290 Y36.290 Z6.500 F600.000
G1 X234.409 Y221.409 Z6.500 F600.000
G0 Z15.000
G0 Y225.892 Z15.000
G0 Y225.892 Z13.000
G1 X234.409 Y225.892 Z6.500 F600.000
G1 X44.807 Y36.290 Z6.500 F600.000
G0 Z15.000
G0 X40.324 Z15.000
G0 X40.324 Z13.000
G1 X40.324 Y36.290 Z6.500 F600.000
G1 X234.409 Y230.375 Z6.500 F600.000
G0 Z15.000
G0 X232.671 Y233.120 Z15.000
G0 X232.671 Y233.120 Z13.000
G1 X232.671 Y233.120 Z6.500 F600.000
G1 X37.579 Y38.028 Z6.500 F600.000
G0 Z15.000
G0 Y42.511 Z15.000
G0 Y42.511 Z13.000
G1 X37.579 Y42.511 Z6.500 F600.000
G1 X228.188 Y233.120 Z6.500 F600.000
G0 Z15.000
G0 X223.705 Z15.000
G0 X223.705 Z13.000
G1 X223.705 Y233.120 Z6.500 F600.000
G1 X37.579 Y46.994 Z6.500 F600.000
G0 Z15.000
G0 Y51.477 Z15.000
G0 Y51.477 Z13.000
G1 X37.579 Y51.477 Z6.500 F600.000
G1 X219.222 Y233.120 Z6.500 F600.000
G0 Z15.000
G0 X214.739 Z15.000
G0 X214.739 Z13.000
G1 X214.739 Y233.120 Z6.500 F600.000
G1 X37.579 Y55.960 Z6.500 F600.000
G0 Z15.000
G0 Y60.443 Z15.000
G0 Y60.443 Z13.000
G1 X37.579 Y60.443 Z6.500 F600.000
G1 X210.256 Y233.120 Z6.500 F600.000
G0 Z15.000
G0 X205.773 Z15.000
G0 X205.773 Z13.000
G1 X205.773 Y233.120 Z6.500 F600.000
G1 X37.579 Y64.926 Z6.500 F600.000
G0 Z15.000
G0 Y69.409 Z15.000
G0 Y69.409 Z13.000
G1 X37.579 Y69.409 Z6.500 F600.000
G1 X201.290 Y233.120 Z6.500 F600.000
G0 Z15.000
G0 X196.807 Z15.000
G0 X196.807 Z13.000
G1 X196.807 Y233.120 Z6.500 F600.000
G1 X37.579 Y73.892 Z6.500 F600.000
G0 Z15.000
G0 Y78.375 Z15.000
G0 Y78.375 Z13.000
G1 X37.579 Y78.375 Z6.500 F600.000
G1 X192.324 Y233.120 Z6.500 F600.000
G0 Z15.000
G0 X187.841 Z15.000
G0 X187.841 Z13.000
G1 X187.841 Y233.120 Z6.500 F600.000
G1 X37.579 Y82.858 Z6.500 F600.000
G0 Z15.000
G0 Y87.341 Z15.000
G0 Y87.341 Z13.000
G1 X37.579 Y87.341 Z6.500 F600.000
G1 X183.358 Y233.120 Z6.500 F600.000
G0 Z15.000
G0 X178.875 Z15.000
G0 X178.875 Z13.000
G1 X178.875 Y233.120 Z6.500 F600.000
G1 X37.579 Y91.824 Z6.500 F600.000
G0 Z15.000
G0 Y96.307 Z15.000
G0 Y96.307 Z13.000
G1 X37.579 Y96.307 Z6.500 F600.000
G1 X174.391 Y233.120 Z6.500 F600.000
G0 Z15.000
G0 X169.908 Z15.000
G0 X169.908 Z13.000
G1 X169.908 Y233.120 Z6.500 F600.000
G1 X37.579 Y100.791 Z6.500 F600.000
G0 Z15.000
G0 Y105.274 Z15.000
G0 Y105.274 Z13.000
G1 X37.579 Y105.274 Z6.500 F600.000
G1 X165.425 Y233.120 Z6.500 F600.000
G0 Z15.000
G0 X160.942 Z15.000
G0 X160.942 Z13.000
G1 X160.942 Y233.120 Z6.500 F600.000
G1 X37.579 Y109.757 Z6.500 F600.000
G0 Z15.000
G0 Y114.240 Z15.000
G0 Y114.240 Z13.000
G1 X37.579 Y114.240 Z6.500 F600.000
G1 X156.459 Y233.120 Z6.500 F600.000
G0 Z15.000
G0 X151.976 Z15.000
G0 X151.976 Z13.000
G1 X151.976 Y233.120 Z6.500 F600.000
G1 X37.579 Y118.723 Z6.500 F600.000
G0 Z15.000
G0 Y123.206 Z15.000
G0 Y123.206 Z13.000
G1 X37.579 Y123.206 Z6.500 F600.000
G1 X147.493 Y233.120 Z6.500 F600.000
G0 Z15.000
G0 X143.010 Z15.000
G0 X143.010 Z13.000
G1 X143.010 Y233.120 Z6.500 F600.000
G1 X37.579 Y127.689 Z6.500 F600.000
G0 Z15.000
G0 Y132.172 Z15.000
G0 Y132.172 Z13.000
G1 X37.579 Y132.172 Z6.500 F600.000
G1 X138.527 Y233.120 Z6.500 F600.000
G0 Z15.000
G0 X134.044 Z15.000
G0 X134.044 Z13.000
G1 X134.044 Y233.120 Z6.500 F600.000
G1 X37.579 Y136.655 Z6.500 F600.000
G0 Z15.000
G0 Y141.138 Z15.000
G0 Y141.138 Z13.000
G1 X37.579 Y141.138 Z6.500 F600.000
G1 X129.561 Y233.120 Z6.500 F600.000
G0 Z15.000
G0 X125.078 Z15.000
G0 X125.078 Z13.000
G1 X125.078 Y233.120 Z6.500 F600.000
G1 X37.579 Y145.621 Z6.500 F600.000
G0 Z15.000
G0 Y150.104 Z15.000
G0 Y150.104 Z13.000
G1 X37.579 Y150.104 Z6.500 F600.000
G1 X120.595 Y233.120 Z6.500 F600.000
G0 Z15.000
G0 X116.112 Z15.000
G0 X116.112 Z13.000
G1 X116.112 Y233.120 Z6.500 F600.000
G1 X37.579 Y154.587 Z6.500 F600.000
G0 Z15.000
G0 Y159.070 Z15.000
G0 Y159.070 Z13.000
G1 X37.579 Y159.070 Z6.500 F600.000
G1 X111.629 Y233.120 Z6.500 F600.000
G0 Z15.000
G0 X107.146 Z15.000
G0 X107.146 Z13.000
G1 X107.146 Y233.120 Z6.500 F600.000
G1 X37.579 Y163.553 Z6.500 F600.000
G0 Z15.000
G0 Y168.036 Z15.000
G0 Y168.036 Z13.000
G1 X37.579 Y168.036 Z6.500 F600.000
G1 X102.663 Y233.120 Z6.500 F600.000
G0 Z15.000
G0 X98.179 Z15.000
G0 X98.179 Z13.000
G1 X98.179 Y233.120 Z6.500 F600.000
G1 X37.579 Y172.519 Z6.500 F600.000
G0 Z15.000
G0 Y177.003 Z15.000
G0 Y177.003 Z13.000
G1 X37.579 Y177.003 Z6.500 F600.000
G1 X93.696 Y233.120 Z6.500 F600.000
G0 Z15.000
G0 X89.213 Z15.000
G0 X89.213 Z13.000
G1 X89.213 Y233.120 Z6.500 F600.000
G1 X37.579 Y181.486 Z6.500 F600.000
G0 Z15.000
G0 Y185.969 Z15.000
G0 Y185.969 Z13.000
G1 X37.579 Y185.969 Z6.500 F600.000
G1 X84.730 Y233.120 Z6.500 F600.000
G0 Z15.000
G0 X80.247 Z15.000
G0 X80.247 Z13.000
G1 X80.247 Y233.120 Z6.500 F600.000
G1 X37.579 Y190.452 Z6.500 F600.000
G0 Z15.000
G0 Y194.935 Z15.000
G0 Y194.935 Z13.000
G1 X37.579 Y194.935 Z6.500 F600.000
G1 X75.764 Y233.120 Z6.500 F600.000
G0 Z15.000
G0 X71.281 Z15.000
G0 X71.281 Z13.000
G1 X71.281 Y233.120 Z6.500 F600.000
G1 X37.579 Y199.418 Z6.500 F600.000
G0 Z15.000
G0 Y203.901 Z15.000
G0 Y203.901 Z13.000
G1 X37.579 Y203.901 Z6.500 F600.000
G1 X66.798 Y233.120 Z6.500 F600.000
G0 Z15.000
G0 X62.315 Z15.000
G0 X62.315 Z13.000
G1 X62.315 Y233.120 Z6.500 F600.000
G1 X37.579 Y208.384 Z6.500 F600.000
G0 Z15.000
G0 Y212.867 Z15.000
G0 Y212.867 Z13.000
G1 X37.579 Y212.867 Z6.500 F600.000
G1 X57.832 Y233.120 Z6.500 F600.000
G0 Z15.000
G0 X53.349 Z15.000
G0 X53.349 Z13.000
G1 X53.349 Y233.120 Z6.500 F600.000
G1 X37.579 Y217.350 Z6.500 F600.000
G0 Z15.000
G0 Y221.833 Z15.000
G0 Y221.833 Z13.000
G1 X37.579 Y221.833 Z6.500 F600.000
G1 X48.866 Y233.120 Z6.500 F600.000
G0 Z15.000
G0 X44.383 Z15.000
G0 X44.383 Z13.000
G1 X44.383 Y233.120 Z6.500 F600.000
G1 X37.579 Y226.316 Z6.500 F600.000
G0 Z15.000
G0 Y230.799 Z15.000
G0 Y230.799 Z13.000
G1 X37.579 Y230.799 Z6.500 F600.000
G1 X39.900 Y233.120 Z6.500 F600.000
G1 X39.900 Y233.120 Z6.000 F600.000
G1 X37.579 Y230.799 Z6.000 F600.000
G0 Z15.000
G0 Y226.316 Z15.000
G0 Y226.316 Z13.000
G1 X37.579 Y226.316 Z6.000 F600.000
G1 X44.383 Y233.120 Z6.000 F600.000
G0 Z15.000
G0 X48.866 Z15.000
G0 X48.866 Z13.000
G1 X48.866 Y233.120 Z6.000 F600.000
G1 X37.579 Y221.833 Z6.000 F600.000
G0 Z15.000
G0 Y217.350 Z15.000
G0 Y217.350 Z13.000
G1 X37.579 Y217.350 Z6.000 F600.000
G1 X53.349 Y233.120 Z6.000 F600.000
G0 Z15.000
G0 X57.832 Z15.000
G0 X57.832 Z13.000
G1 X57.832 Y233.120 Z6.000 F600.000
G1 X37.579 Y212.867 Z6.000 F600.000
G0 Z15.000
G0 Y208.384 Z15.000
G0 Y208.384 Z13.000
G1 X37.579 Y208.384 Z6.000 F600.000
G1 X62.315 Y233.120 Z6.000 F600.000
G0 Z15.000
G0 X66.798 Z15.000
G0 X66.798 Z13.000
G1 X66.798 Y233.120 Z6.000 F600.000
G1 X37.579 Y203.901 Z6.000 F600.000
G0 Z15.000
G0 Y199.418 Z15.000
G0 Y199.418 Z13.000
G1 X37.579 Y199.418 Z6.000 F600.000
G1 X71.281 Y233.120 Z6.000 F600.000
G0 Z15.000
G0 X75.764 Z15.000
G0 X75.764 Z13.000
G1 X75.764 Y233.120 Z6.000 F600.000
G1 X37.579 Y194.935 Z6.000 F600.000
G0 Z15.000
G0 Y190.452 Z15.000
G0 Y190.452 Z13.000
G1 X37.579 Y190.452 Z6.000 F600.000
G1 X80.247 Y233.120 Z6.000 F600.000
G0 Z15.000
G0 X84.730 Z15.000
G0 X84.730 Z13.000
G1 X84.730 Y233.120 Z6.000 F600.000
G1 X37.579 Y185.969 Z6.000 F600.000
G0 Z15.000
G0 Y181.486 Z15.000
G0 Y181.486 Z13.000
G1 X37.579 Y181.486 Z6.000 F600.000
G1 X89.213 Y233.120 Z6.000 F600.000
G0 Z15.000
G0 X93.696 Z15.000
G0 X93.696 Z13.000
G1 X93.696 Y233.120 Z6.000 F600.000
G1 X37.579 Y177.003 Z6.000 F600.000
G0 Z15.000
G0 Y172.519 Z15.000
G0 Y172.519 Z13.000
G1 X37.579 Y172.519 Z6.000 F600.000
G1 X98.179 Y233.120 Z6.000 F600.000
G0 Z15.000
G0 X102.663 Z15.000
G0 X102.663 Z13.000
G1 X102.663 Y233.120 Z6.000 F600.000
G1 X37.579 Y168.036 Z6.000 F600.000
G0 Z15.000
G0 Y163.553 Z15.000
G0 Y163.553 Z13.000
G1 X37.579 Y163.553 Z6.000 F600.000
G1 X107.146 Y233.120 Z6.000 F600.000
G0 Z15.000
G0 X111.629 Z15.000
G0 X111.629 Z13.000
G1 X111.629 Y233.120 Z6.000 F600.000
G1 X37.579 Y159.070 Z6.000 F600.000
G0 Z15.000
G0 Y154.587 Z15.000
G0 Y154.587 Z13.000
G1 X37.579 Y154.587 Z6.000 F600.000
G1 X116.112 Y233.120 Z6.000 F600.000
G0 Z15.000
G0 X120.595 Z15.000
G0 X120.595 Z13.000
G1 X120.595 Y233.120 Z6.000 F600.000
G1 X37.579 Y150.104 Z6.000 F600.000
G0 Z15.000
G0 Y145.621 Z15.000
G0 Y145.621 Z13.000
G1 X37.579 Y145.621 Z6.000 F600.000
G1 X125.078 Y233.120 Z6.000 F600.000
G0 Z15.000
G0 X129.561 Z15.000
G0 X129.561 Z13.000
G1 X129.561 Y233.120 Z6.000 F600.000
G1 X37.579 Y141.138 Z6.000 F600.000
G0 Z15.000
G0 Y136.655 Z15.000
G0 Y136.655 Z13.000
G1 X37.579 Y136.655 Z6.000 F600.000
G1 X134.044 Y233.120 Z6.000 F600.000
G0 Z15.000
G0 X138.527 Z15.000
G0 X138.527 Z13.000
G1 X138.527 Y233.120 Z6.000 F600.000
G1 X37.579 Y132.172 Z6.000 F600.000
G0 Z15.000
G0 Y127.689 Z15.000
G0 Y127.689 Z13.000
G1 X37.579 Y127.689 Z6.000 F600.000
G1 X143.010 Y233.120 Z6.000 F600.000
G0 Z15.000
G0 X147.493 Z15.000
G0 X147.493 Z13.000
G1 X147.493 Y233.120 Z6.000 F600.000
G1 X37.579 Y123.206 Z6.000 F600.000
G0 Z15.000
G0 Y118.723 Z15.000
G0 Y118.723 Z13.000
G1 X37.579 Y118.723 Z6.000 F600.000
G1 X151.976 Y233.120 Z6.000 F600.000
G0 Z15.000
G0 X156.459 Z15.000
G0 X156.459 Z13.000
G1 X156.459 Y233.120 Z6.000 F600.000
G1 X37.579 Y114.240 Z6.000 F600.000
G0 Z15.000
G0 Y109.757 Z15.000
G0 Y109.757 Z13.000
G1 X37.579 Y109.757 Z6.000 F600.000
G1 X160.942 Y233.120 Z6.000 F600.000
G0 Z15.000
G0 X165.425 Z15.000
G0 X165.425 Z13.000
G1 X165.425 Y233.120 Z6.000 F600.000
G1 X37.579 Y105.274 Z6.000 F600.000
G0 Z15.000
G0 Y100.791 Z15.000
G0 Y100.791 Z13.000
G1 X37.579 Y100.791 Z6.000 F600.000
G1 X169.908 Y233.120 Z6.000 F600.000
G0 Z15.000
G0 X174.391 Z15.000
G0 X174.391 Z13.000
G1 X174.391 Y233.120 Z6.000 F600.000
G1 X37.579 Y96.307 Z6.000 F600.000
G0 Z15.000
G0 Y91.824 Z15.000
G0 Y91.824 Z13.000
G1 X37.579 Y91.824 Z6.000 F600.000
G1 X178.875 Y233.120 Z6.000 F600.000
G0 Z15.000
G0 X183.358 Z15.000
G0 X183.358 Z13.000
G1 X183.358 Y233.120 Z6.000 F600.000
G1 X37.579 Y87.341 Z6.000 F600.000
G0 Z15.000
G0 Y82.858 Z15.000
G0 Y82.858 Z13.000
G1 X37.579 Y82.858 Z6.000 F600.000
G1 X187.841 Y233.120 Z6.000 F600.000
G0 Z15.000
G0 X192.324 Z15.000
G0 X192.324 Z13.000
G1 X192.324 Y233.120 Z6.000 F600.000
G1 X37.579 Y78.375 Z6.000 F600.000
G0 Z15.000
G0 Y73.892 Z15.000
G0 Y73.892 Z13.000
G1 X37.579 Y73.892 Z6.000 F600.000
G1 X196.807 Y233.120 Z6.000 F600.000
G0 Z15.000
G0 X201.290 Z15.000
G0 X201.290 Z13.000
G1 X201.290 Y233.120 Z6.000 F600.000
G1 X37.579 Y69.409 Z6.000 F600.000
G0 Z15.000
G0 Y64.926 Z15.000
G0 Y64.926 Z13.000
G1 X37.579 Y64.926 Z6.000 F600.000
G1 X205.773 Y233.120 Z6.000 F600.000
G0 Z15.000
G0 X210.256 Z15.000
G0 X210.256 Z13.000
G1 X210.256 Y233.120 Z6.000 F600.000
G1 X37.579 Y60.443 Z6.000 F600.000
G0 Z15.000
G0 Y55.960 Z15.000
G0 Y55.960 Z13.000
G1 X37.579 Y55.960 Z6.000 F600.000
G1 X214.739 Y233.120 Z6.000 F600.000
G0 Z15.000
G0 X219.222 Z15.000
G0 X219.222 Z13.000
G1 X219.222 Y233.120 Z6.000 F600.000
G1 X37.579 Y51.477 Z6.000 F600.000
G0 Z15.000
G0 Y46.994 Z15.000
G0 Y46.994 Z13.000
G1 X37.579 Y46.994 Z6.000 F600.000
G1 X223.705 Y233.120 Z6.000 F600.000
G0 Z15.000
G0 X228.188 Z15.000
G0 X228.188 Z13.000
G1 X228.188 Y233.120 Z6.000 F600.000
G1 X37.579 Y42.511 Z6.000 F600.000
G0 Z15.000
G0 Y38.028 Z15.000
G0 Y38.028 Z13.000
G1 X37.579 Y38.028 Z6.000 F600.000
G1 X232.671 Y233.120 Z6.000 F600.000
G0 Z15.000
G0 X234.409 Y230.375 Z15.000
G0 X234.409 Y230.375 Z13.000
G1 X234.409 Y230.375 Z6.000 F600.000
G1 X40.324 Y36.290 Z6.000 F600.000
G0 Z15.000
G0 X44.807 Z15.000
G0 X44.807 Z13.000
G1 X44.807 Y36.290 Z6.000 F600.000
G1 X234.409 Y225.892 Z6.000 F600.000
G0 Z15.000
G0 Y221.409 Z15.000
G0 Y221.409 Z13.000
G1 X234.409 Y221.409 Z6.000 F600.000
G1 X49.290 Y36.290 Z6.000 F600.000
G0 Z15.000
G0 X53.773 Z15.000
G0 X53.773 Z13.000
G1 X53.773 Y36.290 Z6.000 F600.000
G1 X234.409 Y216.926 Z6.000 F600.000
G0 Z15.000
G0 Y212.442 Z15.000
G0 Y212.442 Z13.000
G1 X234.409 Y212.442 Z6.000 F600.000
G1 X58.256 Y36.290 Z6.000 F600.000
G0 Z15.000
G0 X62.740 Z15.000
G0 X62.740 Z13.000
G1 X62.740 Y36.290 Z6.000 F600.000
G1 X234.409 Y207.959 Z6.000 F600.000
G0 Z15.000
G0 Y203.476 Z15.000
G0 Y203.476 Z13.000
G1 X234.409 Y203.476 Z6.000 F600.000
G1 X67.223 Y36.290 Z6.000 F600.000
G0 Z15.000
G0 X71.706 Z15.000
G0 X71.706 Z13.000
G1 X71.706 Y36.290 Z6.000 F600.000
G1 X234.409 Y198.993 Z6.000 F600.000
G0 Z15.000
G0 Y194.510 Z15.000
G0 Y194.510 Z13.000
G1 X234.409 Y194.510 Z6.000 F600.000
G1 X76.189 Y36.290 Z6.000 F600.000
G0 Z15.000
G0 X80.672 Z15.000
G0 X80.672 Z13.000
G1 X80.672 Y36.290 Z6.000 F600.000
G1 X234.409 Y190.027 Z6.000 F600.000
G0 Z15.000
G0 Y185.544 Z15.000
G0 Y185.544 Z13.000
G1 X234.409 Y185.544 Z6.000 F600.000
G1 X85.155 Y36.290 Z6.000 F600.000
G0 Z15.000
G0 X89.638 Z15.000
G0 X89.638 Z13.000
G1 X89.638 Y36.290 Z6.000 F600.000
G1 X234.409 Y181.061 Z6.000 F600.000
G0 Z15.000
G0 Y176.578 Z15.000
G0 Y176.578 Z13.000
G1 X234.409 Y176.578 Z6.000 F600.000
G1 X94.121 Y36.290 Z6.000 F600.000
G0 Z15.000
G0 X98.604 Z15.000
G0 X98.604 Z13.000
G1 X98.604 Y36.290 Z6.000 F600.000
G1 X234.409 Y172.095 Z6.000 F600.000
G0 Z15.000
G0 Y167.612 Z15.000
G0 Y167.612 Z13.000
G1 X234.409 Y167.612 Z6.000 F600.000
G1 X103.087 Y36.290 Z6.000 F600.000
G0 Z15.000
G0 X107.570 Z15.000
G0 X107.570 Z13.000
G1 X107.570 Y36.290 Z6.000 F600.000
G1 X234.409 Y163.129 Z6.000 F600.000
G0 Z15.000
G0 Y158.646 Z15.000
G0 Y158.646 Z13.000
G1 X234.409 Y158.646 Z6.000 F600.000
G1 X112.053 Y36.290 Z6.000 F600.000
G0 Z15.000
G0 X116.536 Z15.000
G0 X116.536 Z13.000
G1 X116.536 Y36.290 Z6.000 F600.000
G1 X234.409 Y154.163 Z6.000 F600.000
G0 Z15.000
G0 Y149.680 Z15.000
G0 Y149.680 Z13.000
G1 X234.409 Y149.680 Z6.000 F600.000
G1 X121.019 Y36.290 Z6.000 F600.000
G0 Z15.000
G0 X125.502 Z15.000
G0 X125.502 Z13.000
G1 X125.502 Y36.290 Z6.000 F600.000
G1 X234.409 Y145.197 Z6.000 F600.000
G0 Z15.000
G0 Y140.714 Z15.000
G0 Y140.714 Z13.000
G1 X234.409 Y140.714 Z6.000 F600.000
G1 X129.985 Y36.290 Z6.000 F600.000
G0 Z15.000
G0 X134.468 Z15.000
G0 X134.468 Z13.000
G1 X134.468 Y36.290 Z6.000 F600.000
G1 X234.409 Y136.230 Z6.000 F600.000
G0 Z15.000
G0 Y131.747 Z15.000
G0 Y131.747 Z13.000
G1 X234.409 Y131.747 Z6.000 F600.000
G1 X138.952 Y36.290 Z6.000 F600.000
G0 Z15.000
G0 X143.435 Z15.000
G0 X143.435 Z13.000
G1 X143.435 Y36.290 Z6.000 F600.000
G1 X234.409 Y127.264 Z6.000 F600.000
G0 Z15.000
G0 Y122.781 Z15.000
G0 Y122.781 Z13.000
G1 X234.409 Y122.781 Z6.000 F600.000
G1 X147.918 Y36.290 Z6.000 F600.000
G0 Z15.000
G0 X152.401 Z15.000
G0 X152.401 Z13.000
G1 X152.401 Y36.290 Z6.000 F600.000
G1 X234.409 Y118.298 Z6.000 F600.000
G0 Z15.000
G0 Y113.815 Z15.000
G0 Y113.815 Z13.000
G1 X234.409 Y113.815 Z6.000 F600.000
G1 X156.884 Y36.290 Z6.000 F600.000
G0 Z15.000
G0 X161.367 Z15.000
G0 X161.367 Z13.000
G1 X161.367 Y36.290 Z6.000 F600.000
G1 X234.409 Y109.332 Z6.000 F600.000
G0 Z15.000
G0 Y104.849 Z15.000
G0 Y104.849 Z13.000
G1 X234.409 Y104.849 Z6.000 F600.000
G1 X165.850 Y36.290 Z6.000 F600.000
G0 Z15.000
G0 X170.333 Z15.000
G0 X170.333 Z13.000
G1 X170.333 Y36.290 Z6.000 F600.000
G1 X234.409 Y100.366 Z6.000 F600.000
G0 Z15.000
G0 Y95.883 Z15.000
G0 Y95.883 Z13.000
G1 X234.409 Y95.883 Z6.000 F600.000
G1 X174.816 Y36.290 Z6.000 F600.000
G0 Z15.000
G0 X179.299 Z15.000
G0 X179.299 Z13.000
G1 X179.299 Y36.290 Z6.000 F600.000
G1 X234.409 Y91.400 Z6.000 F600.000
G0 Z15.000
G0 Y86.917 Z15.000
G0 Y86.917 Z13.000
G1 X234.409 Y86.917 Z6.000 F600.000
G1 X183.782 Y36.290 Z6.000 F600.000
G0 Z15.000
G0 X188.265 Z15.000
G0 X188.265 Z13.000
G1 X188.265 Y36.290 Z6.000 F600.000
G1 X234.409 Y82.434 Z6.000 F600.000
G0 Z15.000
G0 Y77.951 Z15.000
G0 Y77.951 Z13.000
G1 X234.409 Y77.951 Z6.000 F600.000
G1 X192.748 Y36.290 Z6.000 F600.000
G0 Z15.000
G0 X197.231 Z15.000
G0 X197.231 Z13.000
G1 X197.231 Y36.290 Z6.000 F600.000
G1 X234.409 Y73.468 Z6.000 F600.000
G0 Z15.000
G0 Y68.985 Z15.000
G0 Y68.985 Z13.000
G1 X234.409 Y68.985 Z6.000 F600.000
G1 X201.714 Y36.290 Z6.000 F600.000
G0 Z15.000
G0 X206.197 Z15.000
G0 X206.197 Z13.000
G1 X206.197 Y36.290 Z6.000 F600.000
G1 X234.409 Y64.502 Z6.000 F600.000
G0 Z15.000
G0 Y60.019 Z15.000
G0 Y60.019 Z13.000
G1 X234.409 Y60.019 Z6.000 F600.000
G1 X210.680 Y36.290 Z6.000 F600.000
G0 Z15.000
G0 X215.163 Z15.000
G0 X215.163 Z13.000
G1 X215.163 Y36.290 Z6.000 F600.000
G1 X234.409 Y55.535 Z6.000 F600.000
G0 Z15.000
G0 Y51.052 Z15.000
G0 Y51.052 Z13.000
G1 X234.409 Y51.052 Z6.000 F600.000
G1 X219.647 Y36.290 Z6.000 F600.000
G0 Z15.000
G0 X224.130 Z15.000
G0 X224.130 Z13.000
G1 X224.130 Y36.290 Z6.000 F600.000
G1 X234.409 Y46.569 Z6.000 F600.000
G0 Z15.000
G0 Y42.086 Z15.000
G0 Y42.086 Z13.000
G1 X234.409 Y42.086 Z6.000 F600.000
G1 X228.613 Y36.290 Z6.000 F600.000
G0 Z15.000
G0 X233.096 Z15.000
G0 X233.096 Z13.000
G1 X233.096 Y36.290 Z6.000 F600.000
G1 X234.409 Y37.603 Z6.000 F600.000
G1 X234.409 Y37.603 Z5.500 F600.000
G1 X233.096 Y36.290 Z5.500 F600.000
G0 Z15.000
G0 X228.613 Z15.000
G0 X228.613 Z13.000
G1 X228.613 Y36.290 Z5.500 F600.000
G1 X234.409 Y42.086 Z5.500 F600.000
G0 Z15.000
G0 Y46.569 Z15.000
G0 Y46.569 Z13.000
G1 X234.409 Y46.569 Z5.500 F600.000
G1 X224.130 Y36.290 Z5.500 F600.000
G0 Z15.000
G0 X219.647 Z15.000
G0 X219.647 Z13.000
G1 X219.647 Y36.290 Z5.500 F600.000
G1 X234.409 Y51.052 Z5.500 F600.000
G0 Z15.000
G0 Y55.535 Z15.000
G0 Y55.535 Z13.000
G1 X234.409 Y55.535 Z5.500 F600.000
G1 X215.163 Y36.290 Z5.500 F600.000
G0 Z15.000
G0 X210.680 Z15.000
G0 X210.680 Z13.000
G1 X210.680 Y36.290 Z5.500 F600.000
G1 X234.409 Y60.019 Z5.500 F600.000
G0 Z15.000
G0 Y64.502 Z15.000
G0 Y64.502 Z13.000
G1 X234.409 Y64.502 Z5.500 F600.000
G1 X206.197 Y36.290 Z5.500 F600.000
G0 Z15.000
G0 X201.714 Z15.000
G0 X201.714 Z13.000
G1 X201.714 Y36.290 Z5.500 F600.000
G1 X234.409 Y68.985 Z5.500 F600.000
G0 Z15.000
G0 Y73.468 Z15.000
G0 Y73.468 Z13.000
G1 X234.409 Y73.468 Z5.500 F600.000
G1 X197.231 Y36.290 Z5.500 F600.000
G0 Z15.000
G0 X192.748 Z15.000
G0 X192.748 Z13.000
G1 X192.748 Y36.290 Z5.500 F600.000
G1 X234.409 Y77.951 Z5.500 F600.000
G0 Z15.000
G0 Y82.434 Z15.000
G0 Y82.434 Z13.000
G1 X234.409 Y82.434 Z5.500 F600.000
G1 X188.265 Y36.290 Z5.500 F600.000
G0 Z15.000
G0 X183.782 Z15.000
G0 X183.782 Z13.000
G1 X183.782 Y36.290 Z5.500 F600.000
G1 X234.409 Y86.917 Z5.500 F600.000
G0 Z15.000
G0 Y91.400 Z15.000
G0 Y91.400 Z13.000
G1 X234.409 Y91.400 Z5.500 F600.000
G1 X179.299 Y36.290 Z5.500 F600.000
G0 Z15.000
G0 X174.816 Z15.000
G0 X174.816 Z13.000
G1 X174.816 Y36.290 Z5.500 F600.000
G1 X234.409 Y95.883 Z5.500 F600.000
G0 Z15.000
G0 Y100.366 Z15.000
G0 Y100.366 Z13.000
G1 X234.409 Y100.366 Z5.500 F600.000
G1 X170.333 Y36.290 Z5.500 F600.000
G0 Z15.000
G0 X165.850 Z15.000
G0 X165.850 Z13.000
G1 X165.850 Y36.290 Z5.500 F600.000
G1 X234.409 Y104.849 Z5.500 F600.000
G0 Z15.000
G0 Y109.332 Z15.000
G0 Y109.332 Z13.000
G1 X234.409 Y109.332 Z5.500 F600.000
G1 X161.367 Y36.290 Z5.500 F600.000
G0 Z15.000
G0 X156.884 Z15.000
G0 X156.884 Z13.000
G1 X156.884 Y36.290 Z5.500 F600.000
G1 X234.409 Y113.815 Z5.500 F600.000
G0 Z15.000
G0 Y118.298 Z15.000
G0 Y118.298 Z13.000
G1 X234.409 Y118.298 Z5.500 F600.000
G1 X152.401 Y36.290 Z5.500 F600.000
G0 Z15.000
G0 X147.918 Z15.000
G0 X147.918 Z13.000
G1 X147.918 Y36.290 Z5.500 F600.000
G1 X234.409 Y122.781 Z5.500 F600.000
G0 Z15.000
G0 Y127.264 Z15.000
G0 Y127.264 Z13.000
G1 X234.409 Y127.264 Z5.500 F600.000
G1 X143.435 Y36.290 Z5.500 F600.000
G0 Z15.000
G0 X138.952 Z15.000
G0 X138.952 Z13.000
G1 X138.952 Y36.290 Z5.500 F600.000
G1 X234.409 Y131.747 Z5.500 F600.000
G0 Z15.000
G0 Y136.230 Z15.000
G0 Y136.230 Z13.000
G1 X234.409 Y136.230 Z5.500 F600.000
G1 X134.468 Y36.290 Z5.500 F600.000
G0 Z15.000
G0 X129.985 Z15.000
G0 X129.985 Z13.000
G1 X129.985 Y36.290 Z5.500 F600.000
G1 X234.409 Y140.714 Z5.500 F600.000
G0 Z15.000
G0 Y145.197 Z15.000
G0 Y145.197 Z13.000
G1 X234.409 Y145.197 Z5.500 F600.000
G1 X125.502 Y36.290 Z5.500 F600.000
G0 Z15.000
G0 X121.019 Z15.000
G0 X121.019 Z13.000
G1 X121.019 Y36.290 Z5.500 F600.000
G1 X234.409 Y149.680 Z5.500 F600.000
G0 Z15.000
G0 Y154.163 Z15.000
G0 Y154.163 Z13.000
G1 X234.409 Y154.163 Z5.500 F600.000
G1 X116.536 Y36.290 Z5.500 F600.000
G0 Z15.000
G0 X112.053 Z15.000
G0 X112.053 Z13.000
G1 X112.053 Y36.290 Z5.500 F600.000
G1 X234.409 Y158.646 Z5.500 F600.000
G0 Z15.000
G0 Y163.129 Z15.000
G0 Y163.129 Z13.000
G1 X234.409 Y163.129 Z5.500 F600.000
G1 X107.570 Y36.290 Z5.500 F600.000
G0 Z15.000
G0 X103.087 Z15.000
G0 X103.087 Z13.000
G1 X103.087 Y36.290 Z5.500 F600.000
G1 X234.409 Y167.612 Z5.500 F600.000
G0 Z15.000
G0 Y172.095 Z15.000
G0 Y172.095 Z13.000
G1 X234.409 Y172.095 Z5.500 F600.000
G1 X98.604 Y36.290 Z5.500 F600.000
G0 Z15.000
G0 X94.121 Z15.000
G0 X94.121 Z13.000
G1 X94.121 Y36.290 Z5.500 F600.000
G1 X234.409 Y176.578 Z5.500 F600.000
G0 Z15.000
G0 Y181.061 Z15.000
G0 Y181.061 Z13.000
G1 X234.409 Y181.061 Z5.500 F600.000
G1 X89.638 Y36.290 Z5.500 F600.000
G0 Z15.000
G0 X85.155 Z15.000
G0 X85.155 Z13.000
G1 X85.155 Y36.290 Z5.500 F600.000
G1 X234.409 Y185.544 Z5.500 F600.000
G0 Z15.000
G0 Y190.027 Z15.000
G0 Y190.027 Z13.000
G1 X234.409 Y190.027 Z5.500 F600.000
G1 X80.672 Y36.290 Z5.500 F600.000
G0 Z15.000
G0 X76.189 Z15.000
G0 X76.189 Z13.000
G1 X76.189 Y36.290 Z5.500 F600.000
G1 X234.409 Y194.510 Z5.500 F600.000
G0 Z15.000
G0 Y198.993 Z15.000
G0 Y198.993 Z13.000
G1 X234.409 Y198.993 Z5.500 F600.000
G1 X71.706 Y36.290 Z5.500 F600.000
G0 Z15.000
G0 X67.223 Z15.000
G0 X67.223 Z13.000
G1 X67.223 Y36.290 Z5.500 F600.000
G1 X234.409 Y203.476 Z5.500 F600.000
G0 Z15.000
G0 Y207.959 Z15.000
G0 Y207.959 Z13.000
G1 X234.409 Y207.959 Z5.500 F600.000
G1 X62.740 Y36.290 Z5.500 F600.000
G0 Z15.000
G0 X58.256 Z15.000
G0 X58.256 Z13.000
G1 X58.256 Y36.290 Z5.500 F600.000
G1 X234.409 Y212.442 Z5.500 F600.000
G0 Z15.000
G0 Y216.926 Z15.000
G0 Y216.926 Z13.000
G1 X234.409 Y216.926 Z5.500 F600.000
G1 X53.773 Y36.290 Z5.500 F600.000
G0 Z15.000
G0 X49.290 Z15.000
G0 X49.290 Z13.000
G1 X49.290 Y36.290 Z5.500 F600.000
G1 X234.409 Y221.409 Z5.500 F600.000
G0 Z15.000
G0 Y225.892 Z15.000
G0 Y225.892 Z13.000
G1 X234.409 Y225.892 Z5.500 F600.000
G1 X44.807 Y36.290 Z5.500 F600.000
G0 Z15.000
G0 X40.324 Z15.000
G0 X40.324 Z13.000
G1 X40.324 Y36.290 Z5.500 F600.000
G1 X234.409 Y230.375 Z5.500 F600.000
G0 Z15.000
G0 X232.671 Y233.120 Z15.000
G0 X232.671 Y233.120 Z13.000
G1 X232.671 Y233.120 Z5.500 F600.000
G1 X37.579 Y38.028 Z5.500 F600.000
G0 Z15.000
G0 Y42.511 Z15.000
G0 Y42.511 Z13.000
G1 X37.579 Y42.511 Z5.500 F600.000
G1 X228.188 Y233.120 Z5.500 F600.000
G0 Z15.000
G0 X223.705 Z15.000
G0 X223.705 Z13.000
G1 X223.705 Y233.120 Z5.500 F600.000
G1 X37.579 Y46.994 Z5.500 F600.000
G0 Z15.000
G0 Y51.477 Z15.000
G0 Y51.477 Z13.000
G1 X37.579 Y51.477 Z5.500 F600.000
G1 X219.222 Y233.120 Z5.500 F600.000
G0 Z15.000
G0 X214.739 Z15.000
G0 X214.739 Z13.000
G1 X214.739 Y233.120 Z5.500 F600.000
G1 X37.579 Y55.960 Z5.500 F600.000
G0 Z15.000
G0 Y60.443 Z15.000
G0 Y60.443 Z13.000
G1 X37.579 Y60.443 Z5.500 F600.000
G1 X210.256 Y233.120 Z5.500 F600.000
G0 Z15.000
G0 X205.773 Z15.000
G0 X205.773 Z13.000
G1 X205.773 Y233.120 Z5.500 F600.000
G1 X37.579 Y64.926 Z5.500 F600.000
G0 Z15.000
G0 Y69.409 Z15.000
G0 Y69.409 Z13.000
G1 X37.579 Y69.409 Z5.500 F600.000
G1 X201.290 Y233.120 Z5.500 F600.000
G0 Z15.000
G0 X196.807 Z15.000
G0 X196.807 Z13.000
G1 X196.807 Y233.120 Z5.500 F600.000
G1 X37.579 Y73.892 Z5.500 F600.000
G0 Z15.000
G0 Y78.375 Z15.000
G0 Y78.375 Z13.000
G1 X37.579 Y78.375 Z5.500 F600.000
G1 X192.324 Y233.120 Z5.500 F600.000
G0 Z15.000
G0 X187.841 Z15.000
G0 X187.841 Z13.000
G1 X187.841 Y233.120 Z5.500 F600.000
G1 X37.579 Y82.858 Z5.500 F600.000
G0 Z15.000
G0 Y87.341 Z15.000
G0 Y87.341 Z13.000
G1 X37.579 Y87.341 Z5.500 F600.000
G1 X183.358 Y233.120 Z5.500 F600.000
G0 Z15.000
G0 X178.875 Z15.000
G0 X178.875 Z13.000
G1 X178.875 Y233.120 Z5.500 F600.000
G1 X37.579 Y91.824 Z5.500 F600.000
G0 Z15.000
G0 Y96.307 Z15.000
G0 Y96.307 Z13.000
G1 X37.579 Y96.307 Z5.500 F600.000
G1 X174.391 Y233.120 Z5.500 F600.000
G0 Z15.000
G0 X169.908 Z15.000
G0 X169.908 Z13.000
G1 X169.908 Y233.120 Z5.500 F600.000
G1 X37.579 Y100.791 Z5.500 F600.000
G0 Z15.000
G0 Y105.274 Z15.000
G0 Y105.274 Z13.000
G1 X37.579 Y105.274 Z5.500 F600.000
G1 X165.425 Y233.120 Z5.500 F600.000
G0 Z15.000
G0 X160.942 Z15.000
G0 X160.942 Z13.000
G1 X160.942 Y233.120 Z5.500 F600.000
G1 X37.579 Y109.757 Z5.500 F600.000
G0 Z15.000
G0 Y114.240 Z15.000
G0 Y114.240 Z13.000
G1 X37.579 Y114.240 Z5.500 F600.000
G1 X156.459 Y233.120 Z5.500 F600.000
G0 Z15.000
G0 X151.976 Z15.000
G0 X151.976 Z13.000
G1 X151.976 Y233.120 Z5.500 F600.000
G1 X37.579 Y118.723 Z5.500 F600.000
G0 Z15.000
G0 Y123.206 Z15.000
G0 Y123.206 Z13.000
G1 X37.579 Y123.206 Z5.500 F600.000
G1 X147.493 Y233.120 Z5.500 F600.000
G0 Z15.000
G0 X143.010 Z15.000
G0 X143.010 Z13.000
G1 X143.010 Y233.120 Z5.500 F600.000
G1 X37.579 Y127.689 Z5.500 F600.000
G0 Z15.000
G0 Y132.172 Z15.000
G0 Y132.172 Z13.000
G1 X37.579 Y132.172 Z5.500 F600.000
G1 X138.527 Y233.120 Z5.500 F600.000
G0 Z15.000
G0 X134.044 Z15.000
G0 X134.044 Z13.000
G1 X134.044 Y233.120 Z5.500 F600.000
G1 X37.579 Y136.655 Z5.500 F600.000
G0 Z15.000
G0 Y141.138 Z15.000
G0 Y141.138 Z13.000
G1 X37.579 Y141.138 Z5.500 F600.000
G1 X129.561 Y233.120 Z5.500 F600.000
G0 Z15.000
G0 X125.078 Z15.000
G0 X125.078 Z13.000
G1 X125.078 Y233.120 Z5.500 F600.000
G1 X37.579 Y145.621 Z5.500 F600.000
G0 Z15.000
G0 Y150.104 Z15.000
G0 Y150.104 Z13.000
G1 X37.579 Y150.104 Z5.500 F600.000
G1 X120.595 Y233.120 Z5.500 F600.000
G0 Z15.000
G0 X116.112 Z15.000
G0 X116.112 Z13.000
G1 X116.112 Y233.120 Z5.500 F600.000
G1 X37.579 Y154.587 Z5.500 F600.000
G0 Z15.000
G0 Y159.070 Z15.000
G0 Y159.070 Z13.000
G1 X37.579 Y159.070 Z5.500 F600.000
G1 X111.629 Y233.120 Z5.500 F600.000
G0 Z15.000
G0 X107.146 Z15.000
G0 X107.146 Z13.000
G1 X107.146 Y233.120 Z5.500 F600.000
G1 X37.579 Y163.553 Z5.500 F600.000
G0 Z15.000
G0 Y168.036 Z15.000
G0 Y168.036 Z13.000
G1 X37.579 Y168.036 Z5.500 F600.000
G1 X102.663 Y233.120 Z5.500 F600.000
G0 Z15.000
G0 X98.179 Z15.000
G0 X98.179 Z13.000
G1 X98.179 Y233.120 Z5.500 F600.000
G1 X37.579 Y172.519 Z5.500 F600.000
G0 Z15.000
G0 Y177.003 Z15.000
G0 Y177.003 Z13.000
G1 X37.579 Y177.003 Z5.500 F600.000
G1 X93.696 Y233.120 Z5.500 F600.000
G0 Z15.000
G0 X89.213 Z15.000
G0 X89.213 Z13.000
G1 X89.213 Y233.120 Z5.500 F600.000
G1 X37.579 Y181.486 Z5.500 F600.000
G0 Z15.000
G0 Y185.969 Z15.000
G0 Y185.969 Z13.000
G1 X37.579 Y185.969 Z5.500 F600.000
G1 X84.730 Y233.120 Z5.500 F600.000
G0 Z15.000
G0 X80.247 Z15.000
G0 X80.247 Z13.000
G1 X80.247 Y233.120 Z5.500 F600.000
G1 X37.579 Y190.452 Z5.500 F600.000
G0 Z15.000
G0 Y194.935 Z15.000
G0 Y194.935 Z13.000
G1 X37.579 Y194.935 Z5.500 F600.000
G1 X75.764 Y233.120 Z5.500 F600.000
G0 Z15.000
G0 X71.281 Z15.000
G0 X71.281 Z13.000
G1 X71.281 Y233.120 Z5.500 F600.000
G1 X37.579 Y199.418 Z5.500 F600.000
G0 Z15.000
G0 Y203.901 Z15.000
G0 Y203.901 Z13.000
G1 X37.579 Y203.901 Z5.500 F600.000
G1 X66.798 Y233.120 Z5.500 F600.000
G0 Z15.000
G0 X62.315 Z15.000
G0 X62.315 Z13.000
G1 X62.315 Y233.120 Z5.500 F600.000
G1 X37.579 Y208.384 Z5.500 F600.000
G0 Z15.000
G0 Y212.867 Z15.000
G0 Y212.867 Z13.000
G1 X37.579 Y212.867 Z5.500 F600.000
G1 X57.832 Y233.120 Z5.500 F600.000
G0 Z15.000
G0 X53.349 Z15.000
G0 X53.349 Z13.000
G1 X53.349 Y233.120 Z5.500 F600.000
G1 X37.579 Y217.350 Z5.500 F600.000
G0 Z15.000
G0 Y221.833 Z15.000
G0 Y221.833 Z13.000
G1 X37.579 Y221.833 Z5.500 F600.000
G1 X48.866 Y233.120 Z5.500 F600.000
G0 Z15.000
G0 X44.383 Z15.000
G0 X44.383 Z13.000
G1 X44.383 Y233.120 Z5.500 F600.000
G1 X37.579 Y226.316 Z5.500 F600.000
G0 Z15.000
G0 Y230.799 Z15.000
G0 Y230.799 Z13.000
G1 X37.579 Y230.799 Z5.500 F600.000
G1 X39.900 Y233.120 Z5.500 F600.000
G1 X39.900 Y233.120 Z5.000 F600.000
G1 X37.579 Y230.799 Z5.000 F600.000
G0 Z15.000
G0 Y226.316 Z15.000
G0 Y226.316 Z13.000
G1 X37.579 Y226.316 Z5.000 F600.000
G1 X44.383 Y233.120 Z5.000 F600.000
G0 Z15.000
G0 X48.866 Z15.000
G0 X48.866 Z13.000
G1 X48.866 Y233.120 Z5.000 F600.000
G1 X37.579 Y221.833 Z5.000 F600.000
G0 Z15.000
G0 Y217.350 Z15.000
G0 Y217.350 Z13.000
G1 X37.579 Y217.350 Z5.000 F600.000
G1 X53.349 Y233.120 Z5.000 F600.000
G0 Z15.000
G0 X57.832 Z15.000
G0 X57.832 Z13.000
G1 X57.832 Y233.120 Z5.000 F600.000
G1 X37.579 Y212.867 Z5.000 F600.000
G0 Z15.000
G0 Y208.384 Z15.000
G0 Y208.384 Z13.000
G1 X37.579 Y208.384 Z5.000 F600.000
G1 X62.315 Y233.120 Z5.000 F600.000
G0 Z15.000
G0 X66.798 Z15.000
G0 X66.798 Z13.000
G1 X66.798 Y233.120 Z5.000 F600.000
G1 X37.579 Y203.901 Z5.000 F600.000
G0 Z15.000
G0 Y199.418 Z15.000
G0 Y199.418 Z13.000
G1 X37.579 Y199.418 Z5.000 F600.000
G1 X71.281 Y233.120 Z5.000 F600.000
G0 Z15.000
G0 X75.764 Z15.000
G0 X75.764 Z13.000
G1 X75.764 Y233.120 Z5.000 F600.000
G1 X37.579 Y194.935 Z5.000 F600.000
G0 Z15.000
G0 Y190.452 Z15.000
G0 Y190.452 Z13.000
G1 X37.579 Y190.452 Z5.000 F600.000
G1 X80.247 Y233.120 Z5.000 F600.000
G0 Z15.000
G0 X84.730 Z15.000
G0 X84.730 Z13.000
G1 X84.730 Y233.120 Z5.000 F600.000
G1 X37.579 Y185.969 Z5.000 F600.000
G0 Z15.000
G0 Y181.486 Z15.000
G0 Y181.486 Z13.000
G1 X37.579 Y181.486 Z5.000 F600.000
G1 X89.213 Y233.120 Z5.000 F600.000
G0 Z15.000
G0 X93.696 Z15.000
G0 X93.696 Z13.000
G1 X93.696 Y233.120 Z5.000 F600.000
G1 X37.579 Y177.003 Z5.000 F600.000
G0 Z15.000
G0 Y172.519 Z15.000
G0 Y172.519 Z13.000
G1 X37.579 Y172.519 Z5.000 F600.000
G1 X98.179 Y233.120 Z5.000 F600.000
G0 Z15.000
G0 X102.663 Z15.000
G0 X102.663 Z13.000
G1 X102.663 Y233.120 Z5.000 F600.000
G1 X37.579 Y168.036 Z5.000 F600.000
G0 Z15.000
G0 Y163.553 Z15.000
G0 Y163.553 Z13.000
G1 X37.579 Y163.553 Z5.000 F600.000
G1 X107.146 Y233.120 Z5.000 F600.000
G0 Z15.000
G0 X111.629 Z15.000
G0 X111.629 Z13.000
G1 X111.629 Y233.120 Z5.000 F600.000
G1 X37.579 Y159.070 Z5.000 F600.000
G0 Z15.000
G0 Y154.587 Z15.000
G0 Y154.587 Z13.000
G1 X37.579 Y154.587 Z5.000 F600.000
G1 X116.112 Y233.120 Z5.000 F600.000
G0 Z15.000
G0 X120.595 Z15.000
G0 X120.595 Z13.000
G1 X120.595 Y233.120 Z5.000 F600.000
G1 X37.579 Y150.104 Z5.000 F600.000
G0 Z15.000
G0 Y145.621 Z15.000
G0 Y145.621 Z13.000
G1 X37.579 Y145.621 Z5.000 F600.000
G1 X125.078 Y233.120 Z5.000 F600.000
G0 Z15.000
G0 X129.561 Z15.000
G0 X129.561 Z13.000
G1 X129.561 Y233.120 Z5.000 F600.000
G1 X37.579 Y141.138 Z5.000 F600.000
G0 Z15.000
