(Exported by FreeCAD)
(Post Processor: script_module)
(Output Time:2025-05-17 11:05:16.906774)
(Begin preamble)
G17 G90
G21
(Begin operation: Fixture)
(Path: Fixture)
G54
(Finish operation: Fixture)
(Begin operation: endmill_compression_3175_spe001)
(Path: endmill_compression_3175_spe001)
(endmill_compression_3175_spe001)
(Begin toolchange)
( M6 T2 )
M3 S18000
(Finish operation: endmill_compression_3175_spe001)
(Begin operation: Pocket_Shape)
(Path: Pocket_Shape)
(Pocket_Shape)
G0 Z15.000
G0
G0 X136.139 Y134.560
G0 X136.139 Y134.560 Z13.000
G1 X136.139 Y134.560 Z9.500 F600.000
G1 X136.139 Y134.850 Z9.500 F600.000
G1 X135.849 Y134.850 Z9.500 F600.000
G1 X135.849 Y134.560 Z9.500 F600.000
G1 X136.139 Y134.560 Z9.500 F600.000
G0 Z15.000
G0 X139.309 Y131.390 Z15.000
G0 X139.309 Y131.390 Z13.000
G1 X139.309 Y131.390 Z9.500 F600.000
G1 X139.309 Y138.020 Z9.500 F600.000
G1 X132.679 Y138.020 Z9.500 F600.000
G1 X132.679 Y131.390 Z9.500 F600.000
G1 X139.309 Y131.390 Z9.500 F600.000
G0 Z15.000
G0 X142.479 Y128.220 Z15.000
G0 X142.479 Y128.220 Z13.000
G1 X142.479 Y128.220 Z9.500 F600.000
G1 X142.479 Y141.190 Z9.500 F600.000
G1 X129.509 Y141.190 Z9.500 F600.000
G1 X129.509 Y128.220 Z9.500 F600.000
G1 X142.479 Y128.220 Z9.500 F600.000
G0 Z15.000
G0 X145.649 Y125.050 Z15.000
G0 X145.649 Y125.050 Z13.000
G1 X145.649 Y125.050 Z9.500 F600.000
G1 X145.649 Y144.360 Z9.500 F600.000
G1 X126.339 Y144.360 Z9.500 F600.000
G1 X126.339 Y125.050 Z9.500 F600.000
G1 X145.649 Y125.050 Z9.500 F600.000
G0 Z15.000
G0 X148.819 Y121.880 Z15.000
G0 X148.819 Y121.880 Z13.000
G1 X148.819 Y121.880 Z9.500 F600.000
G1 X148.819 Y147.530 Z9.500 F600.000
G1 X123.169 Y147.530 Z9.500 F600.000
G1 X123.169 Y121.880 Z9.500 F600.000
G1 X148.819 Y121.880 Z9.500 F600.000
G0 Z15.000
G0 X151.989 Y118.710 Z15.000
G0 X151.989 Y118.710 Z13.000
G1 X151.989 Y118.710 Z9.500 F600.000
G1 X151.989 Y150.700 Z9.500 F600.000
G1 X119.999 Y150.700 Z9.500 F600.000
G1 X119.999 Y118.710 Z9.500 F600.000
G1 X151.989 Y118.710 Z9.500 F600.000
G0 Z15.000
G0 X155.159 Y115.540 Z15.000
G0 X155.159 Y115.540 Z13.000
G1 X155.159 Y115.540 Z9.500 F600.000
G1 X155.159 Y153.870 Z9.500 F600.000
G1 X116.829 Y153.870 Z9.500 F600.000
G1 X116.829 Y115.540 Z9.500 F600.000
G1 X155.159 Y115.540 Z9.500 F600.000
G0 Z15.000
G0 X158.329 Y112.370 Z15.000
G0 X158.329 Y112.370 Z13.000
G1 X158.329 Y112.370 Z9.500 F600.000
G1 X158.329 Y157.040 Z9.500 F600.000
G1 X113.659 Y157.040 Z9.500 F600.000
G1 X113.659 Y112.370 Z9.500 F600.000
G1 X158.329 Y112.370 Z9.500 F600.000
G0 Z15.000
G0 X161.499 Y109.200 Z15.000
G0 X161.499 Y109.200 Z13.000
G1 X161.499 Y109.200 Z9.500 F600.000
G1 X161.499 Y160.210 Z9.500 F600.000
G1 X110.489 Y160.210 Z9.500 F600.000
G1 X110.489 Y109.200 Z9.500 F600.000
G1 X161.499 Y109.200 Z9.500 F600.000
G0 Z15.000
G0 X164.669 Y106.030 Z15.000
G0 X164.669 Y106.030 Z13.000
G1 X164.669 Y106.030 Z9.500 F600.000
G1 X164.669 Y163.380 Z9.500 F600.000
G1 X107.319 Y163.380 Z9.500 F600.000
G1 X107.319 Y106.030 Z9.500 F600.000
G1 X164.669 Y106.030 Z9.500 F600.000
G0 Z15.000
G0 X167.839 Y102.860 Z15.000
G0 X167.839 Y102.860 Z13.000
G1 X167.839 Y102.860 Z9.500 F600.000
G1 X167.839 Y166.550 Z9.500 F600.000
G1 X104.149 Y166.550 Z9.500 F600.000
G1 X104.149 Y102.860 Z9.500 F600.000
G1 X167.839 Y102.860 Z9.500 F600.000
G0 Z15.000
G0 X171.009 Y99.690 Z15.000
G0 X171.009 Y99.690 Z13.000
G1 X171.009 Y99.690 Z9.500 F600.000
G1 X171.009 Y169.720 Z9.500 F600.000
G1 X100.979 Y169.720 Z9.500 F600.000
G1 X100.979 Y99.690 Z9.500 F600.000
G1 X171.009 Y99.690 Z9.500 F600.000
G0 Z15.000
G0 X174.179 Y96.520 Z15.000
G0 X174.179 Y96.520 Z13.000
G1 X174.179 Y96.520 Z9.500 F600.000
G1 X174.179 Y172.890 Z9.500 F600.000
G1 X97.809 Y172.890 Z9.500 F600.000
G1 X97.809 Y96.520 Z9.500 F600.000
G1 X174.179 Y96.520 Z9.500 F600.000
G0 Z15.000
G0 X177.349 Y93.350 Z15.000
G0 X177.349 Y93.350 Z13.000
G1 X177.349 Y93.350 Z9.500 F600.000
G1 X177.349 Y176.060 Z9.500 F600.000
G1 X94.639 Y176.060 Z9.500 F600.000
G1 X94.639 Y93.350 Z9.500 F600.000
G1 X177.349 Y93.350 Z9.500 F600.000
G0 Z15.000
G0 X180.519 Y90.180 Z15.000
G0 X180.519 Y90.180 Z13.000
G1 X180.519 Y90.180 Z9.500 F600.000
G1 X180.519 Y179.230 Z9.500 F600.000
G1 X91.469 Y179.230 Z9.500 F600.000
G1 X91.469 Y90.180 Z9.500 F600.000
G1 X180.519 Y90.180 Z9.500 F600.000
G0 Z15.000
G0 X183.689 Y87.010 Z15.000
G0 X183.689 Y87.010 Z13.000
G1 X183.689 Y87.010 Z9.500 F600.000
G1 X183.689 Y182.400 Z9.500 F600.000
G1 X88.299 Y182.400 Z9.500 F600.000
G1 X88.299 Y87.010 Z9.500 F600.000
G1 X183.689 Y87.010 Z9.500 F600.000
G0 Z15.000
G0 X186.859 Y83.840 Z15.000
G0 X186.859 Y83.840 Z13.000
G1 X186.859 Y83.840 Z9.500 F600.000
G1 X186.859 Y185.570 Z9.500 F600.000
G1 X85.129 Y185.570 Z9.500 F600.000
G1 X85.129 Y83.840 Z9.500 F600.000
G1 X186.859 Y83.840 Z9.500 F600.000
G0 Z15.000
G0 X190.029 Y80.670 Z15.000
G0 X190.029 Y80.670 Z13.000
G1 X190.029 Y80.670 Z9.500 F600.000
G1 X190.029 Y188.740 Z9.500 F600.000
G1 X81.959 Y188.740 Z9.500 F600.000
G1 X81.959 Y80.670 Z9.500 F600.000
G1 X190.029 Y80.670 Z9.500 F600.000
G0 Z15.000
G0 X193.199 Y77.500 Z15.000
G0 X193.199 Y77.500 Z13.000
G1 X193.199 Y77.500 Z9.500 F600.000
G1 X193.199 Y191.910 Z9.500 F600.000
G1 X78.789 Y191.910 Z9.500 F600.000
G1 X78.789 Y77.500 Z9.500 F600.000
G1 X193.199 Y77.500 Z9.500 F600.000
G0 Z15.000
G0 X196.369 Y74.330 Z15.000
G0 X196.369 Y74.330 Z13.000
G1 X196.369 Y74.330 Z9.500 F600.000
G1 X196.369 Y195.080 Z9.500 F600.000
G1 X75.619 Y195.080 Z9.500 F600.000
G1 X75.619 Y74.330 Z9.500 F600.000
G1 X196.369 Y74.330 Z9.500 F600.000
G0 Z15.000
G0 X199.539 Y71.160 Z15.000
G0 X199.539 Y71.160 Z13.000
G1 X199.539 Y71.160 Z9.500 F600.000
G1 X199.539 Y198.250 Z9.500 F600.000
G1 X72.449 Y198.250 Z9.500 F600.000
G1 X72.449 Y71.160 Z9.500 F600.000
G1 X199.539 Y71.160 Z9.500 F600.000
G0 Z15.000
G0 X202.709 Y67.990 Z15.000
G0 X202.709 Y67.990 Z13.000
G1 X202.709 Y67.990 Z9.500 F600.000
G1 X202.709 Y201.420 Z9.500 F600.000
G1 X69.279 Y201.420 Z9.500 F600.000
G1 X69.279 Y67.990 Z9.500 F600.000
G1 X202.709 Y67.990 Z9.500 F600.000
G0 Z15.000
G0 X205.879 Y64.820 Z15.000
G0 X205.879 Y64.820 Z13.000
G1 X205.879 Y64.820 Z9.500 F600.000
G1 X205.879 Y204.590 Z9.500 F600.000
G1 X66.109 Y204.590 Z9.500 F600.000
G1 X66.109 Y64.820 Z9.500 F600.000
G1 X205.879 Y64.820 Z9.500 F600.000
G0 Z15.000
G0 X209.049 Y61.650 Z15.000
G0 X209.049 Y61.650 Z13.000
G1 X209.049 Y61.650 Z9.500 F600.000
G1 X209.049 Y207.760 Z9.500 F600.000
G1 X62.939 Y207.760 Z9.500 F600.000
G1 X62.939 Y61.650 Z9.500 F600.000
G1 X209.049 Y61.650 Z9.500 F600.000
G0 Z15.000
G0 X212.219 Y58.480 Z15.000
G0 X212.219 Y58.480 Z13.000
G1 X212.219 Y58.480 Z9.500 F600.000
G1 X212.219 Y210.930 Z9.500 F600.000
G1 X59.769 Y210.930 Z9.500 F600.000
G1 X59.769 Y58.480 Z9.500 F600.000
G1 X212.219 Y58.480 Z9.500 F600.000
G0 Z15.000
G0 X215.389 Y55.310 Z15.000
G0 X215.389 Y55.310 Z13.000
G1 X215.389 Y55.310 Z9.500 F600.000
G1 X215.389 Y214.100 Z9.500 F600.000
G1 X56.599 Y214.100 Z9.500 F600.000
G1 X56.599 Y55.310 Z9.500 F600.000
G1 X215.389 Y55.310 Z9.500 F600.000
G0 Z15.000
G0 X218.559 Y52.140 Z15.000
G0 X218.559 Y52.140 Z13.000
G1 X218.559 Y52.140 Z9.500 F600.000
G1 X218.559 Y217.270 Z9.500 F600.000
G1 X53.429 Y217.270 Z9.500 F600.000
G1 X53.429 Y52.140 Z9.500 F600.000
G1 X218.559 Y52.140 Z9.500 F600.000
G0 Z15.000
G0 X221.729 Y48.970 Z15.000
G0 X221.729 Y48.970 Z13.000
G1 X221.729 Y48.970 Z9.500 F600.000
G1 X221.729 Y220.440 Z9.500 F600.000
G1 X50.259 Y220.440 Z9.500 F600.000
G1 X50.259 Y48.970 Z9.500 F600.000
G1 X221.729 Y48.970 Z9.500 F600.000
G0 Z15.000
G0 X224.899 Y45.800 Z15.000
G0 X224.899 Y45.800 Z13.000
G1 X224.899 Y45.800 Z9.500 F600.000
G1 X224.899 Y223.610 Z9.500 F600.000
G1 X47.089 Y223.610 Z9.500 F600.000
G1 X47.089 Y45.800 Z9.500 F600.000
G1 X224.899 Y45.800 Z9.500 F600.000
G0 Z15.000
G0 X228.069 Y42.630 Z15.000
G0 X228.069 Y42.630 Z13.000
G1 X228.069 Y42.630 Z9.500 F600.000
G1 X228.069 Y226.780 Z9.500 F600.000
G1 X43.919 Y226.780 Z9.500 F600.000
G1 X43.919 Y42.630 Z9.500 F600.000
G1 X228.069 Y42.630 Z9.500 F600.000
G0 Z15.000
G0 X231.239 Y39.460 Z15.000
G0 X231.239 Y39.460 Z13.000
G1 X231.239 Y39.460 Z9.500 F600.000
G1 X231.239 Y229.950 Z9.500 F600.000
G1 X40.749 Y229.950 Z9.500 F600.000
G1 X40.749 Y39.460 Z9.500 F600.000
G1 X231.239 Y39.460 Z9.500 F600.000
G0 Z15.000
G0 X234.409 Y36.290 Z15.000
G0 X234.409 Y36.290 Z13.000
G1 X234.409 Y36.290 Z9.500 F600.000
G1 X234.409 Y233.120 Z9.500 F600.000
G1 X37.579 Y233.120 Z9.500 F600.000
G1 X37.579 Y36.290 Z9.500 F600.000
G1 X234.409 Y36.290 Z9.500 F600.000
G0 Z15.000
G0 X136.139 Y134.560 Z15.000
G0 X136.139 Y134.560 Z13.000
G1 X136.139 Y134.560 Z9.000 F600.000
G1 X136.139 Y134.850 Z9.000 F600.000
G1 X135.849 Y134.850 Z9.000 F600.000
G1 X135.849 Y134.560 Z9.000 F600.000
G1 X136.139 Y134.560 Z9.000 F600.000
G0 Z15.000
G0 X139.309 Y131.390 Z15.000
G0 X139.309 Y131.390 Z13.000
G1 X139.309 Y131.390 Z9.000 F600.000
G1 X139.309 Y138.020 Z9.000 F600.000
G1 X132.679 Y138.020 Z9.000 F600.000
G1 X132.679 Y131.390 Z9.000 F600.000
G1 X139.309 Y131.390 Z9.000 F600.000
G0 Z15.000
G0 X142.479 Y128.220 Z15.000
G0 X142.479 Y128.220 Z13.000
G1 X142.479 Y128.220 Z9.000 F600.000
G1 X142.479 Y141.190 Z9.000 F600.000
G1 X129.509 Y141.190 Z9.000 F600.000
G1 X129.509 Y128.220 Z9.000 F600.000
G1 X142.479 Y128.220 Z9.000 F600.000
G0 Z15.000
G0 X145.649 Y125.050 Z15.000
G0 X145.649 Y125.050 Z13.000
G1 X145.649 Y125.050 Z9.000 F600.000
G1 X145.649 Y144.360 Z9.000 F600.000
G1 X126.339 Y144.360 Z9.000 F600.000
G1 X126.339 Y125.050 Z9.000 F600.000
G1 X145.649 Y125.050 Z9.000 F600.000
G0 Z15.000
G0 X148.819 Y121.880 Z15.000
G0 X148.819 Y121.880 Z13.000
G1 X148.819 Y121.880 Z9.000 F600.000
G1 X148.819 Y147.530 Z9.000 F600.000
G1 X123.169 Y147.530 Z9.000 F600.000
G1 X123.169 Y121.880 Z9.000 F600.000
G1 X148.819 Y121.880 Z9.000 F600.000
G0 Z15.000
G0 X151.989 Y118.710 Z15.000
G0 X151.989 Y118.710 Z13.000
G1 X151.989 Y118.710 Z9.000 F600.000
G1 X151.989 Y150.700 Z9.000 F600.000
G1 X119.999 Y150.700 Z9.000 F600.000
G1 X119.999 Y118.710 Z9.000 F600.000
G1 X151.989 Y118.710 Z9.000 F600.000
G0 Z15.000
G0 X155.159 Y115.540 Z15.000
G0 X155.159 Y115.540 Z13.000
G1 X155.159 Y115.540 Z9.000 F600.000
G1 X155.159 Y153.870 Z9.000 F600.000
G1 X116.829 Y153.870 Z9.000 F600.000
G1 X116.829 Y115.540 Z9.000 F600.000
G1 X155.159 Y115.540 Z9.000 F600.000
G0 Z15.000
G0 X158.329 Y112.370 Z15.000
G0 X158.329 Y112.370 Z13.000
G1 X158.329 Y112.370 Z9.000 F600.000
G1 X158.329 Y157.040 Z9.000 F600.000
G1 X113.659 Y157.040 Z9.000 F600.000
G1 X113.659 Y112.370 Z9.000 F600.000
G1 X158.329 Y112.370 Z9.000 F600.000
G0 Z15.000
G0 X161.499 Y109.200 Z15.000
G0 X161.499 Y109.200 Z13.000
G1 X161.499 Y109.200 Z9.000 F600.000
G1 X161.499 Y160.210 Z9.000 F600.000
G1 X110.489 Y160.210 Z9.000 F600.000
G1 X110.489 Y109.200 Z9.000 F600.000
G1 X161.499 Y109.200 Z9.000 F600.000
G0 Z15.000
G0 X164.669 Y106.030 Z15.000
G0 X164.669 Y106.030 Z13.000
G1 X164.669 Y106.030 Z9.000 F600.000
G1 X164.669 Y163.380 Z9.000 F600.000
G1 X107.319 Y163.380 Z9.000 F600.000
G1 X107.319 Y106.030 Z9.000 F600.000
G1 X164.669 Y106.030 Z9.000 F600.000
G0 Z15.000
G0 X167.839 Y102.860 Z15.000
G0 X167.839 Y102.860 Z13.000
G1 X167.839 Y102.860 Z9.000 F600.000
G1 X167.839 Y166.550 Z9.000 F600.000
G1 X104.149 Y166.550 Z9.000 F600.000
G1 X104.149 Y102.860 Z9.000 F600.000
G1 X167.839 Y102.860 Z9.000 F600.000
G0 Z15.000
G0 X171.009 Y99.690 Z15.000
G0 X171.009 Y99.690 Z13.000
G1 X171.009 Y99.690 Z9.000 F600.000
G1 X171.009 Y169.720 Z9.000 F600.000
G1 X100.979 Y169.720 Z9.000 F600.000
G1 X100.979 Y99.690 Z9.000 F600.000
G1 X171.009 Y99.690 Z9.000 F600.000
G0 Z15.000
G0 X174.179 Y96.520 Z15.000
G0 X174.179 Y96.520 Z13.000
G1 X174.179 Y96.520 Z9.000 F600.000
G1 X174.179 Y172.890 Z9.000 F600.000
G1 X97.809 Y172.890 Z9.000 F600.000
G1 X97.809 Y96.520 Z9.000 F600.000
G1 X174.179 Y96.520 Z9.000 F600.000
G0 Z15.000
G0 X177.349 Y93.350 Z15.000
G0 X177.349 Y93.350 Z13.000
G1 X177.349 Y93.350 Z9.000 F600.000
G1 X177.349 Y176.060 Z9.000 F600.000
G1 X94.639 Y176.060 Z9.000 F600.000
G1 X94.639 Y93.350 Z9.000 F600.000
G1 X177.349 Y93.350 Z9.000 F600.000
G0 Z15.000
G0 X180.519 Y90.180 Z15.000
G0 X180.519 Y90.180 Z13.000
G1 X180.519 Y90.180 Z9.000 F600.000
G1 X180.519 Y179.230 Z9.000 F600.000
G1 X91.469 Y179.230 Z9.000 F600.000
G1 X91.469 Y90.180 Z9.000 F600.000
G1 X180.519 Y90.180 Z9.000 F600.000
G0 Z15.000
G0 X183.689 Y87.010 Z15.000
G0 X183.689 Y87.010 Z13.000
G1 X183.689 Y87.010 Z9.000 F600.000
G1 X183.689 Y182.400 Z9.000 F600.000
G1 X88.299 Y182.400 Z9.000 F600.000
G1 X88.299 Y87.010 Z9.000 F600.000
G1 X183.689 Y87.010 Z9.000 F600.000
G0 Z15.000
G0 X186.859 Y83.840 Z15.000
G0 X186.859 Y83.840 Z13.000
G1 X186.859 Y83.840 Z9.000 F600.000
G1 X186.859 Y185.570 Z9.000 F600.000
G1 X85.129 Y185.570 Z9.000 F600.000
G1 X85.129 Y83.840 Z9.000 F600.000
G1 X186.859 Y83.840 Z9.000 F600.000
G0 Z15.000
G0 X190.029 Y80.670 Z15.000
G0 X190.029 Y80.670 Z13.000
G1 X190.029 Y80.670 Z9.000 F600.000
G1 X190.029 Y188.740 Z9.000 F600.000
G1 X81.959 Y188.740 Z9.000 F600.000
G1 X81.959 Y80.670 Z9.000 F600.000
G1 X190.029 Y80.670 Z9.000 F600.000
G0 Z15.000
G0 X193.199 Y77.500 Z15.000
G0 X193.199 Y77.500 Z13.000
G1 X193.199 Y77.500 Z9.000 F600.000
G1 X193.199 Y191.910 Z9.000 F600.000
G1 X78.789 Y191.910 Z9.000 F600.000
G1 X78.789 Y77.500 Z9.000 F600.000
G1 X193.199 Y77.500 Z9.000 F600.000
G0 Z15.000
G0 X196.369 Y74.330 Z15.000
G0 X196.369 Y74.330 Z13.000
G1 X196.369 Y74.330 Z9.000 F600.000
G1 X196.369 Y195.080 Z9.000 F600.000
G1 X75.619 Y195.080 Z9.000 F600.000
G1 X75.619 Y74.330 Z9.000 F600.000
G1 X196.369 Y74.330 Z9.000 F600.000
G0 Z15.000
G0 X199.539 Y71.160 Z15.000
G0 X199.539 Y71.160 Z13.000
G1 X199.539 Y71.160 Z9.000 F600.000
G1 X199.539 Y198.250 Z9.000 F600.000
G1 X72.449 Y198.250 Z9.000 F600.000
G1 X72.449 Y71.160 Z9.000 F600.000
G1 X199.539 Y71.160 Z9.000 F600.000
G0 Z15.000
G0 X202.709 Y67.990 Z15.000
G0 X202.709 Y67.990 Z13.000
G1 X202.709 Y67.990 Z9.000 F600.000
G1 X202.709 Y201.420 Z9.000 F600.000
G1 X69.279 Y201.420 Z9.000 F600.000
G1 X69.279 Y67.990 Z9.000 F600.000
G1 X202.709 Y67.990 Z9.000 F600.000
G0 Z15.000
G0 X205.879 Y64.820 Z15.000
G0 X205.879 Y64.820 Z13.000
G1 X205.879 Y64.820 Z9.000 F600.000
G1 X205.879 Y204.590 Z9.000 F600.000
G1 X66.109 Y204.590 Z9.000 F600.000
G1 X66.109 Y64.820 Z9.000 F600.000
G1 X205.879 Y64.820 Z9.000 F600.000
G0 Z15.000
G0 X209.049 Y61.650 Z15.000
G0 X209.049 Y61.650 Z13.000
G1 X209.049 Y61.650 Z9.000 F600.000
G1 X209.049 Y207.760 Z9.000 F600.000
G1 X62.939 Y207.760 Z9.000 F600.000
G1 X62.939 Y61.650 Z9.000 F600.000
G1 X209.049 Y61.650 Z9.000 F600.000
G0 Z15.000
G0 X212.219 Y58.480 Z15.000
G0 X212.219 Y58.480 Z13.000
G1 X212.219 Y58.480 Z9.000 F600.000
G1 X212.219 Y210.930 Z9.000 F600.000
G1 X59.769 Y210.930 Z9.000 F600.000
G1 X59.769 Y58.480 Z9.000 F600.000
G1 X212.219 Y58.480 Z9.000 F600.000
G0 Z15.000
G0 X215.389 Y55.310 Z15.000
G0 X215.389 Y55.310 Z13.000
G1 X215.389 Y55.310 Z9.000 F600.000
G1 X215.389 Y214.100 Z9.000 F600.000
G1 X56.599 Y214.100 Z9.000 F600.000
G1 X56.599 Y55.310 Z9.000 F600.000
G1 X215.389 Y55.310 Z9.000 F600.000
G0 Z15.000
G0 X218.559 Y52.140 Z15.000
G0 X218.559 Y52.140 Z13.000
G1 X218.559 Y52.140 Z9.000 F600.000
G1 X218.559 Y217.270 Z9.000 F600.000
G1 X53.429 Y217.270 Z9.000 F600.000
G1 X53.429 Y52.140 Z9.000 F600.000
G1 X218.559 Y52.140 Z9.000 F600.000
G0 Z15.000
G0 X221.729 Y48.970 Z15.000
G0 X221.729 Y48.970 Z13.000
G1 X221.729 Y48.970 Z9.000 F600.000
G1 X221.729 Y220.440 Z9.000 F600.000
G1 X50.259 Y220.440 Z9.000 F600.000
G1 X50.259 Y48.970 Z9.000 F600.000
G1 X221.729 Y48.970 Z9.000 F600.000
G0 Z15.000
G0 X224.899 Y45.800 Z15.000
G0 X224.899 Y45.800 Z13.000
G1 X224.899 Y45.800 Z9.000 F600.000
G1 X224.899 Y223.610 Z9.000 F600.000
G1 X47.089 Y223.610 Z9.000 F600.000
G1 X47.089 Y45.800 Z9.000 F600.000
G1 X224.899 Y45.800 Z9.000 F600.000
G0 Z15.000
G0 X228.069 Y42.630 Z15.000
G0 X228.069 Y42.630 Z13.000
G1 X228.069 Y42.630 Z9.000 F600.000
G1 X228.069 Y226.780 Z9.000 F600.000
G1 X43.919 Y226.780 Z9.000 F600.000
G1 X43.919 Y42.630 Z9.000 F600.000
G1 X228.069 Y42.630 Z9.000 F600.000
G0 Z15.000
G0 X231.239 Y39.460 Z15.000
G0 X231.239 Y39.460 Z13.000
G1 X231.239 Y39.460 Z9.000 F600.000
G1 X231.239 Y229.950 Z9.000 F600.000
G1 X40.749 Y229.950 Z9.000 F600.000
G1 X40.749 Y39.460 Z9.000 F600.000
G1 X231.239 Y39.460 Z9.000 F600.000
G0 Z15.000
G0 X234.409 Y36.290 Z15.000
G0 X234.409 Y36.290 Z13.000
G1 X234.409 Y36.290 Z9.000 F600.000
G1 X234.409 Y233.120 Z9.000 F600.000
G1 X37.579 Y233.120 Z9.000 F600.000
G1 X37.579 Y36.290 Z9.000 F600.000
G1 X234.409 Y36.290 Z9.000 F600.000
G0 Z15.000
G0 X136.139 Y134.560 Z15.000
G0 X136.139 Y134.560 Z13.000
G1 X136.139 Y134.560 Z8.500 F600.000
G1 X136.139 Y134.850 Z8.500 F600.000
G1 X135.849 Y134.850 Z8.500 F600.000
G1 X135.849 Y134.560 Z8.500 F600.000
G1 X136.139 Y134.560 Z8.500 F600.000
G0 Z15.000
G0 X139.309 Y131.390 Z15.000
G0 X139.309 Y131.390 Z13.000
G1 X139.309 Y131.390 Z8.500 F600.000
G1 X139.309 Y138.020 Z8.500 F600.000
G1 X132.679 Y138.020 Z8.500 F600.000
G1 X132.679 Y131.390 Z8.500 F600.000
G1 X139.309 Y131.390 Z8.500 F600.000
G0 Z15.000
G0 X142.479 Y128.220 Z15.000
G0 X142.479 Y128.220 Z13.000
G1 X142.479 Y128.220 Z8.500 F600.000
G1 X142.479 Y141.190 Z8.500 F600.000
G1 X129.509 Y141.190 Z8.500 F600.000
G1 X129.509 Y128.220 Z8.500 F600.000
G1 X142.479 Y128.220 Z8.500 F600.000
G0 Z15.000
G0 X145.649 Y125.050 Z15.000
G0 X145.649 Y125.050 Z13.000
G1 X145.649 Y125.050 Z8.500 F600.000
G1 X145.649 Y144.360 Z8.500 F600.000
G1 X126.339 Y144.360 Z8.500 F600.000
G1 X126.339 Y125.050 Z8.500 F600.000
G1 X145.649 Y125.050 Z8.500 F600.000
G0 Z15.000
G0 X148.819 Y121.880 Z15.000
G0 X148.819 Y121.880 Z13.000
G1 X148.819 Y121.880 Z8.500 F600.000
G1 X148.819 Y147.530 Z8.500 F600.000
G1 X123.169 Y147.530 Z8.500 F600.000
G1 X123.169 Y121.880 Z8.500 F600.000
G1 X148.819 Y121.880 Z8.500 F600.000
G0 Z15.000
G0 X151.989 Y118.710 Z15.000
G0 X151.989 Y118.710 Z13.000
G1 X151.989 Y118.710 Z8.500 F600.000
G1 X151.989 Y150.700 Z8.500 F600.000
G1 X119.999 Y150.700 Z8.500 F600.000
G1 X119.999 Y118.710 Z8.500 F600.000
G1 X151.989 Y118.710 Z8.500 F600.000
G0 Z15.000
G0 X155.159 Y115.540 Z15.000
G0 X155.159 Y115.540 Z13.000
G1 X155.159 Y115.540 Z8.500 F600.000
G1 X155.159 Y153.870 Z8.500 F600.000
G1 X116.829 Y153.870 Z8.500 F600.000
G1 X116.829 Y115.540 Z8.500 F600.000
G1 X155.159 Y115.540 Z8.500 F600.000
G0 Z15.000
G0 X158.329 Y112.370 Z15.000
G0 X158.329 Y112.370 Z13.000
G1 X158.329 Y112.370 Z8.500 F600.000
G1 X158.329 Y157.040 Z8.500 F600.000
G1 X113.659 Y157.040 Z8.500 F600.000
G1 X113.659 Y112.370 Z8.500 F600.000
G1 X158.329 Y112.370 Z8.500 F600.000
G0 Z15.000
G0 X161.499 Y109.200 Z15.000
G0 X161.499 Y109.200 Z13.000
G1 X161.499 Y109.200 Z8.500 F600.000
G1 X161.499 Y160.210 Z8.500 F600.000
G1 X110.489 Y160.210 Z8.500 F600.000
G1 X110.489 Y109.200 Z8.500 F600.000
G1 X161.499 Y109.200 Z8.500 F600.000
G0 Z15.000
G0 X164.669 Y106.030 Z15.000
G0 X164.669 Y106.030 Z13.000
G1 X164.669 Y106.030 Z8.500 F600.000
G1 X164.669 Y163.380 Z8.500 F600.000
G1 X107.319 Y163.380 Z8.500 F600.000
G1 X107.319 Y106.030 Z8.500 F600.000
G1 X164.669 Y106.030 Z8.500 F600.000
G0 Z15.000
G0 X167.839 Y102.860 Z15.000
G0 X167.839 Y102.860 Z13.000
G1 X167.839 Y102.860 Z8.500 F600.000
G1 X167.839 Y166.550 Z8.500 F600.000
G1 X104.149 Y166.550 Z8.500 F600.000
G1 X104.149 Y102.860 Z8.500 F600.000
G1 X167.839 Y102.860 Z8.500 F600.000
G0 Z15.000
G0 X171.009 Y99.690 Z15.000
G0 X171.009 Y99.690 Z13.000
G1 X171.009 Y99.690 Z8.500 F600.000
G1 X171.009 Y169.720 Z8.500 F600.000
G1 X100.979 Y169.720 Z8.500 F600.000
G1 X100.979 Y99.690 Z8.500 F600.000
G1 X171.009 Y99.690 Z8.500 F600.000
G0 Z15.000
G0 X174.179 Y96.520 Z15.000
G0 X174.179 Y96.520 Z13.000
G1 X174.179 Y96.520 Z8.500 F600.000
G1 X174.179 Y172.890 Z8.500 F600.000
G1 X97.809 Y172.890 Z8.500 F600.000
G1 X97.809 Y96.520 Z8.500 F600.000
G1 X174.179 Y96.520 Z8.500 F600.000
G0 Z15.000
G0 X177.349 Y93.350 Z15.000
G0 X177.349 Y93.350 Z13.000
G1 X177.349 Y93.350 Z8.500 F600.000
G1 X177.349 Y176.060 Z8.500 F600.000
G1 X94.639 Y176.060 Z8.500 F600.000
G1 X94.639 Y93.350 Z8.500 F600.000
G1 X177.349 Y93.350 Z8.500 F600.000
G0 Z15.000
G0 X180.519 Y90.180 Z15.000
G0 X180.519 Y90.180 Z13.000
G1 X180.519 Y90.180 Z8.500 F600.000
G1 X180.519 Y179.230 Z8.500 F600.000
G1 X91.469 Y179.230 Z8.500 F600.000
G1 X91.469 Y90.180 Z8.500 F600.000
G1 X180.519 Y90.180 Z8.500 F600.000
G0 Z15.000
G0 X183.689 Y87.010 Z15.000
G0 X183.689 Y87.010 Z13.000
G1 X183.689 Y87.010 Z8.500 F600.000
G1 X183.689 Y182.400 Z8.500 F600.000
G1 X88.299 Y182.400 Z8.500 F600.000
G1 X88.299 Y87.010 Z8.500 F600.000
G1 X183.689 Y87.010 Z8.500 F600.000
G0 Z15.000
G0 X186.859 Y83.840 Z15.000
G0 X186.859 Y83.840 Z13.000
G1 X186.859 Y83.840 Z8.500 F600.000
G1 X186.859 Y185.570 Z8.500 F600.000
G1 X85.129 Y185.570 Z8.500 F600.000
G1 X85.129 Y83.840 Z8.500 F600.000
G1 X186.859 Y83.840 Z8.500 F600.000
G0 Z15.000
G0 X190.029 Y80.670 Z15.000
G0 X190.029 Y80.670 Z13.000
G1 X190.029 Y80.670 Z8.500 F600.000
G1 X190.029 Y188.740 Z8.500 F600.000
G1 X81.959 Y188.740 Z8.500 F600.000
G1 X81.959 Y80.670 Z8.500 F600.000
G1 X190.029 Y80.670 Z8.500 F600.000
G0 Z15.000
G0 X193.199 Y77.500 Z15.000
G0 X193.199 Y77.500 Z13.000
G1 X193.199 Y77.500 Z8.500 F600.000
G1 X193.199 Y191.910 Z8.500 F600.000
G1 X78.789 Y191.910 Z8.500 F600.000
G1 X78.789 Y77.500 Z8.500 F600.000
G1 X193.199 Y77.500 Z8.500 F600.000
G0 Z15.000
G0 X196.369 Y74.330 Z15.000
G0 X196.369 Y74.330 Z13.000
G1 X196.369 Y74.330 Z8.500 F600.000
G1 X196.369 Y195.080 Z8.500 F600.000
G1 X75.619 Y195.080 Z8.500 F600.000
G1 X75.619 Y74.330 Z8.500 F600.000
G1 X196.369 Y74.330 Z8.500 F600.000
G0 Z15.000
G0 X199.539 Y71.160 Z15.000
G0 X199.539 Y71.160 Z13.000
G1 X199.539 Y71.160 Z8.500 F600.000
G1 X199.539 Y198.250 Z8.500 F600.000
G1 X72.449 Y198.250 Z8.500 F600.000
G1 X72.449 Y71.160 Z8.500 F600.000
G1 X199.539 Y71.160 Z8.500 F600.000
G0 Z15.000
G0 X202.709 Y67.990 Z15.000
G0 X202.709 Y67.990 Z13.000
G1 X202.709 Y67.990 Z8.500 F600.000
G1 X202.709 Y201.420 Z8.500 F600.000
G1 X69.279 Y201.420 Z8.500 F600.000
G1 X69.279 Y67.990 Z8.500 F600.000
G1 X202.709 Y67.990 Z8.500 F600.000
G0 Z15.000
G0 X205.879 Y64.820 Z15.000
G0 X205.879 Y64.820 Z13.000
G1 X205.879 Y64.820 Z8.500 F600.000
G1 X205.879 Y204.590 Z8.500 F600.000
G1 X66.109 Y204.590 Z8.500 F600.000
G1 X66.109 Y64.820 Z8.500 F600.000
G1 X205.879 Y64.820 Z8.500 F600.000
G0 Z15.000
G0 X209.049 Y61.650 Z15.000
G0 X209.049 Y61.650 Z13.000
G1 X209.049 Y61.650 Z8.500 F600.000
G1 X209.049 Y207.760 Z8.500 F600.000
G1 X62.939 Y207.760 Z8.500 F600.000
G1 X62.939 Y61.650 Z8.500 F600.000
G1 X209.049 Y61.650 Z8.500 F600.000
G0 Z15.000
G0 X212.219 Y58.480 Z15.000
G0 X212.219 Y58.480 Z13.000
G1 X212.219 Y58.480 Z8.500 F600.000
G1 X212.219 Y210.930 Z8.500 F600.000
G1 X59.769 Y210.930 Z8.500 F600.000
G1 X59.769 Y58.480 Z8.500 F600.000
G1 X212.219 Y58.480 Z8.500 F600.000
G0 Z15.000
G0 X215.389 Y55.310 Z15.000
G0 X215.389 Y55.310 Z13.000
G1 X215.389 Y55.310 Z8.500 F600.000
G1 X215.389 Y214.100 Z8.500 F600.000
G1 X56.599 Y214.100 Z8.500 F600.000
G1 X56.599 Y55.310 Z8.500 F600.000
G1 X215.389 Y55.310 Z8.500 F600.000
G0 Z15.000
G0 X218.559 Y52.140 Z15.000
G0 X218.559 Y52.140 Z13.000
G1 X218.559 Y52.140 Z8.500 F600.000
G1 X218.559 Y217.270 Z8.500 F600.000
G1 X53.429 Y217.270 Z8.500 F600.000
G1 X53.429 Y52.140 Z8.500 F600.000
G1 X218.559 Y52.140 Z8.500 F600.000
G0 Z15.000
G0 X221.729 Y48.970 Z15.000
G0 X221.729 Y48.970 Z13.000
G1 X221.729 Y48.970 Z8.500 F600.000
G1 X221.729 Y220.440 Z8.500 F600.000
G1 X50.259 Y220.440 Z8.500 F600.000
G1 X50.259 Y48.970 Z8.500 F600.000
G1 X221.729 Y48.970 Z8.500 F600.000
G0 Z15.000
G0 X224.899 Y45.800 Z15.000
G0 X224.899 Y45.800 Z13.000
G1 X224.899 Y45.800 Z8.500 F600.000
G1 X224.899 Y223.610 Z8.500 F600.000
G1 X47.089 Y223.610 Z8.500 F600.000
G1 X47.089 Y45.800 Z8.500 F600.000
G1 X224.899 Y45.800 Z8.500 F600.000
G0 Z15.000
G0 X228.069 Y42.630 Z15.000
G0 X228.069 Y42.630 Z13.000
G1 X228.069 Y42.630 Z8.500 F600.000
G1 X228.069 Y226.780 Z8.500 F600.000
G1 X43.919 Y226.780 Z8.500 F600.000
G1 X43.919 Y42.630 Z8.500 F600.000
G1 X228.069 Y42.630 Z8.500 F600.000
G0 Z15.000
G0 X231.239 Y39.460 Z15.000
G0 X231.239 Y39.460 Z13.000
G1 X231.239 Y39.460 Z8.500 F600.000
G1 X231.239 Y229.950 Z8.500 F600.000
G1 X40.749 Y229.950 Z8.500 F600.000
G1 X40.749 Y39.460 Z8.500 F600.000
G1 X231.239 Y39.460 Z8.500 F600.000
G0 Z15.000
G0 X234.409 Y36.290 Z15.000
G0 X234.409 Y36.290 Z13.000
G1 X234.409 Y36.290 Z8.500 F600.000
G1 X234.409 Y233.120 Z8.500 F600.000
G1 X37.579 Y233.120 Z8.500 F600.000
G1 X37.579 Y36.290 Z8.500 F600.000
G1 X234.409 Y36.290 Z8.500 F600.000
G0 Z15.000
G0 X136.139 Y134.560 Z15.000
G0 X136.139 Y134.560 Z13.000
G1 X136.139 Y134.560 Z8.000 F600.000
G1 X136.139 Y134.850 Z8.000 F600.000
G1 X135.849 Y134.850 Z8.000 F600.000
G1 X135.849 Y134.560 Z8.000 F600.000
G1 X136.139 Y134.560 Z8.000 F600.000
G0 Z15.000
G0 X139.309 Y131.390 Z15.000
G0 X139.309 Y131.390 Z13.000
G1 X139.309 Y131.390 Z8.000 F600.000
G1 X139.309 Y138.020 Z8.000 F600.000
G1 X132.679 Y138.020 Z8.000 F600.000
G1 X132.679 Y131.390 Z8.000 F600.000
G1 X139.309 Y131.390 Z8.000 F600.000
G0 Z15.000
G0 X142.479 Y128.220 Z15.000
G0 X142.479 Y128.220 Z13.000
G1 X142.479 Y128.220 Z8.000 F600.000
G1 X142.479 Y141.190 Z8.000 F600.000
G1 X129.509 Y141.190 Z8.000 F600.000
G1 X129.509 Y128.220 Z8.000 F600.000
G1 X142.479 Y128.220 Z8.000 F600.000
G0 Z15.000
G0 X145.649 Y125.050 Z15.000
G0 X145.649 Y125.050 Z13.000
G1 X145.649 Y125.050 Z8.000 F600.000
G1 X145.649 Y144.360 Z8.000 F600.000
G1 X126.339 Y144.360 Z8.000 F600.000
G1 X126.339 Y125.050 Z8.000 F600.000
G1 X145.649 Y125.050 Z8.000 F600.000
G0 Z15.000
G0 X148.819 Y121.880 Z15.000
G0 X148.819 Y121.880 Z13.000
G1 X148.819 Y121.880 Z8.000 F600.000
G1 X148.819 Y147.530 Z8.000 F600.000
G1 X123.169 Y147.530 Z8.000 F600.000
G1 X123.169 Y121.880 Z8.000 F600.000
G1 X148.819 Y121.880 Z8.000 F600.000
G0 Z15.000
G0 X151.989 Y118.710 Z15.000
G0 X151.989 Y118.710 Z13.000
G1 X151.989 Y118.710 Z8.000 F600.000
G1 X151.989 Y150.700 Z8.000 F600.000
G1 X119.999 Y150.700 Z8.000 F600.000
G1 X119.999 Y118.710 Z8.000 F600.000
G1 X151.989 Y118.710 Z8.000 F600.000
G0 Z15.000
G0 X155.159 Y115.540 Z15.000
G0 X155.159 Y115.540 Z13.000
G1 X155.159 Y115.540 Z8.000 F600.000
G1 X155.159 Y153.870 Z8.000 F600.000
G1 X116.829 Y153.870 Z8.000 F600.000
G1 X116.829 Y115.540 Z8.000 F600.000
G1 X155.159 Y115.540 Z8.000 F600.000
G0 Z15.000
G0 X158.329 Y112.370 Z15.000
G0 X158.329 Y112.370 Z13.000
G1 X158.329 Y112.370 Z8.000 F600.000
G1 X158.329 Y157.040 Z8.000 F600.000
G1 X113.659 Y157.040 Z8.000 F600.000
G1 X113.659 Y112.370 Z8.000 F600.000
G1 X158.329 Y112.370 Z8.000 F600.000
G0 Z15.000
G0 X161.499 Y109.200 Z15.000
G0 X161.499 Y109.200 Z13.000
G1 X161.499 Y109.200 Z8.000 F600.000
G1 X161.499 Y160.210 Z8.000 F600.000
G1 X110.489 Y160.210 Z8.000 F600.000
G1 X110.489 Y109.200 Z8.000 F600.000
G1 X161.499 Y109.200 Z8.000 F600.000
G0 Z15.000
G0 X164.669 Y106.030 Z15.000
G0 X164.669 Y106.030 Z13.000
G1 X164.669 Y106.030 Z8.000 F600.000
G1 X164.669 Y163.380 Z8.000 F600.000
G1 X107.319 Y163.380 Z8.000 F600.000
G1 X107.319 Y106.030 Z8.000 F600.000
G1 X164.669 Y106.030 Z8.000 F600.000
G0 Z15.000
G0 X167.839 Y102.860 Z15.000
G0 X167.839 Y102.860 Z13.000
G1 X167.839 Y102.860 Z8.000 F600.000
G1 X167.839 Y166.550 Z8.000 F600.000
G1 X104.149 Y166.550 Z8.000 F600.000
G1 X104.149 Y102.860 Z8.000 F600.000
G1 X167.839 Y102.860 Z8.000 F600.000
G0 Z15.000
G0 X171.009 Y99.690 Z15.000
G0 X171.009 Y99.690 Z13.000
G1 X171.009 Y99.690 Z8.000 F600.000
G1 X171.009 Y169.720 Z8.000 F600.000
G1 X100.979 Y169.720 Z8.000 F600.000
G1 X100.979 Y99.690 Z8.000 F600.000
G1 X171.009 Y99.690 Z8.000 F600.000
G0 Z15.000
G0 X174.179 Y96.520 Z15.000
G0 X174.179 Y96.520 Z13.000
G1 X174.179 Y96.520 Z8.000 F600.000
G1 X174.179 Y172.890 Z8.000 F600.000
G1 X97.809 Y172.890 Z8.000 F600.000
G1 X97.809 Y96.520 Z8.000 F600.000
G1 X174.179 Y96.520 Z8.000 F600.000
G0 Z15.000
G0 X177.349 Y93.350 Z15.000
G0 X177.349 Y93.350 Z13.000
G1 X177.349 Y93.350 Z8.000 F600.000
G1 X177.349 Y176.060 Z8.000 F600.000
G1 X94.639 Y176.060 Z8.000 F600.000
G1 X94.639 Y93.350 Z8.000 F600.000
G1 X177.349 Y93.350 Z8.000 F600.000
G0 Z15.000
G0 X180.519 Y90.180 Z15.000
G0 X180.519 Y90.180 Z13.000
G1 X180.519 Y90.180 Z8.000 F600.000
G1 X180.519 Y179.230 Z8.000 F600.000
G1 X91.469 Y179.230 Z8.000 F600.000
G1 X91.469 Y90.180 Z8.000 F600.000
G1 X180.519 Y90.180 Z8.000 F600.000
G0 Z15.000
G0 X183.689 Y87.010 Z15.000
G0 X183.689 Y87.010 Z13.000
G1 X183.689 Y87.010 Z8.000 F600.000
G1 X183.689 Y182.400 Z8.000 F600.000
G1 X88.299 Y182.400 Z8.000 F600.000
G1 X88.299 Y87.010 Z8.000 F600.000
G1 X183.689 Y87.010 Z8.000 F600.000
G0 Z15.000
G0 X186.859 Y83.840 Z15.000
G0 X186.859 Y83.840 Z13.000
G1 X186.859 Y83.840 Z8.000 F600.000
G1 X186.859 Y185.570 Z8.000 F600.000
G1 X85.129 Y185.570 Z8.000 F600.000
G1 X85.129 Y83.840 Z8.000 F600.000
G1 X186.859 Y83.840 Z8.000 F600.000
G0 Z15.000
G0 X190.029 Y80.670 Z15.000
G0 X190.029 Y80.670 Z13.000
G1 X190.029 Y80.670 Z8.000 F600.000
G1 X190.029 Y188.740 Z8.000 F600.000
G1 X81.959 Y188.740 Z8.000 F600.000
G1 X81.959 Y80.670 Z8.000 F600.000
G1 X190.029 Y80.670 Z8.000 F600.000
G0 Z15.000
G0 X193.199 Y77.500 Z15.000
G0 X193.199 Y77.500 Z13.000
G1 X193.199 Y77.500 Z8.000 F600.000
G1 X193.199 Y191.910 Z8.000 F600.000
G1 X78.789 Y191.910 Z8.000 F600.000
G1 X78.789 Y77.500 Z8.000 F600.000
G1 X193.199 Y77.500 Z8.000 F600.000
G0 Z15.000
G0 X196.369 Y74.330 Z15.000
G0 X196.369 Y74.330 Z13.000
G1 X196.369 Y74.330 Z8.000 F600.000
G1 X196.369 Y195.080 Z8.000 F600.000
G1 X75.619 Y195.080 Z8.000 F600.000
G1 X75.619 Y74.330 Z8.000 F600.000
G1 X196.369 Y74.330 Z8.000 F600.000
G0 Z15.000
G0 X199.539 Y71.160 Z15.000
G0 X199.539 Y71.160 Z13.000
G1 X199.539 Y71.160 Z8.000 F600.000
G1 X199.539 Y198.250 Z8.000 F600.000
G1 X72.449 Y198.250 Z8.000 F600.000
G1 X72.449 Y71.160 Z8.000 F600.000
G1 X199.539 Y71.160 Z8.000 F600.000
G0 Z15.000
G0 X202.709 Y67.990 Z15.000
G0 X202.709 Y67.990 Z13.000
G1 X202.709 Y67.990 Z8.000 F600.000
G1 X202.709 Y201.420 Z8.000 F600.000
G1 X69.279 Y201.420 Z8.000 F600.000
G1 X69.279 Y67.990 Z8.000 F600.000
G1 X202.709 Y67.990 Z8.000 F600.000
G0 Z15.000
G0 X205.879 Y64.820 Z15.000
G0 X205.879 Y64.820 Z13.000
G1 X205.879 Y64.820 Z8.000 F600.000
G1 X205.879 Y204.590 Z8.000 F600.000
G1 X66.109 Y204.590 Z8.000 F600.000
G1 X66.109 Y64.820 Z8.000 F600.000
G1 X205.879 Y64.820 Z8.000 F600.000
G0 Z15.000
G0 X209.049 Y61.650 Z15.000
G0 X209.049 Y61.650 Z13.000
G1 X209.049 Y61.650 Z8.000 F600.000
G1 X209.049 Y207.760 Z8.000 F600.000
G1 X62.939 Y207.760 Z8.000 F600.000
G1 X62.939 Y61.650 Z8.000 F600.000
G1 X209.049 Y61.650 Z8.000 F600.000
G0 Z15.000
G0 X212.219 Y58.480 Z15.000
G0 X212.219 Y58.480 Z13.000
G1 X212.219 Y58.480 Z8.000 F600.000
G1 X212.219 Y210.930 Z8.000 F600.000
G1 X59.769 Y210.930 Z8.000 F600.000
G1 X59.769 Y58.480 Z8.000 F600.000
G1 X212.219 Y58.480 Z8.000 F600.000
G0 Z15.000
G0 X215.389 Y55.310 Z15.000
G0 X215.389 Y55.310 Z13.000
G1 X215.389 Y55.310 Z8.000 F600.000
G1 X215.389 Y214.100 Z8.000 F600.000
G1 X56.599 Y214.100 Z8.000 F600.000
G1 X56.599 Y55.310 Z8.000 F600.000
G1 X215.389 Y55.310 Z8.000 F600.000
G0 Z15.000
G0 X218.559 Y52.140 Z15.000
G0 X218.559 Y52.140 Z13.000
G1 X218.559 Y52.140 Z8.000 F600.000
G1 X218.559 Y217.270 Z8.000 F600.000
G1 X53.429 Y217.270 Z8.000 F600.000
G1 X53.429 Y52.140 Z8.000 F600.000
G1 X218.559 Y52.140 Z8.000 F600.000
G0 Z15.000
G0 X221.729 Y48.970 Z15.000
G0 X221.729 Y48.970 Z13.000
G1 X221.729 Y48.970 Z8.000 F600.000
G1 X221.729 Y220.440 Z8.000 F600.000
G1 X50.259 Y220.440 Z8.000 F600.000
G1 X50.259 Y48.970 Z8.000 F600.000
G1 X221.729 Y48.970 Z8.000 F600.000
G0 Z15.000
G0 X224.899 Y45.800 Z15.000
G0 X224.899 Y45.800 Z13.000
G1 X224.899 Y45.800 Z8.000 F600.000
G1 X224.899 Y223.610 Z8.000 F600.000
G1 X47.089 Y223.610 Z8.000 F600.000
G1 X47.089 Y45.800 Z8.000 F600.000
G1 X224.899 Y45.800 Z8.000 F600.000
G0 Z15.000
G0 X228.069 Y42.630 Z15.000
G0 X228.069 Y42.630 Z13.000
G1 X228.069 Y42.630 Z8.000 F600.000
G1 X228.069 Y226.780 Z8.000 F600.000
G1 X43.919 Y226.780 Z8.000 F600.000
G1 X43.919 Y42.630 Z8.000 F600.000
G1 X228.069 Y42.630 Z8.000 F600.000
G0 Z15.000
G0 X231.239 Y39.460 Z15.000
G0 X231.239 Y39.460 Z13.000
G1 X231.239 Y39.460 Z8.000 F600.000
G1 X231.239 Y229.950 Z8.000 F600.000
G1 X40.749 Y229.950 Z8.000 F600.000
G1 X40.749 Y39.460 Z8.000 F600.000
G1 X231.239 Y39.460 Z8.000 F600.000
G0 Z15.000
G0 X234.409 Y36.290 Z15.000
G0 X234.409 Y36.290 Z13.000
G1 X234.409 Y36.290 Z8.000 F600.000
G1 X234.409 Y233.120 Z8.000 F600.000
G1 X37.579 Y233.120 Z8.000 F600.000
G1 X37.579 Y36.290 Z8.000 F600.000
G1 X234.409 Y36.290 Z8.000 F600.000
G0 Z15.000
G0 X136.139 Y134.560 Z15.000
G0 X136.139 Y134.560 Z13.000
G1 X136.139 Y134.560 Z7.500 F600.000
G1 X136.139 Y134.850 Z7.500 F600.000
G1 X135.849 Y134.850 Z7.500 F600.000
G1 X135.849 Y134.560 Z7.500 F600.000
G1 X136.139 Y134.560 Z7.500 F600.000
G0 Z15.000
G0 X139.309 Y131.390 Z15.000
G0 X139.309 Y131.390 Z13.000
G1 X139.309 Y131.390 Z7.500 F600.000
G1 X139.309 Y138.020 Z7.500 F600.000
G1 X132.679 Y138.020 Z7.500 F600.000
G1 X132.679 Y131.390 Z7.500 F600.000
G1 X139.309 Y131.390 Z7.500 F600.000
G0 Z15.000
G0 X142.479 Y128.220 Z15.000
G0 X142.479 Y128.220 Z13.000
G1 X142.479 Y128.220 Z7.500 F600.000
G1 X142.479 Y141.190 Z7.500 F600.000
G1 X129.509 Y141.190 Z7.500 F600.000
G1 X129.509 Y128.220 Z7.500 F600.000
G1 X142.479 Y128.220 Z7.500 F600.000
G0 Z15.000
G0 X145.649 Y125.050 Z15.000
G0 X145.649 Y125.050 Z13.000
G1 X145.649 Y125.050 Z7.500 F600.000
G1 X145.649 Y144.360 Z7.500 F600.000
G1 X126.339 Y144.360 Z7.500 F600.000
G1 X126.339 Y125.050 Z7.500 F600.000
G1 X145.649 Y125.050 Z7.500 F600.000
G0 Z15.000
G0 X148.819 Y121.880 Z15.000
G0 X148.819 Y121.880 Z13.000
G1 X148.819 Y121.880 Z7.500 F600.000
G1 X148.819 Y147.530 Z7.500 F600.000
G1 X123.169 Y147.530 Z7.500 F600.000
G1 X123.169 Y121.880 Z7.500 F600.000
G1 X148.819 Y121.880 Z7.500 F600.000
G0 Z15.000
G0 X151.989 Y118.710 Z15.000
G0 X151.989 Y118.710 Z13.000
G1 X151.989 Y118.710 Z7.500 F600.000
G1 X151.989 Y150.700 Z7.500 F600.000
G1 X119.999 Y150.700 Z7.500 F600.000
G1 X119.999 Y118.710 Z7.500 F600.000
G1 X151.989 Y118.710 Z7.500 F600.000
G0 Z15.000
G0 X155.159 Y115.540 Z15.000
G0 X155.159 Y115.540 Z13.000
G1 X155.159 Y115.540 Z7.500 F600.000
G1 X155.159 Y153.870 Z7.500 F600.000
G1 X116.829 Y153.870 Z7.500 F600.000
G1 X116.829 Y115.540 Z7.500 F600.000
G1 X155.159 Y115.540 Z7.500 F600.000
G0 Z15.000
G0 X158.329 Y112.370 Z15.000
G0 X158.329 Y112.370 Z13.000
G1 X158.329 Y112.370 Z7.500 F600.000
G1 X158.329 Y157.040 Z7.500 F600.000
G1 X113.659 Y157.040 Z7.500 F600.000
G1 X113.659 Y112.370 Z7.500 F600.000
G1 X158.329 Y112.370 Z7.500 F600.000
G0 Z15.000
G0 X161.499 Y109.200 Z15.000
G0 X161.499 Y109.200 Z13.000
G1 X161.499 Y109.200 Z7.500 F600.000
G1 X161.499 Y160.210 Z7.500 F600.000
G1 X110.489 Y160.210 Z7.500 F600.000
G1 X110.489 Y109.200 Z7.500 F600.000
G1 X161.499 Y109.200 Z7.500 F600.000
G0 Z15.000
G0 X164.669 Y106.030 Z15.000
G0 X164.669 Y106.030 Z13.000
G1 X164.669 Y106.030 Z7.500 F600.000
G1 X164.669 Y163.380 Z7.500 F600.000
G1 X107.319 Y163.380 Z7.500 F600.000
G1 X107.319 Y106.030 Z7.500 F600.000
G1 X164.669 Y106.030 Z7.500 F600.000
G0 Z15.000
G0 X167.839 Y102.860 Z15.000
G0 X167.839 Y102.860 Z13.000
G1 X167.839 Y102.860 Z7.500 F600.000
G1 X167.839 Y166.550 Z7.500 F600.000
G1 X104.149 Y166.550 Z7.500 F600.000
G1 X104.149 Y102.860 Z7.500 F600.000
G1 X167.839 Y102.860 Z7.500 F600.000
G0 Z15.000
G0 X171.009 Y99.690 Z15.000
G0 X171.009 Y99.690 Z13.000
G1 X171.009 Y99.690 Z7.500 F600.000
G1 X171.009 Y169.720 Z7.500 F600.000
G1 X100.979 Y169.720 Z7.500 F600.000
G1 X100.979 Y99.690 Z7.500 F600.000
G1 X171.009 Y99.690 Z7.500 F600.000
G0 Z15.000
G0 X174.179 Y96.520 Z15.000
G0 X174.179 Y96.520 Z13.000
G1 X174.179 Y96.520 Z7.500 F600.000
G1 X174.179 Y172.890 Z7.500 F600.000
G1 X97.809 Y172.890 Z7.500 F600.000
G1 X97.809 Y96.520 Z7.500 F600.000
G1 X174.179 Y96.520 Z7.500 F600.000
G0 Z15.000
G0 X177.349 Y93.350 Z15.000
G0 X177.349 Y93.350 Z13.000
G1 X177.349 Y93.350 Z7.500 F600.000
G1 X177.349 Y176.060 Z7.500 F600.000
G1 X94.639 Y176.060 Z7.500 F600.000
G1 X94.639 Y93.350 Z7.500 F600.000
G1 X177.349 Y93.350 Z7.500 F600.000
G0 Z15.000
G0 X180.519 Y90.180 Z15.000
G0 X180.519 Y90.180 Z13.000
G1 X180.519 Y90.180 Z7.500 F600.000
G1 X180.519 Y179.230 Z7.500 F600.000
G1 X91.469 Y179.230 Z7.500 F600.000
G1 X91.469 Y90.180 Z7.500 F600.000
G1 X180.519 Y90.180 Z7.500 F600.000
G0 Z15.000
G0 X183.689 Y87.010 Z15.000
G0 X183.689 Y87.010 Z13.000
G1 X183.689 Y87.010 Z7.500 F600.000
G1 X183.689 Y182.400 Z7.500 F600.000
G1 X88.299 Y182.400 Z7.500 F600.000
G1 X88.299 Y87.010 Z7.500 F600.000
G1 X183.689 Y87.010 Z7.500 F600.000
G0 Z15.000
G0 X186.859 Y83.840 Z15.000
G0 X186.859 Y83.840 Z13.000
G1 X186.859 Y83.840 Z7.500 F600.000
G1 X186.859 Y185.570 Z7.500 F600.000
G1 X85.129 Y185.570 Z7.500 F600.000
G1 X85.129 Y83.840 Z7.500 F600.000
G1 X186.859 Y83.840 Z7.500 F600.000
G0 Z15.000
G0 X190.029 Y80.670 Z15.000
G0 X190.029 Y80.670 Z13.000
G1 X190.029 Y80.670 Z7.500 F600.000
G1 X190.029 Y188.740 Z7.500 F600.000
G1 X81.959 Y188.740 Z7.500 F600.000
G1 X81.959 Y80.670 Z7.500 F600.000
G1 X190.029 Y80.670 Z7.500 F600.000
G0 Z15.000
G0 X193.199 Y77.500 Z15.000
G0 X193.199 Y77.500 Z13.000
G1 X193.199 Y77.500 Z7.500 F600.000
G1 X193.199 Y191.910 Z7.500 F600.000
G1 X78.789 Y191.910 Z7.500 F600.000
G1 X78.789 Y77.500 Z7.500 F600.000
G1 X193.199 Y77.500 Z7.500 F600.000
G0 Z15.000
G0 X196.369 Y74.330 Z15.000
G0 X196.369 Y74.330 Z13.000
G1 X196.369 Y74.330 Z7.500 F600.000
G1 X196.369 Y195.080 Z7.500 F600.000
G1 X75.619 Y195.080 Z7.500 F600.000
G1 X75.619 Y74.330 Z7.500 F600.000
G1 X196.369 Y74.330 Z7.500 F600.000
G0 Z15.000
G0 X199.539 Y71.160 Z15.000
G0 X199.539 Y71.160 Z13.000
G1 X199.539 Y71.160 Z7.500 F600.000
G1 X199.539 Y198.250 Z7.500 F600.000
G1 X72.449 Y198.250 Z7.500 F600.000
G1 X72.449 Y71.160 Z7.500 F600.000
G1 X199.539 Y71.160 Z7.500 F600.000
G0 Z15.000
G0 X202.709 Y67.990 Z15.000
G0 X202.709 Y67.990 Z13.000
G1 X202.709 Y67.990 Z7.500 F600.000
G1 X202.709 Y201.420 Z7.500 F600.000
G1 X69.279 Y201.420 Z7.500 F600.000
G1 X69.279 Y67.990 Z7.500 F600.000
G1 X202.709 Y67.990 Z7.500 F600.000
G0 Z15.000
G0 X205.879 Y64.820 Z15.000
G0 X205.879 Y64.820 Z13.000
G1 X205.879 Y64.820 Z7.500 F600.000
G1 X205.879 Y204.590 Z7.500 F600.000
G1 X66.109 Y204.590 Z7.500 F600.000
G1 X66.109 Y64.820 Z7.500 F600.000
G1 X205.879 Y64.820 Z7.500 F600.000
G0 Z15.000
G0 X209.049 Y61.650 Z15.000
G0 X209.049 Y61.650 Z13.000
G1 X209.049 Y61.650 Z7.500 F600.000
G1 X209.049 Y207.760 Z7.500 F600.000
G1 X62.939 Y207.760 Z7.500 F600.000
G1 X62.939 Y61.650 Z7.500 F600.000
G1 X209.049 Y61.650 Z7.500 F600.000
G0 Z15.000
G0 X212.219 Y58.480 Z15.000
G0 X212.219 Y58.480 Z13.000
G1 X212.219 Y58.480 Z7.500 F600.000
G1 X212.219 Y210.930 Z7.500 F600.000
G1 X59.769 Y210.930 Z7.500 F600.000
G1 X59.769 Y58.480 Z7.500 F600.000
G1 X212.219 Y58.480 Z7.500 F600.000
G0 Z15.000
G0 X215.389 Y55.310 Z15.000
G0 X215.389 Y55.310 Z13.000
G1 X215.389 Y55.310 Z7.500 F600.000
G1 X215.389 Y214.100 Z7.500 F600.000
G1 X56.599 Y214.100 Z7.500 F600.000
G1 X56.599 Y55.310 Z7.500 F600.000
G1 X215.389 Y55.310 Z7.500 F600.000
G0 Z15.000
G0 X218.559 Y52.140 Z15.000
G0 X218.559 Y52.140 Z13.000
G1 X218.559 Y52.140 Z7.500 F600.000
G1 X218.559 Y217.270 Z7.500 F600.000
G1 X53.429 Y217.270 Z7.500 F600.000
G1 X53.429 Y52.140 Z7.500 F600.000
G1 X218.559 Y52.140 Z7.500 F600.000
G0 Z15.000
G0 X221.729 Y48.970 Z15.000
G0 X221.729 Y48.970 Z13.000
G1 X221.729 Y48.970 Z7.500 F600.000
G1 X221.729 Y220.440 Z7.500 F600.000
G1 X50.259 Y220.440 Z7.500 F600.000
G1 X50.259 Y48.970 Z7.500 F600.000
G1 X221.729 Y48.970 Z7.500 F600.000
G0 Z15.000
G0 X224.899 Y45.800 Z15.000
G0 X224.899 Y45.800 Z13.000
G1 X224.899 Y45.800 Z7.500 F600.000
G1 X224.899 Y223.610 Z7.500 F600.000
G1 X47.089 Y223.610 Z7.500 F600.000
G1 X47.089 Y45.800 Z7.500 F600.000
G1 X224.899 Y45.800 Z7.500 F600.000
G0 Z15.000
G0 X228.069 Y42.630 Z15.000
G0 X228.069 Y42.630 Z13.000
G1 X228.069 Y42.630 Z7.500 F600.000
G1 X228.069 Y226.780 Z7.500 F600.000
G1 X43.919 Y226.780 Z7.500 F600.000
G1 X43.919 Y42.630 Z7.500 F600.000
G1 X228.069 Y42.630 Z7.500 F600.000
G0 Z15.000
G0 X231.239 Y39.460 Z15.000
G0 X231.239 Y39.460 Z13.000
G1 X231.239 Y39.460 Z7.500 F600.000
G1 X231.239 Y229.950 Z7.500 F600.000
G1 X40.749 Y229.950 Z7.500 F600.000
G1 X40.749 Y39.460 Z7.500 F600.000
G1 X231.239 Y39.460 Z7.500 F600.000
G0 Z15.000
G0 X234.409 Y36.290 Z15.000
G0 X234.409 Y36.290 Z13.000
G1 X234.409 Y36.290 Z7.500 F600.000
G1 X234.409 Y233.120 Z7.500 F600.000
G1 X37.579 Y233.120 Z7.500 F600.000
G1 X37.579 Y36.290 Z7.500 F600.000
G1 X234.409 Y36.290 Z7.500 F600.000
G0 Z15.000
G0 X136.139 Y134.560 Z15.000
G0 X136.139 Y134.560 Z13.000
G1 X136.139 Y134.560 Z7.000 F600.000
G1 X136.139 Y134.850 Z7.000 F600.000
G1 X135.849 Y134.850 Z7.000 F600.000
G1 X135.849 Y134.560 Z7.000 F600.000
G1 X136.139 Y134.560 Z7.000 F600.000
G0 Z15.000
G0 X139.309 Y131.390 Z15.000
G0 X139.309 Y131.390 Z13.000
G1 X139.309 Y131.390 Z7.000 F600.000
G1 X139.309 Y138.020 Z7.000 F600.000
G1 X132.679 Y138.020 Z7.000 F600.000
G1 X132.679 Y131.390 Z7.000 F600.000
G1 X139.309 Y131.390 Z7.000 F600.000
G0 Z15.000
G0 X142.479 Y128.220 Z15.000
G0 X142.479 Y128.220 Z13.000
G1 X142.479 Y128.220 Z7.000 F600.000
G1 X142.479 Y141.190 Z7.000 F600.000
G1 X129.509 Y141.190 Z7.000 F600.000
G1 X129.509 Y128.220 Z7.000 F600.000
G1 X142.479 Y128.220 Z7.000 F600.000
G0 Z15.000
G0 X145.649 Y125.050 Z15.000
G0 X145.649 Y125.050 Z13.000
G1 X145.649 Y125.050 Z7.000 F600.000
G1 X145.649 Y144.360 Z7.000 F600.000
G1 X126.339 Y144.360 Z7.000 F600.000
G1 X126.339 Y125.050 Z7.000 F600.000
G1 X145.649 Y125.050 Z7.000 F600.000
G0 Z15.000
G0 X148.819 Y121.880 Z15.000
G0 X148.819 Y121.880 Z13.000
G1 X148.819 Y121.880 Z7.000 F600.000
G1 X148.819 Y147.530 Z7.000 F600.000
G1 X123.169 Y147.530 Z7.000 F600.000
G1 X123.169 Y121.880 Z7.000 F600.000
G1 X148.819 Y121.880 Z7.000 F600.000
G0 Z15.000
G0 X151.989 Y118.710 Z15.000
G0 X151.989 Y118.710 Z13.000
G1 X151.989 Y118.710 Z7.000 F600.000
G1 X151.989 Y150.700 Z7.000 F600.000
G1 X119.999 Y150.700 Z7.000 F600.000
G1 X119.999 Y118.710 Z7.000 F600.000
G1 X151.989 Y118.710 Z7.000 F600.000
G0 Z15.000
G0 X155.159 Y115.540 Z15.000
G0 X155.159 Y115.540 Z13.000
G1 X155.159 Y115.540 Z7.000 F600.000
G1 X155.159 Y153.870 Z7.000 F600.000
G1 X116.829 Y153.870 Z7.000 F600.000
G1 X116.829 Y115.540 Z7.000 F600.000
G1 X155.159 Y115.540 Z7.000 F600.000
G0 Z15.000
G0 X158.329 Y112.370 Z15.000
G0 X158.329 Y112.370 Z13.000
G1 X158.329 Y112.370 Z7.000 F600.000
G1 X158.329 Y157.040 Z7.000 F600.000
G1 X113.659 Y157.040 Z7.000 F600.000
G1 X113.659 Y112.370 Z7.000 F600.000
G1 X158.329 Y112.370 Z7.000 F600.000
G0 Z15.000
G0 X161.499 Y109.200 Z15.000
G0 X161.499 Y109.200 Z13.000
G1 X161.499 Y109.200 Z7.000 F600.000
G1 X161.499 Y160.210 Z7.000 F600.000
G1 X110.489 Y160.210 Z7.000 F600.000
G1 X110.489 Y109.200 Z7.000 F600.000
G1 X161.499 Y109.200 Z7.000 F600.000
G0 Z15.000
G0 X164.669 Y106.030 Z15.000
G0 X164.669 Y106.030 Z13.000
G1 X164.669 Y106.030 Z7.000 F600.000
G1 X164.669 Y163.380 Z7.000 F600.000
G1 X107.319 Y163.380 Z7.000 F600.000
G1 X107.319 Y106.030 Z7.000 F600.000
G1 X164.669 Y106.030 Z7.000 F600.000
G0 Z15.000
G0 X167.839 Y102.860 Z15.000
G0 X167.839 Y102.860 Z13.000
G1 X167.839 Y102.860 Z7.000 F600.000
G1 X167.839 Y166.550 Z7.000 F600.000
G1 X104.149 Y166.550 Z7.000 F600.000
G1 X104.149 Y102.860 Z7.000 F600.000
G1 X167.839 Y102.860 Z7.000 F600.000
G0 Z15.000
G0 X171.009 Y99.690 Z15.000
G0 X171.009 Y99.690 Z13.000
G1 X171.009 Y99.690 Z7.000 F600.000
G1 X171.009 Y169.720 Z7.000 F600.000
G1 X100.979 Y169.720 Z7.000 F600.000
G1 X100.979 Y99.690 Z7.000 F600.000
G1 X171.009 Y99.690 Z7.000 F600.000
G0 Z15.000
G0 X174.179 Y96.520 Z15.000
G0 X174.179 Y96.520 Z13.000
G1 X174.179 Y96.520 Z7.000 F600.000
G1 X174.179 Y172.890 Z7.000 F600.000
G1 X97.809 Y172.890 Z7.000 F600.000
G1 X97.809 Y96.520 Z7.000 F600.000
G1 X174.179 Y96.520 Z7.000 F600.000
G0 Z15.000
G0 X177.349 Y93.350 Z15.000
G0 X177.349 Y93.350 Z13.000
G1 X177.349 Y93.350 Z7.000 F600.000
G1 X177.349 Y176.060 Z7.000 F600.000
G1 X94.639 Y176.060 Z7.000 F600.000
G1 X94.639 Y93.350 Z7.000 F600.000
G1 X177.349 Y93.350 Z7.000 F600.000
G0 Z15.000
G0 X180.519 Y90.180 Z15.000
G0 X180.519 Y90.180 Z13.000
G1 X180.519 Y90.180 Z7.000 F600.000
G1 X180.519 Y179.230 Z7.000 F600.000
G1 X91.469 Y179.230 Z7.000 F600.000
G1 X91.469 Y90.180 Z7.000 F600.000
G1 X180.519 Y90.180 Z7.000 F600.000
G0 Z15.000
G0 X183.689 Y87.010 Z15.000
G0 X183.689 Y87.010 Z13.000
G1 X183.689 Y87.010 Z7.000 F600.000
G1 X183.689 Y182.400 Z7.000 F600.000
G1 X88.299 Y182.400 Z7.000 F600.000
G1 X88.299 Y87.010 Z7.000 F600.000
G1 X183.689 Y87.010 Z7.000 F600.000
G0 Z15.000
G0 X186.859 Y83.840 Z15.000
G0 X186.859 Y83.840 Z13.000
G1 X186.859 Y83.840 Z7.000 F600.000
G1 X186.859 Y185.570 Z7.000 F600.000
G1 X85.129 Y185.570 Z7.000 F600.000
G1 X85.129 Y83.840 Z7.000 F600.000
G1 X186.859 Y83.840 Z7.000 F600.000
G0 Z15.000
G0 X190.029 Y80.670 Z15.000
G0 X190.029 Y80.670 Z13.000
G1 X190.029 Y80.670 Z7.000 F600.000
G1 X190.029 Y188.740 Z7.000 F600.000
G1 X81.959 Y188.740 Z7.000 F600.000
G1 X81.959 Y80.670 Z7.000 F600.000
G1 X190.029 Y80.670 Z7.000 F600.000
G0 Z15.000
G0 X193.199 Y77.500 Z15.000
G0 X193.199 Y77.500 Z13.000
G1 X193.199 Y77.500 Z7.000 F600.000
G1 X193.199 Y191.910 Z7.000 F600.000
G1 X78.789 Y191.910 Z7.000 F600.000
G1 X78.789 Y77.500 Z7.000 F600.000
G1 X193.199 Y77.500 Z7.000 F600.000
G0 Z15.000
G0 X196.369 Y74.330 Z15.000
G0 X196.369 Y74.330 Z13.000
G1 X196.369 Y74.330 Z7.000 F600.000
G1 X196.369 Y195.080 Z7.000 F600.000
G1 X75.619 Y195.080 Z7.000 F600.000
G1 X75.619 Y74.330 Z7.000 F600.000
G1 X196.369 Y74.330 Z7.000 F600.000
G0 Z15.000
G0 X199.539 Y71.160 Z15.000
G0 X199.539 Y71.160 Z13.000
G1 X199.539 Y71.160 Z7.000 F600.000
G1 X199.539 Y198.250 Z7.000 F600.000
G1 X72.449 Y198.250 Z7.000 F600.000
G1 X72.449 Y71.160 Z7.000 F600.000
G1 X199.539 Y71.160 Z7.000 F600.000
G0 Z15.000
G0 X202.709 Y67.990 Z15.000
G0 X202.709 Y67.990 Z13.000
G1 X202.709 Y67.990 Z7.000 F600.000
G1 X202.709 Y201.420 Z7.000 F600.000
G1 X69.279 Y201.420 Z7.000 F600.000
G1 X69.279 Y67.990 Z7.000 F600.000
G1 X202.709 Y67.990 Z7.000 F600.000
G0 Z15.000
G0 X205.879 Y64.820 Z15.000
G0 X205.879 Y64.820 Z13.000
G1 X205.879 Y64.820 Z7.000 F600.000
G1 X205.879 Y204.590 Z7.000 F600.000
G1 X66.109 Y204.590 Z7.000 F600.000
G1 X66.109 Y64.820 Z7.000 F600.000
G1 X205.879 Y64.820 Z7.000 F600.000
G0 Z15.000
G0 X209.049 Y61.650 Z15.000
G0 X209.049 Y61.650 Z13.000
G1 X209.049 Y61.650 Z7.000 F600.000
G1 X209.049 Y207.760 Z7.000 F600.000
G1 X62.939 Y207.760 Z7.000 F600.000
G1 X62.939 Y61.650 Z7.000 F600.000
G1 X209.049 Y61.650 Z7.000 F600.000
G0 Z15.000
G0 X212.219 Y58.480 Z15.000
G0 X212.219 Y58.480 Z13.000
G1 X212.219 Y58.480 Z7.000 F600.000
G1 X212.219 Y210.930 Z7.000 F600.000
G1 X59.769 Y210.930 Z7.000 F600.000
G1 X59.769 Y58.480 Z7.000 F600.000
G1 X212.219 Y58.480 Z7.000 F600.000
G0 Z15.000
G0 X215.389 Y55.310 Z15.000
G0 X215.389 Y55.310 Z13.000
G1 X215.389 Y55.310 Z7.000 F600.000
G1 X215.389 Y214.100 Z7.000 F600.000
G1 X56.599 Y214.100 Z7.000 F600.000
G1 X56.599 Y55.310 Z7.000 F600.000
G1 X215.389 Y55.310 Z7.000 F600.000
G0 Z15.000
G0 X218.559 Y52.140 Z15.000
G0 X218.559 Y52.140 Z13.000
G1 X218.559 Y52.140 Z7.000 F600.000
G1 X218.559 Y217.270 Z7.000 F600.000
G1 X53.429 Y217.270 Z7.000 F600.000
G1 X53.429 Y52.140 Z7.000 F600.000
G1 X218.559 Y52.140 Z7.000 F600.000
G0 Z15.000
G0 X221.729 Y48.970 Z15.000
G0 X221.729 Y48.970 Z13.000
G1 X221.729 Y48.970 Z7.000 F600.000
G1 X221.729 Y220.440 Z7.000 F600.000
G1 X50.259 Y220.440 Z7.000 F600.000
G1 X50.259 Y48.970 Z7.000 F600.000
G1 X221.729 Y48.970 Z7.000 F600.000
G0 Z15.000
G0 X224.899 Y45.800 Z15.000
G0 X224.899 Y45.800 Z13.000
G1 X224.899 Y45.800 Z7.000 F600.000
G1 X224.899 Y223.610 Z7.000 F600.000
G1 X47.089 Y223.610 Z7.000 F600.000
G1 X47.089 Y45.800 Z7.000 F600.000
G1 X224.899 Y45.800 Z7.000 F600.000
G0 Z15.000
G0 X228.069 Y42.630 Z15.000
G0 X228.069 Y42.630 Z13.000
G1 X228.069 Y42.630 Z7.000 F600.000
G1 X228.069 Y226.780 Z7.000 F600.000
G1 X43.919 Y226.780 Z7.000 F600.000
G1 X43.919 Y42.630 Z7.000 F600.000
G1 X228.069 Y42.630 Z7.000 F600.000
G0 Z15.000
G0 X231.239 Y39.460 Z15.000
G0 X231.239 Y39.460 Z13.000
G1 X231.239 Y39.460 Z7.000 F600.000
G1 X231.239 Y229.950 Z7.000 F600.000
G1 X40.749 Y229.950 Z7.000 F600.000
G1 X40.749 Y39.460 Z7.000 F600.000
G1 X231.239 Y39.460 Z7.000 F600.000
G0 Z15.000
G0 X234.409 Y36.290 Z15.000
G0 X234.409 Y36.290 Z13.000
G1 X234.409 Y36.290 Z7.000 F600.000
G1 X234.409 Y233.120 Z7.000 F600.000
G1 X37.579 Y233.120 Z7.000 F600.000
G1 X37.579 Y36.290 Z7.000 F600.000
G1 X234.409 Y36.290 Z7.000 F600.000
G0 Z15.000
G0 X136.139 Y134.560 Z15.000
G0 X136.139 Y134.560 Z13.000
G1 X136.139 Y134.560 Z6.500 F600.000
G1 X136.139 Y134.850 Z6.500 F600.000
G1 X135.849 Y134.850 Z6.500 F600.000
G1 X135.849 Y134.560 Z6.500 F600.000
G1 X136.139 Y134.560 Z6.500 F600.000
G0 Z15.000
G0 X139.309 Y131.390 Z15.000
G0 X139.309 Y131.390 Z13.000
G1 X139.309 Y131.390 Z6.500 F600.000
G1 X139.309 Y138.020 Z6.500 F600.000
G1 X132.679 Y138.020 Z6.500 F600.000
G1 X132.679 Y131.390 Z6.500 F600.000
G1 X139.309 Y131.390 Z6.500 F600.000
G0 Z15.000
G0 X142.479 Y128.220 Z15.000
G0 X142.479 Y128.220 Z13.000
G1 X142.479 Y128.220 Z6.500 F600.000
G1 X142.479 Y141.190 Z6.500 F600.000
G1 X129.509 Y141.190 Z6.500 F600.000
G1 X129.509 Y128.220 Z6.500 F600.000
G1 X142.479 Y128.220 Z6.500 F600.000
G0 Z15.000
G0 X145.649 Y125.050 Z15.000
G0 X145.649 Y125.050 Z13.000
G1 X145.649 Y125.050 Z6.500 F600.000
G1 X145.649 Y144.360 Z6.500 F600.000
G1 X126.339 Y144.360 Z6.500 F600.000
G1 X126.339 Y125.050 Z6.500 F600.000
G1 X145.649 Y125.050 Z6.500 F600.000
G0 Z15.000
G0 X148.819 Y121.880 Z15.000
G0 X148.819 Y121.880 Z13.000
G1 X148.819 Y121.880 Z6.500 F600.000
G1 X148.819 Y147.530 Z6.500 F600.000
G1 X123.169 Y147.530 Z6.500 F600.000
G1 X123.169 Y121.880 Z6.500 F600.000
G1 X148.819 Y121.880 Z6.500 F600.000
G0 Z15.000
G0 X151.989 Y118.710 Z15.000
G0 X151.989 Y118.710 Z13.000
G1 X151.989 Y118.710 Z6.500 F600.000
G1 X151.989 Y150.700 Z6.500 F600.000
G1 X119.999 Y150.700 Z6.500 F600.000
G1 X119.999 Y118.710 Z6.500 F600.000
G1 X151.989 Y118.710 Z6.500 F600.000
G0 Z15.000
G0 X155.159 Y115.540 Z15.000
G0 X155.159 Y115.540 Z13.000
G1 X155.159 Y115.540 Z6.500 F600.000
G1 X155.159 Y153.870 Z6.500 F600.000
G1 X116.829 Y153.870 Z6.500 F600.000
G1 X116.829 Y115.540 Z6.500 F600.000
G1 X155.159 Y115.540 Z6.500 F600.000
G0 Z15.000
G0 X158.329 Y112.370 Z15.000
G0 X158.329 Y112.370 Z13.000
G1 X158.329 Y112.370 Z6.500 F600.000
G1 X158.329 Y157.040 Z6.500 F600.000
G1 X113.659 Y157.040 Z6.500 F600.000
G1 X113.659 Y112.370 Z6.500 F600.000
G1 X158.329 Y112.370 Z6.500 F600.000
G0 Z15.000
G0 X161.499 Y109.200 Z15.000
G0 X161.499 Y109.200 Z13.000
G1 X161.499 Y109.200 Z6.500 F600.000
G1 X161.499 Y160.210 Z6.500 F600.000
G1 X110.489 Y160.210 Z6.500 F600.000
G1 X110.489 Y109.200 Z6.500 F600.000
G1 X161.499 Y109.200 Z6.500 F600.000
G0 Z15.000
G0 X164.669 Y106.030 Z15.000
G0 X164.669 Y106.030 Z13.000
G1 X164.669 Y106.030 Z6.500 F600.000
G1 X164.669 Y163.380 Z6.500 F600.000
G1 X107.319 Y163.380 Z6.500 F600.000
G1 X107.319 Y106.030 Z6.500 F600.000
G1 X164.669 Y106.030 Z6.500 F600.000
G0 Z15.000
G0 X167.839 Y102.860 Z15.000
G0 X167.839 Y102.860 Z13.000
G1 X167.839 Y102.860 Z6.500 F600.000
G1 X167.839 Y166.550 Z6.500 F600.000
G1 X104.149 Y166.550 Z6.500 F600.000
G1 X104.149 Y102.860 Z6.500 F600.000
G1 X167.839 Y102.860 Z6.500 F600.000
G0 Z15.000
G0 X171.009 Y99.690 Z15.000
G0 X171.009 Y99.690 Z13.000
G1 X171.009 Y99.690 Z6.500 F600.000
G1 X171.009 Y169.720 Z6.500 F600.000
G1 X100.979 Y169.720 Z6.500 F600.000
G1 X100.979 Y99.690 Z6.500 F600.000
G1 X171.009 Y99.690 Z6.500 F600.000
G0 Z15.000
G0 X174.179 Y96.520 Z15.000
G0 X174.179 Y96.520 Z13.000
G1 X174.179 Y96.520 Z6.500 F600.000
G1 X174.179 Y172.890 Z6.500 F600.000
G1 X97.809 Y172.890 Z6.500 F600.000
G1 X97.809 Y96.520 Z6.500 F600.000
G1 X174.179 Y96.520 Z6.500 F600.000
G0 Z15.000
G0 X177.349 Y93.350 Z15.000
G0 X177.349 Y93.350 Z13.000
G1 X177.349 Y93.350 Z6.500 F600.000
G1 X177.349 Y176.060 Z6.500 F600.000
G1 X94.639 Y176.060 Z6.500 F600.000
G1 X94.639 Y93.350 Z6.500 F600.000
G1 X177.349 Y93.350 Z6.500 F600.000
G0 Z15.000
G0 X180.519 Y90.180 Z15.000
G0 X180.519 Y90.180 Z13.000
G1 X180.519 Y90.180 Z6.500 F600.000
G1 X180.519 Y179.230 Z6.500 F600.000
G1 X91.469 Y179.230 Z6.500 F600.000
G1 X91.469 Y90.180 Z6.500 F600.000
G1 X180.519 Y90.180 Z6.500 F600.000
G0 Z15.000
G0 X183.689 Y87.010 Z15.000
G0 X183.689 Y87.010 Z13.000
G1 X183.689 Y87.010 Z6.500 F600.000
G1 X183.689 Y182.400 Z6.500 F600.000
G1 X88.299 Y182.400 Z6.500 F600.000
G1 X88.299 Y87.010 Z6.500 F600.000
G1 X183.689 Y87.010 Z6.500 F600.000
G0 Z15.000
G0 X186.859 Y83.840 Z15.000
G0 X186.859 Y83.840 Z13.000
G1 X186.859 Y83.840 Z6.500 F600.000
G1 X186.859 Y185.570 Z6.500 F600.000
G1 X85.129 Y185.570 Z6.500 F600.000
G1 X85.129 Y83.840 Z6.500 F600.000
G1 X186.859 Y83.840 Z6.500 F600.000
G0 Z15.000
G0 X190.029 Y80.670 Z15.000
G0 X190.029 Y80.670 Z13.000
G1 X190.029 Y80.670 Z6.500 F600.000
G1 X190.029 Y188.740 Z6.500 F600.000
G1 X81.959 Y188.740 Z6.500 F600.000
G1 X81.959 Y80.670 Z6.500 F600.000
G1 X190.029 Y80.670 Z6.500 F600.000
G0 Z15.000
G0 X193.199 Y77.500 Z15.000
G0 X193.199 Y77.500 Z13.000
G1 X193.199 Y77.500 Z6.500 F600.000
G1 X193.199 Y191.910 Z6.500 F600.000
G1 X78.789 Y191.910 Z6.500 F600.000
G1 X78.789 Y77.500 Z6.500 F600.000
G1 X193.199 Y77.500 Z6.500 F600.000
G0 Z15.000
G0 X196.369 Y74.330 Z15.000
G0 X196.369 Y74.330 Z13.000
G1 X196.369 Y74.330 Z6.500 F600.000
G1 X196.369 Y195.080 Z6.500 F600.000
G1 X75.619 Y195.080 Z6.500 F600.000
G1 X75.619 Y74.330 Z6.500 F600.000
G1 X196.369 Y74.330 Z6.500 F600.000
G0 Z15.000
G0 X199.539 Y71.160 Z15.000
G0 X199.539 Y71.160 Z13.000
G1 X199.539 Y71.160 Z6.500 F600.000
G1 X199.539 Y198.250 Z6.500 F600.000
G1 X72.449 Y198.250 Z6.500 F600.000
G1 X72.449 Y71.160 Z6.500 F600.000
G1 X199.539 Y71.160 Z6.500 F600.000
G0 Z15.000
G0 X202.709 Y67.990 Z15.000
G0 X202.709 Y67.990 Z13.000
G1 X202.709 Y67.990 Z6.500 F600.000
G1 X202.709 Y201.420 Z6.500 F600.000
G1 X69.279 Y201.420 Z6.500 F600.000
G1 X69.279 Y67.990 Z6.500 F600.000
G1 X202.709 Y67.990 Z6.500 F600.000
G0 Z15.000
G0 X205.879 Y64.820 Z15.000
G0 X205.879 Y64.820 Z13.000
G1 X205.879 Y64.820 Z6.500 F600.000
G1 X205.879 Y204.590 Z6.500 F600.000
G1 X66.109 Y204.590 Z6.500 F600.000
G1 X66.109 Y64.820 Z6.500 F600.000
G1 X205.879 Y64.820 Z6.500 F600.000
G0 Z15.000
G0 X209.049 Y61.650 Z15.000
G0 X209.049 Y61.650 Z13.000
G1 X209.049 Y61.650 Z6.500 F600.000
G1 X209.049 Y207.760 Z6.500 F600.000
G1 X62.939 Y207.760 Z6.500 F600.000
G1 X62.939 Y61.650 Z6.500 F600.000
G1 X209.049 Y61.650 Z6.500 F600.000
G0 Z15.000
G0 X212.219 Y58.480 Z15.000
G0 X212.219 Y58.480 Z13.000
G1 X212.219 Y58.480 Z6.500 F600.000
G1 X212.219 Y210.930 Z6.500 F600.000
G1 X59.769 Y210.930 Z6.500 F600.000
G1 X59.769 Y58.480 Z6.500 F600.000
G1 X212.219 Y58.480 Z6.500 F600.000
G0 Z15.000
G0 X215.389 Y55.310 Z15.000
G0 X215.389 Y55.310 Z13.000
G1 X215.389 Y55.310 Z6.500 F600.000
G1 X215.389 Y214.100 Z6.500 F600.000
G1 X56.599 Y214.100 Z6.500 F600.000
G1 X56.599 Y55.310 Z6.500 F600.000
G1 X215.389 Y55.310 Z6.500 F600.000
G0 Z15.000
G0 X218.559 Y52.140 Z15.000
G0 X218.559 Y52.140 Z13.000
G1 X218.559 Y52.140 Z6.500 F600.000
G1 X218.559 Y217.270 Z6.500 F600.000
G1 X53.429 Y217.270 Z6.500 F600.000
G1 X53.429 Y52.140 Z6.500 F600.000
G1 X218.559 Y52.140 Z6.500 F600.000
G0 Z15.000
G0 X221.729 Y48.970 Z15.000
G0 X221.729 Y48.970 Z13.000
G1 X221.729 Y48.970 Z6.500 F600.000
G1 X221.729 Y220.440 Z6.500 F600.000
G1 X50.259 Y220.440 Z6.500 F600.000
G1 X50.259 Y48.970 Z6.500 F600.000
G1 X221.729 Y48.970 Z6.500 F600.000
G0 Z15.000
G0 X224.899 Y45.800 Z15.000
G0 X224.899 Y45.800 Z13.000
G1 X224.899 Y45.800 Z6.500 F600.000
G1 X224.899 Y223.610 Z6.500 F600.000
G1 X47.089 Y223.610 Z6.500 F600.000
G1 X47.089 Y45.800 Z6.500 F600.000
G1 X224.899 Y45.800 Z6.500 F600.000
G0 Z15.000
G0 X228.069 Y42.630 Z15.000
G0 X228.069 Y42.630 Z13.000
G1 X228.069 Y42.630 Z6.500 F600.000
G1 X228.069 Y226.780 Z6.500 F600.000
G1 X43.919 Y226.780 Z6.500 F600.000
G1 X43.919 Y42.630 Z6.500 F600.000
G1 X228.069 Y42.630 Z6.500 F600.000
G0 Z15.000
G0 X231.239 Y39.460 Z15.000
G0 X231.239 Y39.460 Z13.000
G1 X231.239 Y39.460 Z6.500 F600.000
G1 X231.239 Y229.950 Z6.500 F600.000
G1 X40.749 Y229.950 Z6.500 F600.000
G1 X40.749 Y39.460 Z6.500 F600.000
G1 X231.239 Y39.460 Z6.500 F600.000
G0 Z15.000
G0 X234.409 Y36.290 Z15.000
G0 X234.409 Y36.290 Z13.000
G1 X234.409 Y36.290 Z6.500 F600.000
G1 X234.409 Y233.120 Z6.500 F600.000
G1 X37.579 Y233.120 Z6.500 F600.000
G1 X37.579 Y36.290 Z6.500 F600.000
G1 X234.409 Y36.290 Z6.500 F600.000
G0 Z15.000
G0 X136.139 Y134.560 Z15.000
G0 X136.139 Y134.560 Z13.000
G1 X136.139 Y134.560 Z6.000 F600.000
G1 X136.139 Y134.850 Z6.000 F600.000
G1 X135.849 Y134.850 Z6.000 F600.000
G1 X135.849 Y134.560 Z6.000 F600.000
G1 X136.139 Y134.560 Z6.000 F600.000
G0 Z15.000
G0 X139.309 Y131.390 Z15.000
G0 X139.309 Y131.390 Z13.000
G1 X139.309 Y131.390 Z6.000 F600.000
G1 X139.309 Y138.020 Z6.000 F600.000
G1 X132.679 Y138.020 Z6.000 F600.000
G1 X132.679 Y131.390 Z6.000 F600.000
G1 X139.309 Y131.390 Z6.000 F600.000
G0 Z15.000
G0 X142.479 Y128.220 Z15.000
G0 X142.479 Y128.220 Z13.000
G1 X142.479 Y128.220 Z6.000 F600.000
G1 X142.479 Y141.190 Z6.000 F600.000
G1 X129.509 Y141.190 Z6.000 F600.000
G1 X129.509 Y128.220 Z6.000 F600.000
G1 X142.479 Y128.220 Z6.000 F600.000
G0 Z15.000
G0 X145.649 Y125.050 Z15.000
G0 X145.649 Y125.050 Z13.000
G1 X145.649 Y125.050 Z6.000 F600.000
G1 X145.649 Y144.360 Z6.000 F600.000
G1 X126.339 Y144.360 Z6.000 F600.000
G1 X126.339 Y125.050 Z6.000 F600.000
G1 X145.649 Y125.050 Z6.000 F600.000
G0 Z15.000
G0 X148.819 Y121.880 Z15.000
G0 X148.819 Y121.880 Z13.000
G1 X148.819 Y121.880 Z6.000 F600.000
G1 X148.819 Y147.530 Z6.000 F600.000
G1 X123.169 Y147.530 Z6.000 F600.000
G1 X123.169 Y121.880 Z6.000 F600.000
G1 X148.819 Y121.880 Z6.000 F600.000
G0 Z15.000
G0 X151.989 Y118.710 Z15.000
G0 X151.989 Y118.710 Z13.000
G1 X151.989 Y118.710 Z6.000 F600.000
G1 X151.989 Y150.700 Z6.000 F600.000
G1 X119.999 Y150.700 Z6.000 F600.000
G1 X119.999 Y118.710 Z6.000 F600.000
G1 X151.989 Y118.710 Z6.000 F600.000
G0 Z15.000
G0 X155.159 Y115.540 Z15.000
G0 X155.159 Y115.540 Z13.000
G1 X155.159 Y115.540 Z6.000 F600.000
G1 X155.159 Y153.870 Z6.000 F600.000
G1 X116.829 Y153.870 Z6.000 F600.000
G1 X116.829 Y115.540 Z6.000 F600.000
G1 X155.159 Y115.540 Z6.000 F600.000
G0 Z15.000
G0 X158.329 Y112.370 Z15.000
G0 X158.329 Y112.370 Z13.000
G1 X158.329 Y112.370 Z6.000 F600.000
G1 X158.329 Y157.040 Z6.000 F600.000
G1 X113.659 Y157.040 Z6.000 F600.000
G1 X113.659 Y112.370 Z6.000 F600.000
G1 X158.329 Y112.370 Z6.000 F600.000
G0 Z15.000
G0 X161.499 Y109.200 Z15.000
G0 X161.499 Y109.200 Z13.000
G1 X161.499 Y109.200 Z6.000 F600.000
G1 X161.499 Y160.210 Z6.000 F600.000
G1 X110.489 Y160.210 Z6.000 F600.000
G1 X110.489 Y109.200 Z6.000 F600.000
G1 X161.499 Y109.200 Z6.000 F600.000
G0 Z15.000
G0 X164.669 Y106.030 Z15.000
G0 X164.669 Y106.030 Z13.000
G1 X164.669 Y106.030 Z6.000 F600.000
G1 X164.669 Y163.380 Z6.000 F600.000
G1 X107.319 Y163.380 Z6.000 F600.000
G1 X107.319 Y106.030 Z6.000 F600.000
G1 X164.669 Y106.030 Z6.000 F600.000
G0 Z15.000
G0 X167.839 Y102.860 Z15.000
G0 X167.839 Y102.860 Z13.000
G1 X167.839 Y102.860 Z6.000 F600.000
G1 X167.839 Y166.550 Z6.000 F600.000
G1 X104.149 Y166.550 Z6.000 F600.000
G1 X104.149 Y102.860 Z6.000 F600.000
G1 X167.839 Y102.860 Z6.000 F600.000
G0 Z15.000
G0 X171.009 Y99.690 Z15.000
G0 X171.009 Y99.690 Z13.000
G1 X171.009 Y99.690 Z6.000 F600.000
G1 X171.009 Y169.720 Z6.000 F600.000
G1 X100.979 Y169.720 Z6.000 F600.000
G1 X100.979 Y99.690 Z6.000 F600.000
G1 X171.009 Y99.690 Z6.000 F600.000
G0 Z15.000
G0 X174.179 Y96.520 Z15.000
G0 X174.179 Y96.520 Z13.000
G1 X174.179 Y96.520 Z6.000 F600.000
G1 X174.179 Y172.890 Z6.000 F600.000
G1 X97.809 Y172.890 Z6.000 F600.000
G1 X97.809 Y96.520 Z6.000 F600.000
G1 X174.179 Y96.520 Z6.000 F600.000
G0 Z15.000
G0 X177.349 Y93.350 Z15.000
G0 X177.349 Y93.350 Z13.000
G1 X177.349 Y93.350 Z6.000 F600.000
G1 X177.349 Y176.060 Z6.000 F600.000
G1 X94.639 Y176.060 Z6.000 F600.000
G1 X94.639 Y93.350 Z6.000 F600.000
G1 X177.349 Y93.350 Z6.000 F600.000
G0 Z15.000
G0 X180.519 Y90.180 Z15.000
G0 X180.519 Y90.180 Z13.000
G1 X180.519 Y90.180 Z6.000 F600.000
G1 X180.519 Y179.230 Z6.000 F600.000
G1 X91.469 Y179.230 Z6.000 F600.000
G1 X91.469 Y90.180 Z6.000 F600.000
G1 X180.519 Y90.180 Z6.000 F600.000
G0 Z15.000
G0 X183.689 Y87.010 Z15.000
G0 X183.689 Y87.010 Z13.000
G1 X183.689 Y87.010 Z6.000 F600.000
G1 X183.689 Y182.400 Z6.000 F600.000
G1 X88.299 Y182.400 Z6.000 F600.000
G1 X88.299 Y87.010 Z6.000 F600.000
G1 X183.689 Y87.010 Z6.000 F600.000
G0 Z15.000
G0 X186.859 Y83.840 Z15.000
G0 X186.859 Y83.840 Z13.000
G1 X186.859 Y83.840 Z6.000 F600.000
G1 X186.859 Y185.570 Z6.000 F600.000
G1 X85.129 Y185.570 Z6.000 F600.000
G1 X85.129 Y83.840 Z6.000 F600.000
G1 X186.859 Y83.840 Z6.000 F600.000
G0 Z15.000
G0 X190.029 Y80.670 Z15.000
G0 X190.029 Y80.670 Z13.000
G1 X190.029 Y80.670 Z6.000 F600.000
G1 X190.029 Y188.740 Z6.000 F600.000
G1 X81.959 Y188.740 Z6.000 F600.000
G1 X81.959 Y80.670 Z6.000 F600.000
G1 X190.029 Y80.670 Z6.000 F600.000
G0 Z15.000
G0 X193.199 Y77.500 Z15.000
G0 X193.199 Y77.500 Z13.000
G1 X193.199 Y77.500 Z6.000 F600.000
G1 X193.199 Y191.910 Z6.000 F600.000
G1 X78.789 Y191.910 Z6.000 F600.000
G1 X78.789 Y77.500 Z6.000 F600.000
G1 X193.199 Y77.500 Z6.000 F600.000
G0 Z15.000
G0 X196.369 Y74.330 Z15.000
G0 X196.369 Y74.330 Z13.000
G1 X196.369 Y74.330 Z6.000 F600.000
G1 X196.369 Y195.080 Z6.000 F600.000
G1 X75.619 Y195.080 Z6.000 F600.000
G1 X75.619 Y74.330 Z6.000 F600.000
G1 X196.369 Y74.330 Z6.000 F600.000
G0 Z15.000
G0 X199.539 Y71.160 Z15.000
G0 X199.539 Y71.160 Z13.000
G1 X199.539 Y71.160 Z6.000 F600.000
G1 X199.539 Y198.250 Z6.000 F600.000
G1 X72.449 Y198.250 Z6.000 F600.000
G1 X72.449 Y71.160 Z6.000 F600.000
G1 X199.539 Y71.160 Z6.000 F600.000
G0 Z15.000
G0 X202.709 Y67.990 Z15.000
G0 X202.709 Y67.990 Z13.000
G1 X202.709 Y67.990 Z6.000 F600.000
G1 X202.709 Y201.420 Z6.000 F600.000
G1 X69.279 Y201.420 Z6.000 F600.000
G1 X69.279 Y67.990 Z6.000 F600.000
G1 X202.709 Y67.990 Z6.000 F600.000
G0 Z15.000
G0 X205.879 Y64.820 Z15.000
G0 X205.879 Y64.820 Z13.000
G1 X205.879 Y64.820 Z6.000 F600.000
G1 X205.879 Y204.590 Z6.000 F600.000
G1 X66.109 Y204.590 Z6.000 F600.000
G1 X66.109 Y64.820 Z6.000 F600.000
G1 X205.879 Y64.820 Z6.000 F600.000
G0 Z15.000
G0 X209.049 Y61.650 Z15.000
G0 X209.049 Y61.650 Z13.000
G1 X209.049 Y61.650 Z6.000 F600.000
G1 X209.049 Y207.760 Z6.000 F600.000
G1 X62.939 Y207.760 Z6.000 F600.000
G1 X62.939 Y61.650 Z6.000 F600.000
G1 X209.049 Y61.650 Z6.000 F600.000
G0 Z15.000
G0 X212.219 Y58.480 Z15.000
G0 X212.219 Y58.480 Z13.000
G1 X212.219 Y58.480 Z6.000 F600.000
G1 X212.219 Y210.930 Z6.000 F600.000
G1 X59.769 Y210.930 Z6.000 F600.000
G1 X59.769 Y58.480 Z6.000 F600.000
G1 X212.219 Y58.480 Z6.000 F600.000
G0 Z15.000
G0 X215.389 Y55.310 Z15.000
G0 X215.389 Y55.310 Z13.000
G1 X215.389 Y55.310 Z6.000 F600.000
G1 X215.389 Y214.100 Z6.000 F600.000
G1 X56.599 Y214.100 Z6.000 F600.000
G1 X56.599 Y55.310 Z6.000 F600.000
G1 X215.389 Y55.310 Z6.000 F600.000
G0 Z15.000
G0 X218.559 Y52.140 Z15.000
G0 X218.559 Y52.140 Z13.000
G1 X218.559 Y52.140 Z6.000 F600.000
G1 X218.559 Y217.270 Z6.000 F600.000
G1 X53.429 Y217.270 Z6.000 F600.000
G1 X53.429 Y52.140 Z6.000 F600.000
G1 X218.559 Y52.140 Z6.000 F600.000
G0 Z15.000
G0 X221.729 Y48.970 Z15.000
G0 X221.729 Y48.970 Z13.000
G1 X221.729 Y48.970 Z6.000 F600.000
G1 X221.729 Y220.440 Z6.000 F600.000
G1 X50.259 Y220.440 Z6.000 F600.000
G1 X50.259 Y48.970 Z6.000 F600.000
G1 X221.729 Y48.970 Z6.000 F600.000
G0 Z15.000
G0 X224.899 Y45.800 Z15.000
G0 X224.899 Y45.800 Z13.000
G1 X224.899 Y45.800 Z6.000 F600.000
G1 X224.899 Y223.610 Z6.000 F600.000
G1 X47.089 Y223.610 Z6.000 F600.000
G1 X47.089 Y45.800 Z6.000 F600.000
G1 X224.899 Y45.800 Z6.000 F600.000
G0 Z15.000
G0 X228.069 Y42.630 Z15.000
G0 X228.069 Y42.630 Z13.000
G1 X228.069 Y42.630 Z6.000 F600.000
G1 X228.069 Y226.780 Z6.000 F600.000
G1 X43.919 Y226.780 Z6.000 F600.000
G1 X43.919 Y42.630 Z6.000 F600.000
G1 X228.069 Y42.630 Z6.000 F600.000
G0 Z15.000
G0 X231.239 Y39.460 Z15.000
G0 X231.239 Y39.460 Z13.000
G1 X231.239 Y39.460 Z6.000 F600.000
G1 X231.239 Y229.950 Z6.000 F600.000
G1 X40.749 Y229.950 Z6.000 F600.000
G1 X40.749 Y39.460 Z6.000 F600.000
G1 X231.239 Y39.460 Z6.000 F600.000
G0 Z15.000
G0 X234.409 Y36.290 Z15.000
G0 X234.409 Y36.290 Z13.000
G1 X234.409 Y36.290 Z6.000 F600.000
G1 X234.409 Y233.120 Z6.000 F600.000
G1 X37.579 Y233.120 Z6.000 F600.000
G1 X37.579 Y36.290 Z6.000 F600.000
G1 X234.409 Y36.290 Z6.000 F600.000
G0 Z15.000
G0 X136.139 Y134.560 Z15.000
G0 X136.139 Y134.560 Z13.000
G1 X136.139 Y134.560 Z5.500 F600.000
G1 X136.139 Y134.850 Z5.500 F600.000
G1 X135.849 Y134.850 Z5.500 F600.000
G1 X135.849 Y134.560 Z5.500 F600.000
G1 X136.139 Y134.560 Z5.500 F600.000
G0 Z15.000
G0 X139.309 Y131.390 Z15.000
G0 X139.309 Y131.390 Z13.000
G1 X139.309 Y131.390 Z5.500 F600.000
G1 X139.309 Y138.020 Z5.500 F600.000
G1 X132.679 Y138.020 Z5.500 F600.000
G1 X132.679 Y131.390 Z5.500 F600.000
G1 X139.309 Y131.390 Z5.500 F600.000
G0 Z15.000
G0 X142.479 Y128.220 Z15.000
G0 X142.479 Y128.220 Z13.000
G1 X142.479 Y128.220 Z5.500 F600.000
G1 X142.479 Y141.190 Z5.500 F600.000
G1 X129.509 Y141.190 Z5.500 F600.000
G1 X129.509 Y128.220 Z5.500 F600.000
G1 X142.479 Y128.220 Z5.500 F600.000
G0 Z15.000
G0 X145.649 Y125.050 Z15.000
G0 X145.649 Y125.050 Z13.000
G1 X145.649 Y125.050 Z5.500 F600.000
G1 X145.649 Y144.360 Z5.500 F600.000
G1 X126.339 Y144.360 Z5.500 F600.000
G1 X126.339 Y125.050 Z5.500 F600.000
G1 X145.649 Y125.050 Z5.500 F600.000
G0 Z15.000
G0 X148.819 Y121.880 Z15.000
G0 X148.819 Y121.880 Z13.000
G1 X148.819 Y121.880 Z5.500 F600.000
G1 X148.819 Y147.530 Z5.500 F600.000
G1 X123.169 Y147.530 Z5.500 F600.000
G1 X123.169 Y121.880 Z5.500 F600.000
G1 X148.819 Y121.880 Z5.500 F600.000
G0 Z15.000
G0 X151.989 Y118.710 Z15.000
G0 X151.989 Y118.710 Z13.000
G1 X151.989 Y118.710 Z5.500 F600.000
G1 X151.989 Y150.700 Z5.500 F600.000
G1 X119.999 Y150.700 Z5.500 F600.000
G1 X119.999 Y118.710 Z5.500 F600.000
G1 X151.989 Y118.710 Z5.500 F600.000
G0 Z15.000
G0 X155.159 Y115.540 Z15.000
G0 X155.159 Y115.540 Z13.000
G1 X155.159 Y115.540 Z5.500 F600.000
G1 X155.159 Y153.870 Z5.500 F600.000
G1 X116.829 Y153.870 Z5.500 F600.000
G1 X116.829 Y115.540 Z5.500 F600.000
G1 X155.159 Y115.540 Z5.500 F600.000
G0 Z15.000
G0 X158.329 Y112.370 Z15.000
G0 X158.329 Y112.370 Z13.000
G1 X158.329 Y112.370 Z5.500 F600.000
G1 X158.329 Y157.040 Z5.500 F600.000
G1 X113.659 Y157.040 Z5.500 F600.000
G1 X113.659 Y112.370 Z5.500 F600.000
G1 X158.329 Y112.370 Z5.500 F600.000
G0 Z15.000
G0 X161.499 Y109.200 Z15.000
G0 X161.499 Y109.200 Z13.000
G1 X161.499 Y109.200 Z5.500 F600.000
G1 X161.499 Y160.210 Z5.500 F600.000
G1 X110.489 Y160.210 Z5.500 F600.000
G1 X110.489 Y109.200 Z5.500 F600.000
G1 X161.499 Y109.200 Z5.500 F600.000
G0 Z15.000
G0 X164.669 Y106.030 Z15.000
G0 X164.669 Y106.030 Z13.000
G1 X164.669 Y106.030 Z5.500 F600.000
G1 X164.669 Y163.380 Z5.500 F600.000
G1 X107.319 Y163.380 Z5.500 F600.000
G1 X107.319 Y106.030 Z5.500 F600.000
G1 X164.669 Y106.030 Z5.500 F600.000
G0 Z15.000
G0 X167.839 Y102.860 Z15.000
G0 X167.839 Y102.860 Z13.000
G1 X167.839 Y102.860 Z5.500 F600.000
G1 X167.839 Y166.550 Z5.500 F600.000
G1 X104.149 Y166.550 Z5.500 F600.000
G1 X104.149 Y102.860 Z5.500 F600.000
G1 X167.839 Y102.860 Z5.500 F600.000
G0 Z15.000
G0 X171.009 Y99.690 Z15.000
G0 X171.009 Y99.690 Z13.000
G1 X171.009 Y99.690 Z5.500 F600.000
G1 X171.009 Y169.720 Z5.500 F600.000
G1 X100.979 Y169.720 Z5.500 F600.000
G1 X100.979 Y99.690 Z5.500 F600.000
G1 X171.009 Y99.690 Z5.500 F600.000
G0 Z15.000
G0 X174.179 Y96.520 Z15.000
G0 X174.179 Y96.520 Z13.000
G1 X174.179 Y96.520 Z5.500 F600.000
G1 X174.179 Y172.890 Z5.500 F600.000
G1 X97.809 Y172.890 Z5.500 F600.000
G1 X97.809 Y96.520 Z5.500 F600.000
G1 X174.179 Y96.520 Z5.500 F600.000
G0 Z15.000
G0 X177.349 Y93.350 Z15.000
G0 X177.349 Y93.350 Z13.000
G1 X177.349 Y93.350 Z5.500 F600.000
G1 X177.349 Y176.060 Z5.500 F600.000
G1 X94.639 Y176.060 Z5.500 F600.000
G1 X94.639 Y93.350 Z5.500 F600.000
G1 X177.349 Y93.350 Z5.500 F600.000
G0 Z15.000
G0 X180.519 Y90.180 Z15.000
G0 X180.519 Y90.180 Z13.000
G1 X180.519 Y90.180 Z5.500 F600.000
G1 X180.519 Y179.230 Z5.500 F600.000
G1 X91.469 Y179.230 Z5.500 F600.000
G1 X91.469 Y90.180 Z5.500 F600.000
G1 X180.519 Y90.180 Z5.500 F600.000
G0 Z15.000
G0 X183.689 Y87.010 Z15.000
G0 X183.689 Y87.010 Z13.000
G1 X183.689 Y87.010 Z5.500 F600.000
G1 X183.689 Y182.400 Z5.500 F600.000
G1 X88.299 Y182.400 Z5.500 F600.000
G1 X88.299 Y87.010 Z5.500 F600.000
G1 X183.689 Y87.010 Z5.500 F600.000
G0 Z15.000
G0 X186.859 Y83.840 Z15.000
G0 X186.859 Y83.840 Z13.000
G1 X186.859 Y83.840 Z5.500 F600.000
G1 X186.859 Y185.570 Z5.500 F600.000
G1 X85.129 Y185.570 Z5.500 F600.000
G1 X85.129 Y83.840 Z5.500 F600.000
G1 X186.859 Y83.840 Z5.500 F600.000
G0 Z15.000
G0 X190.029 Y80.670 Z15.000
G0 X190.029 Y80.670 Z13.000
G1 X190.029 Y80.670 Z5.500 F600.000
G1 X190.029 Y188.740 Z5.500 F600.000
G1 X81.959 Y188.740 Z5.500 F600.000
G1 X81.959 Y80.670 Z5.500 F600.000
G1 X190.029 Y80.670 Z5.500 F600.000
G0 Z15.000
G0 X193.199 Y77.500 Z15.000
G0 X193.199 Y77.500 Z13.000
G1 X193.199 Y77.500 Z5.500 F600.000
G1 X193.199 Y191.910 Z5.500 F600.000
G1 X78.789 Y191.910 Z5.500 F600.000
G1 X78.789 Y77.500 Z5.500 F600.000
G1 X193.199 Y77.500 Z5.500 F600.000
G0 Z15.000
G0 X196.369 Y74.330 Z15.000
G0 X196.369 Y74.330 Z13.000
G1 X196.369 Y74.330 Z5.500 F600.000
G1 X196.369 Y195.080 Z5.500 F600.000
G1 X75.619 Y195.080 Z5.500 F600.000
G1 X75.619 Y74.330 Z5.500 F600.000
G1 X196.369 Y74.330 Z5.500 F600.000
G0 Z15.000
G0 X199.539 Y71.160 Z15.000
G0 X199.539 Y71.160 Z13.000
G1 X199.539 Y71.160 Z5.500 F600.000
G1 X199.539 Y198.250 Z5.500 F600.000
G1 X72.449 Y198.250 Z5.500 F600.000
G1 X72.449 Y71.160 Z5.500 F600.000
G1 X199.539 Y71.160 Z5.500 F600.000
G0 Z15.000
G0 X202.709 Y67.990 Z15.000
G0 X202.709 Y67.990 Z13.000
G1 X202.709 Y67.990 Z5.500 F600.000
G1 X202.709 Y201.420 Z5.500 F600.000
G1 X69.279 Y201.420 Z5.500 F600.000
G1 X69.279 Y67.990 Z5.500 F600.000
G1 X202.709 Y67.990 Z5.500 F600.000
G0 Z15.000
G0 X205.879 Y64.820 Z15.000
G0 X205.879 Y64.820 Z13.000
G1 X205.879 Y64.820 Z5.500 F600.000
G1 X205.879 Y204.590 Z5.500 F600.000
G1 X66.109 Y204.590 Z5.500 F600.000
G1 X66.109 Y64.820 Z5.500 F600.000
G1 X205.879 Y64.820 Z5.500 F600.000
G0 Z15.000
G0 X209.049 Y61.650 Z15.000
G0 X209.049 Y61.650 Z13.000
G1 X209.049 Y61.650 Z5.500 F600.000
G1 X209.049 Y207.760 Z5.500 F600.000
G1 X62.939 Y207.760 Z5.500 F600.000
G1 X62.939 Y61.650 Z5.500 F600.000
G1 X209.049 Y61.650 Z5.500 F600.000
G0 Z15.000
G0 X212.219 Y58.480 Z15.000
G0 X212.219 Y58.480 Z13.000
G1 X212.219 Y58.480 Z5.500 F600.000
G1 X212.219 Y210.930 Z5.500 F600.000
G1 X59.769 Y210.930 Z5.500 F600.000
G1 X59.769 Y58.480 Z5.500 F600.000
G1 X212.219 Y58.480 Z5.500 F600.000
G0 Z15.000
G0 X215.389 Y55.310 Z15.000
G0 X215.389 Y55.310 Z13.000
G1 X215.389 Y55.310 Z5.500 F600.000
G1 X215.389 Y214.100 Z5.500 F600.000
G1 X56.599 Y214.100 Z5.500 F600.000
G1 X56.599 Y55.310 Z5.500 F600.000
G1 X215.389 Y55.310 Z5.500 F600.000
G0 Z15.000
G0 X218.559 Y52.140 Z15.000
G0 X218.559 Y52.140 Z13.000
G1 X218.559 Y52.140 Z5.500 F600.000
G1 X218.559 Y217.270 Z5.500 F600.000
G1 X53.429 Y217.270 Z5.500 F600.000
G1 X53.429 Y52.140 Z5.500 F600.000
G1 X218.559 Y52.140 Z5.500 F600.000
G0 Z15.000
G0 X221.729 Y48.970 Z15.000
G0 X221.729 Y48.970 Z13.000
G1 X221.729 Y48.970 Z5.500 F600.000
G1 X221.729 Y220.440 Z5.500 F600.000
G1 X50.259 Y220.440 Z5.500 F600.000
G1 X50.259 Y48.970 Z5.500 F600.000
G1 X221.729 Y48.970 Z5.500 F600.000
G0 Z15.000
G0 X224.899 Y45.800 Z15.000
G0 X224.899 Y45.800 Z13.000
G1 X224.899 Y45.800 Z5.500 F600.000
G1 X224.899 Y223.610 Z5.500 F600.000
G1 X47.089 Y223.610 Z5.500 F600.000
G1 X47.089 Y45.800 Z5.500 F600.000
G1 X224.899 Y45.800 Z5.500 F600.000
G0 Z15.000
G0 X228.069 Y42.630 Z15.000
G0 X228.069 Y42.630 Z13.000
G1 X228.069 Y42.630 Z5.500 F600.000
G1 X228.069 Y226.780 Z5.500 F600.000
G1 X43.919 Y226.780 Z5.500 F600.000
G1 X43.919 Y42.630 Z5.500 F600.000
G1 X228.069 Y42.630 Z5.500 F600.000
G0 Z15.000
G0 X231.239 Y39.460 Z15.000
G0 X231.239 Y39.460 Z13.000
G1 X231.239 Y39.460 Z5.500 F600.000
G1 X231.239 Y229.950 Z5.500 F600.000
G1 X40.749 Y229.950 Z5.500 F600.000
G1 X40.749 Y39.460 Z5.500 F600.000
G1 X231.239 Y39.460 Z5.500 F600.000
G0 Z15.000
G0 X234.409 Y36.290 Z15.000
G0 X234.409 Y36.290 Z13.000
G1 X234.409 Y36.290 Z5.500 F600.000
G1 X234.409 Y233.120 Z5.500 F600.000
G1 X37.579 Y233.120 Z5.500 F600.000
G1 X37.579 Y36.290 Z5.500 F600.000
G1 X234.409 Y36.290 Z5.500 F600.000
G0 Z15.000
G0 X136.139 Y134.560 Z15.000
G0 X136.139 Y134.560 Z13.000
G1 X136.139 Y134.560 Z5.000 F600.000
G1 X136.139 Y134.850 Z5.000 F600.000
G1 X135.849 Y134.850 Z5.000 F600.000
G1 X135.849 Y134.560 Z5.000 F600.000
G1 X136.139 Y134.560 Z5.000 F600.000
G0 Z15.000
G0 X139.309 Y131.390 Z15.000
G0 X139.309 Y131.390 Z13.000
G1 X139.309 Y131.390 Z5.000 F600.000
G1 X139.309 Y138.020 Z5.000 F600.000
G1 X132.679 Y138.020 Z5.000 F600.000
G1 X132.679 Y131.390 Z5.000 F600.000
G1 X139.309 Y131.390 Z5.000 F600.000
G0 Z15.000
G0 X142.479 Y128.220 Z15.000
G0 X142.479 Y128.220 Z13.000
G1 X142.479 Y128.220 Z5.000 F600.000
G1 X142.479 Y141.190 Z5.000 F600.000
G1 X129.509 Y141.190 Z5.000 F600.000
G1 X129.509 Y128.220 Z5.000 F600.000
G1 X142.479 Y128.220 Z5.000 F600.000
G0 Z15.000
G0 X145.649 Y125.050 Z15.000
G0 X145.649 Y125.050 Z13.000
G1 X145.649 Y125.050 Z5.000 F600.000
G1 X145.649 Y144.360 Z5.000 F600.000
G1 X126.339 Y144.360 Z5.000 F600.000
G1 X126.339 Y125.050 Z5.000 F600.000
G1 X145.649 Y125.050 Z5.000 F600.000
G0 Z15.000
G0 X148.819 Y121.880 Z15.000
G0 X148.819 Y121.880 Z13.000
G1 X148.819 Y121.880 Z5.000 F600.000
G1 X148.819 Y147.530 Z5.000 F600.000
G1 X123.169 Y147.530 Z5.000 F600.000
G1 X123.169 Y121.880 Z5.000 F600.000
G1 X148.819 Y121.880 Z5.000 F600.000
G0 Z15.000
G0 X151.989 Y118.710 Z15.000
G0 X151.989 Y118.710 Z13.000
G1 X151.989 Y118.710 Z5.000 F600.000
G1 X151.989 Y150.700 Z5.000 F600.000
G1 X119.999 Y150.700 Z5.000 F600.000
G1 X119.999 Y118.710 Z5.000 F600.000
G1 X151.989 Y118.710 Z5.000 F600.000
G0 Z15.000
G0 X155.159 Y115.540 Z15.000
G0 X155.159 Y115.540 Z13.000
G1 X155.159 Y115.540 Z5.000 F600.000
G1 X155.159 Y153.870 Z5.000 F600.000
G1 X116.829 Y153.870 Z5.000 F600.000
G1 X116.829 Y115.540 Z5.000 F600.000
G1 X155.159 Y115.540 Z5.000 F600.000
G0 Z15.000
G0 X158.329 Y112.370 Z15.000
G0 X158.329 Y112.370 Z13.000
G1 X158.329 Y112.370 Z5.000 F600.000
G1 X158.329 Y157.040 Z5.000 F600.000
G1 X113.659 Y157.040 Z5.000 F600.000
G1 X113.659 Y112.370 Z5.000 F600.000
G1 X158.329 Y112.370 Z5.000 F600.000
G0 Z15.000
G0 X161.499 Y109.200 Z15.000
G0 X161.499 Y109.200 Z13.000
G1 X161.499 Y109.200 Z5.000 F600.000
G1 X161.499 Y160.210 Z5.000 F600.000
G1 X110.489 Y160.210 Z5.000 F600.000
G1 X110.489 Y109.200 Z5.000 F600.000
G1 X161.499 Y109.200 Z5.000 F600.000
G0 Z15.000
G0 X164.669 Y106.030 Z15.000
G0 X164.669 Y106.030 Z13.000
G1 X164.669 Y106.030 Z5.000 F600.000
G1 X164.669 Y163.380 Z5.000 F600.000
G1 X107.319 Y163.380 Z5.000 F600.000
G1 X107.319 Y106.030 Z5.000 F600.000
G1 X164.669 Y106.030 Z5.000 F600.000
G0 Z15.000
G0 X167.839 Y102.860 Z15.000
G0 X167.839 Y102.860 Z13.000
G1 X167.839 Y102.860 Z5.000 F600.000
G1 X167.839 Y166.550 Z5.000 F600.000
G1 X104.149 Y166.550 Z5.000 F600.000
G1 X104.149 Y102.860 Z5.000 F600.000
G1 X167.839 Y102.860 Z5.000 F600.000
G0 Z15.000
G0 X171.009 Y99.690 Z15.000
G0 X171.009 Y99.690 Z13.000
G1 X171.009 Y99.690 Z5.000 F600.000
G1 X171.009 Y169.720 Z5.000 F600.000
G1 X100.979 Y169.720 Z5.000 F600.000
G1 X100.979 Y99.690 Z5.000 F600.000
G1 X171.009 Y99.690 Z5.000 F600.000
G0 Z15.000
G0 X174.179 Y96.520 Z15.000
G0 X174.179 Y96.520 Z13.000
G1 X174.179 Y96.520 Z5.000 F600.000
G1 X174.179 Y172.890 Z5.000 F600.000
G1 X97.809 Y172.890 Z5.000 F600.000
G1 X97.809 Y96.520 Z5.000 F600.000
G1 X174.179 Y96.520 Z5.000 F600.000
G0 Z15.000
G0 X177.349 Y93.350 Z15.000
G0 X177.349 Y93.350 Z13.000
G1 X177.349 Y93.350 Z5.000 F600.000
G1 X177.349 Y176.060 Z5.000 F600.000
G1 X94.639 Y176.060 Z5.000 F600.000
G1 X94.639 Y93.350 Z5.000 F600.000
G1 X177.349 Y93.350 Z5.000 F600.000
G0 Z15.000
G0 X180.519 Y90.180 Z15.000
G0 X180.519 Y90.180 Z13.000
G1 X180.519 Y90.180 Z5.000 F600.000
G1 X180.519 Y179.230 Z5.000 F600.000
G1 X91.469 Y179.230 Z5.000 F600.000
G1 X91.469 Y90.180 Z5.000 F600.000
G1 X180.519 Y90.180 Z5.000 F600.000
G0 Z15.000
G0 X183.689 Y87.010 Z15.000
G0 X183.689 Y87.010 Z13.000
G1 X183.689 Y87.010 Z5.000 F600.000
G1 X183.689 Y182.400 Z5.000 F600.000
G1 X88.299 Y182.400 Z5.000 F600.000
G1 X88.299 Y87.010 Z5.000 F600.000
G1 X183.689 Y87.010 Z5.000 F600.000
G0 Z15.000
G0 X186.859 Y83.840 Z15.000
G0 X186.859 Y83.840 Z13.000
G1 X186.859 Y83.840 Z5.000 F600.000
G1 X186.859 Y185.570 Z5.000 F600.000
G1 X85.129 Y185.570 Z5.000 F600.000
G1 X85.129 Y83.840 Z5.000 F600.000
G1 X186.859 Y83.840 Z5.000 F600.000
G0 Z15.000
G0 X190.029 Y80.670 Z15.000
G0 X190.029 Y80.670 Z13.000
G1 X190.029 Y80.670 Z5.000 F600.000
G1 X190.029 Y188.740 Z5.000 F600.000
G1 X81.959 Y188.740 Z5.000 F600.000
G1 X81.959 Y80.670 Z5.000 F600.000
G1 X190.029 Y80.670 Z5.000 F600.000
G0 Z15.000
G0 X193.199 Y77.500 Z15.000
G0 X193.199 Y77.500 Z13.000
G1 X193.199 Y77.500 Z5.000 F600.000
G1 X193.199 Y191.910 Z5.000 F600.000
G1 X78.789 Y191.910 Z5.000 F600.000
G1 X78.789 Y77.500 Z5.000 F600.000
G1 X193.199 Y77.500 Z5.000 F600.000
G0 Z15.000
G0 X196.369 Y74.330 Z15.000
G0 X196.369 Y74.330 Z13.000
G1 X196.369 Y74.330 Z5.000 F600.000
G1 X196.369 Y195.080 Z5.000 F600.000
G1 X75.619 Y195.080 Z5.000 F600.000
G1 X75.619 Y74.330 Z5.000 F600.000
G1 X196.369 Y74.330 Z5.000 F600.000
G0 Z15.000
G0 X199.539 Y71.160 Z15.000
G0 X199.539 Y71.160 Z13.000
G1 X199.539 Y71.160 Z5.000 F600.000
G1 X199.539 Y198.250 Z5.000 F600.000
G1 X72.449 Y198.250 Z5.000 F600.000
G1 X72.449 Y71.160 Z5.000 F600.000
G1 X199.539 Y71.160 Z5.000 F600.000
G0 Z15.000
G0 X202.709 Y67.990 Z15.000
G0 X202.709 Y67.990 Z13.000
G1 X202.709 Y67.990 Z5.000 F600.000
G1 X202.709 Y201.420 Z5.000 F600.000
G1 X69.279 Y201.420 Z5.000 F600.000
G1 X69.279 Y67.990 Z5.000 F600.000
G1 X202.709 Y67.990 Z5.000 F600.000
G0 Z15.000
G0 X205.879 Y64.820 Z15.000
G0 X205.879 Y64.820 Z13.000
G1 X205.879 Y64.820 Z5.000 F600.000
G1 X205.879 Y204.590 Z5.000 F600.000
G1 X66.109 Y204.590 Z5.000 F600.000
G1 X66.109 Y64.820 Z5.000 F600.000
G1 X205.879 Y64.820 Z5.000 F600.000
G0 Z15.000
G0 X209.049 Y61.650 Z15.000
G0 X209.049 Y61.650 Z13.000
G1 X209.049 Y61.650 Z5.000 F600.000
G1 X209.049 Y207.760 Z5.000 F600.000
G1 X62.939 Y207.760 Z5.000 F600.000
G1 X62.939 Y61.650 Z5.000 F600.000
G1 X209.049 Y61.650 Z5.000 F600.000
G0 Z15.000
G0 X212.219 Y58.480 Z15.000
G0 X212.219 Y58.480 Z13.000
G1 X212.219 Y58.480 Z5.000 F600.000
G1 X212.219 Y210.930 Z5.000 F600.000
G1 X59.769 Y210.930 Z5.000 F600.000
G1 X59.769 Y58.480 Z5.000 F600.000
G1 X212.219 Y58.480 Z5.000 F600.000
G0 Z15.000
G0 X215.389 Y55.310 Z15.000
G0 X215.389 Y55.310 Z13.000
G1 X215.389 Y55.310 Z5.000 F600.000
G1 X215.389 Y214.100 Z5.000 F600.000
G1 X56.599 Y214.100 Z5.000 F600.000
G1 X56.599 Y55.310 Z5.000 F600.000
G1 X215.389 Y55.310 Z5.000 F600.000
G0 Z15.000
G0 X218.559 Y52.140 Z15.000
G0 X218.559 Y52.140 Z13.000
G1 X218.559 Y52.140 Z5.000 F600.000
G1 X218.559 Y217.270 Z5.000 F600.000
G1 X53.429 Y217.270 Z5.000 F600.000
G1 X53.429 Y52.140 Z5.000 F600.000
G1 X218.559 Y52.140 Z5.000 F600.000
G0 Z15.000
G0 X221.729 Y48.970 Z15.000
G0 X221.729 Y48.970 Z13.000
G1 X221.729 Y48.970 Z5.000 F600.000
G1 X221.729 Y220.440 Z5.000 F600.000
G1 X50.259 Y220.440 Z5.000 F600.000
G1 X50.259 Y48.970 Z5.000 F600.000
G1 X221.729 Y48.970 Z5.000 F600.000
G0 Z15.000
G0 X224.899 Y45.800 Z15.000
G0 X224.899 Y45.800 Z13.000
G1 X224.899 Y45.800 Z5.000 F600.000
G1 X224.899 Y223.610 Z5.000 F600.000
G1 X47.089 Y223.610 Z5.000 F600.000
G1 X47.089 Y45.800 Z5.000 F600.000
G1 X224.899 Y45.800 Z5.000 F600.000
G0 Z15.000
G0 X228.069 Y42.630 Z15.000
G0 X228.069 Y42.630 Z13.000
G1 X228.069 Y42.630 Z5.000 F600.000
G1 X228.069 Y226.780 Z5.000 F600.000
G1 X43.919 Y226.780 Z5.000 F600.000
G1 X43.919 Y42.630 Z5.000 F600.000
G1 X228.069 Y42.630 Z5.000 F600.000
G0 Z15.000
G0 X231.239 Y39.460 Z15.000
G0 X231.239 Y39.460 Z13.000
G1 X231.239 Y39.460 Z5.000 F600.000
G1 X231.239 Y229.950 Z5.000 F600.000
G1 X40.749 Y229.950 Z5.000 F600.000
G1 X40.749 Y39.460 Z5.000 F600.000
G1 X231.239 Y39.460 Z5.000 F600.000
G0 Z15.000
G0 X234.409 Y36.290 Z15.000
G0 X234.409 Y36.290 Z13.000
G1 X234.409 Y36.290 Z5.000 F600.000
G1 X234.409 Y233.120 Z5.000 F600.000
G1 X37.579 Y233.120 Z5.000 F600.000
G1 X37.579 Y36.290 Z5.000 F600.000
G1 X234.409 Y36.290 Z5.000 F600.000
G0 Z15.000
G0 Z15.000
(Finish operation: Pocket_Shape)
(Begin postamble)
M5
G17 G90
M2
