(Exported by FreeCAD)
(Post Processor: script_module)
(Output Time:2025-05-17 11:03:23.187452)
(Begin preamble)
G17 G90
G21
(Begin operation: Fixture)
(Path: Fixture)
G54
(Finish operation: Fixture)
(Begin operation: endmill_compression_3175_spe001)
(Path: endmill_compression_3175_spe001)
(endmill_compression_3175_spe001)
(Begin toolchange)
( M6 T2 )
M3 S18000
(Finish operation: endmill_compression_3175_spe001)
(Begin operation: Pocket_Shape)
(Path: Pocket_Shape)
(Pocket_Shape)
G0 Z15.000
G0 X41.213 Y233.120
G0 Z13.000
G1 X41.213 Y233.120 Z9.500 F600.000
G1 X37.579 Y229.486 Z9.500 F600.000
G1 X37.579 Y233.120 Z9.500 F600.000
G1 X41.213 Y233.120 Z9.500 F600.000
G1 X45.696 Y233.120 Z9.500 F600.000
G1 X37.579 Y225.003 Z9.500 F600.000
G1 X37.579 Y220.520 Z9.500 F600.000
G1 X50.179 Y233.120 Z9.500 F600.000
G1 X54.662 Y233.120 Z9.500 F600.000
G1 X37.579 Y216.037 Z9.500 F600.000
G1 X37.579 Y211.554 Z9.500 F600.000
G1 X59.145 Y233.120 Z9.500 F600.000
G1 X63.628 Y233.120 Z9.500 F600.000
G1 X37.579 Y207.071 Z9.500 F600.000
G1 X37.579 Y202.588 Z9.500 F600.000
G1 X68.111 Y233.120 Z9.500 F600.000
G1 X72.594 Y233.120 Z9.500 F600.000
G1 X37.579 Y198.105 Z9.500 F600.000
G1 X37.579 Y193.622 Z9.500 F600.000
G1 X77.077 Y233.120 Z9.500 F600.000
G1 X81.560 Y233.120 Z9.500 F600.000
G1 X37.579 Y189.139 Z9.500 F600.000
G1 X37.579 Y184.656 Z9.500 F600.000
G1 X86.043 Y233.120 Z9.500 F600.000
G1 X90.526 Y233.120 Z9.500 F600.000
G1 X37.579 Y180.173 Z9.500 F600.000
G1 X37.579 Y175.689 Z9.500 F600.000
G1 X95.009 Y233.120 Z9.500 F600.000
G1 X99.493 Y233.120 Z9.500 F600.000
G1 X37.579 Y171.206 Z9.500 F600.000
G1 X37.579 Y166.723 Z9.500 F600.000
G1 X103.976 Y233.120 Z9.500 F600.000
G1 X108.459 Y233.120 Z9.500 F600.000
G1 X37.579 Y162.240 Z9.500 F600.000
G1 X37.579 Y157.757 Z9.500 F600.000
G1 X112.942 Y233.120 Z9.500 F600.000
G1 X117.425 Y233.120 Z9.500 F600.000
G1 X37.579 Y153.274 Z9.500 F600.000
G1 X37.579 Y148.791 Z9.500 F600.000
G1 X121.908 Y233.120 Z9.500 F600.000
G1 X126.391 Y233.120 Z9.500 F600.000
G1 X37.579 Y144.308 Z9.500 F600.000
G1 X37.579 Y139.825 Z9.500 F600.000
G1 X130.874 Y233.120 Z9.500 F600.000
G1 X135.357 Y233.120 Z9.500 F600.000
G1 X37.579 Y135.342 Z9.500 F600.000
G1 X37.579 Y130.859 Z9.500 F600.000
G1 X139.840 Y233.120 Z9.500 F600.000
G1 X144.323 Y233.120 Z9.500 F600.000
G1 X37.579 Y126.376 Z9.500 F600.000
G1 X37.579 Y121.893 Z9.500 F600.000
G1 X148.806 Y233.120 Z9.500 F600.000
G1 X153.289 Y233.120 Z9.500 F600.000
G1 X37.579 Y117.410 Z9.500 F600.000
G1 X37.579 Y112.927 Z9.500 F600.000
G1 X157.772 Y233.120 Z9.500 F600.000
G1 X162.255 Y233.120 Z9.500 F600.000
G1 X37.579 Y108.444 Z9.500 F600.000
G1 X37.579 Y103.961 Z9.500 F600.000
G1 X166.738 Y233.120 Z9.500 F600.000
G1 X171.221 Y233.120 Z9.500 F600.000
G1 X37.579 Y99.477 Z9.500 F600.000
G1 X37.579 Y94.994 Z9.500 F600.000
G1 X175.705 Y233.120 Z9.500 F600.000
G1 X180.188 Y233.120 Z9.500 F600.000
G1 X37.579 Y90.511 Z9.500 F600.000
G1 X37.579 Y86.028 Z9.500 F600.000
G1 X184.671 Y233.120 Z9.500 F600.000
G1 X189.154 Y233.120 Z9.500 F600.000
G1 X37.579 Y81.545 Z9.500 F600.000
G1 X37.579 Y77.062 Z9.500 F600.000
G1 X193.637 Y233.120 Z9.500 F600.000
G1 X198.120 Y233.120 Z9.500 F600.000
G1 X37.579 Y72.579 Z9.500 F600.000
G1 X37.579 Y68.096 Z9.500 F600.000
G1 X202.603 Y233.120 Z9.500 F600.000
G1 X207.086 Y233.120 Z9.500 F600.000
G1 X37.579 Y63.613 Z9.500 F600.000
G1 X37.579 Y59.130 Z9.500 F600.000
G1 X211.569 Y233.120 Z9.500 F600.000
G1 X216.052 Y233.120 Z9.500 F600.000
G1 X37.579 Y54.647 Z9.500 F600.000
G1 X37.579 Y50.164 Z9.500 F600.000
G1 X220.535 Y233.120 Z9.500 F600.000
G1 X225.018 Y233.120 Z9.500 F600.000
G1 X37.579 Y45.681 Z9.500 F600.000
G1 X37.579 Y41.198 Z9.500 F600.000
G1 X229.501 Y233.120 Z9.500 F600.000
G1 X233.984 Y233.120 Z9.500 F600.000
G1 X37.579 Y36.715 Z9.500 F600.000
G1 X37.579 Y36.290 Z9.500 F600.000
G1 X41.637 Y36.290 Z9.500 F600.000
G1 X234.409 Y229.062 Z9.500 F600.000
G1 X234.409 Y224.579 Z9.500 F600.000
G1 X46.120 Y36.290 Z9.500 F600.000
G1 X50.603 Y36.290 Z9.500 F600.000
G1 X234.409 Y220.096 Z9.500 F600.000
G1 X234.409 Y215.612 Z9.500 F600.000
G1 X55.086 Y36.290 Z9.500 F600.000
G1 X59.570 Y36.290 Z9.500 F600.000
G1 X234.409 Y211.129 Z9.500 F600.000
G1 X234.409 Y206.646 Z9.500 F600.000
G1 X64.053 Y36.290 Z9.500 F600.000
G1 X68.536 Y36.290 Z9.500 F600.000
G1 X234.409 Y202.163 Z9.500 F600.000
G1 X234.409 Y197.680 Z9.500 F600.000
G1 X73.019 Y36.290 Z9.500 F600.000
G1 X77.502 Y36.290 Z9.500 F600.000
G1 X234.409 Y193.197 Z9.500 F600.000
G1 X234.409 Y188.714 Z9.500 F600.000
G1 X81.985 Y36.290 Z9.500 F600.000
G1 X86.468 Y36.290 Z9.500 F600.000
G1 X234.409 Y184.231 Z9.500 F600.000
G1 X234.409 Y179.748 Z9.500 F600.000
G1 X90.951 Y36.290 Z9.500 F600.000
G1 X95.434 Y36.290 Z9.500 F600.000
G1 X234.409 Y175.265 Z9.500 F600.000
G1 X234.409 Y170.782 Z9.500 F600.000
G1 X99.917 Y36.290 Z9.500 F600.000
G1 X104.400 Y36.290 Z9.500 F600.000
G1 X234.409 Y166.299 Z9.500 F600.000
G1 X234.409 Y161.816 Z9.500 F600.000
G1 X108.883 Y36.290 Z9.500 F600.000
G1 X113.366 Y36.290 Z9.500 F600.000
G1 X234.409 Y157.333 Z9.500 F600.000
G1 X234.409 Y152.850 Z9.500 F600.000
G1 X117.849 Y36.290 Z9.500 F600.000
G1 X122.332 Y36.290 Z9.500 F600.000
G1 X234.409 Y148.367 Z9.500 F600.000
G1 X234.409 Y143.884 Z9.500 F600.000
G1 X126.815 Y36.290 Z9.500 F600.000
G1 X131.298 Y36.290 Z9.500 F600.000
G1 X234.409 Y139.400 Z9.500 F600.000
G1 X234.409 Y134.917 Z9.500 F600.000
G1 X135.782 Y36.290 Z9.500 F600.000
G1 X140.265 Y36.290 Z9.500 F600.000
G1 X234.409 Y130.434 Z9.500 F600.000
G1 X234.409 Y125.951 Z9.500 F600.000
G1 X144.748 Y36.290 Z9.500 F600.000
G1 X149.231 Y36.290 Z9.500 F600.000
G1 X234.409 Y121.468 Z9.500 F600.000
G1 X234.409 Y116.985 Z9.500 F600.000
G1 X153.714 Y36.290 Z9.500 F600.000
G1 X158.197 Y36.290 Z9.500 F600.000
G1 X234.409 Y112.502 Z9.500 F600.000
G1 X234.409 Y108.019 Z9.500 F600.000
G1 X162.680 Y36.290 Z9.500 F600.000
G1 X167.163 Y36.290 Z9.500 F600.000
G1 X234.409 Y103.536 Z9.500 F600.000
G1 X234.409 Y99.053 Z9.500 F600.000
G1 X171.646 Y36.290 Z9.500 F600.000
G1 X176.129 Y36.290 Z9.500 F600.000
G1 X234.409 Y94.570 Z9.500 F600.000
G1 X234.409 Y90.087 Z9.500 F600.000
G1 X180.612 Y36.290 Z9.500 F600.000
G1 X185.095 Y36.290 Z9.500 F600.000
G1 X234.409 Y85.604 Z9.500 F600.000
G1 X234.409 Y81.121 Z9.500 F600.000
G1 X189.578 Y36.290 Z9.500 F600.000
G1 X194.061 Y36.290 Z9.500 F600.000
G1 X234.409 Y76.638 Z9.500 F600.000
G1 X234.409 Y72.155 Z9.500 F600.000
G1 X198.544 Y36.290 Z9.500 F600.000
G1 X203.027 Y36.290 Z9.500 F600.000
G1 X234.409 Y67.672 Z9.500 F600.000
G1 X234.409 Y63.189 Z9.500 F600.000
G1 X207.510 Y36.290 Z9.500 F600.000
G1 X211.993 Y36.290 Z9.500 F600.000
G1 X234.409 Y58.705 Z9.500 F600.000
G1 X234.409 Y54.222 Z9.500 F600.000
G1 X216.477 Y36.290 Z9.500 F600.000
G1 X220.960 Y36.290 Z9.500 F600.000
G1 X234.409 Y49.739 Z9.500 F600.000
G1 X234.409 Y45.256 Z9.500 F600.000
G1 X225.443 Y36.290 Z9.500 F600.000
G1 X229.926 Y36.290 Z9.500 F600.000
G1 X234.409 Y40.773 Z9.500 F600.000
G1 X234.409 Y36.290 Z9.500 F600.000
G1 X234.409 Y36.290 Z9.000 F600.000
G1 X234.409 Y40.773 Z9.000 F600.000
G1 X229.926 Y36.290 Z9.000 F600.000
G1 X225.443 Y36.290 Z9.000 F600.000
G1 X234.409 Y45.256 Z9.000 F600.000
G1 X234.409 Y49.739 Z9.000 F600.000
G1 X220.960 Y36.290 Z9.000 F600.000
G1 X216.477 Y36.290 Z9.000 F600.000
G1 X234.409 Y54.222 Z9.000 F600.000
G1 X234.409 Y58.705 Z9.000 F600.000
G1 X211.993 Y36.290 Z9.000 F600.000
G1 X207.510 Y36.290 Z9.000 F600.000
G1 X234.409 Y63.189 Z9.000 F600.000
G1 X234.409 Y67.672 Z9.000 F600.000
G1 X203.027 Y36.290 Z9.000 F600.000
G1 X198.544 Y36.290 Z9.000 F600.000
G1 X234.409 Y72.155 Z9.000 F600.000
G1 X234.409 Y76.638 Z9.000 F600.000
G1 X194.061 Y36.290 Z9.000 F600.000
G1 X189.578 Y36.290 Z9.000 F600.000
G1 X234.409 Y81.121 Z9.000 F600.000
G1 X234.409 Y85.604 Z9.000 F600.000
G1 X185.095 Y36.290 Z9.000 F600.000
G1 X180.612 Y36.290 Z9.000 F600.000
G1 X234.409 Y90.087 Z9.000 F600.000
G1 X234.409 Y94.570 Z9.000 F600.000
G1 X176.129 Y36.290 Z9.000 F600.000
G1 X171.646 Y36.290 Z9.000 F600.000
G1 X234.409 Y99.053 Z9.000 F600.000
G1 X234.409 Y103.536 Z9.000 F600.000
G1 X167.163 Y36.290 Z9.000 F600.000
G1 X162.680 Y36.290 Z9.000 F600.000
G1 X234.409 Y108.019 Z9.000 F600.000
G1 X234.409 Y112.502 Z9.000 F600.000
G1 X158.197 Y36.290 Z9.000 F600.000
G1 X153.714 Y36.290 Z9.000 F600.000
G1 X234.409 Y116.985 Z9.000 F600.000
G1 X234.409 Y121.468 Z9.000 F600.000
G1 X149.231 Y36.290 Z9.000 F600.000
G1 X144.748 Y36.290 Z9.000 F600.000
G1 X234.409 Y125.951 Z9.000 F600.000
G1 X234.409 Y130.434 Z9.000 F600.000
G1 X140.265 Y36.290 Z9.000 F600.000
G1 X135.782 Y36.290 Z9.000 F600.000
G1 X234.409 Y134.917 Z9.000 F600.000
G1 X234.409 Y139.400 Z9.000 F600.000
G1 X131.298 Y36.290 Z9.000 F600.000
G1 X126.815 Y36.290 Z9.000 F600.000
G1 X234.409 Y143.884 Z9.000 F600.000
G1 X234.409 Y148.367 Z9.000 F600.000
G1 X122.332 Y36.290 Z9.000 F600.000
G1 X117.849 Y36.290 Z9.000 F600.000
G1 X234.409 Y152.850 Z9.000 F600.000
G1 X234.409 Y157.333 Z9.000 F600.000
G1 X113.366 Y36.290 Z9.000 F600.000
G1 X108.883 Y36.290 Z9.000 F600.000
G1 X234.409 Y161.816 Z9.000 F600.000
G1 X234.409 Y166.299 Z9.000 F600.000
G1 X104.400 Y36.290 Z9.000 F600.000
G1 X99.917 Y36.290 Z9.000 F600.000
G1 X234.409 Y170.782 Z9.000 F600.000
G1 X234.409 Y175.265 Z9.000 F600.000
G1 X95.434 Y36.290 Z9.000 F600.000
G1 X90.951 Y36.290 Z9.000 F600.000
G1 X234.409 Y179.748 Z9.000 F600.000
G1 X234.409 Y184.231 Z9.000 F600.000
G1 X86.468 Y36.290 Z9.000 F600.000
G1 X81.985 Y36.290 Z9.000 F600.000
G1 X234.409 Y188.714 Z9.000 F600.000
G1 X234.409 Y193.197 Z9.000 F600.000
G1 X77.502 Y36.290 Z9.000 F600.000
G1 X73.019 Y36.290 Z9.000 F600.000
G1 X234.409 Y197.680 Z9.000 F600.000
G1 X234.409 Y202.163 Z9.000 F600.000
G1 X68.536 Y36.290 Z9.000 F600.000
G1 X64.053 Y36.290 Z9.000 F600.000
G1 X234.409 Y206.646 Z9.000 F600.000
G1 X234.409 Y211.129 Z9.000 F600.000
G1 X59.570 Y36.290 Z9.000 F600.000
G1 X55.086 Y36.290 Z9.000 F600.000
G1 X234.409 Y215.612 Z9.000 F600.000
G1 X234.409 Y220.096 Z9.000 F600.000
G1 X50.603 Y36.290 Z9.000 F600.000
G1 X46.120 Y36.290 Z9.000 F600.000
G1 X234.409 Y224.579 Z9.000 F600.000
G1 X234.409 Y229.062 Z9.000 F600.000
G1 X41.637 Y36.290 Z9.000 F600.000
G1 X37.579 Y36.290 Z9.000 F600.000
G1 X37.579 Y36.715 Z9.000 F600.000
G1 X233.984 Y233.120 Z9.000 F600.000
G1 X229.501 Y233.120 Z9.000 F600.000
G1 X37.579 Y41.198 Z9.000 F600.000
G1 X37.579 Y45.681 Z9.000 F600.000
G1 X225.018 Y233.120 Z9.000 F600.000
G1 X220.535 Y233.120 Z9.000 F600.000
G1 X37.579 Y50.164 Z9.000 F600.000
G1 X37.579 Y54.647 Z9.000 F600.000
G1 X216.052 Y233.120 Z9.000 F600.000
G1 X211.569 Y233.120 Z9.000 F600.000
G1 X37.579 Y59.130 Z9.000 F600.000
G1 X37.579 Y63.613 Z9.000 F600.000
G1 X207.086 Y233.120 Z9.000 F600.000
G1 X202.603 Y233.120 Z9.000 F600.000
G1 X37.579 Y68.096 Z9.000 F600.000
G1 X37.579 Y72.579 Z9.000 F600.000
G1 X198.120 Y233.120 Z9.000 F600.000
G1 X193.637 Y233.120 Z9.000 F600.000
G1 X37.579 Y77.062 Z9.000 F600.000
G1 X37.579 Y81.545 Z9.000 F600.000
G1 X189.154 Y233.120 Z9.000 F600.000
G1 X184.671 Y233.120 Z9.000 F600.000
G1 X37.579 Y86.028 Z9.000 F600.000
G1 X37.579 Y90.511 Z9.000 F600.000
G1 X180.188 Y233.120 Z9.000 F600.000
G1 X175.705 Y233.120 Z9.000 F600.000
G1 X37.579 Y94.994 Z9.000 F600.000
G1 X37.579 Y99.477 Z9.000 F600.000
G1 X171.221 Y233.120 Z9.000 F600.000
G1 X166.738 Y233.120 Z9.000 F600.000
G1 X37.579 Y103.961 Z9.000 F600.000
G1 X37.579 Y108.444 Z9.000 F600.000
G1 X162.255 Y233.120 Z9.000 F600.000
G1 X157.772 Y233.120 Z9.000 F600.000
G1 X37.579 Y112.927 Z9.000 F600.000
G1 X37.579 Y117.410 Z9.000 F600.000
G1 X153.289 Y233.120 Z9.000 F600.000
G1 X148.806 Y233.120 Z9.000 F600.000
G1 X37.579 Y121.893 Z9.000 F600.000
G1 X37.579 Y126.376 Z9.000 F600.000
G1 X144.323 Y233.120 Z9.000 F600.000
G1 X139.840 Y233.120 Z9.000 F600.000
G1 X37.579 Y130.859 Z9.000 F600.000
G1 X37.579 Y135.342 Z9.000 F600.000
G1 X135.357 Y233.120 Z9.000 F600.000
G1 X130.874 Y233.120 Z9.000 F600.000
G1 X37.579 Y139.825 Z9.000 F600.000
G1 X37.579 Y144.308 Z9.000 F600.000
G1 X126.391 Y233.120 Z9.000 F600.000
G1 X121.908 Y233.120 Z9.000 F600.000
G1 X37.579 Y148.791 Z9.000 F600.000
G1 X37.579 Y153.274 Z9.000 F600.000
G1 X117.425 Y233.120 Z9.000 F600.000
G1 X112.942 Y233.120 Z9.000 F600.000
G1 X37.579 Y157.757 Z9.000 F600.000
G1 X37.579 Y162.240 Z9.000 F600.000
G1 X108.459 Y233.120 Z9.000 F600.000
G1 X103.976 Y233.120 Z9.000 F600.000
G1 X37.579 Y166.723 Z9.000 F600.000
G1 X37.579 Y171.206 Z9.000 F600.000
G1 X99.493 Y233.120 Z9.000 F600.000
G1 X95.009 Y233.120 Z9.000 F600.000
G1 X37.579 Y175.689 Z9.000 F600.000
G1 X37.579 Y180.173 Z9.000 F600.000
G1 X90.526 Y233.120 Z9.000 F600.000
G1 X86.043 Y233.120 Z9.000 F600.000
G1 X37.579 Y184.656 Z9.000 F600.000
G1 X37.579 Y189.139 Z9.000 F600.000
G1 X81.560 Y233.120 Z9.000 F600.000
G1 X77.077 Y233.120 Z9.000 F600.000
G1 X37.579 Y193.622 Z9.000 F600.000
G1 X37.579 Y198.105 Z9.000 F600.000
G1 X72.594 Y233.120 Z9.000 F600.000
G1 X68.111 Y233.120 Z9.000 F600.000
G1 X37.579 Y202.588 Z9.000 F600.000
G1 X37.579 Y207.071 Z9.000 F600.000
G1 X63.628 Y233.120 Z9.000 F600.000
G1 X59.145 Y233.120 Z9.000 F600.000
G1 X37.579 Y211.554 Z9.000 F600.000
G1 X37.579 Y216.037 Z9.000 F600.000
G1 X54.662 Y233.120 Z9.000 F600.000
G1 X50.179 Y233.120 Z9.000 F600.000
G1 X37.579 Y220.520 Z9.000 F600.000
G1 X37.579 Y225.003 Z9.000 F600.000
G1 X45.696 Y233.120 Z9.000 F600.000
G1 X41.213 Y233.120 Z9.000 F600.000
G1 X37.579 Y233.120 Z9.000 F600.000
G1 X37.579 Y229.486 Z9.000 F600.000
G1 X41.213 Y233.120 Z9.000 F600.000
G1 X41.213 Y233.120 Z8.500 F600.000
G1 X37.579 Y229.486 Z8.500 F600.000
G1 X37.579 Y233.120 Z8.500 F600.000
G1 X41.213 Y233.120 Z8.500 F600.000
G1 X45.696 Y233.120 Z8.500 F600.000
G1 X37.579 Y225.003 Z8.500 F600.000
G1 X37.579 Y220.520 Z8.500 F600.000
G1 X50.179 Y233.120 Z8.500 F600.000
G1 X54.662 Y233.120 Z8.500 F600.000
G1 X37.579 Y216.037 Z8.500 F600.000
G1 X37.579 Y211.554 Z8.500 F600.000
G1 X59.145 Y233.120 Z8.500 F600.000
G1 X63.628 Y233.120 Z8.500 F600.000
G1 X37.579 Y207.071 Z8.500 F600.000
G1 X37.579 Y202.588 Z8.500 F600.000
G1 X68.111 Y233.120 Z8.500 F600.000
G1 X72.594 Y233.120 Z8.500 F600.000
G1 X37.579 Y198.105 Z8.500 F600.000
G1 X37.579 Y193.622 Z8.500 F600.000
G1 X77.077 Y233.120 Z8.500 F600.000
G1 X81.560 Y233.120 Z8.500 F600.000
G1 X37.579 Y189.139 Z8.500 F600.000
G1 X37.579 Y184.656 Z8.500 F600.000
G1 X86.043 Y233.120 Z8.500 F600.000
G1 X90.526 Y233.120 Z8.500 F600.000
G1 X37.579 Y180.173 Z8.500 F600.000
G1 X37.579 Y175.689 Z8.500 F600.000
G1 X95.009 Y233.120 Z8.500 F600.000
G1 X99.493 Y233.120 Z8.500 F600.000
G1 X37.579 Y171.206 Z8.500 F600.000
G1 X37.579 Y166.723 Z8.500 F600.000
G1 X103.976 Y233.120 Z8.500 F600.000
G1 X108.459 Y233.120 Z8.500 F600.000
G1 X37.579 Y162.240 Z8.500 F600.000
G1 X37.579 Y157.757 Z8.500 F600.000
G1 X112.942 Y233.120 Z8.500 F600.000
G1 X117.425 Y233.120 Z8.500 F600.000
G1 X37.579 Y153.274 Z8.500 F600.000
G1 X37.579 Y148.791 Z8.500 F600.000
G1 X121.908 Y233.120 Z8.500 F600.000
G1 X126.391 Y233.120 Z8.500 F600.000
G1 X37.579 Y144.308 Z8.500 F600.000
G1 X37.579 Y139.825 Z8.500 F600.000
G1 X130.874 Y233.120 Z8.500 F600.000
G1 X135.357 Y233.120 Z8.500 F600.000
G1 X37.579 Y135.342 Z8.500 F600.000
G1 X37.579 Y130.859 Z8.500 F600.000
G1 X139.840 Y233.120 Z8.500 F600.000
G1 X144.323 Y233.120 Z8.500 F600.000
G1 X37.579 Y126.376 Z8.500 F600.000
G1 X37.579 Y121.893 Z8.500 F600.000
G1 X148.806 Y233.120 Z8.500 F600.000
G1 X153.289 Y233.120 Z8.500 F600.000
G1 X37.579 Y117.410 Z8.500 F600.000
G1 X37.579 Y112.927 Z8.500 F600.000
G1 X157.772 Y233.120 Z8.500 F600.000
G1 X162.255 Y233.120 Z8.500 F600.000
G1 X37.579 Y108.444 Z8.500 F600.000
G1 X37.579 Y103.961 Z8.500 F600.000
G1 X166.738 Y233.120 Z8.500 F600.000
G1 X171.221 Y233.120 Z8.500 F600.000
G1 X37.579 Y99.477 Z8.500 F600.000
G1 X37.579 Y94.994 Z8.500 F600.000
G1 X175.705 Y233.120 Z8.500 F600.000
G1 X180.188 Y233.120 Z8.500 F600.000
G1 X37.579 Y90.511 Z8.500 F600.000
G1 X37.579 Y86.028 Z8.500 F600.000
G1 X184.671 Y233.120 Z8.500 F600.000
G1 X189.154 Y233.120 Z8.500 F600.000
G1 X37.579 Y81.545 Z8.500 F600.000
G1 X37.579 Y77.062 Z8.500 F600.000
G1 X193.637 Y233.120 Z8.500 F600.000
G1 X198.120 Y233.120 Z8.500 F600.000
G1 X37.579 Y72.579 Z8.500 F600.000
G1 X37.579 Y68.096 Z8.500 F600.000
G1 X202.603 Y233.120 Z8.500 F600.000
G1 X207.086 Y233.120 Z8.500 F600.000
G1 X37.579 Y63.613 Z8.500 F600.000
G1 X37.579 Y59.130 Z8.500 F600.000
G1 X211.569 Y233.120 Z8.500 F600.000
G1 X216.052 Y233.120 Z8.500 F600.000
G1 X37.579 Y54.647 Z8.500 F600.000
G1 X37.579 Y50.164 Z8.500 F600.000
G1 X220.535 Y233.120 Z8.500 F600.000
G1 X225.018 Y233.120 Z8.500 F600.000
G1 X37.579 Y45.681 Z8.500 F600.000
G1 X37.579 Y41.198 Z8.500 F600.000
G1 X229.501 Y233.120 Z8.500 F600.000
G1 X233.984 Y233.120 Z8.500 F600.000
G1 X37.579 Y36.715 Z8.500 F600.000
G1 X37.579 Y36.290 Z8.500 F600.000
G1 X41.637 Y36.290 Z8.500 F600.000
G1 X234.409 Y229.062 Z8.500 F600.000
G1 X234.409 Y224.579 Z8.500 F600.000
G1 X46.120 Y36.290 Z8.500 F600.000
G1 X50.603 Y36.290 Z8.500 F600.000
G1 X234.409 Y220.096 Z8.500 F600.000
G1 X234.409 Y215.612 Z8.500 F600.000
G1 X55.086 Y36.290 Z8.500 F600.000
G1 X59.570 Y36.290 Z8.500 F600.000
G1 X234.409 Y211.129 Z8.500 F600.000
G1 X234.409 Y206.646 Z8.500 F600.000
G1 X64.053 Y36.290 Z8.500 F600.000
G1 X68.536 Y36.290 Z8.500 F600.000
G1 X234.409 Y202.163 Z8.500 F600.000
G1 X234.409 Y197.680 Z8.500 F600.000
G1 X73.019 Y36.290 Z8.500 F600.000
G1 X77.502 Y36.290 Z8.500 F600.000
G1 X234.409 Y193.197 Z8.500 F600.000
G1 X234.409 Y188.714 Z8.500 F600.000
G1 X81.985 Y36.290 Z8.500 F600.000
G1 X86.468 Y36.290 Z8.500 F600.000
G1 X234.409 Y184.231 Z8.500 F600.000
G1 X234.409 Y179.748 Z8.500 F600.000
G1 X90.951 Y36.290 Z8.500 F600.000
G1 X95.434 Y36.290 Z8.500 F600.000
G1 X234.409 Y175.265 Z8.500 F600.000
G1 X234.409 Y170.782 Z8.500 F600.000
G1 X99.917 Y36.290 Z8.500 F600.000
G1 X104.400 Y36.290 Z8.500 F600.000
G1 X234.409 Y166.299 Z8.500 F600.000
G1 X234.409 Y161.816 Z8.500 F600.000
G1 X108.883 Y36.290 Z8.500 F600.000
G1 X113.366 Y36.290 Z8.500 F600.000
G1 X234.409 Y157.333 Z8.500 F600.000
G1 X234.409 Y152.850 Z8.500 F600.000
G1 X117.849 Y36.290 Z8.500 F600.000
G1 X122.332 Y36.290 Z8.500 F600.000
G1 X234.409 Y148.367 Z8.500 F600.000
G1 X234.409 Y143.884 Z8.500 F600.000
G1 X126.815 Y36.290 Z8.500 F600.000
G1 X131.298 Y36.290 Z8.500 F600.000
G1 X234.409 Y139.400 Z8.500 F600.000
G1 X234.409 Y134.917 Z8.500 F600.000
G1 X135.782 Y36.290 Z8.500 F600.000
G1 X140.265 Y36.290 Z8.500 F600.000
G1 X234.409 Y130.434 Z8.500 F600.000
G1 X234.409 Y125.951 Z8.500 F600.000
G1 X144.748 Y36.290 Z8.500 F600.000
G1 X149.231 Y36.290 Z8.500 F600.000
G1 X234.409 Y121.468 Z8.500 F600.000
G1 X234.409 Y116.985 Z8.500 F600.000
G1 X153.714 Y36.290 Z8.500 F600.000
G1 X158.197 Y36.290 Z8.500 F600.000
G1 X234.409 Y112.502 Z8.500 F600.000
G1 X234.409 Y108.019 Z8.500 F600.000
G1 X162.680 Y36.290 Z8.500 F600.000
G1 X167.163 Y36.290 Z8.500 F600.000
G1 X234.409 Y103.536 Z8.500 F600.000
G1 X234.409 Y99.053 Z8.500 F600.000
G1 X171.646 Y36.290 Z8.500 F600.000
G1 X176.129 Y36.290 Z8.500 F600.000
G1 X234.409 Y94.570 Z8.500 F600.000
G1 X234.409 Y90.087 Z8.500 F600.000
G1 X180.612 Y36.290 Z8.500 F600.000
G1 X185.095 Y36.290 Z8.500 F600.000
G1 X234.409 Y85.604 Z8.500 F600.000
G1 X234.409 Y81.121 Z8.500 F600.000
G1 X189.578 Y36.290 Z8.500 F600.000
G1 X194.061 Y36.290 Z8.500 F600.000
G1 X234.409 Y76.638 Z8.500 F600.000
G1 X234.409 Y72.155 Z8.500 F600.000
G1 X198.544 Y36.290 Z8.500 F600.000
G1 X203.027 Y36.290 Z8.500 F600.000
G1 X234.409 Y67.672 Z8.500 F600.000
G1 X234.409 Y63.189 Z8.500 F600.000
G1 X207.510 Y36.290 Z8.500 F600.000
G1 X211.993 Y36.290 Z8.500 F600.000
G1 X234.409 Y58.705 Z8.500 F600.000
G1 X234.409 Y54.222 Z8.500 F600.000
G1 X216.477 Y36.290 Z8.500 F600.000
G1 X220.960 Y36.290 Z8.500 F600.000
G1 X234.409 Y49.739 Z8.500 F600.000
G1 X234.409 Y45.256 Z8.500 F600.000
G1 X225.443 Y36.290 Z8.500 F600.000
G1 X229.926 Y36.290 Z8.500 F600.000
G1 X234.409 Y40.773 Z8.500 F600.000
G1 X234.409 Y36.290 Z8.500 F600.000
G1 X234.409 Y36.290 Z8.000 F600.000
G1 X234.409 Y40.773 Z8.000 F600.000
G1 X229.926 Y36.290 Z8.000 F600.000
G1 X225.443 Y36.290 Z8.000 F600.000
G1 X234.409 Y45.256 Z8.000 F600.000
G1 X234.409 Y49.739 Z8.000 F600.000
G1 X220.960 Y36.290 Z8.000 F600.000
G1 X216.477 Y36.290 Z8.000 F600.000
G1 X234.409 Y54.222 Z8.000 F600.000
G1 X234.409 Y58.705 Z8.000 F600.000
G1 X211.993 Y36.290 Z8.000 F600.000
G1 X207.510 Y36.290 Z8.000 F600.000
G1 X234.409 Y63.189 Z8.000 F600.000
G1 X234.409 Y67.672 Z8.000 F600.000
G1 X203.027 Y36.290 Z8.000 F600.000
G1 X198.544 Y36.290 Z8.000 F600.000
G1 X234.409 Y72.155 Z8.000 F600.000
G1 X234.409 Y76.638 Z8.000 F600.000
G1 X194.061 Y36.290 Z8.000 F600.000
G1 X189.578 Y36.290 Z8.000 F600.000
G1 X234.409 Y81.121 Z8.000 F600.000
G1 X234.409 Y85.604 Z8.000 F600.000
G1 X185.095 Y36.290 Z8.000 F600.000
G1 X180.612 Y36.290 Z8.000 F600.000
G1 X234.409 Y90.087 Z8.000 F600.000
G1 X234.409 Y94.570 Z8.000 F600.000
G1 X176.129 Y36.290 Z8.000 F600.000
G1 X171.646 Y36.290 Z8.000 F600.000
G1 X234.409 Y99.053 Z8.000 F600.000
G1 X234.409 Y103.536 Z8.000 F600.000
G1 X167.163 Y36.290 Z8.000 F600.000
G1 X162.680 Y36.290 Z8.000 F600.000
G1 X234.409 Y108.019 Z8.000 F600.000
G1 X234.409 Y112.502 Z8.000 F600.000
G1 X158.197 Y36.290 Z8.000 F600.000
G1 X153.714 Y36.290 Z8.000 F600.000
G1 X234.409 Y116.985 Z8.000 F600.000
G1 X234.409 Y121.468 Z8.000 F600.000
G1 X149.231 Y36.290 Z8.000 F600.000
G1 X144.748 Y36.290 Z8.000 F600.000
G1 X234.409 Y125.951 Z8.000 F600.000
G1 X234.409 Y130.434 Z8.000 F600.000
G1 X140.265 Y36.290 Z8.000 F600.000
G1 X135.782 Y36.290 Z8.000 F600.000
G1 X234.409 Y134.917 Z8.000 F600.000
G1 X234.409 Y139.400 Z8.000 F600.000
G1 X131.298 Y36.290 Z8.000 F600.000
G1 X126.815 Y36.290 Z8.000 F600.000
G1 X234.409 Y143.884 Z8.000 F600.000
G1 X234.409 Y148.367 Z8.000 F600.000
G1 X122.332 Y36.290 Z8.000 F600.000
G1 X117.849 Y36.290 Z8.000 F600.000
G1 X234.409 Y152.850 Z8.000 F600.000
G1 X234.409 Y157.333 Z8.000 F600.000
G1 X113.366 Y36.290 Z8.000 F600.000
G1 X108.883 Y36.290 Z8.000 F600.000
G1 X234.409 Y161.816 Z8.000 F600.000
G1 X234.409 Y166.299 Z8.000 F600.000
G1 X104.400 Y36.290 Z8.000 F600.000
G1 X99.917 Y36.290 Z8.000 F600.000
G1 X234.409 Y170.782 Z8.000 F600.000
G1 X234.409 Y175.265 Z8.000 F600.000
G1 X95.434 Y36.290 Z8.000 F600.000
G1 X90.951 Y36.290 Z8.000 F600.000
G1 X234.409 Y179.748 Z8.000 F600.000
G1 X234.409 Y184.231 Z8.000 F600.000
G1 X86.468 Y36.290 Z8.000 F600.000
G1 X81.985 Y36.290 Z8.000 F600.000
G1 X234.409 Y188.714 Z8.000 F600.000
G1 X234.409 Y193.197 Z8.000 F600.000
G1 X77.502 Y36.290 Z8.000 F600.000
G1 X73.019 Y36.290 Z8.000 F600.000
G1 X234.409 Y197.680 Z8.000 F600.000
G1 X234.409 Y202.163 Z8.000 F600.000
G1 X68.536 Y36.290 Z8.000 F600.000
G1 X64.053 Y36.290 Z8.000 F600.000
G1 X234.409 Y206.646 Z8.000 F600.000
G1 X234.409 Y211.129 Z8.000 F600.000
G1 X59.570 Y36.290 Z8.000 F600.000
G1 X55.086 Y36.290 Z8.000 F600.000
G1 X234.409 Y215.612 Z8.000 F600.000
G1 X234.409 Y220.096 Z8.000 F600.000
G1 X50.603 Y36.290 Z8.000 F600.000
G1 X46.120 Y36.290 Z8.000 F600.000
G1 X234.409 Y224.579 Z8.000 F600.000
G1 X234.409 Y229.062 Z8.000 F600.000
G1 X41.637 Y36.290 Z8.000 F600.000
G1 X37.579 Y36.290 Z8.000 F600.000
G1 X37.579 Y36.715 Z8.000 F600.000
G1 X233.984 Y233.120 Z8.000 F600.000
G1 X229.501 Y233.120 Z8.000 F600.000
G1 X37.579 Y41.198 Z8.000 F600.000
G1 X37.579 Y45.681 Z8.000 F600.000
G1 X225.018 Y233.120 Z8.000 F600.000
G1 X220.535 Y233.120 Z8.000 F600.000
G1 X37.579 Y50.164 Z8.000 F600.000
G1 X37.579 Y54.647 Z8.000 F600.000
G1 X216.052 Y233.120 Z8.000 F600.000
G1 X211.569 Y233.120 Z8.000 F600.000
G1 X37.579 Y59.130 Z8.000 F600.000
G1 X37.579 Y63.613 Z8.000 F600.000
G1 X207.086 Y233.120 Z8.000 F600.000
G1 X202.603 Y233.120 Z8.000 F600.000
G1 X37.579 Y68.096 Z8.000 F600.000
G1 X37.579 Y72.579 Z8.000 F600.000
G1 X198.120 Y233.120 Z8.000 F600.000
G1 X193.637 Y233.120 Z8.000 F600.000
G1 X37.579 Y77.062 Z8.000 F600.000
G1 X37.579 Y81.545 Z8.000 F600.000
G1 X189.154 Y233.120 Z8.000 F600.000
G1 X184.671 Y233.120 Z8.000 F600.000
G1 X37.579 Y86.028 Z8.000 F600.000
G1 X37.579 Y90.511 Z8.000 F600.000
G1 X180.188 Y233.120 Z8.000 F600.000
G1 X175.705 Y233.120 Z8.000 F600.000
G1 X37.579 Y94.994 Z8.000 F600.000
G1 X37.579 Y99.477 Z8.000 F600.000
G1 X171.221 Y233.120 Z8.000 F600.000
G1 X166.738 Y233.120 Z8.000 F600.000
G1 X37.579 Y103.961 Z8.000 F600.000
G1 X37.579 Y108.444 Z8.000 F600.000
G1 X162.255 Y233.120 Z8.000 F600.000
G1 X157.772 Y233.120 Z8.000 F600.000
G1 X37.579 Y112.927 Z8.000 F600.000
G1 X37.579 Y117.410 Z8.000 F600.000
G1 X153.289 Y233.120 Z8.000 F600.000
G1 X148.806 Y233.120 Z8.000 F600.000
G1 X37.579 Y121.893 Z8.000 F600.000
G1 X37.579 Y126.376 Z8.000 F600.000
G1 X144.323 Y233.120 Z8.000 F600.000
G1 X139.840 Y233.120 Z8.000 F600.000
G1 X37.579 Y130.859 Z8.000 F600.000
G1 X37.579 Y135.342 Z8.000 F600.000
G1 X135.357 Y233.120 Z8.000 F600.000
G1 X130.874 Y233.120 Z8.000 F600.000
G1 X37.579 Y139.825 Z8.000 F600.000
G1 X37.579 Y144.308 Z8.000 F600.000
G1 X126.391 Y233.120 Z8.000 F600.000
G1 X121.908 Y233.120 Z8.000 F600.000
G1 X37.579 Y148.791 Z8.000 F600.000
G1 X37.579 Y153.274 Z8.000 F600.000
G1 X117.425 Y233.120 Z8.000 F600.000
G1 X112.942 Y233.120 Z8.000 F600.000
G1 X37.579 Y157.757 Z8.000 F600.000
G1 X37.579 Y162.240 Z8.000 F600.000
G1 X108.459 Y233.120 Z8.000 F600.000
G1 X103.976 Y233.120 Z8.000 F600.000
G1 X37.579 Y166.723 Z8.000 F600.000
G1 X37.579 Y171.206 Z8.000 F600.000
G1 X99.493 Y233.120 Z8.000 F600.000
G1 X95.009 Y233.120 Z8.000 F600.000
G1 X37.579 Y175.689 Z8.000 F600.000
G1 X37.579 Y180.173 Z8.000 F600.000
G1 X90.526 Y233.120 Z8.000 F600.000
G1 X86.043 Y233.120 Z8.000 F600.000
G1 X37.579 Y184.656 Z8.000 F600.000
G1 X37.579 Y189.139 Z8.000 F600.000
G1 X81.560 Y233.120 Z8.000 F600.000
G1 X77.077 Y233.120 Z8.000 F600.000
G1 X37.579 Y193.622 Z8.000 F600.000
G1 X37.579 Y198.105 Z8.000 F600.000
G1 X72.594 Y233.120 Z8.000 F600.000
G1 X68.111 Y233.120 Z8.000 F600.000
G1 X37.579 Y202.588 Z8.000 F600.000
G1 X37.579 Y207.071 Z8.000 F600.000
G1 X63.628 Y233.120 Z8.000 F600.000
G1 X59.145 Y233.120 Z8.000 F600.000
G1 X37.579 Y211.554 Z8.000 F600.000
G1 X37.579 Y216.037 Z8.000 F600.000
G1 X54.662 Y233.120 Z8.000 F600.000
G1 X50.179 Y233.120 Z8.000 F600.000
G1 X37.579 Y220.520 Z8.000 F600.000
G1 X37.579 Y225.003 Z8.000 F600.000
G1 X45.696 Y233.120 Z8.000 F600.000
G1 X41.213 Y233.120 Z8.000 F600.000
G1 X37.579 Y233.120 Z8.000 F600.000
G1 X37.579 Y229.486 Z8.000 F600.000
G1 X41.213 Y233.120 Z8.000 F600.000
G1 X41.213 Y233.120 Z7.500 F600.000
G1 X37.579 Y229.486 Z7.500 F600.000
G1 X37.579 Y233.120 Z7.500 F600.000
G1 X41.213 Y233.120 Z7.500 F600.000
G1 X45.696 Y233.120 Z7.500 F600.000
G1 X37.579 Y225.003 Z7.500 F600.000
G1 X37.579 Y220.520 Z7.500 F600.000
G1 X50.179 Y233.120 Z7.500 F600.000
G1 X54.662 Y233.120 Z7.500 F600.000
G1 X37.579 Y216.037 Z7.500 F600.000
G1 X37.579 Y211.554 Z7.500 F600.000
G1 X59.145 Y233.120 Z7.500 F600.000
G1 X63.628 Y233.120 Z7.500 F600.000
G1 X37.579 Y207.071 Z7.500 F600.000
G1 X37.579 Y202.588 Z7.500 F600.000
G1 X68.111 Y233.120 Z7.500 F600.000
G1 X72.594 Y233.120 Z7.500 F600.000
G1 X37.579 Y198.105 Z7.500 F600.000
G1 X37.579 Y193.622 Z7.500 F600.000
G1 X77.077 Y233.120 Z7.500 F600.000
G1 X81.560 Y233.120 Z7.500 F600.000
G1 X37.579 Y189.139 Z7.500 F600.000
G1 X37.579 Y184.656 Z7.500 F600.000
G1 X86.043 Y233.120 Z7.500 F600.000
G1 X90.526 Y233.120 Z7.500 F600.000
G1 X37.579 Y180.173 Z7.500 F600.000
G1 X37.579 Y175.689 Z7.500 F600.000
G1 X95.009 Y233.120 Z7.500 F600.000
G1 X99.493 Y233.120 Z7.500 F600.000
G1 X37.579 Y171.206 Z7.500 F600.000
G1 X37.579 Y166.723 Z7.500 F600.000
G1 X103.976 Y233.120 Z7.500 F600.000
G1 X108.459 Y233.120 Z7.500 F600.000
G1 X37.579 Y162.240 Z7.500 F600.000
G1 X37.579 Y157.757 Z7.500 F600.000
G1 X112.942 Y233.120 Z7.500 F600.000
G1 X117.425 Y233.120 Z7.500 F600.000
G1 X37.579 Y153.274 Z7.500 F600.000
G1 X37.579 Y148.791 Z7.500 F600.000
G1 X121.908 Y233.120 Z7.500 F600.000
G1 X126.391 Y233.120 Z7.500 F600.000
G1 X37.579 Y144.308 Z7.500 F600.000
G1 X37.579 Y139.825 Z7.500 F600.000
G1 X130.874 Y233.120 Z7.500 F600.000
G1 X135.357 Y233.120 Z7.500 F600.000
G1 X37.579 Y135.342 Z7.500 F600.000
G1 X37.579 Y130.859 Z7.500 F600.000
G1 X139.840 Y233.120 Z7.500 F600.000
G1 X144.323 Y233.120 Z7.500 F600.000
G1 X37.579 Y126.376 Z7.500 F600.000
G1 X37.579 Y121.893 Z7.500 F600.000
G1 X148.806 Y233.120 Z7.500 F600.000
G1 X153.289 Y233.120 Z7.500 F600.000
G1 X37.579 Y117.410 Z7.500 F600.000
G1 X37.579 Y112.927 Z7.500 F600.000
G1 X157.772 Y233.120 Z7.500 F600.000
G1 X162.255 Y233.120 Z7.500 F600.000
G1 X37.579 Y108.444 Z7.500 F600.000
G1 X37.579 Y103.961 Z7.500 F600.000
G1 X166.738 Y233.120 Z7.500 F600.000
G1 X171.221 Y233.120 Z7.500 F600.000
G1 X37.579 Y99.477 Z7.500 F600.000
G1 X37.579 Y94.994 Z7.500 F600.000
G1 X175.705 Y233.120 Z7.500 F600.000
G1 X180.188 Y233.120 Z7.500 F600.000
G1 X37.579 Y90.511 Z7.500 F600.000
G1 X37.579 Y86.028 Z7.500 F600.000
G1 X184.671 Y233.120 Z7.500 F600.000
G1 X189.154 Y233.120 Z7.500 F600.000
G1 X37.579 Y81.545 Z7.500 F600.000
G1 X37.579 Y77.062 Z7.500 F600.000
G1 X193.637 Y233.120 Z7.500 F600.000
G1 X198.120 Y233.120 Z7.500 F600.000
G1 X37.579 Y72.579 Z7.500 F600.000
G1 X37.579 Y68.096 Z7.500 F600.000
G1 X202.603 Y233.120 Z7.500 F600.000
G1 X207.086 Y233.120 Z7.500 F600.000
G1 X37.579 Y63.613 Z7.500 F600.000
G1 X37.579 Y59.130 Z7.500 F600.000
G1 X211.569 Y233.120 Z7.500 F600.000
G1 X216.052 Y233.120 Z7.500 F600.000
G1 X37.579 Y54.647 Z7.500 F600.000
G1 X37.579 Y50.164 Z7.500 F600.000
G1 X220.535 Y233.120 Z7.500 F600.000
G1 X225.018 Y233.120 Z7.500 F600.000
G1 X37.579 Y45.681 Z7.500 F600.000
G1 X37.579 Y41.198 Z7.500 F600.000
G1 X229.501 Y233.120 Z7.500 F600.000
G1 X233.984 Y233.120 Z7.500 F600.000
G1 X37.579 Y36.715 Z7.500 F600.000
G1 X37.579 Y36.290 Z7.500 F600.000
G1 X41.637 Y36.290 Z7.500 F600.000
G1 X234.409 Y229.062 Z7.500 F600.000
G1 X234.409 Y224.579 Z7.500 F600.000
G1 X46.120 Y36.290 Z7.500 F600.000
G1 X50.603 Y36.290 Z7.500 F600.000
G1 X234.409 Y220.096 Z7.500 F600.000
G1 X234.409 Y215.612 Z7.500 F600.000
G1 X55.086 Y36.290 Z7.500 F600.000
G1 X59.570 Y36.290 Z7.500 F600.000
G1 X234.409 Y211.129 Z7.500 F600.000
G1 X234.409 Y206.646 Z7.500 F600.000
G1 X64.053 Y36.290 Z7.500 F600.000
G1 X68.536 Y36.290 Z7.500 F600.000
G1 X234.409 Y202.163 Z7.500 F600.000
G1 X234.409 Y197.680 Z7.500 F600.000
G1 X73.019 Y36.290 Z7.500 F600.000
G1 X77.502 Y36.290 Z7.500 F600.000
G1 X234.409 Y193.197 Z7.500 F600.000
G1 X234.409 Y188.714 Z7.500 F600.000
G1 X81.985 Y36.290 Z7.500 F600.000
G1 X86.468 Y36.290 Z7.500 F600.000
G1 X234.409 Y184.231 Z7.500 F600.000
G1 X234.409 Y179.748 Z7.500 F600.000
G1 X90.951 Y36.290 Z7.500 F600.000
G1 X95.434 Y36.290 Z7.500 F600.000
G1 X234.409 Y175.265 Z7.500 F600.000
G1 X234.409 Y170.782 Z7.500 F600.000
G1 X99.917 Y36.290 Z7.500 F600.000
G1 X104.400 Y36.290 Z7.500 F600.000
G1 X234.409 Y166.299 Z7.500 F600.000
G1 X234.409 Y161.816 Z7.500 F600.000
G1 X108.883 Y36.290 Z7.500 F600.000
G1 X113.366 Y36.290 Z7.500 F600.000
G1 X234.409 Y157.333 Z7.500 F600.000
G1 X234.409 Y152.850 Z7.500 F600.000
G1 X117.849 Y36.290 Z7.500 F600.000
G1 X122.332 Y36.290 Z7.500 F600.000
G1 X234.409 Y148.367 Z7.500 F600.000
G1 X234.409 Y143.884 Z7.500 F600.000
G1 X126.815 Y36.290 Z7.500 F600.000
G1 X131.298 Y36.290 Z7.500 F600.000
G1 X234.409 Y139.400 Z7.500 F600.000
G1 X234.409 Y134.917 Z7.500 F600.000
G1 X135.782 Y36.290 Z7.500 F600.000
G1 X140.265 Y36.290 Z7.500 F600.000
G1 X234.409 Y130.434 Z7.500 F600.000
G1 X234.409 Y125.951 Z7.500 F600.000
G1 X144.748 Y36.290 Z7.500 F600.000
G1 X149.231 Y36.290 Z7.500 F600.000
G1 X234.409 Y121.468 Z7.500 F600.000
G1 X234.409 Y116.985 Z7.500 F600.000
G1 X153.714 Y36.290 Z7.500 F600.000
G1 X158.197 Y36.290 Z7.500 F600.000
G1 X234.409 Y112.502 Z7.500 F600.000
G1 X234.409 Y108.019 Z7.500 F600.000
G1 X162.680 Y36.290 Z7.500 F600.000
G1 X167.163 Y36.290 Z7.500 F600.000
G1 X234.409 Y103.536 Z7.500 F600.000
G1 X234.409 Y99.053 Z7.500 F600.000
G1 X171.646 Y36.290 Z7.500 F600.000
G1 X176.129 Y36.290 Z7.500 F600.000
G1 X234.409 Y94.570 Z7.500 F600.000
G1 X234.409 Y90.087 Z7.500 F600.000
G1 X180.612 Y36.290 Z7.500 F600.000
G1 X185.095 Y36.290 Z7.500 F600.000
G1 X234.409 Y85.604 Z7.500 F600.000
G1 X234.409 Y81.121 Z7.500 F600.000
G1 X189.578 Y36.290 Z7.500 F600.000
G1 X194.061 Y36.290 Z7.500 F600.000
G1 X234.409 Y76.638 Z7.500 F600.000
G1 X234.409 Y72.155 Z7.500 F600.000
G1 X198.544 Y36.290 Z7.500 F600.000
G1 X203.027 Y36.290 Z7.500 F600.000
G1 X234.409 Y67.672 Z7.500 F600.000
G1 X234.409 Y63.189 Z7.500 F600.000
G1 X207.510 Y36.290 Z7.500 F600.000
G1 X211.993 Y36.290 Z7.500 F600.000
G1 X234.409 Y58.705 Z7.500 F600.000
G1 X234.409 Y54.222 Z7.500 F600.000
G1 X216.477 Y36.290 Z7.500 F600.000
G1 X220.960 Y36.290 Z7.500 F600.000
G1 X234.409 Y49.739 Z7.500 F600.000
G1 X234.409 Y45.256 Z7.500 F600.000
G1 X225.443 Y36.290 Z7.500 F600.000
G1 X229.926 Y36.290 Z7.500 F600.000
G1 X234.409 Y40.773 Z7.500 F600.000
G1 X234.409 Y36.290 Z7.500 F600.000
G1 X234.409 Y36.290 Z7.000 F600.000
G1 X234.409 Y40.773 Z7.000 F600.000
G1 X229.926 Y36.290 Z7.000 F600.000
G1 X225.443 Y36.290 Z7.000 F600.000
G1 X234.409 Y45.256 Z7.000 F600.000
G1 X234.409 Y49.739 Z7.000 F600.000
G1 X220.960 Y36.290 Z7.000 F600.000
G1 X216.477 Y36.290 Z7.000 F600.000
G1 X234.409 Y54.222 Z7.000 F600.000
G1 X234.409 Y58.705 Z7.000 F600.000
G1 X211.993 Y36.290 Z7.000 F600.000
G1 X207.510 Y36.290 Z7.000 F600.000
G1 X234.409 Y63.189 Z7.000 F600.000
G1 X234.409 Y67.672 Z7.000 F600.000
G1 X203.027 Y36.290 Z7.000 F600.000
G1 X198.544 Y36.290 Z7.000 F600.000
G1 X234.409 Y72.155 Z7.000 F600.000
G1 X234.409 Y76.638 Z7.000 F600.000
G1 X194.061 Y36.290 Z7.000 F600.000
G1 X189.578 Y36.290 Z7.000 F600.000
G1 X234.409 Y81.121 Z7.000 F600.000
G1 X234.409 Y85.604 Z7.000 F600.000
G1 X185.095 Y36.290 Z7.000 F600.000
G1 X180.612 Y36.290 Z7.000 F600.000
G1 X234.409 Y90.087 Z7.000 F600.000
G1 X234.409 Y94.570 Z7.000 F600.000
G1 X176.129 Y36.290 Z7.000 F600.000
G1 X171.646 Y36.290 Z7.000 F600.000
G1 X234.409 Y99.053 Z7.000 F600.000
G1 X234.409 Y103.536 Z7.000 F600.000
G1 X167.163 Y36.290 Z7.000 F600.000
G1 X162.680 Y36.290 Z7.000 F600.000
G1 X234.409 Y108.019 Z7.000 F600.000
G1 X234.409 Y112.502 Z7.000 F600.000
G1 X158.197 Y36.290 Z7.000 F600.000
G1 X153.714 Y36.290 Z7.000 F600.000
G1 X234.409 Y116.985 Z7.000 F600.000
G1 X234.409 Y121.468 Z7.000 F600.000
G1 X149.231 Y36.290 Z7.000 F600.000
G1 X144.748 Y36.290 Z7.000 F600.000
G1 X234.409 Y125.951 Z7.000 F600.000
G1 X234.409 Y130.434 Z7.000 F600.000
G1 X140.265 Y36.290 Z7.000 F600.000
G1 X135.782 Y36.290 Z7.000 F600.000
G1 X234.409 Y134.917 Z7.000 F600.000
G1 X234.409 Y139.400 Z7.000 F600.000
G1 X131.298 Y36.290 Z7.000 F600.000
G1 X126.815 Y36.290 Z7.000 F600.000
G1 X234.409 Y143.884 Z7.000 F600.000
G1 X234.409 Y148.367 Z7.000 F600.000
G1 X122.332 Y36.290 Z7.000 F600.000
G1 X117.849 Y36.290 Z7.000 F600.000
G1 X234.409 Y152.850 Z7.000 F600.000
G1 X234.409 Y157.333 Z7.000 F600.000
G1 X113.366 Y36.290 Z7.000 F600.000
G1 X108.883 Y36.290 Z7.000 F600.000
G1 X234.409 Y161.816 Z7.000 F600.000
G1 X234.409 Y166.299 Z7.000 F600.000
G1 X104.400 Y36.290 Z7.000 F600.000
G1 X99.917 Y36.290 Z7.000 F600.000
G1 X234.409 Y170.782 Z7.000 F600.000
G1 X234.409 Y175.265 Z7.000 F600.000
G1 X95.434 Y36.290 Z7.000 F600.000
G1 X90.951 Y36.290 Z7.000 F600.000
G1 X234.409 Y179.748 Z7.000 F600.000
G1 X234.409 Y184.231 Z7.000 F600.000
G1 X86.468 Y36.290 Z7.000 F600.000
G1 X81.985 Y36.290 Z7.000 F600.000
G1 X234.409 Y188.714 Z7.000 F600.000
G1 X234.409 Y193.197 Z7.000 F600.000
G1 X77.502 Y36.290 Z7.000 F600.000
G1 X73.019 Y36.290 Z7.000 F600.000
G1 X234.409 Y197.680 Z7.000 F600.000
G1 X234.409 Y202.163 Z7.000 F600.000
G1 X68.536 Y36.290 Z7.000 F600.000
G1 X64.053 Y36.290 Z7.000 F600.000
G1 X234.409 Y206.646 Z7.000 F600.000
G1 X234.409 Y211.129 Z7.000 F600.000
G1 X59.570 Y36.290 Z7.000 F600.000
G1 X55.086 Y36.290 Z7.000 F600.000
G1 X234.409 Y215.612 Z7.000 F600.000
G1 X234.409 Y220.096 Z7.000 F600.000
G1 X50.603 Y36.290 Z7.000 F600.000
G1 X46.120 Y36.290 Z7.000 F600.000
G1 X234.409 Y224.579 Z7.000 F600.000
G1 X234.409 Y229.062 Z7.000 F600.000
G1 X41.637 Y36.290 Z7.000 F600.000
G1 X37.579 Y36.290 Z7.000 F600.000
G1 X37.579 Y36.715 Z7.000 F600.000
G1 X233.984 Y233.120 Z7.000 F600.000
G1 X229.501 Y233.120 Z7.000 F600.000
G1 X37.579 Y41.198 Z7.000 F600.000
G1 X37.579 Y45.681 Z7.000 F600.000
G1 X225.018 Y233.120 Z7.000 F600.000
G1 X220.535 Y233.120 Z7.000 F600.000
G1 X37.579 Y50.164 Z7.000 F600.000
G1 X37.579 Y54.647 Z7.000 F600.000
G1 X216.052 Y233.120 Z7.000 F600.000
G1 X211.569 Y233.120 Z7.000 F600.000
G1 X37.579 Y59.130 Z7.000 F600.000
G1 X37.579 Y63.613 Z7.000 F600.000
G1 X207.086 Y233.120 Z7.000 F600.000
G1 X202.603 Y233.120 Z7.000 F600.000
G1 X37.579 Y68.096 Z7.000 F600.000
G1 X37.579 Y72.579 Z7.000 F600.000
G1 X198.120 Y233.120 Z7.000 F600.000
G1 X193.637 Y233.120 Z7.000 F600.000
G1 X37.579 Y77.062 Z7.000 F600.000
G1 X37.579 Y81.545 Z7.000 F600.000
G1 X189.154 Y233.120 Z7.000 F600.000
G1 X184.671 Y233.120 Z7.000 F600.000
G1 X37.579 Y86.028 Z7.000 F600.000
G1 X37.579 Y90.511 Z7.000 F600.000
G1 X180.188 Y233.120 Z7.000 F600.000
G1 X175.705 Y233.120 Z7.000 F600.000
G1 X37.579 Y94.994 Z7.000 F600.000
G1 X37.579 Y99.477 Z7.000 F600.000
G1 X171.221 Y233.120 Z7.000 F600.000
G1 X166.738 Y233.120 Z7.000 F600.000
G1 X37.579 Y103.961 Z7.000 F600.000
G1 X37.579 Y108.444 Z7.000 F600.000
G1 X162.255 Y233.120 Z7.000 F600.000
G1 X157.772 Y233.120 Z7.000 F600.000
G1 X37.579 Y112.927 Z7.000 F600.000
G1 X37.579 Y117.410 Z7.000 F600.000
G1 X153.289 Y233.120 Z7.000 F600.000
G1 X148.806 Y233.120 Z7.000 F600.000
G1 X37.579 Y121.893 Z7.000 F600.000
G1 X37.579 Y126.376 Z7.000 F600.000
G1 X144.323 Y233.120 Z7.000 F600.000
G1 X139.840 Y233.120 Z7.000 F600.000
G1 X37.579 Y130.859 Z7.000 F600.000
G1 X37.579 Y135.342 Z7.000 F600.000
G1 X135.357 Y233.120 Z7.000 F600.000
G1 X130.874 Y233.120 Z7.000 F600.000
G1 X37.579 Y139.825 Z7.000 F600.000
G1 X37.579 Y144.308 Z7.000 F600.000
G1 X126.391 Y233.120 Z7.000 F600.000
G1 X121.908 Y233.120 Z7.000 F600.000
G1 X37.579 Y148.791 Z7.000 F600.000
G1 X37.579 Y153.274 Z7.000 F600.000
G1 X117.425 Y233.120 Z7.000 F600.000
G1 X112.942 Y233.120 Z7.000 F600.000
G1 X37.579 Y157.757 Z7.000 F600.000
G1 X37.579 Y162.240 Z7.000 F600.000
G1 X108.459 Y233.120 Z7.000 F600.000
G1 X103.976 Y233.120 Z7.000 F600.000
G1 X37.579 Y166.723 Z7.000 F600.000
G1 X37.579 Y171.206 Z7.000 F600.000
G1 X99.493 Y233.120 Z7.000 F600.000
G1 X95.009 Y233.120 Z7.000 F600.000
G1 X37.579 Y175.689 Z7.000 F600.000
G1 X37.579 Y180.173 Z7.000 F600.000
G1 X90.526 Y233.120 Z7.000 F600.000
G1 X86.043 Y233.120 Z7.000 F600.000
G1 X37.579 Y184.656 Z7.000 F600.000
G1 X37.579 Y189.139 Z7.000 F600.000
G1 X81.560 Y233.120 Z7.000 F600.000
G1 X77.077 Y233.120 Z7.000 F600.000
G1 X37.579 Y193.622 Z7.000 F600.000
G1 X37.579 Y198.105 Z7.000 F600.000
G1 X72.594 Y233.120 Z7.000 F600.000
G1 X68.111 Y233.120 Z7.000 F600.000
G1 X37.579 Y202.588 Z7.000 F600.000
G1 X37.579 Y207.071 Z7.000 F600.000
G1 X63.628 Y233.120 Z7.000 F600.000
G1 X59.145 Y233.120 Z7.000 F600.000
G1 X37.579 Y211.554 Z7.000 F600.000
G1 X37.579 Y216.037 Z7.000 F600.000
G1 X54.662 Y233.120 Z7.000 F600.000
G1 X50.179 Y233.120 Z7.000 F600.000
G1 X37.579 Y220.520 Z7.000 F600.000
G1 X37.579 Y225.003 Z7.000 F600.000
G1 X45.696 Y233.120 Z7.000 F600.000
G1 X41.213 Y233.120 Z7.000 F600.000
G1 X37.579 Y233.120 Z7.000 F600.000
G1 X37.579 Y229.486 Z7.000 F600.000
G1 X41.213 Y233.120 Z7.000 F600.000
G1 X41.213 Y233.120 Z6.500 F600.000
G1 X37.579 Y229.486 Z6.500 F600.000
G1 X37.579 Y233.120 Z6.500 F600.000
G1 X41.213 Y233.120 Z6.500 F600.000
G1 X45.696 Y233.120 Z6.500 F600.000
G1 X37.579 Y225.003 Z6.500 F600.000
G1 X37.579 Y220.520 Z6.500 F600.000
G1 X50.179 Y233.120 Z6.500 F600.000
G1 X54.662 Y233.120 Z6.500 F600.000
G1 X37.579 Y216.037 Z6.500 F600.000
G1 X37.579 Y211.554 Z6.500 F600.000
G1 X59.145 Y233.120 Z6.500 F600.000
G1 X63.628 Y233.120 Z6.500 F600.000
G1 X37.579 Y207.071 Z6.500 F600.000
G1 X37.579 Y202.588 Z6.500 F600.000
G1 X68.111 Y233.120 Z6.500 F600.000
G1 X72.594 Y233.120 Z6.500 F600.000
G1 X37.579 Y198.105 Z6.500 F600.000
G1 X37.579 Y193.622 Z6.500 F600.000
G1 X77.077 Y233.120 Z6.500 F600.000
G1 X81.560 Y233.120 Z6.500 F600.000
G1 X37.579 Y189.139 Z6.500 F600.000
G1 X37.579 Y184.656 Z6.500 F600.000
G1 X86.043 Y233.120 Z6.500 F600.000
G1 X90.526 Y233.120 Z6.500 F600.000
G1 X37.579 Y180.173 Z6.500 F600.000
G1 X37.579 Y175.689 Z6.500 F600.000
G1 X95.009 Y233.120 Z6.500 F600.000
G1 X99.493 Y233.120 Z6.500 F600.000
G1 X37.579 Y171.206 Z6.500 F600.000
G1 X37.579 Y166.723 Z6.500 F600.000
G1 X103.976 Y233.120 Z6.500 F600.000
G1 X108.459 Y233.120 Z6.500 F600.000
G1 X37.579 Y162.240 Z6.500 F600.000
G1 X37.579 Y157.757 Z6.500 F600.000
G1 X112.942 Y233.120 Z6.500 F600.000
G1 X117.425 Y233.120 Z6.500 F600.000
G1 X37.579 Y153.274 Z6.500 F600.000
G1 X37.579 Y148.791 Z6.500 F600.000
G1 X121.908 Y233.120 Z6.500 F600.000
G1 X126.391 Y233.120 Z6.500 F600.000
G1 X37.579 Y144.308 Z6.500 F600.000
G1 X37.579 Y139.825 Z6.500 F600.000
G1 X130.874 Y233.120 Z6.500 F600.000
G1 X135.357 Y233.120 Z6.500 F600.000
G1 X37.579 Y135.342 Z6.500 F600.000
G1 X37.579 Y130.859 Z6.500 F600.000
G1 X139.840 Y233.120 Z6.500 F600.000
G1 X144.323 Y233.120 Z6.500 F600.000
G1 X37.579 Y126.376 Z6.500 F600.000
G1 X37.579 Y121.893 Z6.500 F600.000
G1 X148.806 Y233.120 Z6.500 F600.000
G1 X153.289 Y233.120 Z6.500 F600.000
G1 X37.579 Y117.410 Z6.500 F600.000
G1 X37.579 Y112.927 Z6.500 F600.000
G1 X157.772 Y233.120 Z6.500 F600.000
G1 X162.255 Y233.120 Z6.500 F600.000
G1 X37.579 Y108.444 Z6.500 F600.000
G1 X37.579 Y103.961 Z6.500 F600.000
G1 X166.738 Y233.120 Z6.500 F600.000
G1 X171.221 Y233.120 Z6.500 F600.000
G1 X37.579 Y99.477 Z6.500 F600.000
G1 X37.579 Y94.994 Z6.500 F600.000
G1 X175.705 Y233.120 Z6.500 F600.000
G1 X180.188 Y233.120 Z6.500 F600.000
G1 X37.579 Y90.511 Z6.500 F600.000
G1 X37.579 Y86.028 Z6.500 F600.000
G1 X184.671 Y233.120 Z6.500 F600.000
G1 X189.154 Y233.120 Z6.500 F600.000
G1 X37.579 Y81.545 Z6.500 F600.000
G1 X37.579 Y77.062 Z6.500 F600.000
G1 X193.637 Y233.120 Z6.500 F600.000
G1 X198.120 Y233.120 Z6.500 F600.000
G1 X37.579 Y72.579 Z6.500 F600.000
G1 X37.579 Y68.096 Z6.500 F600.000
G1 X202.603 Y233.120 Z6.500 F600.000
G1 X207.086 Y233.120 Z6.500 F600.000
G1 X37.579 Y63.613 Z6.500 F600.000
G1 X37.579 Y59.130 Z6.500 F600.000
G1 X211.569 Y233.120 Z6.500 F600.000
G1 X216.052 Y233.120 Z6.500 F600.000
G1 X37.579 Y54.647 Z6.500 F600.000
G1 X37.579 Y50.164 Z6.500 F600.000
G1 X220.535 Y233.120 Z6.500 F600.000
G1 X225.018 Y233.120 Z6.500 F600.000
G1 X37.579 Y45.681 Z6.500 F600.000
G1 X37.579 Y41.198 Z6.500 F600.000
G1 X229.501 Y233.120 Z6.500 F600.000
G1 X233.984 Y233.120 Z6.500 F600.000
G1 X37.579 Y36.715 Z6.500 F600.000
G1 X37.579 Y36.290 Z6.500 F600.000
G1 X41.637 Y36.290 Z6.500 F600.000
G1 X234.409 Y229.062 Z6.500 F600.000
G1 X234.409 Y224.579 Z6.500 F600.000
G1 X46.120 Y36.290 Z6.500 F600.000
G1 X50.603 Y36.290 Z6.500 F600.000
G1 X234.409 Y220.096 Z6.500 F600.000
G1 X234.409 Y215.612 Z6.500 F600.000
G1 X55.086 Y36.290 Z6.500 F600.000
G1 X59.570 Y36.290 Z6.500 F600.000
G1 X234.409 Y211.129 Z6.500 F600.000
G1 X234.409 Y206.646 Z6.500 F600.000
G1 X64.053 Y36.290 Z6.500 F600.000
G1 X68.536 Y36.290 Z6.500 F600.000
G1 X234.409 Y202.163 Z6.500 F600.000
G1 X234.409 Y197.680 Z6.500 F600.000
G1 X73.019 Y36.290 Z6.500 F600.000
G1 X77.502 Y36.290 Z6.500 F600.000
G1 X234.409 Y193.197 Z6.500 F600.000
G1 X234.409 Y188.714 Z6.500 F600.000
G1 X81.985 Y36.290 Z6.500 F600.000
G1 X86.468 Y36.290 Z6.500 F600.000
G1 X234.409 Y184.231 Z6.500 F600.000
G1 X234.409 Y179.748 Z6.500 F600.000
G1 X90.951 Y36.290 Z6.500 F600.000
G1 X95.434 Y36.290 Z6.500 F600.000
G1 X234.409 Y175.265 Z6.500 F600.000
G1 X234.409 Y170.782 Z6.500 F600.000
G1 X99.917 Y36.290 Z6.500 F600.000
G1 X104.400 Y36.290 Z6.500 F600.000
G1 X234.409 Y166.299 Z6.500 F600.000
G1 X234.409 Y161.816 Z6.500 F600.000
G1 X108.883 Y36.290 Z6.500 F600.000
G1 X113.366 Y36.290 Z6.500 F600.000
G1 X234.409 Y157.333 Z6.500 F600.000
G1 X234.409 Y152.850 Z6.500 F600.000
G1 X117.849 Y36.290 Z6.500 F600.000
G1 X122.332 Y36.290 Z6.500 F600.000
G1 X234.409 Y148.367 Z6.500 F600.000
G1 X234.409 Y143.884 Z6.500 F600.000
G1 X126.815 Y36.290 Z6.500 F600.000
G1 X131.298 Y36.290 Z6.500 F600.000
G1 X234.409 Y139.400 Z6.500 F600.000
G1 X234.409 Y134.917 Z6.500 F600.000
G1 X135.782 Y36.290 Z6.500 F600.000
G1 X140.265 Y36.290 Z6.500 F600.000
G1 X234.409 Y130.434 Z6.500 F600.000
G1 X234.409 Y125.951 Z6.500 F600.000
G1 X144.748 Y36.290 Z6.500 F600.000
G1 X149.231 Y36.290 Z6.500 F600.000
G1 X234.409 Y121.468 Z6.500 F600.000
G1 X234.409 Y116.985 Z6.500 F600.000
G1 X153.714 Y36.290 Z6.500 F600.000
G1 X158.197 Y36.290 Z6.500 F600.000
G1 X234.409 Y112.502 Z6.500 F600.000
G1 X234.409 Y108.019 Z6.500 F600.000
G1 X162.680 Y36.290 Z6.500 F600.000
G1 X167.163 Y36.290 Z6.500 F600.000
G1 X234.409 Y103.536 Z6.500 F600.000
G1 X234.409 Y99.053 Z6.500 F600.000
G1 X171.646 Y36.290 Z6.500 F600.000
G1 X176.129 Y36.290 Z6.500 F600.000
G1 X234.409 Y94.570 Z6.500 F600.000
G1 X234.409 Y90.087 Z6.500 F600.000
G1 X180.612 Y36.290 Z6.500 F600.000
G1 X185.095 Y36.290 Z6.500 F600.000
G1 X234.409 Y85.604 Z6.500 F600.000
G1 X234.409 Y81.121 Z6.500 F600.000
G1 X189.578 Y36.290 Z6.500 F600.000
G1 X194.061 Y36.290 Z6.500 F600.000
G1 X234.409 Y76.638 Z6.500 F600.000
G1 X234.409 Y72.155 Z6.500 F600.000
G1 X198.544 Y36.290 Z6.500 F600.000
G1 X203.027 Y36.290 Z6.500 F600.000
G1 X234.409 Y67.672 Z6.500 F600.000
G1 X234.409 Y63.189 Z6.500 F600.000
G1 X207.510 Y36.290 Z6.500 F600.000
G1 X211.993 Y36.290 Z6.500 F600.000
G1 X234.409 Y58.705 Z6.500 F600.000
G1 X234.409 Y54.222 Z6.500 F600.000
G1 X216.477 Y36.290 Z6.500 F600.000
G1 X220.960 Y36.290 Z6.500 F600.000
G1 X234.409 Y49.739 Z6.500 F600.000
G1 X234.409 Y45.256 Z6.500 F600.000
G1 X225.443 Y36.290 Z6.500 F600.000
G1 X229.926 Y36.290 Z6.500 F600.000
G1 X234.409 Y40.773 Z6.500 F600.000
G1 X234.409 Y36.290 Z6.500 F600.000
G1 X234.409 Y36.290 Z6.000 F600.000
G1 X234.409 Y40.773 Z6.000 F600.000
G1 X229.926 Y36.290 Z6.000 F600.000
G1 X225.443 Y36.290 Z6.000 F600.000
G1 X234.409 Y45.256 Z6.000 F600.000
G1 X234.409 Y49.739 Z6.000 F600.000
G1 X220.960 Y36.290 Z6.000 F600.000
G1 X216.477 Y36.290 Z6.000 F600.000
G1 X234.409 Y54.222 Z6.000 F600.000
G1 X234.409 Y58.705 Z6.000 F600.000
G1 X211.993 Y36.290 Z6.000 F600.000
G1 X207.510 Y36.290 Z6.000 F600.000
G1 X234.409 Y63.189 Z6.000 F600.000
G1 X234.409 Y67.672 Z6.000 F600.000
G1 X203.027 Y36.290 Z6.000 F600.000
G1 X198.544 Y36.290 Z6.000 F600.000
G1 X234.409 Y72.155 Z6.000 F600.000
G1 X234.409 Y76.638 Z6.000 F600.000
G1 X194.061 Y36.290 Z6.000 F600.000
G1 X189.578 Y36.290 Z6.000 F600.000
G1 X234.409 Y81.121 Z6.000 F600.000
G1 X234.409 Y85.604 Z6.000 F600.000
G1 X185.095 Y36.290 Z6.000 F600.000
G1 X180.612 Y36.290 Z6.000 F600.000
G1 X234.409 Y90.087 Z6.000 F600.000
G1 X234.409 Y94.570 Z6.000 F600.000
G1 X176.129 Y36.290 Z6.000 F600.000
G1 X171.646 Y36.290 Z6.000 F600.000
G1 X234.409 Y99.053 Z6.000 F600.000
G1 X234.409 Y103.536 Z6.000 F600.000
G1 X167.163 Y36.290 Z6.000 F600.000
G1 X162.680 Y36.290 Z6.000 F600.000
G1 X234.409 Y108.019 Z6.000 F600.000
G1 X234.409 Y112.502 Z6.000 F600.000
G1 X158.197 Y36.290 Z6.000 F600.000
G1 X153.714 Y36.290 Z6.000 F600.000
G1 X234.409 Y116.985 Z6.000 F600.000
G1 X234.409 Y121.468 Z6.000 F600.000
G1 X149.231 Y36.290 Z6.000 F600.000
G1 X144.748 Y36.290 Z6.000 F600.000
G1 X234.409 Y125.951 Z6.000 F600.000
G1 X234.409 Y130.434 Z6.000 F600.000
G1 X140.265 Y36.290 Z6.000 F600.000
G1 X135.782 Y36.290 Z6.000 F600.000
G1 X234.409 Y134.917 Z6.000 F600.000
G1 X234.409 Y139.400 Z6.000 F600.000
G1 X131.298 Y36.290 Z6.000 F600.000
G1 X126.815 Y36.290 Z6.000 F600.000
G1 X234.409 Y143.884 Z6.000 F600.000
G1 X234.409 Y148.367 Z6.000 F600.000
G1 X122.332 Y36.290 Z6.000 F600.000
G1 X117.849 Y36.290 Z6.000 F600.000
G1 X234.409 Y152.850 Z6.000 F600.000
G1 X234.409 Y157.333 Z6.000 F600.000
G1 X113.366 Y36.290 Z6.000 F600.000
G1 X108.883 Y36.290 Z6.000 F600.000
G1 X234.409 Y161.816 Z6.000 F600.000
G1 X234.409 Y166.299 Z6.000 F600.000
G1 X104.400 Y36.290 Z6.000 F600.000
G1 X99.917 Y36.290 Z6.000 F600.000
G1 X234.409 Y170.782 Z6.000 F600.000
G1 X234.409 Y175.265 Z6.000 F600.000
G1 X95.434 Y36.290 Z6.000 F600.000
G1 X90.951 Y36.290 Z6.000 F600.000
G1 X234.409 Y179.748 Z6.000 F600.000
G1 X234.409 Y184.231 Z6.000 F600.000
G1 X86.468 Y36.290 Z6.000 F600.000
G1 X81.985 Y36.290 Z6.000 F600.000
G1 X234.409 Y188.714 Z6.000 F600.000
G1 X234.409 Y193.197 Z6.000 F600.000
G1 X77.502 Y36.290 Z6.000 F600.000
G1 X73.019 Y36.290 Z6.000 F600.000
G1 X234.409 Y197.680 Z6.000 F600.000
G1 X234.409 Y202.163 Z6.000 F600.000
G1 X68.536 Y36.290 Z6.000 F600.000
G1 X64.053 Y36.290 Z6.000 F600.000
G1 X234.409 Y206.646 Z6.000 F600.000
G1 X234.409 Y211.129 Z6.000 F600.000
G1 X59.570 Y36.290 Z6.000 F600.000
G1 X55.086 Y36.290 Z6.000 F600.000
G1 X234.409 Y215.612 Z6.000 F600.000
G1 X234.409 Y220.096 Z6.000 F600.000
G1 X50.603 Y36.290 Z6.000 F600.000
G1 X46.120 Y36.290 Z6.000 F600.000
G1 X234.409 Y224.579 Z6.000 F600.000
G1 X234.409 Y229.062 Z6.000 F600.000
G1 X41.637 Y36.290 Z6.000 F600.000
G1 X37.579 Y36.290 Z6.000 F600.000
G1 X37.579 Y36.715 Z6.000 F600.000
G1 X233.984 Y233.120 Z6.000 F600.000
G1 X229.501 Y233.120 Z6.000 F600.000
G1 X37.579 Y41.198 Z6.000 F600.000
G1 X37.579 Y45.681 Z6.000 F600.000
G1 X225.018 Y233.120 Z6.000 F600.000
G1 X220.535 Y233.120 Z6.000 F600.000
G1 X37.579 Y50.164 Z6.000 F600.000
G1 X37.579 Y54.647 Z6.000 F600.000
G1 X216.052 Y233.120 Z6.000 F600.000
G1 X211.569 Y233.120 Z6.000 F600.000
G1 X37.579 Y59.130 Z6.000 F600.000
G1 X37.579 Y63.613 Z6.000 F600.000
G1 X207.086 Y233.120 Z6.000 F600.000
G1 X202.603 Y233.120 Z6.000 F600.000
G1 X37.579 Y68.096 Z6.000 F600.000
G1 X37.579 Y72.579 Z6.000 F600.000
G1 X198.120 Y233.120 Z6.000 F600.000
G1 X193.637 Y233.120 Z6.000 F600.000
G1 X37.579 Y77.062 Z6.000 F600.000
G1 X37.579 Y81.545 Z6.000 F600.000
G1 X189.154 Y233.120 Z6.000 F600.000
G1 X184.671 Y233.120 Z6.000 F600.000
G1 X37.579 Y86.028 Z6.000 F600.000
G1 X37.579 Y90.511 Z6.000 F600.000
G1 X180.188 Y233.120 Z6.000 F600.000
G1 X175.705 Y233.120 Z6.000 F600.000
G1 X37.579 Y94.994 Z6.000 F600.000
G1 X37.579 Y99.477 Z6.000 F600.000
G1 X171.221 Y233.120 Z6.000 F600.000
G1 X166.738 Y233.120 Z6.000 F600.000
G1 X37.579 Y103.961 Z6.000 F600.000
G1 X37.579 Y108.444 Z6.000 F600.000
G1 X162.255 Y233.120 Z6.000 F600.000
G1 X157.772 Y233.120 Z6.000 F600.000
G1 X37.579 Y112.927 Z6.000 F600.000
G1 X37.579 Y117.410 Z6.000 F600.000
G1 X153.289 Y233.120 Z6.000 F600.000
G1 X148.806 Y233.120 Z6.000 F600.000
G1 X37.579 Y121.893 Z6.000 F600.000
G1 X37.579 Y126.376 Z6.000 F600.000
G1 X144.323 Y233.120 Z6.000 F600.000
G1 X139.840 Y233.120 Z6.000 F600.000
G1 X37.579 Y130.859 Z6.000 F600.000
G1 X37.579 Y135.342 Z6.000 F600.000
G1 X135.357 Y233.120 Z6.000 F600.000
G1 X130.874 Y233.120 Z6.000 F600.000
G1 X37.579 Y139.825 Z6.000 F600.000
G1 X37.579 Y144.308 Z6.000 F600.000
G1 X126.391 Y233.120 Z6.000 F600.000
G1 X121.908 Y233.120 Z6.000 F600.000
G1 X37.579 Y148.791 Z6.000 F600.000
G1 X37.579 Y153.274 Z6.000 F600.000
G1 X117.425 Y233.120 Z6.000 F600.000
G1 X112.942 Y233.120 Z6.000 F600.000
G1 X37.579 Y157.757 Z6.000 F600.000
G1 X37.579 Y162.240 Z6.000 F600.000
G1 X108.459 Y233.120 Z6.000 F600.000
G1 X103.976 Y233.120 Z6.000 F600.000
G1 X37.579 Y166.723 Z6.000 F600.000
G1 X37.579 Y171.206 Z6.000 F600.000
G1 X99.493 Y233.120 Z6.000 F600.000
G1 X95.009 Y233.120 Z6.000 F600.000
G1 X37.579 Y175.689 Z6.000 F600.000
G1 X37.579 Y180.173 Z6.000 F600.000
G1 X90.526 Y233.120 Z6.000 F600.000
G1 X86.043 Y233.120 Z6.000 F600.000
G1 X37.579 Y184.656 Z6.000 F600.000
G1 X37.579 Y189.139 Z6.000 F600.000
G1 X81.560 Y233.120 Z6.000 F600.000
G1 X77.077 Y233.120 Z6.000 F600.000
G1 X37.579 Y193.622 Z6.000 F600.000
G1 X37.579 Y198.105 Z6.000 F600.000
G1 X72.594 Y233.120 Z6.000 F600.000
G1 X68.111 Y233.120 Z6.000 F600.000
G1 X37.579 Y202.588 Z6.000 F600.000
G1 X37.579 Y207.071 Z6.000 F600.000
G1 X63.628 Y233.120 Z6.000 F600.000
G1 X59.145 Y233.120 Z6.000 F600.000
G1 X37.579 Y211.554 Z6.000 F600.000
G1 X37.579 Y216.037 Z6.000 F600.000
G1 X54.662 Y233.120 Z6.000 F600.000
G1 X50.179 Y233.120 Z6.000 F600.000
G1 X37.579 Y220.520 Z6.000 F600.000
G1 X37.579 Y225.003 Z6.000 F600.000
G1 X45.696 Y233.120 Z6.000 F600.000
G1 X41.213 Y233.120 Z6.000 F600.000
G1 X37.579 Y233.120 Z6.000 F600.000
G1 X37.579 Y229.486 Z6.000 F600.000
G1 X41.213 Y233.120 Z6.000 F600.000
G1 X41.213 Y233.120 Z5.500 F600.000
G1 X37.579 Y229.486 Z5.500 F600.000
G1 X37.579 Y233.120 Z5.500 F600.000
G1 X41.213 Y233.120 Z5.500 F600.000
G1 X45.696 Y233.120 Z5.500 F600.000
G1 X37.579 Y225.003 Z5.500 F600.000
G1 X37.579 Y220.520 Z5.500 F600.000
G1 X50.179 Y233.120 Z5.500 F600.000
G1 X54.662 Y233.120 Z5.500 F600.000
G1 X37.579 Y216.037 Z5.500 F600.000
G1 X37.579 Y211.554 Z5.500 F600.000
G1 X59.145 Y233.120 Z5.500 F600.000
G1 X63.628 Y233.120 Z5.500 F600.000
G1 X37.579 Y207.071 Z5.500 F600.000
G1 X37.579 Y202.588 Z5.500 F600.000
G1 X68.111 Y233.120 Z5.500 F600.000
G1 X72.594 Y233.120 Z5.500 F600.000
G1 X37.579 Y198.105 Z5.500 F600.000
G1 X37.579 Y193.622 Z5.500 F600.000
G1 X77.077 Y233.120 Z5.500 F600.000
G1 X81.560 Y233.120 Z5.500 F600.000
G1 X37.579 Y189.139 Z5.500 F600.000
G1 X37.579 Y184.656 Z5.500 F600.000
G1 X86.043 Y233.120 Z5.500 F600.000
G1 X90.526 Y233.120 Z5.500 F600.000
G1 X37.579 Y180.173 Z5.500 F600.000
G1 X37.579 Y175.689 Z5.500 F600.000
G1 X95.009 Y233.120 Z5.500 F600.000
G1 X99.493 Y233.120 Z5.500 F600.000
G1 X37.579 Y171.206 Z5.500 F600.000
G1 X37.579 Y166.723 Z5.500 F600.000
G1 X103.976 Y233.120 Z5.500 F600.000
G1 X108.459 Y233.120 Z5.500 F600.000
G1 X37.579 Y162.240 Z5.500 F600.000
G1 X37.579 Y157.757 Z5.500 F600.000
G1 X112.942 Y233.120 Z5.500 F600.000
G1 X117.425 Y233.120 Z5.500 F600.000
G1 X37.579 Y153.274 Z5.500 F600.000
G1 X37.579 Y148.791 Z5.500 F600.000
G1 X121.908 Y233.120 Z5.500 F600.000
G1 X126.391 Y233.120 Z5.500 F600.000
G1 X37.579 Y144.308 Z5.500 F600.000
G1 X37.579 Y139.825 Z5.500 F600.000
G1 X130.874 Y233.120 Z5.500 F600.000
G1 X135.357 Y233.120 Z5.500 F600.000
G1 X37.579 Y135.342 Z5.500 F600.000
G1 X37.579 Y130.859 Z5.500 F600.000
G1 X139.840 Y233.120 Z5.500 F600.000
G1 X144.323 Y233.120 Z5.500 F600.000
G1 X37.579 Y126.376 Z5.500 F600.000
G1 X37.579 Y121.893 Z5.500 F600.000
G1 X148.806 Y233.120 Z5.500 F600.000
G1 X153.289 Y233.120 Z5.500 F600.000
G1 X37.579 Y117.410 Z5.500 F600.000
G1 X37.579 Y112.927 Z5.500 F600.000
G1 X157.772 Y233.120 Z5.500 F600.000
G1 X162.255 Y233.120 Z5.500 F600.000
G1 X37.579 Y108.444 Z5.500 F600.000
G1 X37.579 Y103.961 Z5.500 F600.000
G1 X166.738 Y233.120 Z5.500 F600.000
G1 X171.221 Y233.120 Z5.500 F600.000
G1 X37.579 Y99.477 Z5.500 F600.000
G1 X37.579 Y94.994 Z5.500 F600.000
G1 X175.705 Y233.120 Z5.500 F600.000
G1 X180.188 Y233.120 Z5.500 F600.000
G1 X37.579 Y90.511 Z5.500 F600.000
G1 X37.579 Y86.028 Z5.500 F600.000
G1 X184.671 Y233.120 Z5.500 F600.000
G1 X189.154 Y233.120 Z5.500 F600.000
G1 X37.579 Y81.545 Z5.500 F600.000
G1 X37.579 Y77.062 Z5.500 F600.000
G1 X193.637 Y233.120 Z5.500 F600.000
G1 X198.120 Y233.120 Z5.500 F600.000
G1 X37.579 Y72.579 Z5.500 F600.000
G1 X37.579 Y68.096 Z5.500 F600.000
G1 X202.603 Y233.120 Z5.500 F600.000
G1 X207.086 Y233.120 Z5.500 F600.000
G1 X37.579 Y63.613 Z5.500 F600.000
G1 X37.579 Y59.130 Z5.500 F600.000
G1 X211.569 Y233.120 Z5.500 F600.000
G1 X216.052 Y233.120 Z5.500 F600.000
G1 X37.579 Y54.647 Z5.500 F600.000
G1 X37.579 Y50.164 Z5.500 F600.000
G1 X220.535 Y233.120 Z5.500 F600.000
G1 X225.018 Y233.120 Z5.500 F600.000
G1 X37.579 Y45.681 Z5.500 F600.000
G1 X37.579 Y41.198 Z5.500 F600.000
G1 X229.501 Y233.120 Z5.500 F600.000
G1 X233.984 Y233.120 Z5.500 F600.000
G1 X37.579 Y36.715 Z5.500 F600.000
G1 X37.579 Y36.290 Z5.500 F600.000
G1 X41.637 Y36.290 Z5.500 F600.000
G1 X234.409 Y229.062 Z5.500 F600.000
G1 X234.409 Y224.579 Z5.500 F600.000
G1 X46.120 Y36.290 Z5.500 F600.000
G1 X50.603 Y36.290 Z5.500 F600.000
G1 X234.409 Y220.096 Z5.500 F600.000
G1 X234.409 Y215.612 Z5.500 F600.000
G1 X55.086 Y36.290 Z5.500 F600.000
G1 X59.570 Y36.290 Z5.500 F600.000
G1 X234.409 Y211.129 Z5.500 F600.000
G1 X234.409 Y206.646 Z5.500 F600.000
G1 X64.053 Y36.290 Z5.500 F600.000
G1 X68.536 Y36.290 Z5.500 F600.000
G1 X234.409 Y202.163 Z5.500 F600.000
G1 X234.409 Y197.680 Z5.500 F600.000
G1 X73.019 Y36.290 Z5.500 F600.000
G1 X77.502 Y36.290 Z5.500 F600.000
G1 X234.409 Y193.197 Z5.500 F600.000
G1 X234.409 Y188.714 Z5.500 F600.000
G1 X81.985 Y36.290 Z5.500 F600.000
G1 X86.468 Y36.290 Z5.500 F600.000
G1 X234.409 Y184.231 Z5.500 F600.000
G1 X234.409 Y179.748 Z5.500 F600.000
G1 X90.951 Y36.290 Z5.500 F600.000
G1 X95.434 Y36.290 Z5.500 F600.000
G1 X234.409 Y175.265 Z5.500 F600.000
G1 X234.409 Y170.782 Z5.500 F600.000
G1 X99.917 Y36.290 Z5.500 F600.000
G1 X104.400 Y36.290 Z5.500 F600.000
G1 X234.409 Y166.299 Z5.500 F600.000
G1 X234.409 Y161.816 Z5.500 F600.000
G1 X108.883 Y36.290 Z5.500 F600.000
G1 X113.366 Y36.290 Z5.500 F600.000
G1 X234.409 Y157.333 Z5.500 F600.000
G1 X234.409 Y152.850 Z5.500 F600.000
G1 X117.849 Y36.290 Z5.500 F600.000
G1 X122.332 Y36.290 Z5.500 F600.000
G1 X234.409 Y148.367 Z5.500 F600.000
G1 X234.409 Y143.884 Z5.500 F600.000
G1 X126.815 Y36.290 Z5.500 F600.000
G1 X131.298 Y36.290 Z5.500 F600.000
G1 X234.409 Y139.400 Z5.500 F600.000
G1 X234.409 Y134.917 Z5.500 F600.000
G1 X135.782 Y36.290 Z5.500 F600.000
G1 X140.265 Y36.290 Z5.500 F600.000
G1 X234.409 Y130.434 Z5.500 F600.000
G1 X234.409 Y125.951 Z5.500 F600.000
G1 X144.748 Y36.290 Z5.500 F600.000
G1 X149.231 Y36.290 Z5.500 F600.000
G1 X234.409 Y121.468 Z5.500 F600.000
G1 X234.409 Y116.985 Z5.500 F600.000
G1 X153.714 Y36.290 Z5.500 F600.000
G1 X158.197 Y36.290 Z5.500 F600.000
G1 X234.409 Y112.502 Z5.500 F600.000
G1 X234.409 Y108.019 Z5.500 F600.000
G1 X162.680 Y36.290 Z5.500 F600.000
G1 X167.163 Y36.290 Z5.500 F600.000
G1 X234.409 Y103.536 Z5.500 F600.000
G1 X234.409 Y99.053 Z5.500 F600.000
G1 X171.646 Y36.290 Z5.500 F600.000
G1 X176.129 Y36.290 Z5.500 F600.000
G1 X234.409 Y94.570 Z5.500 F600.000
G1 X234.409 Y90.087 Z5.500 F600.000
G1 X180.612 Y36.290 Z5.500 F600.000
G1 X185.095 Y36.290 Z5.500 F600.000
G1 X234.409 Y85.604 Z5.500 F600.000
G1 X234.409 Y81.121 Z5.500 F600.000
G1 X189.578 Y36.290 Z5.500 F600.000
G1 X194.061 Y36.290 Z5.500 F600.000
G1 X234.409 Y76.638 Z5.500 F600.000
G1 X234.409 Y72.155 Z5.500 F600.000
G1 X198.544 Y36.290 Z5.500 F600.000
G1 X203.027 Y36.290 Z5.500 F600.000
G1 X234.409 Y67.672 Z5.500 F600.000
G1 X234.409 Y63.189 Z5.500 F600.000
G1 X207.510 Y36.290 Z5.500 F600.000
G1 X211.993 Y36.290 Z5.500 F600.000
G1 X234.409 Y58.705 Z5.500 F600.000
G1 X234.409 Y54.222 Z5.500 F600.000
G1 X216.477 Y36.290 Z5.500 F600.000
G1 X220.960 Y36.290 Z5.500 F600.000
G1 X234.409 Y49.739 Z5.500 F600.000
G1 X234.409 Y45.256 Z5.500 F600.000
G1 X225.443 Y36.290 Z5.500 F600.000
G1 X229.926 Y36.290 Z5.500 F600.000
G1 X234.409 Y40.773 Z5.500 F600.000
G1 X234.409 Y36.290 Z5.500 F600.000
G1 X234.409 Y36.290 Z5.000 F600.000
G1 X234.409 Y40.773 Z5.000 F600.000
G1 X229.926 Y36.290 Z5.000 F600.000
G1 X225.443 Y36.290 Z5.000 F600.000
G1 X234.409 Y45.256 Z5.000 F600.000
G1 X234.409 Y49.739 Z5.000 F600.000
G1 X220.960 Y36.290 Z5.000 F600.000
G1 X216.477 Y36.290 Z5.000 F600.000
G1 X234.409 Y54.222 Z5.000 F600.000
G1 X234.409 Y58.705 Z5.000 F600.000
G1 X211.993 Y36.290 Z5.000 F600.000
G1 X207.510 Y36.290 Z5.000 F600.000
G1 X234.409 Y63.189 Z5.000 F600.000
G1 X234.409 Y67.672 Z5.000 F600.000
G1 X203.027 Y36.290 Z5.000 F600.000
G1 X198.544 Y36.290 Z5.000 F600.000
G1 X234.409 Y72.155 Z5.000 F600.000
G1 X234.409 Y76.638 Z5.000 F600.000
G1 X194.061 Y36.290 Z5.000 F600.000
G1 X189.578 Y36.290 Z5.000 F600.000
G1 X234.409 Y81.121 Z5.000 F600.000
G1 X234.409 Y85.604 Z5.000 F600.000
G1 X185.095 Y36.290 Z5.000 F600.000
G1 X180.612 Y36.290 Z5.000 F600.000
G1 X234.409 Y90.087 Z5.000 F600.000
G1 X234.409 Y94.570 Z5.000 F600.000
G1 X176.129 Y36.290 Z5.000 F600.000
G1 X171.646 Y36.290 Z5.000 F600.000
G1 X234.409 Y99.053 Z5.000 F600.000
G1 X234.409 Y103.536 Z5.000 F600.000
G1 X167.163 Y36.290 Z5.000 F600.000
G1 X162.680 Y36.290 Z5.000 F600.000
G1 X234.409 Y108.019 Z5.000 F600.000
G1 X234.409 Y112.502 Z5.000 F600.000
G1 X158.197 Y36.290 Z5.000 F600.000
G1 X153.714 Y36.290 Z5.000 F600.000
G1 X234.409 Y116.985 Z5.000 F600.000
G1 X234.409 Y121.468 Z5.000 F600.000
G1 X149.231 Y36.290 Z5.000 F600.000
G1 X144.748 Y36.290 Z5.000 F600.000
G1 X234.409 Y125.951 Z5.000 F600.000
G1 X234.409 Y130.434 Z5.000 F600.000
G1 X140.265 Y36.290 Z5.000 F600.000
G1 X135.782 Y36.290 Z5.000 F600.000
G1 X234.409 Y134.917 Z5.000 F600.000
G1 X234.409 Y139.400 Z5.000 F600.000
G1 X131.298 Y36.290 Z5.000 F600.000
G1 X126.815 Y36.290 Z5.000 F600.000
G1 X234.409 Y143.884 Z5.000 F600.000
G1 X234.409 Y148.367 Z5.000 F600.000
G1 X122.332 Y36.290 Z5.000 F600.000
G1 X117.849 Y36.290 Z5.000 F600.000
G1 X234.409 Y152.850 Z5.000 F600.000
G1 X234.409 Y157.333 Z5.000 F600.000
G1 X113.366 Y36.290 Z5.000 F600.000
G1 X108.883 Y36.290 Z5.000 F600.000
G1 X234.409 Y161.816 Z5.000 F600.000
G1 X234.409 Y166.299 Z5.000 F600.000
G1 X104.400 Y36.290 Z5.000 F600.000
G1 X99.917 Y36.290 Z5.000 F600.000
G1 X234.409 Y170.782 Z5.000 F600.000
G1 X234.409 Y175.265 Z5.000 F600.000
G1 X95.434 Y36.290 Z5.000 F600.000
G1 X90.951 Y36.290 Z5.000 F600.000
G1 X234.409 Y179.748 Z5.000 F600.000
G1 X234.409 Y184.231 Z5.000 F600.000
G1 X86.468 Y36.290 Z5.000 F600.000
G1 X81.985 Y36.290 Z5.000 F600.000
G1 X234.409 Y188.714 Z5.000 F600.000
G1 X234.409 Y193.197 Z5.000 F600.000
G1 X77.502 Y36.290 Z5.000 F600.000
G1 X73.019 Y36.290 Z5.000 F600.000
G1 X234.409 Y197.680 Z5.000 F600.000
G1 X234.409 Y202.163 Z5.000 F600.000
G1 X68.536 Y36.290 Z5.000 F600.000
G1 X64.053 Y36.290 Z5.000 F600.000
G1 X234.409 Y206.646 Z5.000 F600.000
G1 X234.409 Y211.129 Z5.000 F600.000
G1 X59.570 Y36.290 Z5.000 F600.000
G1 X55.086 Y36.290 Z5.000 F600.000
G1 X234.409 Y215.612 Z5.000 F600.000
G1 X234.409 Y220.096 Z5.000 F600.000
G1 X50.603 Y36.290 Z5.000 F600.000
G1 X46.120 Y36.290 Z5.000 F600.000
G1 X234.409 Y224.579 Z5.000 F600.000
G1 X234.409 Y229.062 Z5.000 F600.000
G1 X41.637 Y36.290 Z5.000 F600.000
G1 X37.579 Y36.290 Z5.000 F600.000
G1 X37.579 Y36.715 Z5.000 F600.000
G1 X233.984 Y233.120 Z5.000 F600.000
G1 X229.501 Y233.120 Z5.000 F600.000
G1 X37.579 Y41.198 Z5.000 F600.000
G1 X37.579 Y45.681 Z5.000 F600.000
G1 X225.018 Y233.120 Z5.000 F600.000
G1 X220.535 Y233.120 Z5.000 F600.000
G1 X37.579 Y50.164 Z5.000 F600.000
G1 X37.579 Y54.647 Z5.000 F600.000
G1 X216.052 Y233.120 Z5.000 F600.000
G1 X211.569 Y233.120 Z5.000 F600.000
G1 X37.579 Y59.130 Z5.000 F600.000
G1 X37.579 Y63.613 Z5.000 F600.000
G1 X207.086 Y233.120 Z5.000 F600.000
G1 X202.603 Y233.120 Z5.000 F600.000
G1 X37.579 Y68.096 Z5.000 F600.000
G1 X37.579 Y72.579 Z5.000 F600.000
G1 X198.120 Y233.120 Z5.000 F600.000
G1 X193.637 Y233.120 Z5.000 F600.000
G1 X37.579 Y77.062 Z5.000 F600.000
G1 X37.579 Y81.545 Z5.000 F600.000
G1 X189.154 Y233.120 Z5.000 F600.000
G1 X184.671 Y233.120 Z5.000 F600.000
G1 X37.579 Y86.028 Z5.000 F600.000
G1 X37.579 Y90.511 Z5.000 F600.000
G1 X180.188 Y233.120 Z5.000 F600.000
G1 X175.705 Y233.120 Z5.000 F600.000
G1 X37.579 Y94.994 Z5.000 F600.000
G1 X37.579 Y99.477 Z5.000 F600.000
G1 X171.221 Y233.120 Z5.000 F600.000
G1 X166.738 Y233.120 Z5.000 F600.000
G1 X37.579 Y103.961 Z5.000 F600.000
G1 X37.579 Y108.444 Z5.000 F600.000
G1 X162.255 Y233.120 Z5.000 F600.000
G1 X157.772 Y233.120 Z5.000 F600.000
G1 X37.579 Y112.927 Z5.000 F600.000
G1 X37.579 Y117.410 Z5.000 F600.000
G1 X153.289 Y233.120 Z5.000 F600.000
G1 X148.806 Y233.120 Z5.000 F600.000
G1 X37.579 Y121.893 Z5.000 F600.000
G1 X37.579 Y126.376 Z5.000 F600.000
G1 X144.323 Y233.120 Z5.000 F600.000
G1 X139.840 Y233.120 Z5.000 F600.000
G1 X37.579 Y130.859 Z5.000 F600.000
G1 X37.579 Y135.342 Z5.000 F600.000
G1 X135.357 Y233.120 Z5.000 F600.000
G1 X130.874 Y233.120 Z5.000 F600.000
G1 X37.579 Y139.825 Z5.000 F600.000
G1 X37.579 Y144.308 Z5.000 F600.000
G1 X126.391 Y233.120 Z5.000 F600.000
G1 X121.908 Y233.120 Z5.000 F600.000
G1 X37.579 Y148.791 Z5.000 F600.000
G1 X37.579 Y153.274 Z5.000 F600.000
G1 X117.425 Y233.120 Z5.000 F600.000
G1 X112.942 Y233.120 Z5.000 F600.000
G1 X37.579 Y157.757 Z5.000 F600.000
G1 X37.579 Y162.240 Z5.000 F600.000
G1 X108.459 Y233.120 Z5.000 F600.000
G1 X103.976 Y233.120 Z5.000 F600.000
G1 X37.579 Y166.723 Z5.000 F600.000
G1 X37.579 Y171.206 Z5.000 F600.000
G1 X99.493 Y233.120 Z5.000 F600.000
G1 X95.009 Y233.120 Z5.000 F600.000
G1 X37.579 Y175.689 Z5.000 F600.000
G1 X37.579 Y180.173 Z5.000 F600.000
G1 X90.526 Y233.120 Z5.000 F600.000
G1 X86.043 Y233.120 Z5.000 F600.000
G1 X37.579 Y184.656 Z5.000 F600.000
G1 X37.579 Y189.139 Z5.000 F600.000
G1 X81.560 Y233.120 Z5.000 F600.000
G1 X77.077 Y233.120 Z5.000 F600.000
G1 X37.579 Y193.622 Z5.000 F600.000
G1 X37.579 Y198.105 Z5.000 F600.000
G1 X72.594 Y233.120 Z5.000 F600.000
G1 X68.111 Y233.120 Z5.000 F600.000
G1 X37.579 Y202.588 Z5.000 F600.000
G1 X37.579 Y207.071 Z5.000 F600.000
G1 X63.628 Y233.120 Z5.000 F600.000
G1 X59.145 Y233.120 Z5.000 F600.000
G1 X37.579 Y211.554 Z5.000 F600.000
G1 X37.579 Y216.037 Z5.000 F600.000
G1 X54.662 Y233.120 Z5.000 F600.000
G1 X50.179 Y233.120 Z5.000 F600.000
G1 X37.579 Y220.520 Z5.000 F600.000
G1 X37.579 Y225.003 Z5.000 F600.000
G1 X45.696 Y233.120 Z5.000 F600.000
G1 X41.213 Y233.120 Z5.000 F600.000
G1 X37.579 Y233.120 Z5.000 F600.000
G1 X37.579 Y229.486 Z5.000 F600.000
G1 X41.213 Y233.120 Z5.000 F600.000
G0 Z15.000
G0 Z15.000
(Finish operation: Pocket_Shape)
(Begin postamble)
M5
G17 G90
M2
