(Exported by FreeCAD)
(Post Processor: grbl_post)
(Output Time:2024-06-24 15:11:03.804743)
(Begin preamble)
G17 G90
G21
(Begin operation: Fixture)
(Path: Fixture)
G54
(Finish operation: Fixture)
(Begin operation: 6mm_endmill001)
(Path: 6mm_endmill001)
(6mm_endmill001)
(Begin toolchange)
( M6 T2 )
M3 S10000
(Finish operation: 6mm_endmill001)
(Begin operation: Pocket_Shape)
(Path: Pocket_Shape)
(Pocket_Shape)
G0 Z5.000
G0 X28.574 Y42.000
G0 Z3.000
G1 X28.574 Y42.000 Z-6.000 F1000.000
G1 X23.000 Y42.000 Z-6.000 F1000.000
G1 X23.000 Y36.426 Z-6.000 F1000.000
G1 X28.574 Y42.000 Z-6.000 F1000.000
G1 X37.059 Y42.000 Z-6.000 F1000.000
G1 X23.000 Y27.941 Z-6.000 F1000.000
G1 X23.000 Y19.456 Z-6.000 F1000.000
G1 X45.544 Y42.000 Z-6.000 F1000.000
G1 X47.000 Y42.000 Z-6.000 F1000.000
G1 X47.000 Y34.971 Z-6.000 F1000.000
G1 X30.029 Y18.000 Z-6.000 F1000.000
G1 X38.515 Y18.000 Z-6.000 F1000.000
G1 X47.000 Y26.485 Z-6.000 F1000.000
G1 X47.000 Y18.000 Z-6.000 F1000.000
G1 X47.000 Y18.000 Z-10.000 F1000.000
G1 X47.000 Y26.485 Z-10.000 F1000.000
G1 X38.515 Y18.000 Z-10.000 F1000.000
G1 X30.029 Y18.000 Z-10.000 F1000.000
G1 X47.000 Y34.971 Z-10.000 F1000.000
G1 X47.000 Y42.000 Z-10.000 F1000.000
G1 X45.544 Y42.000 Z-10.000 F1000.000
G1 X23.000 Y19.456 Z-10.000 F1000.000
G1 X23.000 Y27.941 Z-10.000 F1000.000
G1 X37.059 Y42.000 Z-10.000 F1000.000
G1 X28.574 Y42.000 Z-10.000 F1000.000
G1 X23.000 Y36.426 Z-10.000 F1000.000
G1 X23.000 Y42.000 Z-10.000 F1000.000
G1 X28.574 Y42.000 Z-10.000 F1000.000
G0 Z5.000
G0 Z5.000
(Finish operation: Pocket_Shape)
(Begin operation: Pocket3D)
(Path: Pocket3D)
(Pocket3D)
G0 Z5.000
G0 X247.000 Y38.006
G0 Z3.000
G1 X247.000 Y38.006 Z-1.000 F1000.000
G3 X239.650 Y36.871 Z-1.000 I16.485 J-131.102 K0.000 F1000.000
G1 X247.000 Y29.521 Z-1.000 F1000.000
G1 X247.000 Y21.991 Z-1.000 F1000.000
G2 X245.896 Y22.140 Z-1.000 I4.337 J36.338 K0.000 F1000.000
G1 X232.723 Y35.313 Z-1.000 F1000.000
G3 X226.939 Y33.249 Z-1.000 I9.129 J-34.723 K0.000 F1000.000
G1 X226.517 Y33.034 Z-1.000 F1000.000
G1 X235.578 Y23.972 Z-1.000 F1000.000
G2 X226.604 Y26.913 Z-1.000 I8.762 J41.902 K0.000 F1000.000
G2 X224.091 Y28.480 Z-1.000 I5.642 J11.846 K0.000 F1000.000
G2 X223.051 Y29.679 Z-1.000 I2.389 J3.124 K0.000 F1000.000
G2 X223.141 Y30.490 Z-1.000 I0.695 J0.334 K0.000 F1000.000
G2 X224.297 Y31.684 Z-1.000 I4.155 J-2.866 K0.000 F1000.000
G2 X226.517 Y33.034 Z-1.000 I7.715 J-10.191 K0.000 F1000.000
G0 Z5.000
G0 X227.093 Y32.087 Z5.000
G0 X227.093 Y32.087 Z3.000
G1 X227.093 Y32.087 Z-2.000 F1000.000
G3 X226.197 Y31.444 Z-2.000 I3.398 J-5.684 K0.000 F1000.000
G3 X225.214 Y30.329 Z-2.000 I2.465 J-3.162 K0.000 F1000.000
G3 X225.189 Y29.713 Z-2.000 I0.462 J-0.327 K0.000 F1000.000
G3 X226.185 Y28.563 Z-2.000 I3.284 J1.839 K0.000 F1000.000
G3 X228.581 Y27.055 Z-2.000 I7.947 J9.963 K0.000 F1000.000
G3 X234.236 Y24.945 Z-2.000 I14.605 J30.511 K0.000 F1000.000
G1 X227.093 Y32.087 Z-2.000 F1000.000
G2 X228.554 Y32.932 Z-2.000 I6.527 J-9.606 K0.000 F1000.000
G2 X232.994 Y34.672 Z-2.000 I12.771 J-26.041 K0.000 F1000.000
G1 X245.004 Y22.662 Z-2.000 F1000.000
G1 X247.000 Y22.367 Z-2.000 F1000.000
G1 X247.000 Y29.151 Z-2.000 F1000.000
G1 X239.757 Y36.395 Z-2.000 F1000.000
G2 X247.000 Y37.636 Z-2.000 I23.068 J-112.788 K0.000 F1000.000
G0 Z5.000
G0 Y37.239 Z5.000
G0 Y37.239 Z3.000
G1 X247.000 Y37.239 Z-3.000 F1000.000
G3 X239.877 Y35.876 Z-3.000 I15.181 J-98.654 K0.000 F1000.000
G1 X247.000 Y28.753 Z-3.000 F1000.000
G1 X247.000 Y22.767 Z-3.000 F1000.000
G2 X243.993 Y23.275 Z-3.000 I8.918 J61.863 K0.000 F1000.000
G1 X233.290 Y33.978 Z-3.000 F1000.000
G3 X228.568 Y31.584 Z-3.000 I5.937 J-17.565 K0.000 F1000.000
G3 X227.848 Y30.935 Z-3.000 I2.632 J-3.644 K0.000 F1000.000
G1 X232.407 Y26.376 Z-3.000 F1000.000
G2 X228.291 Y28.635 Z-3.000 I5.265 J14.470 K0.000 F1000.000
G2 X227.328 Y29.745 Z-3.000 I2.203 J2.884 K0.000 F1000.000
G2 X227.345 Y30.284 Z-3.000 I0.422 J0.257 K0.000 F1000.000
G2 X227.848 Y30.935 Z-3.000 I2.106 J-1.106 K0.000 F1000.000
G0 Z5.000
G0 X242.816 Y24.018 Z5.000
G0 X242.816 Y24.018 Z3.000
G1 X242.816 Y24.018 Z-4.000 F1000.000
G1 X233.647 Y33.187 Z-4.000 F1000.000
G3 X231.090 Y31.813 Z-4.000 I5.893 J-14.031 K0.000 F1000.000
G3 X229.509 Y30.305 Z-4.000 I2.643 J-4.354 K0.000 F1000.000
G3 X229.569 Y29.596 Z-4.000 I0.451 J-0.318 K0.000 F1000.000
G3 X231.418 Y27.972 Z-4.000 I4.963 J3.786 K0.000 F1000.000
G3 X235.255 Y26.148 Z-4.000 I11.381 J18.989 K0.000 F1000.000
G3 X242.816 Y24.018 Z-4.000 I19.071 J53.209 K0.000 F1000.000
G3 X247.000 Y23.200 Z-4.000 I16.941 J75.622 K0.000 F1000.000
G1 X247.000 Y28.319 Z-4.000 F1000.000
G1 X240.005 Y35.314 Z-4.000 F1000.000
G2 X247.000 Y36.804 Z-4.000 I19.214 J-73.014 K0.000 F1000.000
G0 Z5.000
G0 Y36.332 Z5.000
G0 Y36.332 Z3.000
G1 X247.000 Y36.332 Z-5.000 F1000.000
G3 X240.147 Y34.699 Z-5.000 I12.682 J-68.431 K0.000 F1000.000
G1 X247.000 Y27.846 Z-5.000 F1000.000
G1 X247.000 Y23.663 Z-5.000 F1000.000
G2 X241.952 Y24.798 Z-5.000 I14.157 J74.745 K0.000 F1000.000
G1 X241.414 Y24.947 Z-5.000 F1000.000
G2 X238.586 Y25.791 Z-5.000 I11.171 J42.627 K0.000 F1000.000
G2 X233.474 Y28.073 Z-5.000 I7.007 J22.555 K0.000 F1000.000
G2 X231.703 Y29.636 Z-5.000 I3.047 J5.241 K0.000 F1000.000
G2 X231.605 Y30.194 Z-5.000 I0.319 J0.343 K0.000 F1000.000
G2 X232.027 Y30.775 Z-5.000 I2.045 J-1.041 K0.000 F1000.000
G2 X234.085 Y32.276 Z-5.000 I5.724 J-5.687 K0.000 F1000.000
G1 X241.414 Y24.947 Z-5.000 F1000.000
G0 Z5.000
G0 X239.585 Y26.261 Z5.000
G0 X239.585 Y26.261 Z3.000
G1 X239.585 Y26.261 Z-6.000 F1000.000
G1 X234.655 Y31.190 Z-6.000 F1000.000
G3 X233.740 Y30.153 Z-6.000 I1.887 J-2.588 K0.000 F1000.000
G3 X233.841 Y29.667 Z-6.000 I0.362 J-0.179 K0.000 F1000.000
G3 X235.531 Y28.173 Z-6.000 I4.682 J3.592 K0.000 F1000.000
G3 X239.585 Y26.261 Z-6.000 I10.921 J17.904 K0.000 F1000.000
G3 X247.000 Y24.187 Z-6.000 I18.282 J51.077 K0.000 F1000.000
G1 X247.000 Y27.331 Z-6.000 F1000.000
G1 X240.325 Y34.006 Z-6.000 F1000.000
G2 X247.000 Y35.816 Z-6.000 I18.010 J-53.211 K0.000 F1000.000
G0 Z5.000
G0 Y35.250 Z5.000
G0 Y35.250 Z3.000
G1 X247.000 Y35.250 Z-7.000 F1000.000
G3 X241.146 Y33.469 Z-7.000 I10.655 J-45.547 K0.000 F1000.000
G1 X240.545 Y33.219 Z-7.000 F1000.000
G1 X247.000 Y26.765 Z-7.000 F1000.000
G1 X247.000 Y24.744 Z-7.000 F1000.000
G2 X239.554 Y27.204 Z-7.000 I9.934 J42.557 K0.000 F1000.000
G2 X236.723 Y28.903 Z-7.000 I4.896 J11.372 K0.000 F1000.000
G2 X235.887 Y29.860 Z-7.000 I1.872 J2.476 K0.000 F1000.000
G2 X235.884 Y30.130 Z-7.000 I0.187 J0.137 K0.000 F1000.000
G2 X237.074 Y31.372 Z-7.000 I3.245 J-1.915 K0.000 F1000.000
G2 X240.545 Y33.219 Z-7.000 I9.213 J-13.130 K0.000 F1000.000
G0 Z5.000
G0 X240.826 Y32.310 Z5.000
G0 X240.826 Y32.310 Z3.000
G1 X240.826 Y32.310 Z-8.000 F1000.000
G3 X238.870 Y31.064 Z-8.000 I4.771 J-9.647 K0.000 F1000.000
G3 X238.016 Y30.084 Z-8.000 I1.680 J-2.327 K0.000 F1000.000
G3 X238.027 Y29.889 Z-8.000 I0.138 J-0.091 K0.000 F1000.000
G3 X238.826 Y28.970 Z-8.000 I2.581 J1.440 K0.000 F1000.000
G3 X240.651 Y27.774 Z-8.000 I6.057 J7.250 K0.000 F1000.000
G3 X247.000 Y25.374 Z-8.000 I14.993 J30.068 K0.000 F1000.000
G1 X247.000 Y26.137 Z-8.000 F1000.000
G1 X240.826 Y32.310 Z-8.000 F1000.000
G1 X241.163 Y32.490 Z-8.000 F1000.000
G2 X247.000 Y34.622 Z-8.000 I13.981 J-29.224 K0.000 F1000.000
G0 Z5.000
G0 Y33.915 Z5.000
G0 Y33.915 Z3.000
G1 X247.000 Y33.915 Z-9.000 F1000.000
G3 X241.820 Y31.613 Z-9.000 I6.867 J-22.433 K0.000 F1000.000
G1 X241.229 Y31.200 Z-9.000 F1000.000
G1 X245.996 Y26.434 Z-9.000 F1000.000
G2 X241.676 Y28.481 Z-9.000 I6.493 J19.280 K0.000 F1000.000
G2 X240.246 Y29.771 Z-9.000 I2.366 J4.059 K0.000 F1000.000
G2 X240.136 Y29.998 Z-9.000 I0.413 J0.341 K0.000 F1000.000
G2 X240.433 Y30.473 Z-9.000 I1.160 J-0.394 K0.000 F1000.000
G2 X241.229 Y31.200 Z-9.000 I3.141 J-2.642 K0.000 F1000.000
G0 Z5.000
G0 X242.399 Y30.225 Z5.000
G0 X242.399 Y30.225 Z3.000
G1 X242.399 Y30.225 Z-10.000 F1000.000
G2 X242.418 Y30.246 Z-10.000 I0.439 J-0.366 K0.000 F1000.000
G2 X244.001 Y31.599 Z-10.000 I4.334 J-3.469 K0.000 F1000.000
G2 X247.000 Y33.072 Z-10.000 I9.087 J-14.709 K0.000 F1000.000
G1 X247.000 Y26.925 Z-10.000 F1000.000
G2 X245.465 Y27.596 Z-10.000 I5.887 J15.556 K0.000 F1000.000
G2 X242.681 Y29.437 Z-10.000 I3.937 J8.977 K0.000 F1000.000
G2 X242.283 Y29.997 Z-10.000 I1.094 J1.198 K0.000 F1000.000
G2 X242.399 Y30.225 Z-10.000 I0.555 J-0.139 K0.000 F1000.000
G0 Z5.000
G0 X244.432 Y29.995 Z5.000
G0 X244.432 Y29.995 Z3.000
G1 X244.432 Y29.995 Z-11.000 F1000.000
G2 X244.753 Y30.460 Z-11.000 I0.927 J-0.296 K0.000 F1000.000
G2 X247.000 Y32.046 Z-11.000 I5.708 J-5.703 K0.000 F1000.000
G1 X247.000 Y27.955 Z-11.000 F1000.000
G2 X244.790 Y29.499 Z-11.000 I3.695 J7.642 K0.000 F1000.000
G2 X244.432 Y29.995 Z-11.000 I1.117 J1.184 K0.000 F1000.000
G0 Z5.000
G0 X246.582 Y29.998 Z5.000
G0 X246.582 Y29.998 Z3.000
G1 X246.582 Y29.998 Z-12.000 F1000.000
G2 X247.000 Y30.536 Z-12.000 I1.421 J-0.671 K0.000 F1000.000
G1 X247.000 Y29.461 Z-12.000 F1000.000
G2 X246.582 Y29.998 Z-12.000 I1.190 J1.357 K0.000 F1000.000
G0 Z5.000
G0 Z5.000
(Finish operation: Pocket3D)
(Begin postamble)
M5
G17 G90
M2
