(1001)
(T1 D=6 CR=0 - ZMIN=-10.2 - flat end mill)
G90 G94
G17
G21
G28 G91 Z0
G90

(Adaptive1)
T1
S5000 M3
G17 G90 G94
G54
G0 X-32.252 Y1.19
Z15
G0 Z5
Z2.5
G3 X-37.19 Y2.043 Z2.293 I-2.748 J-1.19 F333.3
X-35.998 Y-2.818 Z2.085 I2.187 J-2.041
X-32.024 Y0.214 Z1.878 I0.994 J2.817
X-36.388 Y2.641 Z1.671 I-2.976 J-0.215
X-36.866 Y-2.323 Z1.463 I1.386 J-2.639
X-32.131 Y-0.778 Z1.256 I1.862 J2.323
X-35.437 Y2.94 Z1.049 I-2.87 J0.777
X-37.519 Y-1.572 Z0.841 I0.436 J-2.937
X-32.557 Y-1.676 Z0.634 I2.515 J1.572
X-34.444 Y2.908 Z0.427 I-2.444 J1.674
X-37.887 Y-0.65 Z0.22 I-0.556 J-2.906
X-33.254 Y-2.38 Z0.012 I2.882 J0.652
X-33.521 Y2.551 Z-0.195 I-1.748 J2.378
X-37.929 Y0.337 Z-0.402 I-1.479 J-2.55
X-34.141 Y-2.813 Z-0.61 I2.925 J-0.335
X-32.77 Y1.913 Z-0.817 I-0.862 J2.812
X-37.644 Y1.279 Z-1.024 I-2.23 J-1.912
X-35.118 Y-2.929 Z-1.232 I2.641 J-1.277
X-32.274 Y1.065 Z-1.439 I0.114 J2.928
X-37.066 Y2.072 Z-1.646 I-2.726 J-1.065
X-36.074 Y-2.717 Z-1.854 I2.064 J-2.07
X-32.087 Y0.104 Z-2.061 I1.07 J2.716
X-36.262 Y2.627 Z-2.268 I-2.913 J-0.105
X-36.904 Y-2.202 Z-2.476 I1.26 J-2.625
X-32.226 Y-0.861 Z-2.683 I1.9 J2.202
X-35.323 Y2.885 Z-2.89 I-2.775 J0.859
X-37.515 Y-1.446 Z-3.098 I0.322 J-2.883
X-32.675 Y-1.722 Z-3.305 I2.511 J1.446
X-34.355 Y2.819 Z-3.512 I-2.327 J1.72
X-37.841 Y-0.533 Z-3.72 I-0.645 J-2.817
X-33.38 Y-2.385 Z-3.927 I2.837 J0.534
X-33.467 Y2.438 Z-4.134 I-1.622 J2.383
X-37.847 Y0.432 Z-4.341 I-1.533 J-2.437
X-34.261 Y-2.776 Z-4.549 I2.843 J-0.43
X-32.757 Y1.788 Z-4.756 I-0.742 J2.774
X-37.535 Y1.342 Z-4.963 I-2.243 J-1.787
X-35.218 Y-2.854 Z-5.171 I2.532 J-1.339
X-32.303 Y0.943 Z-5.378 I0.215 J2.853
X-36.943 Y2.095 Z-5.585 I-2.697 J-0.943
X-36.144 Y-2.613 Z-5.793 I1.941 J-2.092
X-32.154 Y-0.001 Z-6 I1.14 J2.612
X-37.854 Y-0.001 I-2.85 J0
X-32.154 Y-0.001 I2.85 J0
G1 X-32.15 Y0.239 F1000
X-31.974 Y1.18
X-31.933 Y1.324
X-31.908 Y1.472
X-31.898 Y1.622
X-31.901 Y1.772
X-31.917 Y1.931
X-31.947 Y2.099
X-31.994 Y2.274
X-32.059 Y2.456
X-32.142 Y2.642
X-32.246 Y2.83
X-32.37 Y3.018
X-32.514 Y3.203
X-32.68 Y3.384
X-32.867 Y3.557
X-33.075 Y3.72
X-33.302 Y3.871
X-33.548 Y4.008
X-33.812 Y4.127
X-34.091 Y4.227
X-34.384 Y4.307
X-34.689 Y4.364
X-35.003 Y4.397
X-35.324 Y4.404
X-35.65 Y4.386
X-35.977 Y4.341
X-36.304 Y4.269
X-36.627 Y4.17
X-36.945 Y4.044
X-37.254 Y3.891
X-37.552 Y3.713
X-37.836 Y3.511
X-38.106 Y3.284
X-38.357 Y3.036
X-38.588 Y2.767
X-38.799 Y2.479
X-38.986 Y2.174
X-39.148 Y1.854
X-39.285 Y1.522
X-39.394 Y1.178
X-39.476 Y0.826
X-39.53 Y0.468
X-39.555 Y0.106
X-39.55 Y-0.257
X-39.517 Y-0.619
X-39.454 Y-0.977
X-39.363 Y-1.33
X-39.244 Y-1.674
X-39.097 Y-2.008
X-38.924 Y-2.33
X-38.725 Y-2.636
X-38.503 Y-2.926
X-38.257 Y-3.197
X-37.991 Y-3.448
X-37.706 Y-3.676
X-37.402 Y-3.881
X-37.084 Y-4.061
X-36.752 Y-4.215
X-36.408 Y-4.342
X-36.056 Y-4.441
X-35.696 Y-4.511
X-35.332 Y-4.552
X-34.966 Y-4.564
X-34.6 Y-4.546
X-34.237 Y-4.499
X-33.878 Y-4.423
X-33.527 Y-4.319
X-33.185 Y-4.186
X-32.855 Y-4.027
X-32.539 Y-3.842
X-32.239 Y-3.632
X-31.956 Y-3.398
X-31.694 Y-3.142
X-31.452 Y-2.867
X-31.234 Y-2.572
X-31.004 Y-2.204
X-30.642 Y-1.506
X-30.386 Y-0.898
X-30.217 Y-0.384
X-30.105 Y0.08
X-30.035 Y0.521
X-30.003 Y0.948
X-30.004 Y1.361
X-30.038 Y1.763
X-30.104 Y2.156
X-30.199 Y2.539
X-30.326 Y2.913
X-30.482 Y3.277
X-30.668 Y3.629
X-30.883 Y3.967
X-31.127 Y4.29
X-31.398 Y4.596
X-31.697 Y4.881
X-32.021 Y5.146
X-32.371 Y5.386
X-32.744 Y5.601
X-33.139 Y5.788
X-33.553 Y5.945
X-33.983 Y6.069
X-34.428 Y6.16
X-34.884 Y6.215
X-35.348 Y6.234
X-35.817 Y6.215
X-36.288 Y6.158
X-36.756 Y6.063
X-37.218 Y5.929
X-37.672 Y5.758
X-38.114 Y5.549
X-38.54 Y5.304
X-38.947 Y5.024
X-39.332 Y4.71
X-39.693 Y4.365
X-40.027 Y3.991
X-40.331 Y3.589
X-40.602 Y3.162
X-40.839 Y2.714
X-41.04 Y2.246
X-41.203 Y1.763
X-41.327 Y1.267
X-41.412 Y0.762
X-41.455 Y0.25
X-41.457 Y-0.264
X-41.418 Y-0.777
X-41.338 Y-1.287
X-41.217 Y-1.788
X-41.056 Y-2.279
X-40.856 Y-2.756
X-40.618 Y-3.216
X-40.343 Y-3.655
X-40.035 Y-4.071
X-39.693 Y-4.461
X-39.321 Y-4.823
X-38.922 Y-5.154
X-38.497 Y-5.451
X-38.049 Y-5.714
X-37.581 Y-5.94
X-37.097 Y-6.128
X-36.599 Y-6.276
X-36.091 Y-6.384
X-35.575 Y-6.451
X-35.056 Y-6.477
X-34.536 Y-6.46
X-34.02 Y-6.402
X-33.509 Y-6.302
X-33.009 Y-6.162
X-32.521 Y-5.982
X-32.049 Y-5.764
X-31.596 Y-5.508
X-31.165 Y-5.217
X-30.748 Y-4.884
X-30.301 Y-4.464
X-29.873 Y-3.991
X-29.471 Y-3.468
X-29.108 Y-2.906
X-28.794 Y-2.325
X-28.535 Y-1.735
X-28.329 Y-1.141
X-28.175 Y-0.547
X-28.071 Y0.045
X-28.016 Y0.634
X-28.009 Y1.218
X-28.048 Y1.795
X-28.133 Y2.363
X-28.262 Y2.919
X-28.435 Y3.461
X-28.651 Y3.987
X-28.908 Y4.494
X-29.206 Y4.98
X-29.543 Y5.443
X-29.919 Y5.879
X-30.331 Y6.286
X-30.777 Y6.662
X-31.256 Y7.003
X-31.764 Y7.307
X-32.3 Y7.572
X-32.861 Y7.794
X-33.442 Y7.973
X-34.04 Y8.105
X-34.652 Y8.189
X-35.273 Y8.225
X-35.899 Y8.21
X-36.526 Y8.144
X-37.151 Y8.028
X-37.767 Y7.861
X-38.372 Y7.644
X-38.96 Y7.377
X-39.529 Y7.063
X-40.073 Y6.702
X-40.588 Y6.296
X-41.072 Y5.849
X-41.52 Y5.362
X-41.928 Y4.839
X-42.295 Y4.284
X-42.617 Y3.698
X-42.892 Y3.087
X-43.117 Y2.455
X-43.291 Y1.805
X-43.413 Y1.142
X-43.481 Y0.47
X-43.495 Y-0.206
X-43.454 Y-0.883
X-43.36 Y-1.554
X-43.212 Y-2.217
X-43.01 Y-2.866
X-42.757 Y-3.497
X-42.455 Y-4.106
X-42.103 Y-4.69
X-41.706 Y-5.244
X-41.266 Y-5.764
X-40.785 Y-6.248
X-40.267 Y-6.691
X-39.714 Y-7.092
X-39.131 Y-7.447
X-38.521 Y-7.755
X-37.888 Y-8.012
X-37.237 Y-8.218
X-36.571 Y-8.371
X-35.895 Y-8.47
X-35.212 Y-8.514
X-34.529 Y-8.504
X-33.848 Y-8.439
X-33.175 Y-8.319
X-32.514 Y-8.145
X-31.868 Y-7.92
X-31.24 Y-7.641
X-30.617 Y-7.303
X-30.004 Y-6.903
X-29.407 Y-6.442
X-28.834 Y-5.921
X-28.297 Y-5.346
X-27.803 Y-4.725
X-27.36 Y-4.065
X-26.973 Y-3.375
X-26.645 Y-2.661
X-26.377 Y-1.928
X-26.171 Y-1.183
X-26.026 Y-0.43
X-25.943 Y0.326
X-25.921 Y1.08
X-25.96 Y1.83
X-26.058 Y2.57
X-26.215 Y3.297
X-26.428 Y4.008
X-26.698 Y4.699
X-27.023 Y5.365
X-27.401 Y6.005
X-27.829 Y6.613
X-28.307 Y7.187
X-28.831 Y7.723
X-29.4 Y8.217
X-30.009 Y8.667
X-30.656 Y9.068
X-31.337 Y9.419
X-32.049 Y9.715
X-32.786 Y9.955
X-33.545 Y10.136
X-34.32 Y10.256
X-35.107 Y10.313
X-35.9 Y10.308
X-36.695 Y10.238
X-37.485 Y10.104
X-38.266 Y9.906
X-39.033 Y9.645
X-39.78 Y9.322
X-40.501 Y8.938
X-41.192 Y8.495
X-41.848 Y7.997
X-42.463 Y7.446
X-43.035 Y6.845
X-43.558 Y6.198
X-44.029 Y5.509
X-44.444 Y4.783
X-44.8 Y4.024
X-45.095 Y3.238
X-45.326 Y2.428
X-45.492 Y1.601
X-45.591 Y0.763
X-45.622 Y-0.083
X-45.586 Y-0.929
X-45.481 Y-1.77
X-45.309 Y-2.602
X-45.071 Y-3.417
X-44.768 Y-4.212
X-44.402 Y-4.98
X-43.975 Y-5.716
X-43.49 Y-6.417
X-42.95 Y-7.077
X-42.359 Y-7.691
X-41.72 Y-8.256
X-41.038 Y-8.768
X-40.316 Y-9.224
X-39.56 Y-9.621
X-38.774 Y-9.956
X-37.964 Y-10.227
X-37.135 Y-10.431
X-36.291 Y-10.569
X-35.44 Y-10.639
X-34.585 Y-10.64
X-33.733 Y-10.572
X-32.888 Y-10.436
X-32.054 Y-10.232
X-31.23 Y-9.959
X-30.422 Y-9.617
X-29.633 Y-9.205
X-28.865 Y-8.722
X-28.125 Y-8.17
X-27.422 Y-7.55
X-26.764 Y-6.87
X-26.159 Y-6.134
X-25.614 Y-5.35
X-25.133 Y-4.526
X-24.722 Y-3.667
X-24.382 Y-2.782
X-24.115 Y-1.877
X-23.923 Y-0.957
X-23.805 Y-0.03
X-23.763 Y0.898
X-23.796 Y1.824
X-23.902 Y2.74
X-24.08 Y3.642
X-24.331 Y4.526
X-24.651 Y5.385
X-25.038 Y6.217
X-25.492 Y7.015
X-26.009 Y7.775
X-26.587 Y8.493
X-27.223 Y9.164
X-27.912 Y9.784
X-28.652 Y10.35
X-29.439 Y10.856
X-30.267 Y11.299
X-31.132 Y11.676
X-32.029 Y11.984
X-32.952 Y12.22
X-33.896 Y12.382
X-34.849 Y12.468
X-35.807 Y12.477
X-36.762 Y12.41
X-37.71 Y12.268
X-38.643 Y12.052
X-39.556 Y11.763
X-40.443 Y11.404
X-41.3 Y10.976
X-42.122 Y10.484
X-42.903 Y9.93
X-43.639 Y9.317
X-44.326 Y8.65
X-44.96 Y7.932
X-45.537 Y7.168
X-46.055 Y6.362
X-46.51 Y5.519
X-46.9 Y4.645
X-47.222 Y3.743
X-47.474 Y2.819
X-47.655 Y1.879
X-47.765 Y0.927
X-47.801 Y-0.03
X-47.766 Y-0.987
X-47.659 Y-1.939
X-47.481 Y-2.88
X-47.233 Y-3.805
X-46.916 Y-4.708
X-46.533 Y-5.586
X-46.086 Y-6.433
X-45.576 Y-7.244
X-45.008 Y-8.015
X-44.384 Y-8.741
X-43.707 Y-9.419
X-42.981 Y-10.043
X-42.21 Y-10.611
X-41.398 Y-11.119
X-40.55 Y-11.565
X-39.672 Y-11.946
X-38.767 Y-12.261
X-37.842 Y-12.507
X-36.9 Y-12.684
X-35.949 Y-12.79
X-34.992 Y-12.825
X-34.035 Y-12.79
X-33.083 Y-12.683
X-32.142 Y-12.506
X-31.216 Y-12.261
X-30.311 Y-11.947
X-29.432 Y-11.566
X-28.584 Y-11.123
X-27.768 Y-10.62
X-26.99 Y-10.061
X-26.253 Y-9.451
X-25.558 Y-8.792
X-24.91 Y-8.086
X-24.315 Y-7.336
X-23.772 Y-6.547
X-23.285 Y-5.722
X-22.854 Y-4.867
X-22.481 Y-3.985
X-22.169 Y-3.079
X-21.921 Y-2.155
X-21.739 Y-1.214
X-21.623 Y-0.264
X-21.573 Y0.693
X-21.589 Y1.65
X-21.671 Y2.604
X-21.818 Y3.551
X-22.031 Y4.485
X-22.31 Y5.401
X-22.654 Y6.294
X-23.06 Y7.162
X-23.526 Y7.998
X-24.049 Y8.801
X-24.627 Y9.565
X-25.255 Y10.288
X-25.932 Y10.965
X-26.656 Y11.592
X-27.422 Y12.166
X-28.226 Y12.686
X-29.064 Y13.15
X-29.932 Y13.555
X-30.825 Y13.902
X-31.739 Y14.187
X-32.671 Y14.407
X-33.616 Y14.561
X-34.57 Y14.652
X-35.527 Y14.679
X-36.484 Y14.643
X-37.437 Y14.544
X-38.38 Y14.38
X-39.31 Y14.151
X-40.223 Y13.862
X-41.115 Y13.512
X-41.982 Y13.106
X-42.821 Y12.644
X-43.628 Y12.129
X-44.399 Y11.56
X-45.13 Y10.942
X-45.819 Y10.277
X-46.464 Y9.569
X-47.063 Y8.821
X-47.613 Y8.037
X-48.11 Y7.219
X-48.552 Y6.369
X-48.937 Y5.492
X-49.265 Y4.592
X-49.535 Y3.673
X-49.745 Y2.739
X-49.896 Y1.793
X-49.985 Y0.84
X-50.01 Y-0.117
X-49.973 Y-1.074
X-49.875 Y-2.027
X-49.718 Y-2.972
X-49.502 Y-3.905
X-49.227 Y-4.822
X-48.893 Y-5.72
X-48.501 Y-6.594
X-48.054 Y-7.441
X-47.555 Y-8.258
X-47.005 Y-9.042
X-46.407 Y-9.79
X-45.763 Y-10.499
X-45.074 Y-11.164
X-44.343 Y-11.782
X-43.573 Y-12.352
X-42.769 Y-12.873
X-41.934 Y-13.341
X-41.071 Y-13.757
X-40.183 Y-14.117
X-39.274 Y-14.417
X-38.347 Y-14.658
X-37.407 Y-14.84
X-36.457 Y-14.963
X-35.502 Y-15.026
X-34.544 Y-15.03
X-33.588 Y-14.972
X-32.638 Y-14.853
X-31.697 Y-14.672
X-30.77 Y-14.433
X-29.859 Y-14.136
X-28.969 Y-13.784
X-28.102 Y-13.378
X-27.261 Y-12.918
X-26.451 Y-12.407
X-25.674 Y-11.848
X-24.931 Y-11.243
X-24.225 Y-10.596
X-23.559 Y-9.908
X-22.935 Y-9.182
X-22.355 Y-8.42
X-21.822 Y-7.624
X-21.338 Y-6.797
X-20.903 Y-5.944
X-20.519 Y-5.067
X-20.186 Y-4.169
X-19.907 Y-3.253
X-19.683 Y-2.322
X-19.516 Y-1.379
X-19.407 Y-0.427
X-19.355 Y0.529
X-19.36 Y1.487
X-19.421 Y2.443
X-19.537 Y3.393
X-19.711 Y4.335
X-19.942 Y5.264
X-20.231 Y6.178
X-20.575 Y7.071
X-20.972 Y7.943
X-21.42 Y8.789
X-21.917 Y9.608
X-22.461 Y10.396
X-23.052 Y11.15
X-23.689 Y11.865
X-24.368 Y12.54
X-25.087 Y13.173
X-25.841 Y13.763
X-26.63 Y14.307
X-27.448 Y14.804
X-28.295 Y15.252
X-29.167 Y15.647
X-30.061 Y15.99
X-30.974 Y16.279
X-31.68 Y16.457
X-31.794 Y16.481
X-31.908 Y16.495
X-32.024 Y16.5
X-37
X-37.957 Y16.452
X-38.806 Y16.374
X-39.75 Y16.211
X-40.678 Y15.973
X-41.586 Y15.669
X-42.472 Y15.306
X-43.334 Y14.889
X-44.168 Y14.418
X-44.972 Y13.897
X-45.743 Y13.329
X-46.479 Y12.717
X-47.18 Y12.064
X-47.843 Y11.373
X-48.467 Y10.647
X-49.05 Y9.887
X-49.587 Y9.094
X-50.077 Y8.271
X-50.519 Y7.421
X-50.913 Y6.548
X-51.258 Y5.655
X-51.432 Y5.118
X-51.47 Y4.977
X-51.492 Y4.832
X-51.5 Y4.687
Y-2.824
X-51.452 Y-3.781
X-51.396 Y-4.256
X-51.255 Y-5.079
X-51.024 Y-5.987
X-50.714 Y-6.893
X-50.337 Y-7.773
X-49.901 Y-8.626
X-49.411 Y-9.449
X-48.873 Y-10.241
X-48.289 Y-11
X-47.663 Y-11.725
X-46.996 Y-12.412
X-46.292 Y-13.061
X-45.552 Y-13.669
X-44.778 Y-14.233
X-43.974 Y-14.753
X-43.142 Y-15.228
X-42.285 Y-15.656
X-41.406 Y-16.036
X-40.508 Y-16.367
X-40.276 Y-16.438
X-40.142 Y-16.472
X-40.004 Y-16.493
X-39.866 Y-16.5
X-31.994
X-31.096 Y-16.455
X-30.323 Y-16.354
X-29.444 Y-16.166
X-28.526 Y-15.891
X-27.632 Y-15.547
X-26.764 Y-15.144
X-25.923 Y-14.686
X-25.111 Y-14.177
X-24.331 Y-13.622
X-23.582 Y-13.025
X-22.867 Y-12.388
X-22.186 Y-11.714
X-21.542 Y-11.006
X-20.936 Y-10.264
X-20.369 Y-9.492
X-19.845 Y-8.691
X-19.364 Y-7.863
X-18.927 Y-7.01
X-18.623 Y-6.335
X-18.555 Y-6.15
X-18.514 Y-5.958
X-18.5 Y-5.761
Y5.648
X-18.536 Y6.359
X-18.614 Y6.954
X-18.762 Y7.647
X-19 Y8.442
X-19.343 Y9.323
X-19.761 Y10.185
X-20.241 Y11.014
X-20.775 Y11.808
X-21.359 Y12.568
X-21.986 Y13.292
X-22.652 Y13.98
X-23.356 Y14.63
X-24.092 Y15.241
X-24.86 Y15.814
X-25.536 Y16.265
X-25.777 Y16.394
X-26.04 Y16.473
X-26.313 Y16.5
X-32.024
G3 X-32.602 Y15.88 Z-5.8 I0.021 J-0.6
X-32.375 Y15.43 I0.6 J0.02
G1 X-19.472 Y5.199
G3 X-19.12 Y5.069 I0.373 J0.47
X-18.5 Y5.648 Z-6 I0.02 J0.6
G1 Y9.993
X-18.527 Y10.531
X-18.576 Y10.907
X-18.673 Y11.358
X-18.82 Y11.848
X-19.046 Y12.429
X-19.345 Y13.045
X-19.758 Y13.748
X-20.306 Y14.527
X-20.917 Y15.264
X-21.578 Y15.957
X-21.761 Y16.126
X-21.968 Y16.285
X-22.202 Y16.403
X-22.453 Y16.476
X-22.713 Y16.5
G3 X-23.292 Y15.88 Z-5.8 I0.021 J-0.6
X-23.204 Y15.588 I0.6 J0.02
G1 X-19.612 Y9.701
G3 X-19.12 Y9.414 I0.512 J0.313
X-18.5 Y9.993 Z-6 I0.02 J0.6
G1 Y13.469
X-18.518 Y13.821
X-18.562 Y14.157
X-18.638 Y14.515
X-18.761 Y14.925
X-18.94 Y15.385
X-19.099 Y15.711
X-19.266 Y15.975
X-19.487 Y16.196
X-19.752 Y16.362
X-20.047 Y16.465
X-20.358 Y16.5
G3 X-20.937 Y15.88 Z-5.8 I0.021 J-0.6
X-20.871 Y15.626 I0.6 J0.02
G1 X-19.633 Y13.215
G3 X-19.12 Y12.89 I0.534 J0.274
X-18.5 Y13.469 Z-6 I0.02 J0.6
G1 Y15.904
X-18.509 Y15.99
X-18.53 Y16.075
X-18.55 Y16.13
X-18.578 Y16.184
X-18.612 Y16.238
X-18.656 Y16.293
X-18.718 Y16.351
X-18.772 Y16.393
X-18.827 Y16.427
X-18.881 Y16.453
X-18.935 Y16.473
X-18.99 Y16.487
X-19.044 Y16.496
X-19.153 Y16.5
X-26.313
G3 X-26.876 Y16.035 I0.021 J-0.6
G1 X-26.897 Y15.944 Z-5.993
X-26.918 Y15.855 Z-5.971
X-26.938 Y15.77 Z-5.935
X-26.956 Y15.692 Z-5.885
X-26.972 Y15.622 Z-5.824
X-26.986 Y15.562 Z-5.753
X-26.997 Y15.514 Z-5.672
X-27.005 Y15.479 Z-5.585
X-27.01 Y15.458 Z-5.494
X-27.011 Y15.451 Z-5.4
G0 Z5
X-50.972 Y-1.555
Z-4.8
G1 Z-5.4 F1000
X-50.976 Y-1.561 Z-5.494
X-50.987 Y-1.58 Z-5.585
X-51.005 Y-1.611 Z-5.672
X-51.031 Y-1.653 Z-5.753
X-51.062 Y-1.706 Z-5.824
X-51.098 Y-1.767 Z-5.885
X-51.139 Y-1.836 Z-5.935
X-51.184 Y-1.911 Z-5.971
X-51.231 Y-1.99 Z-5.993
X-51.279 Y-2.07 Z-6
G3 X-51.5 Y-2.824 I1.36 J-0.809
G1 Y-8.038
X-51.48 Y-8.437
X-51.424 Y-8.867
X-51.323 Y-9.338
X-51.155 Y-9.898
X-50.923 Y-10.494
X-50.588 Y-11.185
X-50.135 Y-11.954
X-49.585 Y-12.738
X-48.977 Y-13.478
X-48.321 Y-14.176
X-47.623 Y-14.831
X-46.888 Y-15.445
X-46.12 Y-16.018
X-45.751 Y-16.265
X-45.509 Y-16.394
X-45.247 Y-16.473
X-44.974 Y-16.5
X-39.866
G3 X-39.287 Y-15.88 Z-5.8 I-0.021 J0.6
X-39.538 Y-15.412 I-0.6 J-0.02
G1 X-50.552 Y-7.57
G3 X-50.88 Y-7.459 I-0.348 J-0.489
X-51.5 Y-8.038 Z-6 I-0.02 J-0.6
G1 Y-11.513
X-51.48 Y-11.905
X-51.436 Y-12.245
X-51.354 Y-12.627
X-51.229 Y-13.046
X-51.04 Y-13.529
X-50.786 Y-14.054
X-50.443 Y-14.636
X-49.984 Y-15.29
X-49.394 Y-16.001
X-49.319 Y-16.078
X-49.105 Y-16.257
X-48.86 Y-16.39
X-48.594 Y-16.472
X-48.317 Y-16.5
G3 X-47.738 Y-15.88 Z-5.8 I-0.021 J0.6
X-47.82 Y-15.597 I-0.6 J-0.02
G1 X-50.383 Y-11.231
G3 X-50.88 Y-10.935 I-0.517 J-0.304
X-51.5 Y-11.513 Z-6 I-0.02 J-0.6
G1 Y-14.555
X-51.481 Y-14.934
X-51.443 Y-15.224
X-51.383 Y-15.502
X-51.268 Y-15.777
X-51.097 Y-16.021
X-50.878 Y-16.223
X-50.621 Y-16.375
X-50.339 Y-16.468
X-50.042 Y-16.5
G3 X-49.463 Y-15.88 Z-5.8 I-0.021 J0.6
X-49.556 Y-15.58 I-0.6 J-0.02
G1 X-50.393 Y-14.255
G3 X-50.88 Y-13.976 I-0.507 J-0.321
G1 X-50.9 Z-5.804
G3 X-51.5 Y-14.555 Z-6 I0 J-0.6
G1 Y-15.858
X-51.495 Y-15.967
X-51.485 Y-16.021
X-51.47 Y-16.075
X-51.452 Y-16.123
X-51.429 Y-16.172
X-51.401 Y-16.22
X-51.365 Y-16.268
X-51.344 Y-16.293
X-51.295 Y-16.341
X-51.246 Y-16.382
X-51.197 Y-16.415
X-51.148 Y-16.441
X-51.093 Y-16.464
X-51.039 Y-16.481
X-50.984 Y-16.492
X-50.93 Y-16.499
X-50.712 Y-16.5
X-44.974
G3 X-44.41 Y-16.035 I-0.021 J0.6
G1 X-44.389 Y-15.944 Z-5.993
X-44.369 Y-15.855 Z-5.971
X-44.349 Y-15.77 Z-5.935
X-44.331 Y-15.692 Z-5.885
X-44.315 Y-15.622 Z-5.824
X-44.301 Y-15.562 Z-5.753
X-44.29 Y-15.514 Z-5.672
X-44.282 Y-15.479 Z-5.585
X-44.277 Y-15.458 Z-5.494
X-44.275 Y-15.451 Z-5.4
G0 Z5
X-35.731 Y15.972
Z-4.8
G1 Z-5.4 F1000
X-35.737 Y15.976 Z-5.494
X-35.756 Y15.987 Z-5.585
X-35.787 Y16.005 Z-5.672
X-35.83 Y16.031 Z-5.753
X-35.882 Y16.062 Z-5.824
X-35.944 Y16.098 Z-5.885
X-36.013 Y16.139 Z-5.935
X-36.087 Y16.184 Z-5.971
X-36.166 Y16.231 Z-5.993
X-36.247 Y16.279 Z-6
G3 X-37 Y16.5 I-0.809 J-1.36
G1 X-42.659
X-43.193 Y16.473
X-43.648 Y16.414
X-44.131 Y16.31
X-44.713 Y16.136
X-45.342 Y15.891
X-46.052 Y15.547
X-46.845 Y15.08
X-47.628 Y14.529
X-48.37 Y13.924
X-49.072 Y13.272
X-49.734 Y12.58
X-50.356 Y11.852
X-50.935 Y11.089
X-51.258 Y10.613
X-51.391 Y10.369
X-51.472 Y10.104
X-51.5 Y9.827
Y4.687
G3 X-50.88 Y4.108 Z-5.8 I0.6 J0.021
X-50.417 Y4.352 I-0.02 J0.6
G1 X-42.197 Y15.545
G3 X-42.081 Y15.88 I-0.484 J0.355
X-42.659 Y16.5 Z-6 I-0.6 J0.02
G1 X-46.359
X-46.728 Y16.482
X-47.07 Y16.437
X-47.465 Y16.352
X-47.891 Y16.225
X-48.389 Y16.031
X-48.93 Y15.768
X-49.533 Y15.413
X-50.209 Y14.938
X-50.939 Y14.332
X-51.078 Y14.197
X-51.257 Y13.983
X-51.39 Y13.739
X-51.472 Y13.472
X-51.5 Y13.195
G3 X-50.88 Y12.616 Z-5.8 I0.6 J0.021
X-50.594 Y12.7 I-0.02 J0.6
G1 X-46.074 Y15.384
G3 X-45.781 Y15.88 I-0.306 J0.516
X-46.359 Y16.5 Z-6 I-0.6 J0.02
G1 X-49.406
X-49.799 Y16.48
X-50.103 Y16.441
X-50.403 Y16.376
X-50.502 Y16.347
X-50.777 Y16.231
X-51.021 Y16.06
X-51.223 Y15.842
X-51.375 Y15.585
X-51.468 Y15.302
X-51.5 Y15.006
G3 X-50.88 Y14.427 Z-5.8 I0.6 J0.021
X-50.594 Y14.511 I-0.02 J0.6
G1 X-49.121 Y15.384
G3 X-48.828 Y15.88 I-0.306 J0.516
X-49.406 Y16.5 Z-6 I-0.6 J0.02
G1 X-50.712
X-50.93 Y16.499
X-50.984 Y16.492
X-51.039 Y16.481
X-51.093 Y16.464
X-51.148 Y16.441
X-51.197 Y16.415
X-51.246 Y16.382
X-51.295 Y16.341
X-51.344 Y16.293
X-51.365 Y16.268
X-51.401 Y16.22
X-51.429 Y16.172
X-51.452 Y16.123
X-51.47 Y16.075
X-51.485 Y16.021
X-51.495 Y15.967
X-51.5 Y15.858
Y9.827
G3 X-51.035 Y9.264 I0.6 J0.021
G1 X-50.944 Y9.243 Z-5.993
X-50.855 Y9.222 Z-5.971
X-50.77 Y9.202 Z-5.935
X-50.692 Y9.184 Z-5.885
X-50.622 Y9.168 Z-5.824
X-50.562 Y9.154 Z-5.753
X-50.514 Y9.143 Z-5.672
X-50.479 Y9.135 Z-5.585
X-50.458 Y9.13 Z-5.494
X-50.451 Y9.129 Z-5.4
G0 Z5
X-33.264 Y-15.972
Z-4.8
G1 Z-5.4 F1000
X-33.257 Y-15.976 Z-5.494
X-33.238 Y-15.987 Z-5.585
X-33.208 Y-16.005 Z-5.672
X-33.165 Y-16.031 Z-5.753
X-33.113 Y-16.062 Z-5.824
X-33.051 Y-16.098 Z-5.885
X-32.982 Y-16.139 Z-5.935
X-32.907 Y-16.184 Z-5.971
X-32.829 Y-16.231 Z-5.993
X-32.748 Y-16.279 Z-6
G3 X-31.994 Y-16.5 I0.809 J1.36
G1 X-26.989
X-26.46 Y-16.474
X-26.049 Y-16.42
X-25.548 Y-16.313
X-25.012 Y-16.152
X-24.377 Y-15.905
X-23.658 Y-15.556
X-22.878 Y-15.097
X-22.094 Y-14.546
X-21.353 Y-13.94
X-20.651 Y-13.289
X-19.988 Y-12.598
X-19.363 Y-11.872
X-18.776 Y-11.115
X-18.752 Y-11.081
X-18.614 Y-10.833
X-18.529 Y-10.562
X-18.5 Y-10.28
Y-5.761
G3 X-19.12 Y-5.183 Z-5.8 I-0.6 J-0.021
X-19.573 Y-5.414 I0.02 J-0.6
G1 X-27.441 Y-15.532
G3 X-27.567 Y-15.88 I0.474 J-0.368
X-26.989 Y-16.5 Z-6 I0.6 J-0.02
G1 X-23.288
X-22.978 Y-16.484
X-22.636 Y-16.44
X-22.244 Y-16.356
X-21.818 Y-16.228
X-21.321 Y-16.035
X-20.778 Y-15.771
X-20.172 Y-15.414
X-19.488 Y-14.934
X-19.006 Y-14.534
X-18.793 Y-14.313
X-18.633 Y-14.052
X-18.534 Y-13.761
X-18.5 Y-13.456
G3 X-19.12 Y-12.878 Z-5.8 I-0.6 J-0.021
X-19.401 Y-12.959 I0.02 J-0.6
G1 X-23.569 Y-15.382
G3 X-23.867 Y-15.88 I0.302 J-0.519
X-23.288 Y-16.5 Z-6 I0.6 J-0.02
G1 X-20.241
X-19.919 Y-16.484
X-19.658 Y-16.45
X-19.607 Y-16.439
X-19.307 Y-16.338
X-19.037 Y-16.172
X-18.811 Y-15.95
X-18.641 Y-15.683
X-18.536 Y-15.384
X-18.5 Y-15.07
G3 X-19.12 Y-14.491 Z-5.8 I-0.6 J-0.021
X-19.451 Y-14.604 I0.02 J-0.6
G1 X-20.572 Y-15.414
G3 X-20.82 Y-15.88 I0.351 J-0.486
X-20.241 Y-16.5 Z-6 I0.6 J-0.02
G1 X-19.153
X-19.044 Y-16.496
X-18.99 Y-16.487
X-18.935 Y-16.473
X-18.881 Y-16.453
X-18.827 Y-16.427
X-18.772 Y-16.393
X-18.718 Y-16.351
X-18.656 Y-16.293
X-18.612 Y-16.238
X-18.578 Y-16.184
X-18.55 Y-16.13
X-18.53 Y-16.075
X-18.509 Y-15.99
X-18.5 Y-15.904
Y-10.28
X-18.51 Y-10.188
X-18.535 Y-10.098
X-18.572 Y-10.034 Z-5.995
X-18.608 Y-9.971 Z-5.982
X-18.644 Y-9.911 Z-5.959
X-18.705 Y-9.861 Z-5.921
X-18.762 Y-9.815 Z-5.871
X-18.812 Y-9.774 Z-5.812
X-18.865 Y-9.754 Z-5.741
X-18.908 Y-9.737 Z-5.663
X-18.939 Y-9.726 Z-5.579
X-18.958 Y-9.718 Z-5.491
X-18.965 Y-9.716 Z-5.4
G0 Z5
X66.723 Y1.19
Z2.5
G3 X61.785 Y2.043 Z2.293 I-2.748 J-1.19 F333.3
X62.976 Y-2.818 Z2.085 I2.187 J-2.041
X66.95 Y0.215 Z1.878 I0.994 J2.817
X62.586 Y2.641 Z1.671 I-2.976 J-0.215
X62.108 Y-2.323 Z1.463 I1.386 J-2.639
X66.844 Y-0.778 Z1.256 I1.862 J2.323
X63.537 Y2.94 Z1.049 I-2.87 J0.777
X61.455 Y-1.572 Z0.841 I0.436 J-2.937
X66.417 Y-1.676 Z0.634 I2.515 J1.572
X64.53 Y2.908 Z0.427 I-2.444 J1.674
X61.088 Y-0.65 Z0.22 I-0.556 J-2.906
X65.72 Y-2.38 Z0.012 I2.882 J0.652
X65.453 Y2.552 Z-0.195 I-1.748 J2.378
X61.045 Y0.337 Z-0.402 I-1.479 J-2.55
X64.833 Y-2.813 Z-0.61 I2.925 J-0.335
X66.204 Y1.913 Z-0.817 I-0.862 J2.812
X61.33 Y1.28 Z-1.024 I-2.23 J-1.912
X63.857 Y-2.929 Z-1.232 I2.641 J-1.277
X66.7 Y1.065 Z-1.439 I0.114 J2.928
X61.908 Y2.072 Z-1.646 I-2.726 J-1.065
X62.9 Y-2.716 Z-1.854 I2.064 J-2.07
X66.887 Y0.105 Z-2.061 I1.07 J2.716
X62.712 Y2.628 Z-2.268 I-2.913 J-0.105
X62.071 Y-2.202 Z-2.476 I1.26 J-2.625
X66.748 Y-0.86 Z-2.683 I1.9 J2.202
X63.651 Y2.885 Z-2.89 I-2.775 J0.859
X61.459 Y-1.446 Z-3.098 I0.322 J-2.883
X66.3 Y-1.722 Z-3.305 I2.511 J1.446
X64.619 Y2.819 Z-3.512 I-2.327 J1.72
X61.134 Y-0.533 Z-3.72 I-0.645 J-2.817
X65.594 Y-2.385 Z-3.927 I2.836 J0.534
X65.507 Y2.438 Z-4.134 I-1.622 J2.383
X61.127 Y0.432 Z-4.341 I-1.533 J-2.437
X64.713 Y-2.776 Z-4.549 I2.843 J-0.43
X66.218 Y1.788 Z-4.756 I-0.742 J2.774
X61.439 Y1.342 Z-4.963 I-2.243 J-1.787
X63.756 Y-2.854 Z-5.171 I2.532 J-1.339
X66.672 Y0.943 Z-5.378 I0.215 J2.853
X62.031 Y2.095 Z-5.585 I-2.697 J-0.943
X62.83 Y-2.613 Z-5.793 I1.941 J-2.092
X66.821 Y-0.001 Z-6 I1.14 J2.612
X61.12 Y-0.001 I-2.85 J0
X66.821 Y-0.001 I2.85 J0
G1 X66.824 Y0.239 F1000
X67.001 Y1.18
X67.042 Y1.324
X67.066 Y1.472
X67.077 Y1.622
X67.074 Y1.772
X67.058 Y1.931
X67.027 Y2.099
X66.98 Y2.275
X66.915 Y2.456
X66.832 Y2.642
X66.729 Y2.83
X66.605 Y3.018
X66.46 Y3.203
X66.294 Y3.384
X66.107 Y3.557
X65.899 Y3.72
X65.672 Y3.871
X65.426 Y4.008
X65.162 Y4.127
X64.883 Y4.228
X64.59 Y4.307
X64.286 Y4.364
X63.972 Y4.397
X63.65 Y4.405
X63.325 Y4.386
X62.997 Y4.341
X62.67 Y4.269
X62.347 Y4.17
X62.029 Y4.044
X61.72 Y3.891
X61.422 Y3.713
X61.138 Y3.511
X60.869 Y3.285
X60.617 Y3.036
X60.386 Y2.767
X60.176 Y2.479
X59.989 Y2.174
X59.826 Y1.855
X59.69 Y1.522
X59.58 Y1.178
X59.498 Y0.826
X59.444 Y0.468
X59.42 Y0.107
X59.424 Y-0.257
X59.458 Y-0.619
X59.52 Y-0.977
X59.611 Y-1.33
X59.731 Y-1.674
X59.877 Y-2.008
X60.051 Y-2.33
X60.249 Y-2.636
X60.472 Y-2.926
X60.717 Y-3.197
X60.983 Y-3.448
X61.269 Y-3.676
X61.572 Y-3.881
X61.89 Y-4.061
X62.223 Y-4.215
X62.566 Y-4.342
X62.919 Y-4.441
X63.278 Y-4.511
X63.642 Y-4.552
X64.008 Y-4.564
X64.374 Y-4.546
X64.738 Y-4.499
X65.096 Y-4.423
X65.447 Y-4.319
X65.789 Y-4.186
X66.119 Y-4.027
X66.435 Y-3.842
X66.735 Y-3.631
X67.018 Y-3.398
X67.281 Y-3.142
X67.522 Y-2.867
X67.741 Y-2.572
X67.971 Y-2.204
X68.332 Y-1.506
X68.588 Y-0.898
X68.757 Y-0.384
X68.869 Y0.081
X68.939 Y0.521
X68.972 Y0.948
X68.97 Y1.361
X68.936 Y1.763
X68.871 Y2.156
X68.775 Y2.539
X68.649 Y2.914
X68.493 Y3.277
X68.307 Y3.629
X68.201 Y3.795
X68.045 Y3.997
X67.855 Y4.168
X67.637 Y4.301
X66.165 Y5.022
X65.512 Y5.327
X65.281 Y5.431
X64.859 Y5.618
X64.514 Y5.751
X64.205 Y5.842
X63.877 Y5.911
X63.523 Y5.956
X63.15 Y5.973
X62.763 Y5.96
X62.37 Y5.915
X61.971 Y5.836
X61.565 Y5.722
X61.159 Y5.571
X60.755 Y5.383
X60.36 Y5.158
X59.977 Y4.898
X59.61 Y4.604
X59.265 Y4.277
X58.943 Y3.92
X58.788 Y3.717
X58.631 Y3.457
X58.533 Y3.169
X58.5 Y2.867
Y-1.738
X58.513 Y-2.005
X58.552 Y-2.303
X58.617 Y-2.606
X58.712 Y-2.922
X58.84 Y-3.252
X59.001 Y-3.584
X59.194 Y-3.911
X59.421 Y-4.234
X59.686 Y-4.553
X59.985 Y-4.86
X60.318 Y-5.151
X60.681 Y-5.419
X61.071 Y-5.662
X61.487 Y-5.876
X61.924 Y-6.059
X62.382 Y-6.208
X62.665 Y-6.276
X62.967 Y-6.315
X63.27 Y-6.287
X63.56 Y-6.195
X65.295 Y-5.425
X65.512 Y-5.327
X66.165 Y-5.022
X67.689 Y-4.275
X67.907 Y-4.168
X68.301 Y-3.939
X68.578 Y-3.747
X68.887 Y-3.494
X69.183 Y-3.209
X69.479 Y-2.874
X69.765 Y-2.493
X70.031 Y-2.072
X70.266 Y-1.623
X70.469 Y-1.147
X70.635 Y-0.65
X70.762 Y-0.135
X70.848 Y0.392
X70.891 Y0.927
X70.892 Y1.467
X70.86 Y1.862
X70.81 Y2.137
X70.706 Y2.397
X70.553 Y2.631
X70.356 Y2.83
X70.124 Y2.986
G3 X69.321 Y2.711 Z-5.8 I-0.264 J-0.539
G1 X69.296 Y2.652
X67.096 Y-3.416
G3 X67.113 Y-3.868 I0.564 J-0.204
X67.907 Y-4.168 Z-6 I0.547 J0.247
G1 X67.985 Y-4.127
X70.627 Y-2.717
X70.682 Y-2.685
X70.736 Y-2.644
X70.776 Y-2.607
X70.824 Y-2.553
X70.862 Y-2.498
X70.894 Y-2.444
X70.919 Y-2.39
X71.004 Y-2.172
X71.084 Y-1.955
X71.171 Y-1.57
X71.18 Y-1.521
X71.252 Y-0.869
X71.269 Y-0.652
X71.299 Y0
X71.269 Y0.652
X71.252 Y0.869
X71.179 Y1.521
X71.171 Y1.567
X71.084 Y1.955
X71.004 Y2.172
X70.918 Y2.39
X70.894 Y2.444
X70.862 Y2.498
X70.824 Y2.553
X70.776 Y2.607
X70.736 Y2.644
X70.682 Y2.685
X70.627 Y2.717
X67.985 Y4.127
X67.907 Y4.168
X67.637 Y4.301
G3 X67.385 Y4.362 Z-5.944 I-0.265 J-0.538
G1 X67.293 Y4.371 Z-5.925
X67.203 Y4.394 Z-5.905
X66.899 Y4.498 Z-5.837
X66.735 Y4.554 Z-5.8
X65.754 Y4.889
X65.684 Y4.918
X65.619 Y4.956
X65.558 Y5.001
X65.505 Y5.052 Z-5.816
X65.459 Y5.11 Z-5.831
G3 X64.859 Y5.618 Z-6 I-1.291 J-0.915
G1 X62.901 Y6.486
X62.465 Y6.679
X62.258 Y6.758
X62.047 Y6.819
X61.819 Y6.866
X61.56 Y6.898
X61.279 Y6.91
X60.977 Y6.899
X60.642 Y6.859
X60.302 Y6.791
X59.934 Y6.685
X59.547 Y6.54
X59.304 Y6.426
X59.035 Y6.26
X58.81 Y6.038
X58.641 Y5.771
X58.536 Y5.473
X58.5 Y5.159
G3 X59.12 Y4.58 Z-5.8 I0.6 J0.021
G1 X59.199 Y4.588
X59.277 Y4.607
X62.381 Y5.565
G3 X62.745 Y5.878 I-0.177 J0.573
X62.465 Y6.679 Z-6 I-0.54 J0.261
G1 X60.506 Y7.539
X60.366 Y7.593
X60.192 Y7.641
X60.009 Y7.676
X59.724 Y7.678
X59.445 Y7.62
X59.184 Y7.505
X58.953 Y7.338
X58.761 Y7.127
X58.618 Y6.88
X58.53 Y6.609
X58.5 Y6.325
G3 X59.12 Y5.746 Z-5.8 I0.6 J0.021
X59.396 Y5.825 I-0.02 J0.6
G1 X60.543 Y6.477
G3 X60.787 Y6.739 I-0.297 J0.521
X60.506 Y7.539 Z-6 I-0.541 J0.26
G1 X59.516 Y7.974
X59.376 Y8.028
X59.163 Y8.042
X58.954 Y7.994
X58.769 Y7.886
X58.624 Y7.729
X58.532 Y7.536
X58.5 Y7.324
G3 X58.614 Y6.957 I0.728 J0.025
X59.805 Y7.718 I0.595 J0.381
X59.516 Y7.974 I-0.595 J-0.381
G1 X59.372 Y8.038
X59.286 Y8.069
X59.201 Y8.086
X59.146 Y8.091
X59.092 Y8.09
X59.037 Y8.085
X58.983 Y8.075
X58.929 Y8.059
X58.876 Y8.038
X58.821 Y8.009
X58.765 Y7.972
X58.723 Y7.938
X58.681 Y7.896
X58.622 Y7.82
X58.578 Y7.748
X58.548 Y7.676
X58.526 Y7.603
X58.504 Y7.495
X58.5 Y7.386
Y2.867
G3 X58.556 Y2.613 Z-5.944 I0.6 J0
G1 X58.583 Y2.544 Z-5.929
X58.602 Y2.472 Z-5.913
X58.611 Y2.398 Z-5.897
X58.629 Y2.115 Z-5.837
X58.64 Y1.942 Z-5.8
X58.804 Y-0.64
X58.805 Y-0.71
X58.797 Y-0.78
X58.781 Y-0.849
X58.755 Y-0.918 Z-5.816
X58.721 Y-0.984 Z-5.831
G3 X58.5 Y-1.738 Z-6 I1.36 J-0.809
G1 Y-4.127
X58.513 Y-4.378
X58.54 Y-4.588
X58.588 Y-4.813
X58.66 Y-5.054
X58.762 Y-5.314
X58.889 Y-5.577
X59.057 Y-5.862
X59.253 Y-6.141
X59.491 Y-6.428
X59.776 Y-6.719
X59.976 Y-6.894
X60.236 Y-7.073
X60.53 Y-7.19
X60.842 Y-7.238
X61.157 Y-7.214
X61.459 Y-7.121
G3 X61.74 Y-6.32 Z-5.8 I-0.26 J0.541
G1 X61.701 Y-6.251
X61.653 Y-6.188
X59.554 Y-3.756
G3 X59.12 Y-3.549 I-0.454 J-0.392
X58.5 Y-4.127 Z-6 I-0.02 J-0.6
G1 Y-6.202
X58.509 Y-6.388
X58.532 Y-6.562
X58.57 Y-6.741
X58.583 Y-6.781
X58.709 Y-7.071
X58.901 Y-7.321
X59.147 Y-7.518
X59.434 Y-7.651
X59.744 Y-7.71
X60.059 Y-7.694
X60.361 Y-7.603
G3 X60.641 Y-6.803 Z-5.8 I-0.26 J0.541
X60.486 Y-6.603 I-0.541 J-0.26
G1 X59.485 Y-5.763
G3 X59.12 Y-5.623 I-0.386 J-0.46
X58.5 Y-6.202 Z-6 I-0.02 J-0.6
G1 Y-7.342
Y-7.386
X58.505 Y-7.495
X58.526 Y-7.603
X58.548 Y-7.673
X58.579 Y-7.747
X58.622 Y-7.82
X58.682 Y-7.896
X58.723 Y-7.938
X58.765 Y-7.972
X58.821 Y-8.009
X58.877 Y-8.038
X58.93 Y-8.059
X58.983 Y-8.074
X59.037 Y-8.085
X59.092 Y-8.09
X59.146 Y-8.091
X59.201 Y-8.086
X59.286 Y-8.069
X59.372 Y-8.038
X62.683 Y-6.583
X63.56 Y-6.195
X63.64 Y-6.148
X63.711 Y-6.089
X63.755 Y-6.03 Z-5.995
X63.797 Y-5.971 Z-5.982
X63.839 Y-5.914 Z-5.959
X63.859 Y-5.837 Z-5.921
X63.878 Y-5.767 Z-5.871
X63.895 Y-5.704 Z-5.812
X63.897 Y-5.656 Z-5.754
Y-5.655 Z-5.752
X63.893 Y-5.606 Z-5.672
X63.889 Y-5.571 Z-5.585
X63.887 Y-5.549 Z-5.494
X63.886 Y-5.541 Z-5.4
G0 Z5
X-86.814 Y-2.374
Z2.5
G3 X-82.131 Y-0.834 Z2.298 I1.814 J2.374 F333.3
X-85.256 Y2.972 Z2.095 I-2.866 J0.833
X-87.672 Y-1.312 Z1.893 I0.259 J-2.97
X-82.81 Y-2.016 Z1.69 I2.672 J1.313
X-83.909 Y2.766 Z1.488 I-2.187 J2.015
X-87.966 Y0.017 Z1.285 I-1.087 J-2.764
X-83.941 Y-2.77 Z1.083 I2.967 J-0.015
X-82.799 Y1.985 Z0.88 I-1.057 J2.768
X-87.639 Y1.332 Z0.678 I-2.196 J-1.984
X-85.285 Y-2.94 Z0.475 I2.64 J-1.33
X-82.156 Y0.795 Z0.273 I0.285 J2.939
X-86.764 Y2.361 Z0.07 I-2.84 J-0.795
X-86.558 Y-2.495 Z-0.132 I1.766 J-2.358
X-82.11 Y-0.552 Z-0.335 I1.559 J2.495
X-85.526 Y2.89 Z-0.537 I-2.886 J0.551
X-87.498 Y-1.534 Z-0.74 I0.529 J-2.887
X-82.667 Y-1.774 Z-0.942 I2.498 J1.535
X-84.187 Y2.812 Z-1.145 I-2.331 J1.772
X-87.909 Y-0.259 Z-1.347 I-0.809 J-2.81
X-83.705 Y-2.617 Z-1.55 I2.909 J0.261
X-83.027 Y2.149 Z-1.752 I-1.293 J2.615
X-87.71 Y1.061 Z-1.955 I-1.969 J-2.148
X-85.006 Y-2.908 Z-2.157 I2.711 J-1.058
X-82.286 Y1.043 Z-2.36 I0.007 J2.907
X-86.947 Y2.15 Z-2.562 I-2.71 J-1.042
X-86.296 Y-2.59 Z-2.764 I1.949 J-2.147
X-82.117 Y-0.273 Z-2.967 I1.296 J2.59
X-85.783 Y2.783 Z-3.169 I-2.88 J0.272
X-87.306 Y-1.735 Z-3.372 I0.786 J-2.78
X-82.549 Y-1.522 Z-3.574 I2.305 J1.735
X-84.464 Y2.831 Z-3.777 I-2.448 J1.521
X-87.826 Y-0.523 Z-3.979 I-0.533 J-2.829
X-83.489 Y-2.444 Z-4.182 I2.827 J0.525
X-83.266 Y2.288 Z-4.384 I-1.509 J2.443
X-87.754 Y0.788 Z-4.587 I-1.73 J-2.287
X-84.737 Y-2.85 Z-4.789 I2.754 J-0.786
X-82.438 Y1.273 Z-4.992 I-0.262 J2.849
X-87.107 Y1.926 Z-5.194 I-2.558 J-1.272
X-86.03 Y-2.658 Z-5.397 I2.108 J-1.923
X-82.15 Y-0.001 Z-5.599 I1.03 J2.658
X-87.85 Y-0.001 I-2.85 J0
X-82.15 Y-0.001 I2.85 J0
G1 X-82.146 Y0.239 F1000
X-81.969 Y1.18
X-81.928 Y1.324
X-81.904 Y1.472
X-81.893 Y1.622
X-81.896 Y1.772
X-81.912 Y1.931
X-81.943 Y2.099
X-81.99 Y2.275
X-82.055 Y2.456
X-82.138 Y2.642
X-82.242 Y2.83
X-82.365 Y3.018
X-82.51 Y3.203
X-82.676 Y3.384
X-82.863 Y3.557
X-83.071 Y3.721
X-83.298 Y3.872
X-83.544 Y4.008
X-83.808 Y4.127
X-84.087 Y4.228
X-84.38 Y4.307
X-84.685 Y4.364
X-84.999 Y4.397
X-85.32 Y4.405
X-85.645 Y4.386
X-85.973 Y4.341
X-86.3 Y4.269
X-86.623 Y4.17
X-86.941 Y4.044
X-87.25 Y3.891
X-87.548 Y3.713
X-87.832 Y3.511
X-88.101 Y3.285
X-88.353 Y3.036
X-88.584 Y2.767
X-88.794 Y2.479
X-88.981 Y2.174
X-89.144 Y1.855
X-89.28 Y1.522
X-89.39 Y1.178
X-89.472 Y0.826
X-89.526 Y0.468
X-89.55 Y0.107
X-89.546 Y-0.256
X-89.512 Y-0.618
X-89.45 Y-0.977
X-89.359 Y-1.33
X-89.239 Y-1.674
X-89.093 Y-2.008
X-88.919 Y-2.329
X-88.721 Y-2.636
X-88.498 Y-2.926
X-88.253 Y-3.197
X-87.987 Y-3.448
X-87.701 Y-3.676
X-87.398 Y-3.881
X-87.079 Y-4.061
X-86.747 Y-4.215
X-86.404 Y-4.342
X-86.051 Y-4.44
X-85.692 Y-4.511
X-85.328 Y-4.552
X-84.962 Y-4.564
X-84.596 Y-4.546
X-84.232 Y-4.499
X-83.874 Y-4.423
X-83.523 Y-4.318
X-83.181 Y-4.186
X-82.851 Y-4.027
X-82.535 Y-3.841
X-82.235 Y-3.631
X-81.952 Y-3.398
X-81.689 Y-3.142
X-81.448 Y-2.866
X-81.229 Y-2.572
X-80.999 Y-2.204
X-80.638 Y-1.506
X-80.382 Y-0.898
X-80.213 Y-0.383
X-80.101 Y0.081
X-80.031 Y0.521
X-79.999 Y0.948
X-80 Y1.362
X-80.034 Y1.763
X-80.099 Y2.156
X-80.195 Y2.54
X-80.321 Y2.914
X-80.478 Y3.277
X-80.664 Y3.629
X-80.879 Y3.968
X-81.123 Y4.291
X-81.394 Y4.596
X-81.693 Y4.882
X-82.017 Y5.146
X-82.367 Y5.387
X-82.74 Y5.601
X-83.135 Y5.788
X-83.549 Y5.945
X-83.979 Y6.069
X-84.424 Y6.16
X-84.88 Y6.215
X-85.344 Y6.234
X-85.813 Y6.215
X-86.283 Y6.158
X-86.752 Y6.063
X-87.214 Y5.929
X-87.668 Y5.758
X-88.109 Y5.549
X-88.535 Y5.304
X-88.943 Y5.024
X-89.328 Y4.711
X-89.689 Y4.365
X-90.023 Y3.991
X-90.326 Y3.589
X-90.598 Y3.162
X-90.835 Y2.714
X-91.036 Y2.246
X-91.199 Y1.763
X-91.323 Y1.267
X-91.407 Y0.762
X-91.451 Y0.25
X-91.453 Y-0.264
X-91.414 Y-0.777
X-91.333 Y-1.286
X-91.212 Y-1.788
X-91.051 Y-2.279
X-90.851 Y-2.756
X-90.613 Y-3.215
X-90.339 Y-3.655
X-90.03 Y-4.071
X-89.689 Y-4.461
X-89.317 Y-4.823
X-88.917 Y-5.153
X-88.492 Y-5.451
X-88.044 Y-5.714
X-87.577 Y-5.94
X-87.093 Y-6.128
X-86.595 Y-6.276
X-86.086 Y-6.384
X-85.571 Y-6.451
X-85.052 Y-6.476
X-84.532 Y-6.46
X-84.016 Y-6.401
X-83.505 Y-6.302
X-83.004 Y-6.162
X-82.517 Y-5.982
X-82.045 Y-5.764
X-81.592 Y-5.508
X-81.161 Y-5.217
X-80.744 Y-4.884
X-80.297 Y-4.463
X-79.869 Y-3.99
X-79.467 Y-3.467
X-79.103 Y-2.906
X-78.79 Y-2.325
X-78.531 Y-1.735
X-78.325 Y-1.141
X-78.171 Y-0.547
X-78.067 Y0.045
X-78.012 Y0.634
X-78.005 Y1.219
X-78.044 Y1.796
X-78.129 Y2.363
X-78.258 Y2.919
X-78.431 Y3.461
X-78.647 Y3.987
X-78.904 Y4.494
X-79.202 Y4.98
X-79.539 Y5.443
X-79.915 Y5.879
X-80.326 Y6.286
X-80.773 Y6.662
X-81.252 Y7.003
X-81.76 Y7.307
X-82.296 Y7.572
X-82.856 Y7.794
X-83.438 Y7.973
X-84.036 Y8.105
X-84.648 Y8.189
X-85.269 Y8.225
X-85.895 Y8.21
X-86.522 Y8.145
X-87.146 Y8.028
X-87.763 Y7.861
X-88.368 Y7.644
X-88.956 Y7.377
X-89.525 Y7.063
X-90.069 Y6.702
X-90.584 Y6.296
X-91.068 Y5.849
X-91.515 Y5.362
X-91.924 Y4.839
X-92.291 Y4.284
X-92.613 Y3.698
X-92.887 Y3.087
X-93.113 Y2.455
X-93.287 Y1.805
X-93.408 Y1.142
X-93.476 Y0.47
X-93.491 Y-0.206
X-93.45 Y-0.882
X-93.356 Y-1.554
X-93.207 Y-2.216
X-93.006 Y-2.865
X-92.753 Y-3.497
X-92.45 Y-4.106
X-92.099 Y-4.69
X-91.702 Y-5.244
X-91.262 Y-5.764
X-90.781 Y-6.248
X-90.262 Y-6.691
X-89.71 Y-7.092
X-89.127 Y-7.447
X-88.517 Y-7.754
X-87.884 Y-8.012
X-87.232 Y-8.218
X-86.566 Y-8.371
X-85.89 Y-8.47
X-85.208 Y-8.514
X-84.525 Y-8.503
X-83.844 Y-8.438
X-83.171 Y-8.318
X-82.509 Y-8.145
X-81.864 Y-7.919
X-81.236 Y-7.641
X-80.613 Y-7.302
X-80 Y-6.903
X-79.403 Y-6.441
X-78.83 Y-5.92
X-78.292 Y-5.345
X-77.799 Y-4.724
X-77.356 Y-4.065
X-76.969 Y-3.375
X-76.64 Y-2.66
X-76.373 Y-1.928
X-76.167 Y-1.183
X-76.022 Y-0.43
X-75.939 Y0.326
X-75.917 Y1.081
X-75.956 Y1.83
X-76.054 Y2.571
X-76.21 Y3.298
X-76.424 Y4.009
X-76.694 Y4.699
X-77.019 Y5.366
X-77.397 Y6.005
X-77.825 Y6.613
X-78.303 Y7.187
X-78.827 Y7.723
X-79.396 Y8.218
X-80.005 Y8.667
X-80.652 Y9.069
X-81.333 Y9.419
X-82.045 Y9.715
X-82.782 Y9.955
X-83.541 Y10.136
X-84.316 Y10.256
X-85.103 Y10.314
X-85.896 Y10.308
X-86.691 Y10.238
X-87.481 Y10.104
X-88.262 Y9.906
X-89.029 Y9.645
X-89.775 Y9.322
X-90.497 Y8.938
X-91.188 Y8.495
X-91.843 Y7.997
X-92.459 Y7.446
X-93.031 Y6.845
X-93.554 Y6.198
X-94.024 Y5.509
X-94.439 Y4.783
X-94.796 Y4.024
X-95.09 Y3.238
X-95.322 Y2.428
X-95.487 Y1.602
X-95.586 Y0.763
X-95.618 Y-0.083
X-95.581 Y-0.929
X-95.477 Y-1.77
X-95.305 Y-2.602
X-95.067 Y-3.417
X-94.764 Y-4.212
X-94.397 Y-4.98
X-93.971 Y-5.716
X-93.486 Y-6.417
X-92.946 Y-7.076
X-92.355 Y-7.691
X-91.716 Y-8.256
X-91.033 Y-8.768
X-90.312 Y-9.224
X-89.555 Y-9.621
X-88.77 Y-9.956
X-87.96 Y-10.226
X-87.13 Y-10.431
X-86.287 Y-10.569
X-85.435 Y-10.638
X-84.581 Y-10.639
X-83.729 Y-10.572
X-82.884 Y-10.436
X-82.049 Y-10.232
X-81.226 Y-9.958
X-80.417 Y-9.616
X-79.628 Y-9.204
X-78.861 Y-8.722
X-78.121 Y-8.169
X-77.418 Y-7.55
X-76.76 Y-6.869
X-76.155 Y-6.134
X-75.609 Y-5.35
X-75.129 Y-4.525
X-74.717 Y-3.667
X-74.377 Y-2.781
X-74.111 Y-1.876
X-73.919 Y-0.957
X-73.801 Y-0.03
X-73.759 Y0.899
X-73.791 Y1.824
X-73.898 Y2.74
X-74.076 Y3.643
X-74.327 Y4.526
X-74.647 Y5.386
X-75.034 Y6.217
X-75.488 Y7.015
X-76.005 Y7.775
X-76.583 Y8.493
X-77.219 Y9.164
X-77.908 Y9.785
X-78.648 Y10.35
X-79.435 Y10.856
X-80.263 Y11.299
X-81.128 Y11.676
X-82.025 Y11.984
X-82.948 Y12.22
X-83.892 Y12.382
X-84.845 Y12.468
X-85.803 Y12.477
X-86.758 Y12.411
X-87.706 Y12.268
X-88.639 Y12.052
X-89.552 Y11.763
X-90.439 Y11.404
X-91.296 Y10.977
X-92.118 Y10.484
X-92.899 Y9.93
X-93.635 Y9.317
X-94.322 Y8.65
X-94.956 Y7.932
X-95.533 Y7.168
X-96.051 Y6.362
X-96.506 Y5.519
X-96.896 Y4.645
X-97.218 Y3.743
X-97.47 Y2.819
X-97.651 Y1.878
X-97.76 Y0.927
X-97.797 Y-0.03
X-97.762 Y-0.987
X-97.655 Y-1.939
X-97.476 Y-2.88
X-97.228 Y-3.805
X-96.912 Y-4.709
X-96.529 Y-5.586
X-96.081 Y-6.433
X-95.572 Y-7.244
X-95.003 Y-8.015
X-94.379 Y-8.741
X-93.702 Y-9.419
X-92.976 Y-10.043
X-92.205 Y-10.611
X-91.393 Y-11.119
X-90.546 Y-11.565
X-89.667 Y-11.946
X-88.762 Y-12.26
X-87.837 Y-12.507
X-86.896 Y-12.683
X-85.944 Y-12.79
X-84.987 Y-12.825
X-84.03 Y-12.789
X-83.078 Y-12.683
X-82.137 Y-12.506
X-81.211 Y-12.26
X-80.307 Y-11.946
X-79.428 Y-11.565
X-78.579 Y-11.122
X-77.764 Y-10.619
X-76.986 Y-10.061
X-76.248 Y-9.45
X-75.553 Y-8.791
X-74.906 Y-8.085
X-74.31 Y-7.335
X-73.768 Y-6.546
X-73.28 Y-5.722
X-72.85 Y-4.866
X-72.477 Y-3.984
X-72.165 Y-3.079
X-71.917 Y-2.154
X-71.735 Y-1.213
X-71.619 Y-0.263
X-71.569 Y0.694
X-71.585 Y1.651
X-71.667 Y2.605
X-71.814 Y3.552
X-72.027 Y4.486
X-72.306 Y5.402
X-72.65 Y6.295
X-73.056 Y7.163
X-73.523 Y7.999
X-74.046 Y8.801
X-74.623 Y9.566
X-75.251 Y10.288
X-75.928 Y10.966
X-76.652 Y11.593
X-77.419 Y12.167
X-78.223 Y12.687
X-79.061 Y13.15
X-79.929 Y13.556
X-80.821 Y13.902
X-81.736 Y14.187
X-82.668 Y14.407
X-83.613 Y14.562
X-84.566 Y14.652
X-85.524 Y14.679
X-86.481 Y14.643
X-87.433 Y14.544
X-88.377 Y14.38
X-89.307 Y14.151
X-90.22 Y13.861
X-91.111 Y13.512
X-91.979 Y13.106
X-92.818 Y12.644
X-93.625 Y12.129
X-94.395 Y11.56
X-95.126 Y10.941
X-95.816 Y10.276
X-96.46 Y9.568
X-97.059 Y8.821
X-97.609 Y8.036
X-98.106 Y7.218
X-98.548 Y6.368
X-98.933 Y5.492
X-99.261 Y4.592
X-99.53 Y3.673
X-99.741 Y2.738
X-99.892 Y1.793
X-99.98 Y0.839
X-100.005 Y-0.118
X-99.969 Y-1.075
X-99.871 Y-2.028
X-99.713 Y-2.973
X-99.497 Y-3.906
X-99.222 Y-4.823
X-98.888 Y-5.72
X-98.496 Y-6.594
X-98.049 Y-7.441
X-97.55 Y-8.258
X-97 Y-9.043
X-96.402 Y-9.791
X-95.758 Y-10.5
X-95.069 Y-11.164
X-94.337 Y-11.783
X-93.568 Y-12.353
X-92.764 Y-12.873
X-91.929 Y-13.342
X-91.066 Y-13.757
X-90.178 Y-14.117
X-89.269 Y-14.417
X-88.342 Y-14.658
X-87.402 Y-14.84
X-86.452 Y-14.963
X-85.496 Y-15.026
X-84.538 Y-15.029
X-83.582 Y-14.972
X-82.632 Y-14.852
X-81.692 Y-14.672
X-80.764 Y-14.432
X-79.854 Y-14.135
X-78.964 Y-13.783
X-78.096 Y-13.377
X-77.256 Y-12.917
X-76.446 Y-12.406
X-75.669 Y-11.847
X-74.926 Y-11.242
X-74.22 Y-10.595
X-73.554 Y-9.906
X-72.93 Y-9.18
X-72.35 Y-8.418
X-71.817 Y-7.622
X-71.333 Y-6.796
X-70.899 Y-5.942
X-70.514 Y-5.065
X-70.182 Y-4.167
X-69.903 Y-3.251
X-69.678 Y-2.32
X-69.512 Y-1.377
X-69.403 Y-0.425
X-69.351 Y0.531
X-69.356 Y1.489
X-69.417 Y2.444
X-69.534 Y3.395
X-69.707 Y4.337
X-69.938 Y5.266
X-70.227 Y6.179
X-70.571 Y7.073
X-70.968 Y7.945
X-71.416 Y8.791
X-71.913 Y9.609
X-72.458 Y10.397
X-73.049 Y11.151
X-73.686 Y11.866
X-74.365 Y12.541
X-75.084 Y13.174
X-75.838 Y13.764
X-76.627 Y14.308
X-77.445 Y14.805
X-78.292 Y15.253
X-79.164 Y15.648
X-80.058 Y15.991
X-80.971 Y16.279
X-81.676 Y16.457
X-81.789 Y16.481
X-81.903 Y16.495
X-82.019 Y16.5
X-87.06
X-88.016 Y16.452
X-88.872 Y16.368
X-89.814 Y16.198
X-90.741 Y15.954
X-91.647 Y15.645
X-92.531 Y15.277
X-93.391 Y14.856
X-94.224 Y14.382
X-95.025 Y13.858
X-95.794 Y13.287
X-96.528 Y12.672
X-97.226 Y12.016
X-97.886 Y11.322
X-98.506 Y10.592
X-99.085 Y9.829
X-99.62 Y9.035
X-100.107 Y8.21
X-100.546 Y7.359
X-100.936 Y6.484
X-101.277 Y5.589
X-101.434 Y5.098
X-101.47 Y4.958
X-101.493 Y4.816
X-101.5 Y4.672
Y-2.824
X-101.452 Y-3.781
X-101.395 Y-4.256
X-101.253 Y-5.083
X-101.02 Y-5.993
X-100.708 Y-6.899
X-100.331 Y-7.779
X-99.894 Y-8.631
X-99.404 Y-9.454
X-98.865 Y-10.246
X-98.281 Y-11.005
X-97.654 Y-11.729
X-96.987 Y-12.417
X-96.283 Y-13.065
X-95.542 Y-13.673
X-94.768 Y-14.237
X-93.964 Y-14.756
X-93.132 Y-15.231
X-92.275 Y-15.659
X-91.396 Y-16.038
X-90.497 Y-16.369
X-90.271 Y-16.438
X-90.136 Y-16.473
X-89.999 Y-16.493
X-89.86 Y-16.5
X-82.054
X-81.097 Y-16.452
X-80.326 Y-16.352
X-79.45 Y-16.166
X-78.532 Y-15.893
X-77.638 Y-15.551
X-76.769 Y-15.148
X-75.928 Y-14.69
X-75.116 Y-14.182
X-74.335 Y-13.628
X-73.586 Y-13.031
X-72.87 Y-12.395
X-72.189 Y-11.721
X-71.545 Y-11.013
X-70.938 Y-10.272
X-70.371 Y-9.5
X-69.846 Y-8.699
X-69.365 Y-7.871
X-68.927 Y-7.019
X-68.623 Y-6.345
X-68.555 Y-6.16
X-68.514 Y-5.967
X-68.5 Y-5.77
Y5.648
X-68.536 Y6.368
X-68.614 Y6.963
X-68.762 Y7.654
X-69 Y8.448
X-69.342 Y9.328
X-69.76 Y10.189
X-70.24 Y11.018
X-70.775 Y11.813
X-71.358 Y12.572
X-71.985 Y13.296
X-72.652 Y13.983
X-73.356 Y14.633
X-74.093 Y15.245
X-74.861 Y15.817
X-75.532 Y16.265
X-75.774 Y16.394
X-76.036 Y16.473
X-76.309 Y16.5
X-82.019
G3 X-82.598 Y15.88 Z-5.399 I0.021 J-0.6
X-82.371 Y15.43 I0.6 J0.02
G1 X-69.473 Y5.199
G3 X-69.12 Y5.069 I0.373 J0.47
X-68.5 Y5.648 Z-5.599 I0.02 J0.6
G1 Y9.993
X-68.527 Y10.537
X-68.576 Y10.912
X-68.673 Y11.363
X-68.82 Y11.853
X-69.046 Y12.433
X-69.344 Y13.049
X-69.758 Y13.751
X-70.305 Y14.53
X-70.916 Y15.266
X-71.577 Y15.959
X-71.757 Y16.126
X-71.965 Y16.285
X-72.198 Y16.403
X-72.449 Y16.476
X-72.709 Y16.5
G3 X-73.288 Y15.88 Z-5.399 I0.021 J-0.6
X-73.201 Y15.588 I0.6 J0.02
G1 X-69.612 Y9.701
G3 X-69.12 Y9.414 I0.512 J0.312
X-68.5 Y9.993 Z-5.599 I0.02 J0.6
G1 Y13.469
X-68.518 Y13.825
X-68.562 Y14.161
X-68.638 Y14.519
X-68.761 Y14.929
X-68.94 Y15.388
X-69.097 Y15.711
X-69.264 Y15.975
X-69.485 Y16.196
X-69.75 Y16.362
X-70.046 Y16.465
X-70.356 Y16.5
G3 X-70.935 Y15.88 Z-5.399 I0.021 J-0.6
X-70.869 Y15.627 I0.6 J0.02
G1 X-69.634 Y13.216
G3 X-69.12 Y12.89 I0.534 J0.274
X-68.5 Y13.469 Z-5.599 I0.02 J0.6
G1 Y15.858
X-68.505 Y15.967
X-68.515 Y16.021
X-68.53 Y16.075
X-68.56 Y16.149
X-68.6 Y16.221
X-68.656 Y16.293
X-68.717 Y16.35
X-68.777 Y16.397
X-68.832 Y16.429
X-68.886 Y16.455
X-68.94 Y16.474
X-68.995 Y16.488
X-69.049 Y16.496
X-69.104 Y16.5
X-76.309
G3 X-76.872 Y16.035 I0.021 J-0.6
G1 X-76.893 Y15.944 Z-5.592
X-76.914 Y15.855 Z-5.57
X-76.934 Y15.77 Z-5.534
X-76.952 Y15.692 Z-5.485
X-76.968 Y15.622 Z-5.423
X-76.981 Y15.562 Z-5.352
X-76.993 Y15.514 Z-5.272
X-77.001 Y15.479 Z-5.185
X-77.006 Y15.458 Z-5.093
X-77.007 Y15.451 Z-4.999
G0 Z5
X-100.972 Y-1.555
Z-4.399
G1 Z-4.999 F1000
X-100.976 Y-1.561 Z-5.093
X-100.987 Y-1.58 Z-5.185
X-101.005 Y-1.611 Z-5.272
X-101.031 Y-1.653 Z-5.352
X-101.062 Y-1.706 Z-5.423
X-101.098 Y-1.767 Z-5.485
X-101.139 Y-1.836 Z-5.534
X-101.184 Y-1.911 Z-5.57
X-101.231 Y-1.99 Z-5.592
X-101.279 Y-2.07 Z-5.599
G3 X-101.5 Y-2.824 I1.36 J-0.809
G1 Y-8.038
X-101.48 Y-8.43
X-101.424 Y-8.86
X-101.323 Y-9.333
X-101.155 Y-9.892
X-100.923 Y-10.49
X-100.587 Y-11.181
X-100.134 Y-11.951
X-99.583 Y-12.735
X-98.976 Y-13.475
X-98.32 Y-14.173
X-97.622 Y-14.829
X-96.887 Y-15.443
X-96.119 Y-16.015
X-95.747 Y-16.264
X-95.505 Y-16.394
X-95.242 Y-16.473
X-94.969 Y-16.5
X-89.86
G3 X-89.281 Y-15.88 Z-5.399 I-0.021 J0.6
X-89.533 Y-15.412 I-0.6 J-0.02
G1 X-100.552 Y-7.57
G3 X-100.88 Y-7.459 I-0.348 J-0.489
X-101.5 Y-8.038 Z-5.599 I-0.02 J-0.6
G1 Y-11.513
X-101.481 Y-11.9
X-101.436 Y-12.24
X-101.354 Y-12.623
X-101.229 Y-13.042
X-101.04 Y-13.525
X-100.786 Y-14.05
X-100.443 Y-14.632
X-99.983 Y-15.287
X-99.393 Y-15.998
X-99.315 Y-16.078
X-99.102 Y-16.257
X-98.857 Y-16.39
X-98.59 Y-16.472
X-98.313 Y-16.5
G3 X-97.734 Y-15.88 Z-5.399 I-0.021 J0.6
X-97.817 Y-15.596 I-0.6 J-0.02
G1 X-100.383 Y-11.23
G3 X-100.88 Y-10.935 I-0.517 J-0.304
X-101.5 Y-11.513 Z-5.599 I-0.02 J-0.6
G1 Y-14.555
X-101.481 Y-14.93
X-101.443 Y-15.22
X-101.384 Y-15.495
X-101.382 Y-15.502
X-101.267 Y-15.777
X-101.096 Y-16.021
X-100.877 Y-16.223
X-100.621 Y-16.375
X-100.338 Y-16.468
X-100.041 Y-16.5
G3 X-99.463 Y-15.88 Z-5.399 I-0.021 J0.6
X-99.555 Y-15.58 I-0.6 J-0.02
G1 X-100.393 Y-14.255
G3 X-100.88 Y-13.976 I-0.507 J-0.321
G1 X-100.9 Z-5.404
G3 X-101.5 Y-14.555 Z-5.599 I0 J-0.6
G1 Y-15.858
X-101.495 Y-15.967
X-101.485 Y-16.021
X-101.47 Y-16.075
X-101.45 Y-16.128
X-101.425 Y-16.18
X-101.389 Y-16.236
X-101.344 Y-16.293
X-101.275 Y-16.358
X-101.207 Y-16.408
X-101.152 Y-16.438
X-101.098 Y-16.462
X-101.044 Y-16.479
X-100.989 Y-16.491
X-100.772 Y-16.5
X-94.969
G3 X-94.406 Y-16.035 I-0.021 J0.6
G1 X-94.385 Y-15.944 Z-5.592
X-94.364 Y-15.855 Z-5.57
X-94.344 Y-15.77 Z-5.534
X-94.326 Y-15.692 Z-5.485
X-94.31 Y-15.622 Z-5.423
X-94.296 Y-15.562 Z-5.352
X-94.285 Y-15.514 Z-5.272
X-94.277 Y-15.479 Z-5.185
X-94.272 Y-15.458 Z-5.093
X-94.271 Y-15.451 Z-4.999
G0 Z5
X-85.79 Y15.972
Z-4.399
G1 Z-4.999 F1000
X-85.797 Y15.976 Z-5.093
X-85.816 Y15.987 Z-5.185
X-85.847 Y16.005 Z-5.272
X-85.889 Y16.031 Z-5.352
X-85.941 Y16.062 Z-5.423
X-86.003 Y16.098 Z-5.485
X-86.072 Y16.139 Z-5.534
X-86.147 Y16.184 Z-5.57
X-86.225 Y16.231 Z-5.592
X-86.306 Y16.279 Z-5.599
G3 X-87.06 Y16.5 I-0.809 J-1.36
G1 X-92.719
X-93.184 Y16.477
X-93.636 Y16.418
X-94.125 Y16.313
X-94.711 Y16.137
X-95.332 Y15.895
X-96.046 Y15.549
X-96.84 Y15.082
X-97.624 Y14.531
X-98.365 Y13.925
X-99.067 Y13.274
X-99.729 Y12.582
X-100.35 Y11.853
X-100.93 Y11.09
X-101.258 Y10.607
X-101.391 Y10.363
X-101.472 Y10.097
X-101.5 Y9.821
Y4.672
G3 X-100.88 Y4.093 Z-5.399 I0.6 J0.021
X-100.415 Y4.34 I-0.02 J0.6
G1 X-92.254 Y15.547
G3 X-92.14 Y15.88 I-0.485 J0.353
X-92.719 Y16.5 Z-5.599 I-0.6 J0.02
G1 X-96.419
X-96.721 Y16.485
X-97.064 Y16.44
X-97.459 Y16.355
X-97.884 Y16.228
X-98.383 Y16.034
X-98.924 Y15.771
X-99.526 Y15.417
X-100.201 Y14.943
X-100.932 Y14.336
X-101.078 Y14.194
X-101.257 Y13.98
X-101.39 Y13.735
X-101.472 Y13.469
X-101.5 Y13.192
G3 X-100.88 Y12.613 Z-5.399 I0.6 J0.021
X-100.591 Y12.699 I-0.02 J0.6
G1 X-96.13 Y15.386
G3 X-95.84 Y15.88 I-0.31 J0.514
X-96.419 Y16.5 Z-5.599 I-0.6 J0.02
G1 X-99.466
X-99.793 Y16.484
X-100.096 Y16.444
X-100.397 Y16.379
X-100.502 Y16.348
X-100.777 Y16.233
X-101.021 Y16.062
X-101.223 Y15.843
X-101.375 Y15.586
X-101.468 Y15.303
X-101.5 Y15.007
G3 X-100.88 Y14.428 Z-5.399 I0.6 J0.021
X-100.585 Y14.517 I-0.02 J0.6
G1 X-99.172 Y15.39
G3 X-98.887 Y15.88 I-0.315 J0.511
X-99.466 Y16.5 Z-5.599 I-0.6 J0.02
G1 X-100.772
X-100.989 Y16.491
X-101.044 Y16.479
X-101.098 Y16.462
X-101.152 Y16.438
X-101.207 Y16.408
X-101.275 Y16.358
X-101.344 Y16.293
X-101.389 Y16.236
X-101.425 Y16.18
X-101.45 Y16.128
X-101.47 Y16.075
X-101.485 Y16.021
X-101.495 Y15.967
X-101.5 Y15.858
Y9.821
G3 X-101.035 Y9.257 I0.6 J0.021
G1 X-100.944 Y9.236 Z-5.592
X-100.855 Y9.215 Z-5.57
X-100.77 Y9.196 Z-5.534
X-100.692 Y9.178 Z-5.485
X-100.622 Y9.161 Z-5.423
X-100.562 Y9.148 Z-5.352
X-100.514 Y9.137 Z-5.272
X-100.479 Y9.129 Z-5.185
X-100.458 Y9.124 Z-5.093
X-100.451 Y9.122 Z-4.999
G0 Z5
X-83.323 Y-15.972
Z-4.399
G1 Z-4.999 F1000
X-83.317 Y-15.976 Z-5.093
X-83.298 Y-15.987 Z-5.185
X-83.267 Y-16.005 Z-5.272
X-83.225 Y-16.031 Z-5.352
X-83.172 Y-16.062 Z-5.423
X-83.11 Y-16.098 Z-5.485
X-83.041 Y-16.139 Z-5.534
X-82.967 Y-16.184 Z-5.57
X-82.888 Y-16.231 Z-5.592
X-82.807 Y-16.279 Z-5.599
G3 X-82.054 Y-16.5 I0.809 J1.36
G1 X-77.048
X-76.452 Y-16.47
X-76.041 Y-16.416
X-75.54 Y-16.309
X-75.005 Y-16.149
X-74.37 Y-15.902
X-73.651 Y-15.553
X-72.87 Y-15.093
X-72.087 Y-14.543
X-71.345 Y-13.937
X-70.643 Y-13.285
X-69.98 Y-12.594
X-69.356 Y-11.868
X-68.769 Y-11.111
X-68.752 Y-11.087
X-68.614 Y-10.839
X-68.529 Y-10.568
X-68.5 Y-10.285
Y-5.77
G3 X-69.12 Y-5.192 Z-5.399 I-0.6 J-0.021
X-69.572 Y-5.421 I0.02 J-0.6
G1 X-77.499 Y-15.53
G3 X-77.627 Y-15.88 I0.472 J-0.37
X-77.048 Y-16.5 Z-5.599 I0.6 J-0.02
G1 X-73.348
X-72.971 Y-16.481
X-72.628 Y-16.436
X-72.236 Y-16.352
X-71.81 Y-16.225
X-71.314 Y-16.032
X-70.771 Y-15.768
X-70.166 Y-15.412
X-69.482 Y-14.931
X-69.006 Y-14.536
X-68.793 Y-14.316
X-68.633 Y-14.054
X-68.534 Y-13.764
X-68.5 Y-13.459
G3 X-69.12 Y-12.88 Z-5.399 I-0.6 J-0.021
X-69.398 Y-12.959 I0.02 J-0.6
G1 X-73.625 Y-15.38
G3 X-73.926 Y-15.88 I0.298 J-0.521
X-73.348 Y-16.5 Z-5.599 I0.6 J-0.02
G1 X-70.301
X-69.914 Y-16.481
X-69.653 Y-16.446
X-69.607 Y-16.437
X-69.307 Y-16.336
X-69.037 Y-16.17
X-68.811 Y-15.948
X-68.641 Y-15.681
X-68.536 Y-15.382
X-68.5 Y-15.068
G3 X-69.12 Y-14.489 Z-5.399 I-0.6 J-0.021
X-69.44 Y-14.594 I0.02 J-0.6
G1 X-70.62 Y-15.406
G3 X-70.879 Y-15.88 I0.34 J-0.494
X-70.301 Y-16.5 Z-5.599 I0.6 J-0.02
G1 X-69.104
X-69.049 Y-16.496
X-68.995 Y-16.488
X-68.94 Y-16.474
X-68.886 Y-16.455
X-68.832 Y-16.429
X-68.777 Y-16.397
X-68.717 Y-16.35
X-68.656 Y-16.293
X-68.6 Y-16.221
X-68.56 Y-16.149
X-68.53 Y-16.075
X-68.515 Y-16.021
X-68.505 Y-15.967
X-68.5 Y-15.858
Y-10.285
X-68.51 Y-10.193
X-68.535 Y-10.104
X-68.572 Y-10.04 Z-5.594
X-68.608 Y-9.977 Z-5.581
X-68.644 Y-9.916 Z-5.558
X-68.705 Y-9.866 Z-5.52
X-68.762 Y-9.82 Z-5.471
X-68.812 Y-9.78 Z-5.411
X-68.865 Y-9.759 Z-5.341
X-68.908 Y-9.743 Z-5.262
X-68.939 Y-9.731 Z-5.178
X-68.958 Y-9.724 Z-5.09
X-68.965 Y-9.722 Z-5
G0 Z5
X5.258 Y-10.194
Z2.5
G3 X9.942 Y-8.654 Z2.298 I1.814 J2.374 F333.3
X6.817 Y-4.848 Z2.095 I-2.866 J0.833
X4.4 Y-9.132 Z1.893 I0.259 J-2.97
X9.262 Y-9.837 Z1.69 I2.672 J1.313
X8.163 Y-5.054 Z1.488 I-2.187 J2.015
X4.106 Y-7.804 Z1.285 I-1.087 J-2.764
X8.131 Y-10.59 Z1.083 I2.967 J-0.015
X9.273 Y-5.836 Z0.88 I-1.057 J2.768
X4.433 Y-6.488 Z0.678 I-2.196 J-1.984
X6.788 Y-10.76 Z0.475 I2.64 J-1.33
X9.916 Y-7.025 Z0.273 I0.285 J2.939
X5.309 Y-5.46 Z0.07 I-2.84 J-0.795
X5.514 Y-10.316 Z-0.132 I1.766 J-2.358
X9.962 Y-8.372 Z-0.335 I1.559 J2.495
X6.546 Y-4.931 Z-0.537 I-2.886 J0.551
X4.575 Y-9.354 Z-0.74 I0.529 J-2.887
X9.406 Y-9.594 Z-0.942 I2.498 J1.535
X7.885 Y-5.008 Z-1.145 I-2.331 J1.772
X4.163 Y-8.079 Z-1.347 I-0.809 J-2.81
X8.367 Y-10.437 Z-1.55 I2.909 J0.261
X9.045 Y-5.671 Z-1.752 I-1.293 J2.615
X4.362 Y-6.76 Z-1.955 I-1.969 J-2.148
X7.066 Y-10.728 Z-2.157 I2.711 J-1.058
X9.786 Y-6.778 Z-2.36 I0.007 J2.907
X5.125 Y-5.671 Z-2.562 I-2.71 J-1.042
X5.776 Y-10.411 Z-2.764 I1.949 J-2.147
X9.956 Y-8.093 Z-2.967 I1.296 J2.59
X6.289 Y-5.038 Z-3.169 I-2.88 J0.272
X4.767 Y-9.555 Z-3.372 I0.786 J-2.78
X9.523 Y-9.342 Z-3.574 I2.305 J1.735
X7.609 Y-4.99 Z-3.777 I-2.448 J1.521
X4.246 Y-8.344 Z-3.979 I-0.533 J-2.829
X8.583 Y-10.265 Z-4.182 I2.827 J0.525
X8.807 Y-5.532 Z-4.384 I-1.509 J2.443
X4.319 Y-7.032 Z-4.587 I-1.73 J-2.287
X7.336 Y-10.67 Z-4.789 I2.754 J-0.786
X9.635 Y-6.548 Z-4.992 I-0.262 J2.849
X4.966 Y-5.895 Z-5.194 I-2.558 J-1.272
X6.043 Y-10.479 Z-5.397 I2.108 J-1.923
X9.923 Y-7.821 Z-5.599 I1.03 J2.658
X4.223 Y-7.821 I-2.85 J0
X9.923 Y-7.821 I2.85 J0
G1 X9.926 Y-7.582 F1000
X10.103 Y-6.64
X10.144 Y-6.496
X10.169 Y-6.348
X10.179 Y-6.198
X10.176 Y-6.048
X10.16 Y-5.889
X10.129 Y-5.721
X10.082 Y-5.546
X10.018 Y-5.364
X9.934 Y-5.178
X9.831 Y-4.99
X9.707 Y-4.802
X9.562 Y-4.617
X9.396 Y-4.436
X9.209 Y-4.263
X9.002 Y-4.1
X8.774 Y-3.949
X8.528 Y-3.813
X8.265 Y-3.693
X7.985 Y-3.593
X7.693 Y-3.513
X7.388 Y-3.456
X7.074 Y-3.424
X6.753 Y-3.416
X6.427 Y-3.434
X6.1 Y-3.479
X5.773 Y-3.551
X5.449 Y-3.651
X5.132 Y-3.777
X4.823 Y-3.929
X4.525 Y-4.107
X4.24 Y-4.31
X3.971 Y-4.536
X3.72 Y-4.784
X3.488 Y-5.053
X3.278 Y-5.341
X3.091 Y-5.646
X2.929 Y-5.966
X2.792 Y-6.299
X2.682 Y-6.642
X2.6 Y-6.994
X2.547 Y-7.352
X2.522 Y-7.714
X2.526 Y-8.077
X2.56 Y-8.439
X2.623 Y-8.797
X2.714 Y-9.15
X2.833 Y-9.495
X2.98 Y-9.829
X3.153 Y-10.15
X3.351 Y-10.456
X3.574 Y-10.746
X3.819 Y-11.017
X4.086 Y-11.268
X4.371 Y-11.497
X4.674 Y-11.702
X4.993 Y-11.882
X5.325 Y-12.035
X5.669 Y-12.162
X6.021 Y-12.261
X6.381 Y-12.331
X6.745 Y-12.372
X7.111 Y-12.384
X7.477 Y-12.366
X7.84 Y-12.319
X8.198 Y-12.243
X8.55 Y-12.139
X8.891 Y-12.006
X9.221 Y-11.847
X9.538 Y-11.662
X9.838 Y-11.452
X10.12 Y-11.218
X10.383 Y-10.963
X10.624 Y-10.687
X10.843 Y-10.393
X11.073 Y-10.024
X11.435 Y-9.326
X11.69 Y-8.718
X11.859 Y-8.204
X11.971 Y-7.74
X12.041 Y-7.299
X12.074 Y-6.872
X12.072 Y-6.459
X12.038 Y-6.057
X11.973 Y-5.664
X11.877 Y-5.281
X11.751 Y-4.907
X11.595 Y-4.543
X11.409 Y-4.191
X11.194 Y-3.853
X10.95 Y-3.53
X10.678 Y-3.224
X10.38 Y-2.939
X10.055 Y-2.675
X9.705 Y-2.434
X9.332 Y-2.219
X8.938 Y-2.032
X8.524 Y-1.876
X8.093 Y-1.751
X7.648 Y-1.661
X7.192 Y-1.605
X6.728 Y-1.587
X6.259 Y-1.605
X5.789 Y-1.662
X5.321 Y-1.757
X4.858 Y-1.891
X4.404 Y-2.062
X3.963 Y-2.271
X3.537 Y-2.516
X3.13 Y-2.796
X2.744 Y-3.11
X2.383 Y-3.455
X2.05 Y-3.83
X1.746 Y-4.232
X1.475 Y-4.658
X1.238 Y-5.107
X1.037 Y-5.574
X0.873 Y-6.057
X0.749 Y-6.553
X0.665 Y-7.059
X0.622 Y-7.57
X0.619 Y-8.084
X0.659 Y-8.598
X0.739 Y-9.107
X0.86 Y-9.609
X1.021 Y-10.1
X1.221 Y-10.576
X1.459 Y-11.036
X1.733 Y-11.475
X2.042 Y-11.891
X2.384 Y-12.281
X2.755 Y-12.643
X3.155 Y-12.974
X3.58 Y-13.272
X4.028 Y-13.534
X4.496 Y-13.76
X4.98 Y-13.948
X5.478 Y-14.097
X5.986 Y-14.205
X6.501 Y-14.271
X7.021 Y-14.297
X7.54 Y-14.28
X8.057 Y-14.222
X8.567 Y-14.122
X9.068 Y-13.982
X9.556 Y-13.803
X10.028 Y-13.584
X10.481 Y-13.328
X10.912 Y-13.037
X11.328 Y-12.704
X11.775 Y-12.284
X12.204 Y-11.811
X12.605 Y-11.288
X12.969 Y-10.726
X13.282 Y-10.145
X13.542 Y-9.555
X13.748 Y-8.961
X13.902 Y-8.367
X14.005 Y-7.775
X14.06 Y-7.186
X14.068 Y-6.602
X14.028 Y-6.025
X13.944 Y-5.457
X13.814 Y-4.901
X13.641 Y-4.359
X13.426 Y-3.833
X13.168 Y-3.326
X12.87 Y-2.84
X12.533 Y-2.378
X12.158 Y-1.941
X11.746 Y-1.534
X11.3 Y-1.159
X10.821 Y-0.817
X10.312 Y-0.513
X9.776 Y-0.249
X9.216 Y-0.026
X8.635 Y0.152
X8.036 Y0.285
X7.425 Y0.369
X6.804 Y0.404
X6.177 Y0.389
X5.55 Y0.324
X4.926 Y0.208
X4.309 Y0.041
X3.705 Y-0.177
X3.116 Y-0.443
X2.548 Y-0.758
X2.004 Y-1.119
X1.488 Y-1.524
X1.005 Y-1.971
X0.557 Y-2.458
X0.148 Y-2.981
X-0.218 Y-3.537
X-0.54 Y-4.122
X-0.815 Y-4.733
X-1.04 Y-5.365
X-1.214 Y-6.015
X-1.336 Y-6.679
X-1.404 Y-7.35
X-1.418 Y-8.027
X-1.378 Y-8.703
X-1.283 Y-9.374
X-1.135 Y-10.037
X-0.934 Y-10.686
X-0.681 Y-11.317
X-0.378 Y-11.927
X-0.027 Y-12.51
X0.37 Y-13.064
X0.811 Y-13.584
X1.292 Y-14.068
X1.81 Y-14.512
X2.363 Y-14.912
X2.946 Y-15.267
X3.556 Y-15.575
X4.188 Y-15.832
X4.84 Y-16.038
X5.506 Y-16.191
X6.182 Y-16.29
X6.864 Y-16.334
X7.548 Y-16.324
X8.228 Y-16.259
X8.902 Y-16.139
X9.563 Y-15.965
X10.208 Y-15.74
X10.837 Y-15.461
X11.46 Y-15.123
X12.073 Y-14.723
X12.67 Y-14.262
X13.242 Y-13.741
X13.78 Y-13.166
X14.274 Y-12.545
X14.717 Y-11.885
X15.104 Y-11.195
X15.432 Y-10.481
X15.56 Y-10.131
X15.607 Y-9.974
X15.635 Y-9.813
X15.645 Y-9.65
Y-5.648
X15.608 Y-4.917
X15.542 Y-4.412
X15.427 Y-3.874
X15.259 Y-3.313
X15.036 Y-2.74
X14.76 Y-2.172
X14.432 Y-1.615
X14.05 Y-1.071
X13.612 Y-0.543
X13.121 Y-0.04
X12.58 Y0.432
X11.994 Y0.866
X11.365 Y1.257
X10.699 Y1.6
X10 Y1.893
X9.272 Y2.13
X8.521 Y2.311
X7.752 Y2.431
X6.969 Y2.489
X6.179 Y2.485
X5.387 Y2.416
X4.599 Y2.284
X3.819 Y2.087
X3.053 Y1.828
X2.307 Y1.505
X1.586 Y1.123
X0.895 Y0.682
X0.239 Y0.185
X-0.378 Y-0.366
X-0.95 Y-0.965
X-1.187 Y-1.259
X-1.358 Y-1.526
X-1.464 Y-1.825
X-1.5 Y-2.141
Y-11.948
X-1.484 Y-12.273
X-1.441 Y-12.598
X-1.371 Y-12.928
X-1.256 Y-13.311
X-1.107 Y-13.694
X-0.899 Y-14.122
X-0.642 Y-14.558
X-0.33 Y-15.002
X0.054 Y-15.465
X0.504 Y-15.926
X0.766 Y-16.155
X0.969 Y-16.302
X1.195 Y-16.411
X1.437 Y-16.478
X1.687 Y-16.5
G3 X2.265 Y-15.88 Z-5.399 I-0.021 J0.6
X2.168 Y-15.572 I-0.6 J-0.02
G1 X-0.398 Y-11.641
G3 X-0.88 Y-11.369 I-0.502 J-0.328
X-1.5 Y-11.948 Z-5.599 I-0.02 J-0.6
G1 Y-14.772
X-1.49 Y-14.968
X-1.457 Y-15.221
X-1.399 Y-15.491
X-1.396 Y-15.502
X-1.281 Y-15.777
X-1.11 Y-16.021
X-0.891 Y-16.223
X-0.634 Y-16.375
X-0.351 Y-16.468
X-0.055 Y-16.5
G3 X0.524 Y-15.88 Z-5.399 I-0.021 J0.6
X0.405 Y-15.542 I-0.6 J-0.02
G1 X-0.419 Y-14.435
G3 X-0.88 Y-14.193 I-0.481 J-0.358
X-1.5 Y-14.772 Z-5.599 I-0.02 J-0.6
G1 Y-15.858
X-1.495 Y-15.967
X-1.485 Y-16.021
X-1.47 Y-16.075
X-1.45 Y-16.13
X-1.422 Y-16.184
X-1.388 Y-16.238
X-1.344 Y-16.293
X-1.306 Y-16.332
X-1.251 Y-16.378
X-1.197 Y-16.415
X-1.143 Y-16.444
X-1.088 Y-16.466
X-1.034 Y-16.482
X-0.979 Y-16.493
X-0.871 Y-16.5
X10.012
X10.23 Y-16.496
X10.447 Y-16.482
X10.665 Y-16.465
X10.882 Y-16.447
X11.1 Y-16.425
X11.535 Y-16.377
X12.078 Y-16.283
X12.457 Y-16.185
X12.846 Y-16.051
X13.286 Y-15.858
X13.74 Y-15.614
X14.217 Y-15.306
X14.729 Y-14.913
X15.225 Y-14.465
X15.263 Y-14.424
X15.426 Y-14.216
X15.546 Y-13.981
X15.62 Y-13.727
X15.645 Y-13.464
G3 X15.025 Y-12.885 Z-5.399 I-0.6 J-0.021
X14.72 Y-12.981 I0.02 J-0.6
G1 X11.166 Y-15.275
G3 X10.893 Y-15.824 I0.325 J-0.504
X11.535 Y-16.377 Z-5.599 I0.598 J0.044
G1 X11.753 Y-16.351
X12.406 Y-16.257
X13.059 Y-16.137
X13.277 Y-16.091
X13.93 Y-15.937
X14.365 Y-15.808
X14.582 Y-15.742
X14.8 Y-15.666
X15.018 Y-15.586
X15.235 Y-15.496
X15.304 Y-15.465
X15.372 Y-15.424
X15.453 Y-15.356
X15.521 Y-15.281
X15.57 Y-15.206
X15.597 Y-15.152
X15.617 Y-15.098
X15.631 Y-15.043
X15.64 Y-14.989
X15.645 Y-14.772
Y-9.65
X15.644 Y-9.642 Z-5.597
G2 X15.509 Y-8.741 Z-5.404 I10.25 J1.992
G1 X15.507 Y-8.719 Z-5.399
X15.506 Y-8.678
Y-6.62
X15.507 Y-6.58
X15.509 Y-6.558 Z-5.404
G2 X15.644 Y-5.657 Z-5.597 I10.385 J-1.091
G1 X15.645 Y-5.648 Z-5.599
Y-1.955
X15.623 Y-1.522
X15.586 Y-1.242
X15.516 Y-0.911
X15.414 Y-0.574
X15.264 Y-0.187
X15.076 Y0.2
X14.82 Y0.636
X14.519 Y1.063
X14.147 Y1.512
X13.693 Y1.977
X13.184 Y2.421
X12.611 Y2.845
X11.96 Y3.25
X11.238 Y3.623
X10.458 Y3.949
X9.627 Y4.22
X8.756 Y4.429
X7.856 Y4.57
X6.934 Y4.639
X5.997 Y4.633
X5.052 Y4.552
X4.108 Y4.393
X3.179 Y4.159
X2.272 Y3.852
X1.392 Y3.475
X0.544 Y3.029
X-0.267 Y2.519
X-0.935 Y2.023
X-1.172 Y1.8
X-1.351 Y1.528
X-1.462 Y1.222
X-1.5 Y0.899
Y-2.141
G3 X-0.893 Y-2.72 Z-5.402 I0.6 J0.021
G1 X-0.88 Y-2.719 Z-5.399
X15.025 Y-2.534
X15.052 Z-5.405
G3 X15.645 Y-1.955 Z-5.599 I-0.007 J0.6
G1 Y0.869
X15.635 Y1.073
X15.603 Y1.317
X15.544 Y1.59
X15.453 Y1.893
X15.331 Y2.208
X15.159 Y2.562
X14.948 Y2.92
X14.673 Y3.312
X14.34 Y3.713
X13.942 Y4.12
X13.447 Y4.553
X12.902 Y4.955
X12.265 Y5.352
X11.528 Y5.733
X10.703 Y6.077
X9.822 Y6.365
X8.895 Y6.587
X7.949 Y6.735
X6.994 Y6.81
X6.036 Y6.816
X5.081 Y6.753
X4.132 Y6.626
X3.193 Y6.435
X2.27 Y6.179
X1.367 Y5.859
X0.488 Y5.48
X-0.364 Y5.042
X-0.829 Y4.759
X-1.057 Y4.586
X-1.244 Y4.37
X-1.384 Y4.12
X-1.471 Y3.848
X-1.5 Y3.563
Y0.899
G3 X-0.902 Y0.32 Z-5.404 I0.6 J0.021
G1 X-0.88 Z-5.399
X15.025 Y0.29
X15.044 Z-5.403
G3 X15.645 Y0.869 Z-5.599 I0.001 J0.6
G1 Y3.259
X15.635 Y3.447
X15.605 Y3.675
X15.549 Y3.939
X15.469 Y4.208
X15.347 Y4.52
X15.196 Y4.83
X14.986 Y5.187
X14.741 Y5.536
X14.413 Y5.931
X14.045 Y6.308
X13.573 Y6.721
X13.029 Y7.122
X12.408 Y7.509
X11.669 Y7.89
X10.835 Y8.239
X9.934 Y8.533
X9.003 Y8.757
X8.058 Y8.908
X7.104 Y8.993
X6.146 Y9.015
X5.189 Y8.976
X4.237 Y8.878
X3.291 Y8.724
X2.357 Y8.512
X1.438 Y8.244
X0.537 Y7.92
X-0.271 Y7.574
X-0.796 Y7.297
X-0.85 Y7.263
X-1.071 Y7.089
X-1.253 Y6.875
X-1.388 Y6.628
X-1.472 Y6.36
X-1.5 Y6.081
Y3.563
G3 X-0.912 Y2.984 Z-5.406 I0.6 J0.021
G1 X-0.88 Z-5.399
X15.025 Y2.68
X15.034 Z-5.401
G3 X15.645 Y3.259 Z-5.599 I0.011 J0.6
G1 Y5.431
X15.63 Y5.729
X15.6 Y5.958
X15.548 Y6.202
X15.468 Y6.469
X15.352 Y6.767
X15.204 Y7.072
X15.002 Y7.415
X14.762 Y7.756
X14.446 Y8.137
X14.082 Y8.51
X13.625 Y8.908
X13.082 Y9.31
X12.474 Y9.689
X11.743 Y10.066
X10.906 Y10.416
X9.995 Y10.713
X9.064 Y10.939
X8.12 Y11.096
X7.167 Y11.19
X6.21 Y11.224
X5.252 Y11.203
X4.297 Y11.127
X3.348 Y11
X2.407 Y10.821
X1.478 Y10.592
X0.562 Y10.312
X-0.16 Y10.039
X-0.661 Y9.801
X-0.799 Y9.722
X-1.036 Y9.55
X-1.232 Y9.333
X-1.379 Y9.079
X-1.469 Y8.8
X-1.5 Y8.509
Y6.081
G3 X-0.925 Y5.502 Z-5.409 I0.6 J0.021
G1 X-0.88 Y5.5 Z-5.399
X15.021 Y4.852
X15.025
G3 X15.645 Y5.431 Z-5.599 I0.02 J0.6
G1 Y7.82
X15.637 Y7.97
X15.606 Y8.201
X15.553 Y8.439
X15.471 Y8.71
X15.355 Y9
X15.204 Y9.308
X15.004 Y9.643
X14.759 Y9.987
X14.447 Y10.358
X14.075 Y10.736
X13.624 Y11.125
X13.068 Y11.531
X12.46 Y11.904
X11.723 Y12.279
X10.871 Y12.629
X9.959 Y12.921
X9.027 Y13.144
X8.083 Y13.303
X7.13 Y13.402
X6.174 Y13.444
X5.216 Y13.433
X4.26 Y13.372
X3.309 Y13.262
X2.364 Y13.105
X1.428 Y12.901
X0.506 Y12.645
X-0.158 Y12.407
X-0.642 Y12.188
X-0.777 Y12.113
X-1.021 Y11.942
X-1.223 Y11.724
X-1.375 Y11.467
X-1.468 Y11.184
X-1.5 Y10.888
Y8.509
G3 X-0.926 Y7.93 Z-5.409 I0.6 J0.021
G1 X-0.88 Y7.928 Z-5.399
X15.019 Y7.242
X15.025
G3 X15.645 Y7.82 Z-5.599 I0.02 J0.6
G1 Y9.993
X15.636 Y10.175
X15.606 Y10.401
X15.556 Y10.637
X15.477 Y10.901
X15.363 Y11.192
X15.217 Y11.492
X15.02 Y11.828
X14.785 Y12.163
X14.475 Y12.536
X14.117 Y12.903
X13.666 Y13.296
X13.134 Y13.69
X12.521 Y14.071
X11.781 Y14.453
X10.921 Y14.813
X10.01 Y15.11
X9.081 Y15.34
X8.137 Y15.506
X7.186 Y15.614
X6.23 Y15.668
X5.272 Y15.672
X4.315 Y15.628
X3.362 Y15.539
X2.414 Y15.404
X1.473 Y15.224
X0.545 Y14.988
X-0.107 Y14.768
X-0.585 Y14.562
X-0.755 Y14.473
X-1.006 Y14.303
X-1.214 Y14.083
X-1.37 Y13.824
X-1.467 Y13.537
X-1.5 Y13.235
Y10.888
G3 X-0.934 Y10.31 Z-5.411 I0.6 J0.021
G1 X-0.88 Y10.307 Z-5.399
X15.012 Y9.415
X15.025 Y9.414
G3 X15.645 Y9.993 Z-5.599 I0.02 J0.6
G1 Y12.165
X15.634 Y12.382
X15.604 Y12.61
X15.555 Y12.842
X15.474 Y13.109
X15.364 Y13.391
X15.217 Y13.696
X15.023 Y14.024
X14.784 Y14.365
X14.479 Y14.733
X14.115 Y15.106
X13.667 Y15.496
X13.124 Y15.898
X12.833 Y16.079
X12.663 Y16.17
X12.481 Y16.236
X12.293 Y16.276
G3 X11.632 Y15.745 Z-5.399 I-0.065 J-0.597
X11.761 Y15.303 I0.596 J-0.065
G1 X14.578 Y11.809
G3 X15.025 Y11.586 I0.467 J0.377
X15.645 Y12.165 Z-5.599 I0.02 J0.6
G1 Y14.337
X15.632 Y14.585
X15.561 Y14.877
X15.427 Y15.145
X15.237 Y15.378
X15.001 Y15.564
X14.729 Y15.693
G3 X13.979 Y15.297 Z-5.399 I-0.177 J-0.573
G1 X13.959 Y15.21
X13.953 Y15.12
G3 X14.049 Y14.794 I0.6 J0
G1 X14.541 Y14.033
G3 X15.025 Y13.759 I0.504 J0.326
X15.645 Y14.337 Z-5.599 I0.02 J0.6
G1 Y14.772
X15.641 Y14.989
X15.632 Y15.043
X15.617 Y15.098
X15.597 Y15.152
X15.571 Y15.206
X15.522 Y15.282
X15.453 Y15.358
X15.376 Y15.424
X15.306 Y15.467
X15.235 Y15.498
X15.018 Y15.588
X14.8 Y15.669
X14.582 Y15.744
X14.365 Y15.81
X13.93 Y15.94
X13.277 Y16.094
X13.059 Y16.14
X12.406 Y16.26
X11.753 Y16.354
X11.535 Y16.381
X11.1 Y16.428
X10.882 Y16.451
X10.665 Y16.469
X10.447 Y16.485
X10.23 Y16.499
X2.829 Y16.5
X0.871
X0.653 Y16.498
X0.599 Y16.491
X0.544 Y16.479
X0.49 Y16.461
X0.435 Y16.438
X0.339 Y16.378
X0.242 Y16.293
X-1.306 Y14.744
X-1.388 Y14.65
X-1.418 Y14.602
X-1.442 Y14.555
X-1.48 Y14.446
X-1.492 Y14.392
X-1.498 Y14.337
X-1.5 Y14.12
Y13.235
X-1.49 Y13.143
X-1.465 Y13.054
X-1.428 Y12.99 Z-5.594
X-1.392 Y12.927 Z-5.581
X-1.356 Y12.866 Z-5.558
X-1.295 Y12.816 Z-5.52
X-1.238 Y12.77 Z-5.471
X-1.188 Y12.73 Z-5.411
X-1.135 Y12.709 Z-5.341
X-1.092 Y12.693 Z-5.262
X-1.061 Y12.681 Z-5.178
X-1.042 Y12.674 Z-5.09
X-1.035 Y12.672 Z-5
G0 Z5
X59.119 Y-3.538
Z-4.2
G1 Z-4.8 F1000
X59.117 Y-3.545 Z-4.894
X59.111 Y-3.567 Z-4.985
X59.102 Y-3.602 Z-5.072
X59.09 Y-3.649 Z-5.153
X59.075 Y-3.709 Z-5.224
X59.057 Y-3.778 Z-5.285
X59.037 Y-3.856 Z-5.335
X59.016 Y-3.94 Z-5.371
X58.993 Y-4.029 Z-5.393
X58.97 Y-4.12 Z-5.4
G3 X58.5 Y-7.386 I14.839 J-3.801
G1 X58.501 Y-7.82
X58.514 Y-7.929
X58.528 Y-7.983
X58.548 Y-8.038
X58.574 Y-8.092
X58.607 Y-8.146
X58.65 Y-8.201
X58.701 Y-8.255
X58.765 Y-8.309
X58.82 Y-8.344
X58.874 Y-8.372
X58.929 Y-8.393
X58.983 Y-8.409
X59.037 Y-8.419
X59.092 Y-8.424
X59.146
X59.201 Y-8.419
X59.255 Y-8.409
X59.309 Y-8.393
X59.418 Y-8.351
X60.289 Y-7.999
X60.506 Y-7.906
X62.901 Y-6.855
X64.859 Y-5.994
X66.165 Y-5.416
X68.342 Y-4.45
X68.995 Y-4.147
X69.648 Y-3.827
X69.865 Y-3.719
X70.518 Y-3.375
X70.845 Y-3.201
X70.9 Y-3.166
X70.954 Y-3.123
X70.996 Y-3.082
X71.031 Y-3.041
X71.069 Y-2.987
X71.099 Y-2.933
X71.144 Y-2.824
X71.171 Y-2.745
X71.214 Y-2.607
X71.271 Y-2.39
X71.315 Y-2.172
X71.412 Y-1.521
X71.427 Y-1.303
X71.454 Y-0.869
X71.464 Y-0.652
X71.478 Y0
X71.465 Y0.652
X71.455 Y0.869
X71.426 Y1.303
X71.411 Y1.521
X71.315 Y2.172
X71.271 Y2.39
X71.214 Y2.607
X71.171 Y2.746
X71.145 Y2.824
X71.1 Y2.933
X71.07 Y2.987
X71.032 Y3.041
X70.997 Y3.082
X70.954 Y3.123
X70.9 Y3.166
X70.845 Y3.201
X70.518 Y3.375
X69.865 Y3.719
X69.648 Y3.827
X68.995 Y4.147
X68.342 Y4.45
X65.151 Y5.865
X64.207 Y6.281
X60.703 Y7.82
X60.506 Y7.906
X60.289 Y7.999
X59.418 Y8.351
X59.309 Y8.393
X59.255 Y8.409
X59.201 Y8.419
X59.146 Y8.424
X59.092
X59.037 Y8.419
X58.983 Y8.409
X58.929 Y8.393
X58.874 Y8.372
X58.82 Y8.344
X58.765 Y8.309
X58.701 Y8.255
X58.65 Y8.201
X58.607 Y8.146
X58.574 Y8.092
X58.548 Y8.037
X58.528 Y7.983
X58.514 Y7.929
X58.501 Y7.82
X58.5 Y7.603
X58.51 Y7.511
X58.535 Y7.422
X58.572 Y7.358 Z-5.395
X58.608 Y7.295 Z-5.382
X58.644 Y7.234 Z-5.359
X58.705 Y7.184 Z-5.321
X58.762 Y7.138 Z-5.271
X58.812 Y7.097 Z-5.212
X58.865 Y7.077 Z-5.141
X58.908 Y7.061 Z-5.063
X58.939 Y7.049 Z-4.979
X58.958 Y7.042 Z-4.891
X58.965 Y7.04 Z-4.8
G0 Z5
X6.2 Y-15.881
Z-3.799
G1 Z-4.399 F1000
X6.208 Y-15.883 Z-4.493
X6.229 Y-15.889 Z-4.585
X6.264 Y-15.898 Z-4.672
X6.311 Y-15.91 Z-4.752
X6.371 Y-15.925 Z-4.823
X6.44 Y-15.943 Z-4.885
X6.518 Y-15.963 Z-4.934
X6.602 Y-15.984 Z-4.97
X6.691 Y-16.007 Z-4.992
X6.782 Y-16.03 Z-4.999
G3 X10.048 Y-16.5 I3.801 J14.839
G1 X11.753
X11.971 Y-16.487
X12.188 Y-16.471
X12.406 Y-16.454
X13.059 Y-16.387
X13.277 Y-16.359
X13.78 Y-16.293
X13.93 Y-16.269
X14.582 Y-16.154
X14.939 Y-16.075
X15.235 Y-16.009
X15.453 Y-15.955
X15.573 Y-15.92
X15.715 Y-15.872
X15.851 Y-15.809
X15.977 Y-15.727
X16.095 Y-15.632
X16.231 Y-15.504
X16.381 Y-15.337
X16.547 Y-15.121
X16.725 Y-14.844
X16.917 Y-14.488
X17.119 Y-14.026
X17.168 Y-13.883
X17.211 Y-13.734
X17.236 Y-13.581
X17.245 Y-13.427
G3 X16.625 Y-12.848 Z-4.799 I-0.6 J-0.021
X16.141 Y-13.123 I0.02 J-0.6
G1 X14.922 Y-15.014
G3 X14.845 Y-15.485 I0.504 J-0.325
X15.573 Y-15.92 Z-4.999 I0.582 J0.146
G1 X16.106 Y-15.767
X16.324 Y-15.692
X16.471 Y-15.641
X16.541 Y-15.615
X16.759 Y-15.529
X16.868 Y-15.483
X16.922 Y-15.457
X16.977 Y-15.423
X17.038 Y-15.377
X17.1 Y-15.315
X17.141 Y-15.261
X17.174 Y-15.206
X17.194 Y-15.164
X17.225 Y-15.077
X17.241 Y-14.989
X17.245 Y-14.772
Y14.337
X17.231 Y14.61
X17.162 Y14.892
X17.033 Y15.151
X16.85 Y15.376
X16.622 Y15.556
X16.361 Y15.681
G3 X15.61 Y15.287 Z-4.799 I-0.178 J-0.573
X15.672 Y14.793 I0.573 J-0.179
G1 X16.134 Y14.043
G3 X16.625 Y13.759 I0.511 J0.315
X17.245 Y14.337 Z-4.999 I0.02 J0.6
G1 Y14.772
X17.241 Y14.989
X17.225 Y15.077
X17.194 Y15.166
X17.175 Y15.206
X17.142 Y15.261
X17.1 Y15.315
X17.039 Y15.377
X16.977 Y15.425
X16.922 Y15.459
X16.868 Y15.485
X16.759 Y15.531
X16.541 Y15.617
X16.476 Y15.641
X16.324 Y15.694
X16.106 Y15.769
X15.453 Y15.957
X15.235 Y16.012
X14.8 Y16.109
X14.582 Y16.156
X13.93 Y16.272
X13.799 Y16.293
X13.277 Y16.362
X13.059 Y16.39
X12.406 Y16.457
X12.188 Y16.475
X11.971 Y16.491
X11.753 Y16.5
X10.447
X10.355 Y16.49
X10.266 Y16.465
X10.202 Y16.428 Z-4.994
X10.139 Y16.392 Z-4.981
X10.078 Y16.356 Z-4.958
X10.028 Y16.295 Z-4.92
X9.982 Y16.238 Z-4.871
X9.941 Y16.188 Z-4.811
X9.921 Y16.135 Z-4.741
X9.905 Y16.092 Z-4.662
X9.893 Y16.061 Z-4.578
X9.886 Y16.042 Z-4.49
X9.883 Y16.035 Z-4.4
G0 Z5
X59.119 Y-3.792
Z-3.6
G1 Z-4.2 F1000
X59.117 Y-3.799 Z-4.294
X59.111 Y-3.82 Z-4.385
X59.102 Y-3.855 Z-4.472
X59.09 Y-3.903 Z-4.553
X59.075 Y-3.962 Z-4.624
X59.057 Y-4.031 Z-4.685
X59.037 Y-4.109 Z-4.735
X59.016 Y-4.193 Z-4.771
X58.993 Y-4.282 Z-4.793
X58.97 Y-4.373 Z-4.8
G3 X58.5 Y-7.639 I14.839 J-3.801
G1 Y-8.038
X58.507 Y-8.146
X58.518 Y-8.201
X58.535 Y-8.255
X58.548 Y-8.288
X58.597 Y-8.38
X58.63 Y-8.426
X58.67 Y-8.472
X58.765 Y-8.558
X58.82 Y-8.593
X58.874 Y-8.621
X58.929 Y-8.642
X58.983 Y-8.657
X59.037 Y-8.667
X59.092 Y-8.672
X59.146
X59.201 Y-8.667
X59.255 Y-8.657
X59.309 Y-8.642
X59.418 Y-8.599
X63.118 Y-7.104
X63.336 Y-7.015
X63.989 Y-6.745
X67.036 Y-5.406
X68.56 Y-4.731
X70.898 Y-3.693
X70.954 Y-3.663
X71.003 Y-3.629
X71.053 Y-3.589
X71.11 Y-3.533
X71.153 Y-3.476
X71.171 Y-3.447
X71.264 Y-3.259
X71.345 Y-3.041
X71.389 Y-2.837
X71.426 Y-2.607
X71.459 Y-2.39
X71.487 Y-2.172
X71.5 Y-1.955
Y1.955
X71.486 Y2.172
X71.458 Y2.39
X71.426 Y2.607
X71.389 Y2.839
X71.344 Y3.041
X71.264 Y3.259
X71.171 Y3.447
X71.153 Y3.476
X71.11 Y3.533
X71.053 Y3.589
X71.004 Y3.629
X70.954 Y3.663
X70.898 Y3.693
X67.47 Y5.214
X66.485 Y5.648
X63.989 Y6.745
X63.336 Y7.015
X62.901 Y7.192
X59.418 Y8.599
X59.309 Y8.642
X59.255 Y8.657
X59.201 Y8.667
X59.146 Y8.672
X59.092
X59.037 Y8.667
X58.983 Y8.657
X58.929 Y8.642
X58.874 Y8.621
X58.82 Y8.593
X58.765 Y8.558
X58.67 Y8.472
X58.63 Y8.426
X58.597 Y8.38
X58.548 Y8.288
X58.535 Y8.255
X58.518 Y8.201
X58.507 Y8.146
X58.5 Y8.038
Y7.82
X58.51 Y7.728
X58.535 Y7.639
X58.572 Y7.575 Z-4.795
X58.608 Y7.512 Z-4.782
X58.644 Y7.451 Z-4.759
X58.705 Y7.401 Z-4.721
X58.762 Y7.356 Z-4.671
X58.812 Y7.315 Z-4.612
X58.865 Y7.295 Z-4.541
X58.908 Y7.278 Z-4.463
X58.939 Y7.266 Z-4.379
X58.958 Y7.259 Z-4.291
X58.965 Y7.257 Z-4.2
G0 Z5
X7.724 Y-15.881
Z-3.199
G1 Z-3.799 F1000
X7.731 Y-15.883 Z-3.893
X7.752 Y-15.889 Z-3.985
X7.787 Y-15.898 Z-4.072
X7.835 Y-15.91 Z-4.152
X7.894 Y-15.925 Z-4.223
X7.964 Y-15.943 Z-4.285
X8.041 Y-15.963 Z-4.334
X8.126 Y-15.984 Z-4.37
X8.214 Y-16.007 Z-4.392
X8.305 Y-16.03 Z-4.399
G3 X11.572 Y-16.5 I3.801 J14.839
G1 X13.277
X13.494 Y-16.493
X13.712 Y-16.479
X13.93 Y-16.461
X14.365 Y-16.418
X14.582 Y-16.396
X15.235 Y-16.313
X15.376 Y-16.293
X15.888 Y-16.207
X16.106 Y-16.168
X16.759 Y-16.03
X16.977 Y-15.973
X17.194 Y-15.913
X17.337 Y-15.866
X17.471 Y-15.8
X17.596 Y-15.716
X17.717 Y-15.616
X17.855 Y-15.482
X18.008 Y-15.307
X18.176 Y-15.082
X18.357 Y-14.793
X18.55 Y-14.421
X18.755 Y-13.937
X18.774 Y-13.877
X18.813 Y-13.733
X18.837 Y-13.587
X18.845 Y-13.438
G3 X18.225 Y-12.859 Z-4.199 I-0.6 J-0.021
X17.739 Y-13.137 I0.02 J-0.6
G1 X16.549 Y-15.007
G3 X16.472 Y-15.469 I0.506 J-0.322
X17.194 Y-15.913 Z-4.399 I0.584 J0.139
G1 X17.412 Y-15.853
X17.63 Y-15.791
X17.847 Y-15.718
X18.283 Y-15.559
X18.5 Y-15.468
X18.575 Y-15.424
X18.646 Y-15.368
X18.685 Y-15.33
X18.718 Y-15.291
X18.773 Y-15.206
X18.799 Y-15.152
X18.819 Y-15.098
X18.832 Y-15.043
X18.841 Y-14.989
X18.845 Y-14.772
Y14.337
X18.831 Y14.617
X18.764 Y14.891
X18.639 Y15.145
X18.462 Y15.365
X18.242 Y15.543
X17.989 Y15.668
G3 X17.232 Y15.285 Z-4.199 I-0.186 J-0.57
X17.288 Y14.79 I0.57 J-0.187
G1 X17.73 Y14.05
G3 X18.225 Y13.759 I0.515 J0.308
X18.845 Y14.337 Z-4.399 I0.02 J0.6
G1 Y14.772
X18.841 Y14.989
X18.833 Y15.043
X18.819 Y15.098
X18.8 Y15.152
X18.774 Y15.206
X18.718 Y15.293
X18.647 Y15.369
X18.577 Y15.424
X18.5 Y15.47
X18.283 Y15.561
X17.847 Y15.72
X17.63 Y15.793
X17.401 Y15.858
X16.977 Y15.975
X16.759 Y16.032
X16.106 Y16.171
X15.888 Y16.209
X15.389 Y16.293
X15.235 Y16.316
X14.582 Y16.399
X14.147 Y16.442
X13.93 Y16.463
X13.712 Y16.481
X13.494 Y16.496
X13.277 Y16.5
X11.971
X11.879 Y16.49
X11.789 Y16.465
X11.725 Y16.428 Z-4.394
X11.663 Y16.392 Z-4.381
X11.602 Y16.356 Z-4.358
X11.552 Y16.295 Z-4.32
X11.506 Y16.238 Z-4.271
X11.465 Y16.188 Z-4.211
X11.445 Y16.135 Z-4.141
X11.429 Y16.092 Z-4.062
X11.417 Y16.061 Z-3.978
X11.409 Y16.042 Z-3.89
X11.407 Y16.035 Z-3.8
G0 Z5
X59.119 Y-4.19
Z-3
G1 Z-3.6 F1000
X59.117 Y-4.197 Z-3.694
X59.111 Y-4.218 Z-3.785
X59.102 Y-4.253 Z-3.872
X59.09 Y-4.301 Z-3.953
X59.075 Y-4.36 Z-4.024
X59.057 Y-4.43 Z-4.085
X59.037 Y-4.507 Z-4.135
X59.016 Y-4.592 Z-4.171
X58.993 Y-4.68 Z-4.193
X58.97 Y-4.771 Z-4.2
G3 X58.5 Y-8.038 I14.839 J-3.801
G1 Y-8.255
X58.502 Y-8.364
X58.51 Y-8.418
X58.522 Y-8.472
X58.548 Y-8.545
X58.584 Y-8.617
X58.634 Y-8.689
X58.7 Y-8.758
X58.765 Y-8.809
X58.874 Y-8.869
X58.929 Y-8.89
X58.986 Y-8.907
X59.04 Y-8.916
X59.093 Y-8.921
X59.147
X59.201 Y-8.916
X59.252 Y-8.907
X59.418 Y-8.848
X66.818 Y-5.858
X67.254 Y-5.675
X67.471 Y-5.582
X69.298 Y-4.779
X70.954 Y-4.045
X71.062 Y-3.994
X71.117 Y-3.959
X71.177 Y-3.91
X71.23 Y-3.856
X71.272 Y-3.802
X71.306 Y-3.747
X71.332 Y-3.693
X71.389 Y-3.525
X71.403 Y-3.476
X71.457 Y-3.259
X71.496 Y-3.041
X71.5 Y-2.824
Y-2.172
G3 X71.444 Y-1.919 Z-4.144 I-0.6 J0
G1 X71.237 Y-1.456 Z-4.037
X71.166 Y-1.298 Z-4
X70.997 Y-0.918
G3 X70.449 Y-0.562 I-0.548 J-0.245
X70.449 Y-1.762 I0 J-0.6
X71.03 Y-1.311 I0 J0.6
X71.438 Y1.015 I-14.839 J3.801
X71.5 Y1.955 Z-4.2 I-15.247 J1.474
G1 Y2.824
X71.495 Y3.041
X71.457 Y3.259
X71.404 Y3.476
X71.389 Y3.527
X71.333 Y3.693
X71.307 Y3.747
X71.273 Y3.802
X71.231 Y3.856
X71.171 Y3.916
X71.117 Y3.959
X71.062 Y3.994
X70.954 Y4.045
X69.298 Y4.779
X67.471 Y5.582
X67.254 Y5.675
X66.818 Y5.858
X59.418 Y8.848
X59.252 Y8.907
X59.201 Y8.916
X59.147 Y8.921
X59.093
X59.04 Y8.916
X58.983 Y8.906
X58.929 Y8.89
X58.874 Y8.869
X58.765 Y8.809
X58.7 Y8.758
X58.634 Y8.689
X58.584 Y8.617
X58.548 Y8.545
X58.522 Y8.472
X58.51 Y8.418
X58.502 Y8.364
X58.5 Y8.255
Y8.135
X58.51 Y8.043
X58.535 Y7.954
X58.572 Y7.89 Z-4.195
X58.608 Y7.827 Z-4.182
X58.644 Y7.766 Z-4.159
X58.705 Y7.716 Z-4.121
X58.762 Y7.671 Z-4.071
X58.812 Y7.63 Z-4.012
X58.865 Y7.609 Z-3.941
X58.908 Y7.593 Z-3.863
X58.939 Y7.581 Z-3.779
X58.958 Y7.574 Z-3.691
X58.965 Y7.572 Z-3.6
G0 Z5
X-85.398 Y-12.498
Z-2.599
G1 Z-3.199 F1000
Y-12.506 Z-3.293
Y-12.528 Z-3.385
Y-12.564 Z-3.472
X-85.397 Y-12.613 Z-3.552
X-85.396 Y-12.674 Z-3.623
Y-12.746 Z-3.685
X-85.395 Y-12.826 Z-3.734
X-85.394 Y-12.913 Z-3.77
X-85.393 Y-13.004 Z-3.792
X-85.392 Y-13.098 Z-3.799
G3 X-85 Y-16.375 I15.317 J0.169
G1 X-84.981 Y-16.446
X-84.929 Y-16.498
X-84.858 Y-16.517
X-69.212
X-69.002 Y-16.51
X-68.94 Y-16.497
X-68.886 Y-16.479
X-68.832 Y-16.455
X-68.777 Y-16.426
X-68.699 Y-16.371
X-68.656 Y-16.332
X-68.621 Y-16.293
X-68.587 Y-16.248
X-68.56 Y-16.203
X-68.528 Y-16.139
X-68.506 Y-16.075
X-68.493 Y-16.021
X-68.485 Y-15.967
X-68.483 Y-15.858
Y15.858
X-68.485 Y15.967
X-68.493 Y16.021
X-68.506 Y16.075
X-68.528 Y16.139
X-68.56 Y16.203
X-68.587 Y16.248
X-68.621 Y16.293
X-68.656 Y16.332
X-68.699 Y16.371
X-68.777 Y16.426
X-68.832 Y16.455
X-68.886 Y16.479
X-68.94 Y16.497
X-69.002 Y16.51
X-69.212 Y16.517
X-100.772
X-100.989 Y16.511
X-101.051 Y16.499
X-101.103 Y16.483
X-101.155 Y16.462
X-101.207 Y16.435
X-101.293 Y16.377
X-101.336 Y16.339
X-101.379 Y16.293
X-101.425 Y16.23
X-101.466 Y16.153
X-101.494 Y16.075
X-101.507 Y16.021
X-101.515 Y15.967
X-101.517 Y15.858
Y-15.858
X-101.515 Y-15.967
X-101.507 Y-16.021
X-101.494 Y-16.075
X-101.466 Y-16.153
X-101.425 Y-16.23
X-101.379 Y-16.293
X-101.336 Y-16.339
X-101.293 Y-16.377
X-101.207 Y-16.435
X-101.155 Y-16.462
X-101.103 Y-16.483
X-101.051 Y-16.499
X-100.989 Y-16.511
X-100.772 Y-16.517
X-84.858
X-84.766 Y-16.507
X-84.676 Y-16.483
X-84.612 Y-16.446 Z-3.794
X-84.55 Y-16.409 Z-3.781
X-84.489 Y-16.374 Z-3.758
X-84.439 Y-16.312 Z-3.72
X-84.393 Y-16.256 Z-3.671
X-84.352 Y-16.205 Z-3.611
X-84.332 Y-16.152 Z-3.541
X-84.315 Y-16.109 Z-3.462
X-84.304 Y-16.078 Z-3.378
X-84.296 Y-16.059 Z-3.29
X-84.294 Y-16.053 Z-3.2
G0 Z5
X9.429 Y-15.881
Z-2.599
G1 Z-3.199 F1000
X9.436 Y-15.883 Z-3.293
X9.457 Y-15.889 Z-3.385
X9.492 Y-15.898 Z-3.472
X9.54 Y-15.91 Z-3.552
X9.599 Y-15.925 Z-3.623
X9.669 Y-15.943 Z-3.685
X9.746 Y-15.963 Z-3.734
X9.831 Y-15.984 Z-3.77
X9.919 Y-16.007 Z-3.792
X10.01 Y-16.03 Z-3.799
G3 X13.277 Y-16.5 I3.801 J14.839
G1 X14.8
X15.018 Y-16.499
X15.235 Y-16.484
X15.888 Y-16.427
X16.106 Y-16.405
X16.759 Y-16.326
X17.412 Y-16.223
X17.63 Y-16.183
X18.16 Y-16.075
X18.283 Y-16.048
X18.784 Y-15.918
X18.927 Y-15.874
X19.062 Y-15.809
X19.187 Y-15.726
X19.307 Y-15.628
X19.444 Y-15.497
X19.596 Y-15.326
X19.763 Y-15.105
X19.943 Y-14.821
X20.135 Y-14.456
X20.339 Y-13.982
X20.372 Y-13.884
X20.412 Y-13.738
X20.437 Y-13.589
X20.445 Y-13.437
G3 X19.825 Y-12.859 Z-3.599 I-0.6 J-0.021
X19.339 Y-13.136 I0.02 J-0.6
G1 X18.147 Y-15.011
G3 X18.068 Y-15.464 I0.506 J-0.322
X18.784 Y-15.918 Z-3.799 I0.586 J0.131
G1 X19.014 Y-15.858
X19.371 Y-15.747
X19.672 Y-15.641
X19.806 Y-15.592
X20.024 Y-15.503
X20.099 Y-15.469
X20.175 Y-15.424
X20.241 Y-15.371
X20.284 Y-15.33
X20.319 Y-15.289
X20.372 Y-15.206
X20.398 Y-15.152
X20.418 Y-15.098
X20.432 Y-15.043
X20.441 Y-14.989
X20.445 Y-14.772
Y14.337
X20.431 Y14.615
X20.362 Y14.895
X20.235 Y15.152
X20.053 Y15.375
X19.828 Y15.554
X19.569 Y15.678
G3 X18.817 Y15.286 Z-3.599 I-0.179 J-0.573
X18.877 Y14.794 I0.572 J-0.18
G1 X19.333 Y14.046
G3 X19.825 Y13.759 I0.512 J0.312
X20.445 Y14.337 Z-3.799 I0.02 J0.6
G1 Y14.772
X20.441 Y14.989
X20.432 Y15.043
X20.418 Y15.098
X20.399 Y15.152
X20.373 Y15.206
X20.319 Y15.289
X20.284 Y15.33
X20.241 Y15.372
X20.176 Y15.424
X20.1 Y15.47
X20.024 Y15.504
X19.806 Y15.593
X19.676 Y15.641
X19.371 Y15.748
X19.018 Y15.858
X18.935 Y15.88
X18.283 Y16.05
X18.167 Y16.075
X17.63 Y16.185
X17.412 Y16.225
X16.759 Y16.327
X16.106 Y16.407
X15.888 Y16.43
X15.235 Y16.486
X15.018 Y16.5
X13.494
X13.402 Y16.49
X13.313 Y16.465
X13.249 Y16.428 Z-3.794
X13.186 Y16.392 Z-3.781
X13.125 Y16.356 Z-3.758
X13.075 Y16.295 Z-3.72
X13.029 Y16.238 Z-3.671
X12.989 Y16.188 Z-3.611
X12.968 Y16.135 Z-3.541
X12.952 Y16.092 Z-3.462
X12.94 Y16.061 Z-3.378
X12.933 Y16.042 Z-3.29
X12.931 Y16.035 Z-3.2
G0 Z5
X-34.381 Y-12.567
Z-2.4
G1 Z-3 F1000
X-34.383 Y-12.574 Z-3.094
X-34.389 Y-12.595 Z-3.185
X-34.398 Y-12.63 Z-3.272
X-34.41 Y-12.678 Z-3.353
X-34.425 Y-12.737 Z-3.424
X-34.443 Y-12.807 Z-3.485
X-34.463 Y-12.884 Z-3.535
X-34.484 Y-12.969 Z-3.571
X-34.507 Y-13.057 Z-3.593
X-34.53 Y-13.148 Z-3.6
G3 X-35 Y-16.415 I14.839 J-3.801
G1 Y-16.565
X-34.954 Y-16.632
X-34.885 Y-16.677
X-34.805 Y-16.693
X-18.935
X-18.827 Y-16.686
X-18.772 Y-16.675
X-18.718 Y-16.659
X-18.663 Y-16.637
X-18.609 Y-16.608
X-18.555 Y-16.571
X-18.5 Y-16.524
X-18.486 Y-16.51
X-18.438 Y-16.456
X-18.399 Y-16.401
X-18.369 Y-16.347
X-18.345 Y-16.293
X-18.328 Y-16.238
X-18.316 Y-16.184
X-18.307 Y-16.075
Y16.075
X-18.316 Y16.184
X-18.328 Y16.238
X-18.345 Y16.293
X-18.369 Y16.347
X-18.399 Y16.401
X-18.438 Y16.456
X-18.486 Y16.51
X-18.5 Y16.524
X-18.555 Y16.571
X-18.609 Y16.608
X-18.663 Y16.637
X-18.718 Y16.659
X-18.772 Y16.675
X-18.827 Y16.686
X-18.935 Y16.693
X-50.93
X-51.148 Y16.689
X-51.202 Y16.681
X-51.256 Y16.667
X-51.311 Y16.647
X-51.365 Y16.621
X-51.439 Y16.574
X-51.513 Y16.51
X-51.551 Y16.469
X-51.583 Y16.428
X-51.624 Y16.36
X-51.655 Y16.293
X-51.672 Y16.238
X-51.684 Y16.184
X-51.693 Y16.075
Y-16.075
X-51.684 Y-16.184
X-51.672 Y-16.238
X-51.655 Y-16.293
X-51.624 Y-16.36
X-51.583 Y-16.428
X-51.551 Y-16.469
X-51.513 Y-16.51
X-51.439 Y-16.574
X-51.365 Y-16.621
X-51.311 Y-16.647
X-51.256 Y-16.667
X-51.202 Y-16.681
X-51.148 Y-16.689
X-50.93 Y-16.693
X-34.805
X-34.713 Y-16.683
X-34.623 Y-16.658
X-34.559 Y-16.621 Z-3.595
X-34.497 Y-16.585 Z-3.582
X-34.436 Y-16.549 Z-3.559
X-34.386 Y-16.488 Z-3.521
X-34.34 Y-16.431 Z-3.471
X-34.299 Y-16.381 Z-3.412
X-34.279 Y-16.328 Z-3.341
X-34.262 Y-16.285 Z-3.263
X-34.251 Y-16.254 Z-3.179
X-34.243 Y-16.235 Z-3.091
X-34.241 Y-16.228 Z-3
G0 Z5
X59.119 Y-4.407
Z-2.4
G1 Z-3 F1000
X59.117 Y-4.414 Z-3.094
X59.111 Y-4.436 Z-3.185
X59.102 Y-4.471 Z-3.272
X59.09 Y-4.518 Z-3.353
X59.075 Y-4.578 Z-3.424
X59.057 Y-4.647 Z-3.485
X59.037 Y-4.725 Z-3.535
X59.016 Y-4.809 Z-3.571
X58.993 Y-4.898 Z-3.593
X58.97 Y-4.989 Z-3.6
G3 X58.5 Y-8.255 I14.839 J-3.801
G1 Y-8.472
X58.504 Y-8.581
X58.513 Y-8.635
X58.526 Y-8.689
X58.548 Y-8.747
X58.589 Y-8.827
X58.647 Y-8.907
X58.706 Y-8.967
X58.765 Y-9.016
X58.82 Y-9.051
X58.874 Y-9.079
X58.929 Y-9.1
X58.983 Y-9.116
X59.024 Y-9.124
X59.112 Y-9.131
X59.201 Y-9.126
X59.214 Y-9.124
X59.265 Y-9.113
X59.316 Y-9.098
X59.636 Y-8.976
X60.506 Y-8.631
X66.339 Y-6.3
X70.518 Y-4.611
X70.954 Y-4.42
X71.112 Y-4.345
X71.171 Y-4.304
X71.219 Y-4.264
X71.267 Y-4.216
X71.302 Y-4.171
X71.331 Y-4.127
X71.389 Y-4.017
X71.433 Y-3.91
X71.464 Y-3.802
X71.487 Y-3.693
X71.5 Y-3.476
Y-3.041
G3 X71.444 Y-2.788 Z-3.544 I-0.6 J0
G1 X71.417 Y-2.719 Z-3.529
X71.399 Y-2.648 Z-3.513
X71.33 Y-2.295 Z-3.437
X71.297 Y-2.125 Z-3.4
X71.022 Y-0.705
G2 X71.03 Y-0.442 I0.589 J0.114
G3 X71.438 Y1.884 I-14.839 J3.801
X71.5 Y2.824 Z-3.6 I-15.247 J1.474
G1 Y3.476
X71.488 Y3.693
X71.468 Y3.802
X71.433 Y3.91
X71.389 Y4.016
X71.331 Y4.127
X71.302 Y4.171
X71.267 Y4.215
X71.219 Y4.264
X71.171 Y4.303
X71.112 Y4.345
X70.954 Y4.42
X70.518 Y4.611
X66.165 Y6.37
X60.289 Y8.718
X59.636 Y8.976
X59.316 Y9.098
X59.265 Y9.113
X59.214 Y9.124
X59.201 Y9.126
X59.112 Y9.131
X59.024 Y9.124
X58.983 Y9.116
X58.929 Y9.1
X58.874 Y9.079
X58.82 Y9.051
X58.765 Y9.016
X58.706 Y8.967
X58.647 Y8.907
X58.589 Y8.827
X58.548 Y8.747
X58.526 Y8.689
X58.513 Y8.635
X58.504 Y8.581
X58.5 Y8.472
Y8.353
X58.51 Y8.261
X58.535 Y8.171
X58.572 Y8.107 Z-3.595
X58.608 Y8.045 Z-3.582
X58.644 Y7.984 Z-3.559
X58.705 Y7.934 Z-3.521
X58.762 Y7.888 Z-3.471
X58.812 Y7.847 Z-3.412
X58.865 Y7.827 Z-3.341
X58.908 Y7.811 Z-3.263
X58.939 Y7.799 Z-3.179
X58.958 Y7.791 Z-3.091
X58.965 Y7.789 Z-3
G0 Z5
X-72.443 Y-0.398
Z-1.999
G1 Z-2.599 F1000
X-72.436 Z-2.693
X-72.414 Z-2.785
X-72.378 Z-2.872
X-72.329 Y-0.397 Z-2.952
X-72.267 Y-0.396 Z-3.023
X-72.196 Z-3.085
X-72.116 Y-0.395 Z-3.134
X-72.029 Y-0.394 Z-3.17
X-71.937 Y-0.393 Z-3.192
X-71.843 Y-0.392 Z-3.199
G3 X-68.566 Y0 I-0.169 J15.317
G1 X-68.495 Y0.019
X-68.443 Y0.071
X-68.424 Y0.143
Y15.967
X-68.427 Y16.021
X-68.435 Y16.075
X-68.448 Y16.13
X-68.467 Y16.184
X-68.492 Y16.238
X-68.524 Y16.293
X-68.56 Y16.34
X-68.611 Y16.396
X-68.662 Y16.443
X-68.714 Y16.48
X-68.765 Y16.51
X-68.777 Y16.516
X-68.832 Y16.539
X-68.886 Y16.556
X-68.94 Y16.568
X-68.995 Y16.575
X-69.212 Y16.576
X-100.772
X-100.989
X-101.044 Y16.57
X-101.098 Y16.56
X-101.152 Y16.544
X-101.207 Y16.523
X-101.234 Y16.51
X-101.282 Y16.482
X-101.329 Y16.449
X-101.377 Y16.407
X-101.425 Y16.359
X-101.476 Y16.293
X-101.508 Y16.238
X-101.533 Y16.184
X-101.552 Y16.13
X-101.565 Y16.075
X-101.573 Y16.021
X-101.576 Y15.967
Y-15.967
X-101.573 Y-16.021
X-101.565 Y-16.075
X-101.552 Y-16.13
X-101.533 Y-16.184
X-101.508 Y-16.238
X-101.476 Y-16.293
X-101.425 Y-16.359
X-101.377 Y-16.407
X-101.329 Y-16.449
X-101.282 Y-16.482
X-101.234 Y-16.51
X-101.207 Y-16.523
X-101.152 Y-16.544
X-101.098 Y-16.56
X-101.044 Y-16.57
X-100.989 Y-16.576
X-100.554
X-69.212
X-68.995 Y-16.575
X-68.94 Y-16.568
X-68.886 Y-16.556
X-68.832 Y-16.539
X-68.777 Y-16.516
X-68.765 Y-16.51
X-68.714 Y-16.48
X-68.662 Y-16.443
X-68.611 Y-16.396
X-68.56 Y-16.34
X-68.524 Y-16.293
X-68.492 Y-16.238
X-68.467 Y-16.184
X-68.448 Y-16.13
X-68.435 Y-16.075
X-68.427 Y-16.021
X-68.424 Y-15.967
Y0.143
X-68.434 Y0.235
X-68.458 Y0.324
X-68.495 Y0.388 Z-3.194
X-68.532 Y0.451 Z-3.181
X-68.567 Y0.512 Z-3.158
X-68.629 Y0.562 Z-3.12
X-68.685 Y0.608 Z-3.071
X-68.736 Y0.649 Z-3.011
X-68.789 Y0.669 Z-2.941
X-68.832 Y0.685 Z-2.862
X-68.863 Y0.697 Z-2.778
X-68.882 Y0.704 Z-2.69
X-68.888 Y0.707 Z-2.6
G0 Z5
X10.989 Y-15.881
Z-1.999
G1 Z-2.599 F1000
X10.996 Y-15.883 Z-2.693
X11.017 Y-15.889 Z-2.785
X11.052 Y-15.898 Z-2.872
X11.1 Y-15.91 Z-2.952
X11.159 Y-15.925 Z-3.023
X11.228 Y-15.943 Z-3.085
X11.306 Y-15.963 Z-3.134
X11.39 Y-15.984 Z-3.17
X11.479 Y-16.007 Z-3.192
X11.57 Y-16.03 Z-3.199
G3 X14.836 Y-16.5 I3.801 J14.839
G1 X16.541
X16.759 Y-16.489
X17.412 Y-16.438
X17.63 Y-16.414
X18.065 Y-16.365
X18.283 Y-16.336
X18.935 Y-16.238
X19.588 Y-16.112
X19.761 Y-16.075
X20.361 Y-15.929
X20.505 Y-15.885
X20.641 Y-15.824
X20.768 Y-15.743
X20.886 Y-15.65
X21.02 Y-15.525
X21.169 Y-15.362
X21.333 Y-15.15
X21.511 Y-14.878
X21.702 Y-14.529
X21.903 Y-14.076
X21.965 Y-13.899
X22.009 Y-13.747
X22.036 Y-13.592
X22.045 Y-13.434
G3 X21.425 Y-12.855 Z-2.999 I-0.6 J-0.021
X20.94 Y-13.132 I0.02 J-0.6
G1 X19.732 Y-15.018
G3 X19.65 Y-15.466 I0.505 J-0.324
X20.361 Y-15.929 Z-3.199 I0.587 J0.125
G1 X20.459 Y-15.904
X20.894 Y-15.772
X21.112 Y-15.699
X21.276 Y-15.641
X21.33 Y-15.621
X21.547 Y-15.536
X21.656 Y-15.49
X21.711 Y-15.465
X21.765 Y-15.432
X21.777 Y-15.424
X21.837 Y-15.376
X21.896 Y-15.315
X21.939 Y-15.261
X21.972 Y-15.206
X21.983 Y-15.186
X22.004 Y-15.137
X22.021 Y-15.088
X22.041 Y-14.989
X22.045 Y-14.772
Y14.337
X22.031 Y14.613
X21.962 Y14.893
X21.834 Y15.151
X21.653 Y15.375
X21.427 Y15.554
X21.168 Y15.68
G3 X20.415 Y15.289 Z-2.999 I-0.181 J-0.572
X20.475 Y14.795 I0.572 J-0.181
G1 X20.933 Y14.046
G3 X21.425 Y13.759 I0.512 J0.313
X22.045 Y14.337 Z-3.199 I0.02 J0.6
G1 Y14.772
X22.041 Y14.989
X22.021 Y15.088
X22.004 Y15.137
X21.983 Y15.187
X21.972 Y15.206
X21.939 Y15.261
X21.897 Y15.315
X21.837 Y15.376
X21.778 Y15.424
X21.765 Y15.433
X21.711 Y15.465
X21.656 Y15.49
X21.547 Y15.536
X21.33 Y15.622
X21.112 Y15.7
X20.894 Y15.773
X20.459 Y15.905
X20.024 Y16.012
X19.766 Y16.075
X19.588 Y16.113
X18.935 Y16.239
X18.283 Y16.338
X18.065 Y16.366
X17.63 Y16.416
X17.412 Y16.44
X16.759 Y16.491
X16.541 Y16.5
X15.235
X15.143 Y16.49
X15.054 Y16.465
X14.99 Y16.428 Z-3.194
X14.927 Y16.392 Z-3.181
X14.866 Y16.356 Z-3.158
X14.816 Y16.295 Z-3.12
X14.771 Y16.238 Z-3.071
X14.73 Y16.188 Z-3.011
X14.71 Y16.135 Z-2.941
X14.693 Y16.092 Z-2.862
X14.681 Y16.061 Z-2.778
X14.674 Y16.042 Z-2.69
X14.672 Y16.035 Z-2.6
G0 Z5
X-22.252 Y0.619
Z-1.8
G1 Z-2.4 F1000
X-22.245 Y0.617 Z-2.494
X-22.224 Y0.611 Z-2.585
X-22.189 Y0.602 Z-2.672
X-22.141 Y0.59 Z-2.753
X-22.082 Y0.575 Z-2.824
X-22.012 Y0.557 Z-2.885
X-21.935 Y0.537 Z-2.935
X-21.85 Y0.516 Z-2.971
X-21.762 Y0.493 Z-2.993
X-21.671 Y0.47 Z-3
G3 X-18.404 Y0 I3.801 J14.839
G1 X-18.254
X-18.073 Y0.101
X-17.92 Y0.242
X-17.804 Y0.414
X-17.732 Y0.609
X-17.707 Y0.816
Y16.293
X-17.715 Y16.442
X-17.78 Y16.671
X-17.896 Y16.878
X-18.058 Y17.051
X-18.256 Y17.183
X-18.478 Y17.265
X-18.714 Y17.293
G3 X-19.499 Y16.842 Z-2.8 I0.034 J-0.967
X-19.616 Y16.077 I0.819 J-0.516
X-18.157 Y15.507 I0.938 J0.25
X-17.707 Y16.293 Z-3 I-0.52 J0.82
G1 Y16.51
X-17.709 Y16.727
X-17.716 Y16.781
X-17.728 Y16.836
X-17.746 Y16.89
X-17.77 Y16.944
X-17.803 Y17.004
X-17.847 Y17.063
X-17.898 Y17.117
X-17.949 Y17.162
X-18.007 Y17.202
X-18.065 Y17.234
X-18.119 Y17.257
X-18.174 Y17.274
X-18.228 Y17.285
X-18.283 Y17.291
X-18.5 Y17.293
X-51.267
X-51.417 Y17.285
X-51.651 Y17.224
X-51.864 Y17.109
X-52.043 Y16.947
X-52.179 Y16.747
X-52.264 Y16.52
X-52.293 Y16.28
G3 X-51.673 Y15.701 Z-2.8 I0.6 J0.021
X-51.276 Y15.87 I-0.02 J0.6
G1 X-50.871 Y16.262
G3 X-50.689 Y16.673 I-0.417 J0.431
X-51.267 Y17.293 Z-3 I-0.6 J0.02
G1 X-51.692
X-51.746 Y17.289
X-51.801 Y17.28
X-51.855 Y17.266
X-51.909 Y17.246
X-51.964 Y17.22
X-52.018 Y17.186
X-52.051 Y17.162
X-52.106 Y17.113
X-52.161 Y17.053
X-52.2 Y16.999
X-52.23 Y16.944
X-52.236 Y16.933
X-52.257 Y16.882
X-52.273 Y16.83
X-52.284 Y16.779
X-52.291 Y16.727
X-52.293 Y16.51
Y-16.293
X-52.285 Y-16.442
X-52.22 Y-16.671
X-52.103 Y-16.878
X-51.942 Y-17.052
X-51.744 Y-17.183
X-51.521 Y-17.265
X-51.286 Y-17.293
G3 X-50.501 Y-16.842 Z-2.8 I-0.034 J0.967
X-50.384 Y-16.076 I-0.819 J0.516
X-51.843 Y-15.507 I-0.938 J-0.25
X-52.293 Y-16.293 Z-3 I0.521 J-0.82
G1 Y-16.51
X-52.291 Y-16.727
X-52.284 Y-16.779
X-52.273 Y-16.83
X-52.257 Y-16.882
X-52.236 Y-16.933
X-52.23 Y-16.944
X-52.2 Y-16.999
X-52.161 Y-17.053
X-52.106 Y-17.113
X-52.051 Y-17.162
X-52.018 Y-17.186
X-51.964 Y-17.22
X-51.909 Y-17.246
X-51.855 Y-17.266
X-51.801 Y-17.28
X-51.746 Y-17.289
X-51.692 Y-17.293
X-18.718
X-18.568 Y-17.285
X-18.337 Y-17.222
X-18.128 Y-17.106
X-17.952 Y-16.944
X-17.818 Y-16.745
X-17.735 Y-16.521
X-17.707 Y-16.283
G3 X-18.327 Y-15.705 Z-2.8 I-0.6 J-0.021
X-18.73 Y-15.879 I0.02 J-0.6
G1 X-19.121 Y-16.268
G3 X-19.297 Y-16.673 I0.424 J-0.425
X-18.718 Y-17.293 Z-3 I0.6 J-0.02
G1 X-18.5
X-18.283 Y-17.291
X-18.228 Y-17.285
X-18.174 Y-17.274
X-18.119 Y-17.257
X-18.065 Y-17.234
X-18.007 Y-17.202
X-17.949 Y-17.162
X-17.898 Y-17.117
X-17.847 Y-17.063
X-17.803 Y-17.004
X-17.77 Y-16.944
X-17.746 Y-16.89
X-17.728 Y-16.836
X-17.716 Y-16.781
X-17.709 Y-16.727
X-17.707 Y-16.51
Y0.816
X-17.717 Y0.908
X-17.742 Y0.997
X-17.779 Y1.061 Z-2.995
X-17.815 Y1.124 Z-2.982
X-17.851 Y1.185 Z-2.959
X-17.912 Y1.235 Z-2.921
X-17.969 Y1.281 Z-2.871
X-18.019 Y1.322 Z-2.812
X-18.072 Y1.342 Z-2.741
X-18.115 Y1.358 Z-2.663
X-18.146 Y1.37 Z-2.579
X-18.165 Y1.377 Z-2.491
X-18.172 Y1.38 Z-2.4
G0 Z5
X59.119 Y-4.625
Z-1.8
G1 Z-2.4 F1000
X59.117 Y-4.632 Z-2.494
X59.111 Y-4.653 Z-2.585
X59.102 Y-4.688 Z-2.672
X59.09 Y-4.736 Z-2.753
X59.075 Y-4.795 Z-2.824
X59.057 Y-4.864 Z-2.885
X59.037 Y-4.942 Z-2.935
X59.016 Y-5.026 Z-2.971
X58.993 Y-5.115 Z-2.993
X58.97 Y-5.206 Z-3
G3 X58.5 Y-8.472 I14.839 J-3.801
G1 Y-8.689
X58.504 Y-8.744
X58.512 Y-8.798
X58.526 Y-8.852
X58.548 Y-8.912
X58.573 Y-8.965
X58.606 Y-9.018
X58.647 Y-9.071
X58.699 Y-9.124
X58.765 Y-9.176
X58.82 Y-9.208
X58.874 Y-9.234
X58.929 Y-9.253
X58.983 Y-9.266
X59.037 Y-9.275
X59.092 Y-9.278
X59.201 Y-9.271
X59.255 Y-9.261
X59.309 Y-9.245
X63.336 Y-7.701
X63.989 Y-7.449
X70.954 Y-4.666
X71.171 Y-4.573
X71.189 Y-4.562
X71.25 Y-4.519
X71.31 Y-4.462
X71.353 Y-4.412
X71.389 Y-4.362
X71.4 Y-4.345
X71.429 Y-4.29
X71.451 Y-4.236
X71.484 Y-4.127
X71.499 Y-4.019
X71.5 Y-3.91
Y-3.693
G3 X71.444 Y-3.439 Z-2.944 I-0.6 J0
G1 X71.41 Y-3.349 Z-2.924
X71.392 Y-3.255 Z-2.904
X71.355 Y-2.943 Z-2.837
X71.335 Y-2.771 Z-2.8
X71.015 Y-0.009
X71.011 Y0.064
X71.016 Y0.137
X71.03 Y0.209
G3 X71.438 Y2.536 I-14.839 J3.801
X71.5 Y3.476 Z-3 I-15.247 J1.474
G1 Y3.91
X71.499 Y4.019
X71.485 Y4.127
X71.451 Y4.236
X71.429 Y4.29
X71.4 Y4.345
X71.389 Y4.363
X71.344 Y4.423
X71.289 Y4.484
X71.239 Y4.527
X71.189 Y4.562
X71.171 Y4.573
X70.954 Y4.666
X63.989 Y7.449
X63.026 Y7.82
X59.309 Y9.245
X59.255 Y9.261
X59.201 Y9.271
X59.092 Y9.278
X59.037 Y9.275
X58.983 Y9.266
X58.929 Y9.253
X58.874 Y9.234
X58.82 Y9.208
X58.765 Y9.176
X58.699 Y9.124
X58.647 Y9.071
X58.606 Y9.018
X58.573 Y8.965
X58.545 Y8.907
X58.526 Y8.852
X58.512 Y8.798
X58.504 Y8.744
X58.5 Y8.689
Y8.472
X58.51 Y8.38
X58.535 Y8.291
X58.572 Y8.227 Z-2.995
X58.608 Y8.164 Z-2.982
X58.644 Y8.103 Z-2.959
X58.705 Y8.053 Z-2.921
X58.762 Y8.007 Z-2.871
X58.812 Y7.966 Z-2.812
X58.865 Y7.946 Z-2.741
X58.908 Y7.93 Z-2.663
X58.939 Y7.918 Z-2.579
X58.958 Y7.911 Z-2.491
X58.965 Y7.908 Z-2.4
G0 Z5
X-72.384 Y0.619
Z-1.399
G1 Z-1.999 F1000
X-72.377 Y0.617 Z-2.093
X-72.356 Y0.611 Z-2.185
X-72.321 Y0.602 Z-2.272
X-72.273 Y0.59 Z-2.352
X-72.214 Y0.575 Z-2.423
X-72.145 Y0.557 Z-2.485
X-72.067 Y0.537 Z-2.534
X-71.982 Y0.516 Z-2.57
X-71.894 Y0.493 Z-2.592
X-71.803 Y0.47 Z-2.599
G3 X-68.536 Y0 I3.801 J14.839
G1 X-68.386
X-68.319 Y0.042
X-68.273 Y0.108
X-68.257 Y0.186
Y16.075
X-68.26 Y16.184
X-68.268 Y16.238
X-68.28 Y16.293
X-68.306 Y16.364
X-68.342 Y16.435
X-68.394 Y16.51
X-68.431 Y16.553
X-68.477 Y16.597
X-68.56 Y16.657
X-68.646 Y16.7
X-68.733 Y16.727
X-68.777 Y16.736
X-68.995 Y16.743
X-100.989
X-101.207 Y16.737
X-101.264 Y16.727
X-101.344 Y16.702
X-101.425 Y16.665
X-101.47 Y16.636
X-101.515 Y16.602
X-101.564 Y16.556
X-101.605 Y16.51
X-101.642 Y16.46
X-101.689 Y16.376
X-101.72 Y16.293
X-101.732 Y16.238
X-101.74 Y16.184
X-101.743 Y16.075
Y-16.075
X-101.74 Y-16.184
X-101.732 Y-16.238
X-101.72 Y-16.293
X-101.689 Y-16.376
X-101.642 Y-16.46
X-101.605 Y-16.51
X-101.564 Y-16.556
X-101.515 Y-16.602
X-101.47 Y-16.636
X-101.425 Y-16.665
X-101.344 Y-16.702
X-101.264 Y-16.727
X-101.207 Y-16.737
X-100.989 Y-16.743
X-68.995
X-68.777 Y-16.736
X-68.733 Y-16.727
X-68.646 Y-16.7
X-68.56 Y-16.657
X-68.477 Y-16.597
X-68.431 Y-16.553
X-68.394 Y-16.51
X-68.342 Y-16.435
X-68.306 Y-16.364
X-68.28 Y-16.293
X-68.268 Y-16.238
X-68.26 Y-16.184
X-68.257 Y-16.075
Y0.186
X-68.268 Y0.278
X-68.292 Y0.368
X-68.329 Y0.431 Z-2.594
X-68.366 Y0.494 Z-2.581
X-68.401 Y0.555 Z-2.558
X-68.463 Y0.605 Z-2.52
X-68.519 Y0.651 Z-2.471
X-68.57 Y0.692 Z-2.411
X-68.623 Y0.712 Z-2.341
X-68.665 Y0.728 Z-2.262
X-68.697 Y0.74 Z-2.178
X-68.716 Y0.747 Z-2.09
X-68.722 Y0.75 Z-2
G0 Z5
X12.694 Y-15.881
Z-1.399
G1 Z-1.999 F1000
X12.701 Y-15.883 Z-2.093
X12.722 Y-15.889 Z-2.185
X12.757 Y-15.898 Z-2.272
X12.805 Y-15.91 Z-2.352
X12.864 Y-15.925 Z-2.423
X12.933 Y-15.943 Z-2.485
X13.011 Y-15.963 Z-2.534
X13.095 Y-15.984 Z-2.57
X13.184 Y-16.007 Z-2.592
X13.275 Y-16.03 Z-2.599
G3 X16.541 Y-16.5 I3.801 J14.839
G1 X18.065
X18.283 Y-16.496
X18.5 Y-16.481
X18.718 Y-16.464
X18.935 Y-16.445
X19.588 Y-16.375
X19.806 Y-16.345
X20.241 Y-16.284
X20.459 Y-16.25
X21.112 Y-16.131
X21.547 Y-16.031
X21.765 Y-15.98
X21.983 Y-15.924
X22.124 Y-15.874
X22.26 Y-15.81
X22.385 Y-15.727
X22.505 Y-15.63
X22.641 Y-15.5
X22.793 Y-15.329
X22.959 Y-15.109
X23.139 Y-14.827
X23.331 Y-14.464
X23.534 Y-13.993
X23.571 Y-13.884
X23.612 Y-13.738
X23.637 Y-13.588
X23.645 Y-13.436
G3 X23.025 Y-12.857 Z-2.399 I-0.6 J-0.021
X22.538 Y-13.135 I0.02 J-0.6
G1 X21.345 Y-15.017
G3 X21.266 Y-15.469 I0.507 J-0.321
X21.983 Y-15.924 Z-2.599 I0.585 J0.131
G1 X22.418 Y-15.795
X22.636 Y-15.728
X22.878 Y-15.641
X23.071 Y-15.568
X23.288 Y-15.477
X23.378 Y-15.424
X23.442 Y-15.372
X23.506 Y-15.306
X23.543 Y-15.256
X23.573 Y-15.206
X23.599 Y-15.152
X23.619 Y-15.098
X23.632 Y-15.043
X23.641 Y-14.989
X23.645 Y-14.772
Y14.337
X23.631 Y14.614
X23.563 Y14.892
X23.436 Y15.15
X23.255 Y15.374
X23.031 Y15.553
X22.773 Y15.679
G3 X22.019 Y15.292 Z-2.399 I-0.183 J-0.571
X22.077 Y14.796 I0.571 J-0.184
G1 X22.532 Y14.047
G3 X23.025 Y13.759 I0.513 J0.312
X23.645 Y14.337 Z-2.599 I0.02 J0.6
G1 Y14.772
X23.641 Y14.989
X23.632 Y15.043
X23.619 Y15.098
X23.599 Y15.152
X23.573 Y15.206
X23.543 Y15.256
X23.506 Y15.306
X23.442 Y15.372
X23.378 Y15.424
X23.288 Y15.477
X23.071 Y15.568
X22.853 Y15.65
X22.636 Y15.729
X22.418 Y15.795
X21.983 Y15.924
X21.765 Y15.981
X21.33 Y16.082
X21.112 Y16.132
X20.459 Y16.251
X20.241 Y16.285
X19.806 Y16.346
X19.588 Y16.376
X18.935 Y16.446
X18.718 Y16.465
X18.5 Y16.482
X18.283 Y16.497
X18.065 Y16.5
X16.759
X16.667 Y16.49
X16.578 Y16.465
X16.514 Y16.428 Z-2.594
X16.451 Y16.392 Z-2.581
X16.39 Y16.356 Z-2.558
X16.34 Y16.295 Z-2.52
X16.294 Y16.238 Z-2.471
X16.253 Y16.188 Z-2.411
X16.233 Y16.135 Z-2.341
X16.217 Y16.092 Z-2.262
X16.205 Y16.061 Z-2.178
X16.198 Y16.042 Z-2.09
X16.195 Y16.035 Z-2
G0 Z5
X-34.381 Y-13.346
Z-1.2
G1 Z-1.8 F1000
X-34.383 Y-13.353 Z-1.894
X-34.389 Y-13.375 Z-1.985
X-34.398 Y-13.41 Z-2.072
X-34.41 Y-13.457 Z-2.153
X-34.425 Y-13.517 Z-2.224
X-34.443 Y-13.586 Z-2.285
X-34.463 Y-13.664 Z-2.335
X-34.484 Y-13.748 Z-2.371
X-34.507 Y-13.837 Z-2.393
X-34.53 Y-13.928 Z-2.4
G3 X-35 Y-17.194 I14.839 J-3.801
G1 Y-17.344
X-34.899 Y-17.526
X-34.759 Y-17.68
X-34.586 Y-17.796
X-34.391 Y-17.868
X-34.184 Y-17.893
X-18.065
X-17.915 Y-17.885
X-17.655 Y-17.794
X-17.429 Y-17.635
X-17.255 Y-17.421
X-17.145 Y-17.168
X-17.107 Y-16.895
G3 X-17.572 Y-16.122 Z-2.2 I-0.93 J-0.032
X-18.311 Y-16.038 I-0.465 J-0.806
X-18.844 Y-17.435 I0.279 J-0.907
X-18.065 Y-17.893 Z-2.4 I0.812 J0.49
G1 X-17.847
X-17.63 Y-17.886
X-17.577 Y-17.876
X-17.525 Y-17.861
X-17.473 Y-17.84
X-17.421 Y-17.813
X-17.412 Y-17.808
X-17.358 Y-17.771
X-17.304 Y-17.727
X-17.242 Y-17.661
X-17.194 Y-17.594
X-17.165 Y-17.54
X-17.143 Y-17.486
X-17.126 Y-17.433
X-17.115 Y-17.379
X-17.107 Y-17.162
Y16.944
X-17.115 Y17.094
X-17.208 Y17.352
X-17.367 Y17.575
X-17.58 Y17.747
X-17.831 Y17.856
X-18.103 Y17.893
G3 X-18.873 Y17.425 Z-2.2 I0.032 J-0.922
X-18.95 Y16.692 I0.803 J-0.454
X-17.567 Y16.167 I0.9 J0.285
X-17.107 Y16.944 Z-2.4 I-0.483 J0.811
G1 Y17.162
X-17.115 Y17.379
X-17.126 Y17.433
X-17.143 Y17.486
X-17.165 Y17.54
X-17.195 Y17.596
X-17.242 Y17.661
X-17.304 Y17.727
X-17.358 Y17.771
X-17.412 Y17.808
X-17.421 Y17.813
X-17.473 Y17.84
X-17.525 Y17.861
X-17.577 Y17.876
X-17.63 Y17.886
X-17.847 Y17.893
X-51.92
X-52.07 Y17.885
X-52.292 Y17.816
X-52.492 Y17.698
X-52.66 Y17.536
X-52.787 Y17.341
X-52.866 Y17.122
X-52.893 Y16.891
G3 X-52.433 Y16.114 Z-2.2 I0.943 J0.033
X-51.684 Y16.019 I0.483 J0.81
X-51.139 Y17.438 I-0.269 J0.918
X-51.92 Y17.893 Z-2.4 I-0.815 J-0.501
G1 X-52.236
X-52.345 Y17.889
X-52.399 Y17.88
X-52.453 Y17.866
X-52.514 Y17.844
X-52.575 Y17.813
X-52.671 Y17.748
X-52.71 Y17.714
X-52.749 Y17.672
X-52.805 Y17.596
X-52.834 Y17.542
X-52.857 Y17.487
X-52.874 Y17.433
X-52.885 Y17.379
X-52.889 Y17.353
X-52.893 Y17.162
Y-16.944
X-52.885 Y-17.094
X-52.792 Y-17.352
X-52.633 Y-17.575
X-52.42 Y-17.747
X-52.169 Y-17.856
X-51.897 Y-17.893
G3 X-51.126 Y-17.425 Z-2.2 I-0.032 J0.922
X-51.05 Y-16.692 I-0.803 J0.454
X-52.433 Y-16.167 I-0.9 J-0.285
X-52.893 Y-16.944 Z-2.4 I0.484 J-0.811
G1 Y-17.162
X-52.889 Y-17.353
X-52.885 Y-17.379
X-52.874 Y-17.433
X-52.857 Y-17.487
X-52.834 Y-17.542
X-52.805 Y-17.596
X-52.749 Y-17.672
X-52.71 Y-17.714
X-52.671 Y-17.748
X-52.575 Y-17.813
X-52.514 Y-17.844
X-52.453 Y-17.866
X-52.399 Y-17.88
X-52.345 Y-17.889
X-52.236 Y-17.893
X-34.184
X-34.092 Y-17.883
X-34.003 Y-17.858
X-33.939 Y-17.821 Z-2.395
X-33.876 Y-17.785 Z-2.382
X-33.815 Y-17.749 Z-2.359
X-33.765 Y-17.688 Z-2.321
X-33.719 Y-17.631 Z-2.271
X-33.679 Y-17.581 Z-2.212
X-33.658 Y-17.528 Z-2.141
X-33.642 Y-17.485 Z-2.063
X-33.63 Y-17.454 Z-1.979
X-33.623 Y-17.435 Z-1.891
X-33.621 Y-17.428 Z-1.8
G0 Z5
X59.119 Y-4.661
Z-1.2
G1 Z-1.8 F1000
X59.117 Y-4.668 Z-1.894
X59.111 Y-4.689 Z-1.985
X59.102 Y-4.724 Z-2.072
X59.09 Y-4.772 Z-2.153
X59.075 Y-4.831 Z-2.224
X59.057 Y-4.9 Z-2.285
X59.037 Y-4.978 Z-2.335
X59.016 Y-5.062 Z-2.371
X58.993 Y-5.151 Z-2.393
X58.97 Y-5.242 Z-2.4
G3 X58.5 Y-8.508 I14.839 J-3.801
G1 Y-8.689
X58.508 Y-8.907
X58.524 Y-8.975
X58.548 Y-9.043
X58.59 Y-9.124
X58.621 Y-9.169
X58.659 Y-9.215
X58.712 Y-9.266
X58.765 Y-9.306
X58.822 Y-9.341
X58.903 Y-9.379
X58.983 Y-9.404
X59.037 Y-9.414
X59.092 Y-9.419
X59.146
X59.201 Y-9.414
X59.255 Y-9.404
X59.309 Y-9.388
X60.289 Y-9.014
X67.471 Y-6.261
X67.689 Y-6.176
X68.342 Y-5.92
X70.954 Y-4.876
X71.171 Y-4.785
X71.182 Y-4.779
X71.234 Y-4.746
X71.285 Y-4.705
X71.344 Y-4.649
X71.389 Y-4.592
X71.409 Y-4.562
X71.439 Y-4.508
X71.463 Y-4.453
X71.48 Y-4.399
X71.492 Y-4.345
X71.5 Y-4.127
Y-4.008
G3 X71.444 Y-3.754 Z-2.344 I-0.6 J0
G1 X71.418 Y-3.691 Z-2.33
X71.4 Y-3.624 Z-2.315
X71.39 Y-3.557 Z-2.301
X71.362 Y-3.257 Z-2.237
X71.346 Y-3.084 Z-2.2
X71.014 Y0.475
X71.012 Y0.544
X71.017 Y0.613
X71.03 Y0.68
G3 X71.438 Y3.007 I-14.839 J3.801
X71.5 Y3.946 Z-2.4 I-15.247 J1.474
G1 Y4.127
X71.492 Y4.345
X71.48 Y4.399
X71.463 Y4.453
X71.439 Y4.508
X71.409 Y4.562
X71.389 Y4.592
X71.344 Y4.649
X71.285 Y4.705
X71.234 Y4.746
X71.182 Y4.779
X71.171 Y4.785
X70.954 Y4.876
X68.342 Y5.92
X67.689 Y6.176
X67.254 Y6.344
X59.418 Y9.347
X59.309 Y9.388
X59.255 Y9.404
X59.201 Y9.414
X59.146 Y9.419
X59.092
X59.037 Y9.414
X58.983 Y9.404
X58.903 Y9.379
X58.822 Y9.341
X58.765 Y9.306
X58.712 Y9.266
X58.659 Y9.215
X58.621 Y9.169
X58.59 Y9.124
X58.548 Y9.043
X58.524 Y8.975
X58.508 Y8.907
X58.5 Y8.689
Y8.57
X58.51 Y8.478
X58.535 Y8.389
X58.572 Y8.325 Z-2.395
X58.608 Y8.262 Z-2.382
X58.644 Y8.201 Z-2.359
X58.705 Y8.151 Z-2.321
X58.762 Y8.105 Z-2.271
X58.812 Y8.064 Z-2.212
X58.865 Y8.044 Z-2.141
X58.908 Y8.028 Z-2.063
X58.939 Y8.016 Z-1.979
X58.958 Y8.009 Z-1.891
X58.965 Y8.006 Z-1.8
G0 Z5
X-72.142 Y0.619
Z-0.799
G1 Z-1.399 F1000
X-72.135 Y0.617 Z-1.493
X-72.114 Y0.611 Z-1.585
X-72.079 Y0.602 Z-1.672
X-72.031 Y0.59 Z-1.752
X-71.972 Y0.575 Z-1.823
X-71.902 Y0.557 Z-1.885
X-71.825 Y0.537 Z-1.934
X-71.74 Y0.516 Z-1.97
X-71.652 Y0.493 Z-1.992
X-71.561 Y0.47 Z-1.999
G3 X-68.294 Y0 I3.801 J14.839
G1 X-68.144
X-68.074 Y0.055
X-68.027 Y0.131
X-68.011 Y0.219
Y16.293
X-68.012 Y16.401
X-68.017 Y16.456
X-68.027 Y16.51
X-68.042 Y16.563
X-68.063 Y16.617
X-68.09 Y16.671
X-68.126 Y16.727
X-68.174 Y16.786
X-68.234 Y16.844
X-68.288 Y16.886
X-68.342 Y16.918
X-68.398 Y16.944
X-68.479 Y16.971
X-68.56 Y16.985
X-68.777 Y16.989
X-101.207
X-101.425 Y16.987
X-101.515 Y16.973
X-101.605 Y16.944
X-101.642 Y16.927
X-101.697 Y16.897
X-101.751 Y16.859
X-101.813 Y16.803
X-101.86 Y16.746
X-101.874 Y16.727
X-101.909 Y16.673
X-101.937 Y16.618
X-101.958 Y16.564
X-101.973 Y16.51
X-101.983 Y16.456
X-101.988 Y16.401
X-101.989 Y16.075
Y-16.293
X-101.988 Y-16.401
X-101.983 Y-16.456
X-101.973 Y-16.51
X-101.958 Y-16.564
X-101.937 Y-16.618
X-101.909 Y-16.673
X-101.874 Y-16.727
X-101.86 Y-16.746
X-101.813 Y-16.803
X-101.751 Y-16.859
X-101.697 Y-16.897
X-101.642 Y-16.927
X-101.605 Y-16.944
X-101.515 Y-16.973
X-101.425 Y-16.987
X-101.207 Y-16.989
X-68.777
X-68.56 Y-16.985
X-68.479 Y-16.971
X-68.398 Y-16.944
X-68.342 Y-16.918
X-68.288 Y-16.886
X-68.234 Y-16.844
X-68.174 Y-16.786
X-68.124 Y-16.724
X-68.09 Y-16.671
X-68.063 Y-16.617
X-68.042 Y-16.563
X-68.027 Y-16.51
X-68.017 Y-16.456
X-68.012 Y-16.401
X-68.011 Y-16.075
Y0.219
X-68.022 Y0.311
X-68.046 Y0.4
X-68.083 Y0.464 Z-1.994
X-68.12 Y0.527 Z-1.981
X-68.155 Y0.588 Z-1.958
X-68.216 Y0.638 Z-1.92
X-68.273 Y0.684 Z-1.871
X-68.323 Y0.724 Z-1.811
X-68.377 Y0.745 Z-1.741
X-68.419 Y0.761 Z-1.662
X-68.45 Y0.773 Z-1.578
X-68.469 Y0.78 Z-1.49
X-68.476 Y0.782 Z-1.4
G0 Z5
X14.253 Y-15.881
Z-0.799
G1 Z-1.399 F1000
X14.261 Y-15.883 Z-1.493
X14.282 Y-15.889 Z-1.585
X14.317 Y-15.898 Z-1.672
X14.364 Y-15.91 Z-1.752
X14.424 Y-15.925 Z-1.823
X14.493 Y-15.943 Z-1.885
X14.571 Y-15.963 Z-1.934
X14.655 Y-15.984 Z-1.97
X14.744 Y-16.007 Z-1.992
X14.835 Y-16.03 Z-1.999
G3 X18.101 Y-16.5 I3.801 J14.839
G1 X19.806
X20.024 Y-16.486
X20.241 Y-16.471
X20.459 Y-16.451
X20.894 Y-16.407
X21.112 Y-16.384
X21.803 Y-16.293
X22.2 Y-16.224
X22.418 Y-16.186
X22.636 Y-16.145
X23.288 Y-16.001
X23.506 Y-15.944
X23.626 Y-15.911
X23.768 Y-15.864
X23.9 Y-15.793
X24.023 Y-15.706
X24.148 Y-15.599
X24.29 Y-15.456
X24.447 Y-15.27
X24.617 Y-15.031
X24.801 Y-14.725
X24.997 Y-14.33
X25.145 Y-13.96
X25.2 Y-13.792
X25.234 Y-13.618
X25.245 Y-13.441
G3 X24.625 Y-12.862 Z-1.799 I-0.6 J-0.021
X24.135 Y-13.146 I0.02 J-0.6
G1 X22.978 Y-15.01
G3 X22.904 Y-15.466 I0.51 J-0.316
X23.626 Y-15.911 Z-1.999 I0.584 J0.139
G1 X23.941 Y-15.824
X24.159 Y-15.762
X24.812 Y-15.547
X24.866 Y-15.527
X24.921 Y-15.501
X24.975 Y-15.467
X25.03 Y-15.424
X25.084 Y-15.369
X25.128 Y-15.315
X25.164 Y-15.261
X25.192 Y-15.206
X25.213 Y-15.152
X25.229 Y-15.098
X25.239 Y-15.043
X25.244 Y-14.989
X25.245 Y-14.337
Y14.337
X25.231 Y14.614
X25.159 Y14.905
X25.024 Y15.172
X24.834 Y15.402
X24.596 Y15.584
X24.324 Y15.708
G3 X23.581 Y15.299 Z-1.799 I-0.167 J-0.576
X23.65 Y14.812 I0.576 J-0.168
G1 X24.138 Y14.038
G3 X24.625 Y13.759 I0.508 J0.32
X25.245 Y14.337 Z-1.999 I0.02 J0.6
G1 X25.244 Y14.989
X25.239 Y15.043
X25.229 Y15.098
X25.213 Y15.152
X25.192 Y15.206
X25.164 Y15.261
X25.128 Y15.315
X25.084 Y15.369
X25.03 Y15.424
X24.975 Y15.467
X24.921 Y15.501
X24.866 Y15.527
X24.812 Y15.547
X24.159 Y15.762
X23.941 Y15.824
X23.506 Y15.944
X23.288 Y16.001
X22.636 Y16.145
X22.418 Y16.186
X21.983 Y16.263
X21.807 Y16.293
X21.112 Y16.384
X20.677 Y16.43
X20.459 Y16.452
X20.241 Y16.472
X20.024 Y16.488
X19.806 Y16.5
X18.283
X18.191 Y16.49
X18.101 Y16.465
X18.037 Y16.428 Z-1.994
X17.974 Y16.392 Z-1.981
X17.914 Y16.356 Z-1.958
X17.864 Y16.295 Z-1.92
X17.818 Y16.238 Z-1.871
X17.777 Y16.188 Z-1.811
X17.757 Y16.135 Z-1.741
X17.74 Y16.092 Z-1.662
X17.729 Y16.061 Z-1.578
X17.721 Y16.042 Z-1.49
X17.719 Y16.035 Z-1.4
G0 Z5
X-21.055 Y0.619
Z-0.6
G1 Z-1.2 F1000
X-21.048 Y0.617 Z-1.294
X-21.027 Y0.611 Z-1.385
