(Exported by FreeCAD)
(Post Processor: grbl_post)
(Output Time:2024-06-24 16:32:51.814676)
(Begin preamble)
G17 G90
G21
(Begin operation: Fixture)
(Path: Fixture)
G54
(Finish operation: Fixture)
(Begin operation: 6mm_endmill001)
(Path: 6mm_endmill001)
(6mm_endmill001)
(Begin toolchange)
( M6 T2 )
M3 S10000
(Finish operation: 6mm_endmill001)
(Begin operation: Pocket_Shape)
(Path: Pocket_Shape)
(Pocket_Shape)
G0 Z5.000
G0 X28.574 Y42.000
G0 Z3.000
G1 X28.574 Y42.000 Z-6.000 F1000.000
G1 X23.000 Y42.000 Z-6.000 F1000.000
G1 X23.000 Y36.426 Z-6.000 F1000.000
G1 X28.574 Y42.000 Z-6.000 F1000.000
G1 X37.059 Y42.000 Z-6.000 F1000.000
G1 X23.000 Y27.941 Z-6.000 F1000.000
G1 X23.000 Y19.456 Z-6.000 F1000.000
G1 X45.544 Y42.000 Z-6.000 F1000.000
G1 X47.000 Y42.000 Z-6.000 F1000.000
G1 X47.000 Y34.971 Z-6.000 F1000.000
G1 X30.029 Y18.000 Z-6.000 F1000.000
G1 X38.515 Y18.000 Z-6.000 F1000.000
G1 X47.000 Y26.485 Z-6.000 F1000.000
G1 X47.000 Y18.000 Z-6.000 F1000.000
G1 X47.000 Y18.000 Z-10.000 F1000.000
G1 X47.000 Y26.485 Z-10.000 F1000.000
G1 X38.515 Y18.000 Z-10.000 F1000.000
G1 X30.029 Y18.000 Z-10.000 F1000.000
G1 X47.000 Y34.971 Z-10.000 F1000.000
G1 X47.000 Y42.000 Z-10.000 F1000.000
G1 X45.544 Y42.000 Z-10.000 F1000.000
G1 X23.000 Y19.456 Z-10.000 F1000.000
G1 X23.000 Y27.941 Z-10.000 F1000.000
G1 X37.059 Y42.000 Z-10.000 F1000.000
G1 X28.574 Y42.000 Z-10.000 F1000.000
G1 X23.000 Y36.426 Z-10.000 F1000.000
G1 X23.000 Y42.000 Z-10.000 F1000.000
G1 X28.574 Y42.000 Z-10.000 F1000.000
G0 Z5.000
G0 Z5.000
(Finish operation: Pocket_Shape)
(Begin operation: Pocket3D)
(Path: Pocket3D)
(Pocket3D)
G0 Z5.000
G0 X247.000 Y38.182
G0 Z3.000
G1 X247.000 Y38.182 Z-0.500 F1000.000
G1 X246.621 Y38.137 Z-0.500 F1000.000
G1 X247.000 Y37.757 Z-0.500 F1000.000
G1 X247.000 Y37.333 Z-0.500 F1000.000
G1 X246.242 Y38.091 Z-0.500 F1000.000
G1 X245.870 Y38.039 Z-0.500 F1000.000
G1 X247.000 Y36.909 Z-0.500 F1000.000
G1 X247.000 Y36.484 Z-0.500 F1000.000
G1 X245.498 Y37.987 Z-0.500 F1000.000
G1 X245.126 Y37.934 Z-0.500 F1000.000
G1 X247.000 Y36.060 Z-0.500 F1000.000
G1 X247.000 Y35.636 Z-0.500 F1000.000
G1 X244.754 Y37.882 Z-0.500 F1000.000
G1 X244.382 Y37.830 Z-0.500 F1000.000
G1 X247.000 Y35.212 Z-0.500 F1000.000
G1 X247.000 Y34.787 Z-0.500 F1000.000
G1 X244.010 Y37.778 Z-0.500 F1000.000
G1 X243.637 Y37.726 Z-0.500 F1000.000
G1 X247.000 Y34.363 Z-0.500 F1000.000
G1 X247.000 Y33.939 Z-0.500 F1000.000
G1 X243.265 Y37.674 Z-0.500 F1000.000
G1 X242.893 Y37.621 Z-0.500 F1000.000
G1 X247.000 Y33.515 Z-0.500 F1000.000
G1 X247.000 Y33.090 Z-0.500 F1000.000
G1 X242.521 Y37.569 Z-0.500 F1000.000
G3 X242.153 Y37.514 Z-0.500 I0.952 J-7.550 K0.000 F1000.000
G1 X247.000 Y32.666 Z-0.500 F1000.000
G1 X247.000 Y32.242 Z-0.500 F1000.000
G1 X241.788 Y37.453 Z-0.500 F1000.000
G1 X241.424 Y37.393 Z-0.500 F1000.000
G1 X247.000 Y31.818 Z-0.500 F1000.000
G1 X247.000 Y31.393 Z-0.500 F1000.000
G1 X241.060 Y37.333 Z-0.500 F1000.000
G1 X240.696 Y37.273 Z-0.500 F1000.000
G1 X247.000 Y30.969 Z-0.500 F1000.000
G1 X247.000 Y30.545 Z-0.500 F1000.000
G1 X240.332 Y37.213 Z-0.500 F1000.000
G1 X239.968 Y37.153 Z-0.500 F1000.000
G1 X247.000 Y30.120 Z-0.500 F1000.000
G1 X247.000 Y29.696 Z-0.500 F1000.000
G1 X239.604 Y37.092 Z-0.500 F1000.000
G1 X239.240 Y37.032 Z-0.500 F1000.000
G1 X247.000 Y29.272 Z-0.500 F1000.000
G1 X247.000 Y28.848 Z-0.500 F1000.000
G1 X238.883 Y36.965 Z-0.500 F1000.000
G1 X238.527 Y36.897 Z-0.500 F1000.000
G1 X247.000 Y28.423 Z-0.500 F1000.000
G1 X247.000 Y27.999 Z-0.500 F1000.000
G1 X238.171 Y36.828 Z-0.500 F1000.000
G1 X237.815 Y36.760 Z-0.500 F1000.000
G1 X247.000 Y27.575 Z-0.500 F1000.000
G1 X247.000 Y27.151 Z-0.500 F1000.000
G1 X237.459 Y36.692 Z-0.500 F1000.000
G1 X237.103 Y36.623 Z-0.500 F1000.000
G1 X247.000 Y26.726 Z-0.500 F1000.000
G1 X247.000 Y26.302 Z-0.500 F1000.000
G1 X236.747 Y36.555 Z-0.500 F1000.000
G3 X236.391 Y36.486 Z-0.500 I1.176 J-7.045 K0.000 F1000.000
G1 X247.000 Y25.878 Z-0.500 F1000.000
G1 X247.000 Y25.454 Z-0.500 F1000.000
G1 X236.043 Y36.410 Z-0.500 F1000.000
G1 X235.695 Y36.334 Z-0.500 F1000.000
G1 X247.000 Y25.029 Z-0.500 F1000.000
G1 X247.000 Y24.605 Z-0.500 F1000.000
G1 X235.347 Y36.258 Z-0.500 F1000.000
G1 X234.999 Y36.182 Z-0.500 F1000.000
G1 X247.000 Y24.181 Z-0.500 F1000.000
G1 X247.000 Y23.757 Z-0.500 F1000.000
G1 X234.650 Y36.106 Z-0.500 F1000.000
G3 X234.306 Y36.026 Z-0.500 I1.381 J-6.697 K0.000 F1000.000
G1 X247.000 Y23.332 Z-0.500 F1000.000
G1 X247.000 Y22.908 Z-0.500 F1000.000
G1 X233.967 Y35.941 Z-0.500 F1000.000
G1 X233.627 Y35.857 Z-0.500 F1000.000
G1 X247.000 Y22.484 Z-0.500 F1000.000
G1 X247.000 Y22.059 Z-0.500 F1000.000
G1 X233.287 Y35.772 Z-0.500 F1000.000
G1 X232.948 Y35.687 Z-0.500 F1000.000
G1 X246.793 Y21.842 Z-0.500 F1000.000
G1 X246.307 Y21.904 Z-0.500 F1000.000
G1 X232.608 Y35.603 Z-0.500 F1000.000
G1 X232.268 Y35.518 Z-0.500 F1000.000
G1 X245.822 Y21.965 Z-0.500 F1000.000
G2 X245.333 Y22.029 Z-0.500 I1.730 J15.097 K0.000 F1000.000
G1 X231.938 Y35.425 Z-0.500 F1000.000
G1 X231.609 Y35.330 Z-0.500 F1000.000
G1 X244.839 Y22.100 Z-0.500 F1000.000
G1 X244.344 Y22.170 Z-0.500 F1000.000
G1 X231.279 Y35.234 Z-0.500 F1000.000
G1 X230.950 Y35.139 Z-0.500 F1000.000
G1 X243.849 Y22.241 Z-0.500 F1000.000
G1 X243.354 Y22.312 Z-0.500 F1000.000
G1 X230.621 Y35.044 Z-0.500 F1000.000
G1 X230.292 Y34.949 Z-0.500 F1000.000
G1 X242.859 Y22.382 Z-0.500 F1000.000
G1 X242.364 Y22.453 Z-0.500 F1000.000
G1 X229.968 Y34.849 Z-0.500 F1000.000
G1 X229.650 Y34.743 Z-0.500 F1000.000
G1 X241.858 Y22.534 Z-0.500 F1000.000
G1 X241.351 Y22.618 Z-0.500 F1000.000
G1 X229.332 Y34.636 Z-0.500 F1000.000
G1 X229.014 Y34.530 Z-0.500 F1000.000
G1 X240.843 Y22.701 Z-0.500 F1000.000
G1 X240.335 Y22.785 Z-0.500 F1000.000
G1 X228.696 Y34.423 Z-0.500 F1000.000
G3 X228.381 Y34.314 Z-0.500 I1.057 J-3.568 K0.000 F1000.000
G1 X239.827 Y22.868 Z-0.500 F1000.000
G2 X239.316 Y22.955 Z-0.500 I1.352 J9.460 K0.000 F1000.000
G1 X228.075 Y34.196 Z-0.500 F1000.000
G1 X227.769 Y34.078 Z-0.500 F1000.000
G1 X238.790 Y23.057 Z-0.500 F1000.000
G1 X238.265 Y23.158 Z-0.500 F1000.000
G1 X227.462 Y33.960 Z-0.500 F1000.000
G1 X227.156 Y33.842 Z-0.500 F1000.000
G1 X237.740 Y23.259 Z-0.500 F1000.000
G1 X237.214 Y23.360 Z-0.500 F1000.000
G1 X226.855 Y33.719 Z-0.500 F1000.000
G1 X226.560 Y33.590 Z-0.500 F1000.000
G1 X236.689 Y23.461 Z-0.500 F1000.000
G1 X236.164 Y23.562 Z-0.500 F1000.000
G1 X226.264 Y33.462 Z-0.500 F1000.000
G3 X225.976 Y33.325 Z-0.500 I1.275 J-3.067 K0.000 F1000.000
G1 X235.619 Y23.682 Z-0.500 F1000.000
G1 X235.072 Y23.805 Z-0.500 F1000.000
G1 X225.692 Y33.185 Z-0.500 F1000.000
G1 X225.407 Y33.045 Z-0.500 F1000.000
G1 X234.525 Y23.928 Z-0.500 F1000.000
G1 X233.978 Y24.051 Z-0.500 F1000.000
G1 X225.123 Y32.905 Z-0.500 F1000.000
G3 X224.852 Y32.752 Z-0.500 I0.987 J-2.057 K0.000 F1000.000
G1 X233.413 Y24.191 Z-0.500 F1000.000
G1 X232.841 Y24.339 Z-0.500 F1000.000
G1 X224.584 Y32.596 Z-0.500 F1000.000
G1 X224.316 Y32.440 Z-0.500 F1000.000
G1 X232.269 Y24.487 Z-0.500 F1000.000
G2 X231.693 Y24.639 Z-0.500 I2.024 J8.837 K0.000 F1000.000
G1 X224.047 Y32.284 Z-0.500 F1000.000
G3 X223.795 Y32.112 Z-0.500 I0.969 J-1.691 K0.000 F1000.000
G1 X231.092 Y24.816 Z-0.500 F1000.000
G1 X230.491 Y24.992 Z-0.500 F1000.000
G1 X223.544 Y31.939 Z-0.500 F1000.000
G3 X223.300 Y31.758 Z-0.500 I0.820 J-1.360 K0.000 F1000.000
G1 X229.880 Y25.179 Z-0.500 F1000.000
G1 X229.243 Y25.392 Z-0.500 F1000.000
G1 X223.070 Y31.564 Z-0.500 F1000.000
G1 X222.840 Y31.370 Z-0.500 F1000.000
G1 X228.606 Y25.605 Z-0.500 F1000.000
G2 X227.913 Y25.873 Z-0.500 I2.320 J7.014 K0.000 F1000.000
G1 X222.617 Y31.169 Z-0.500 F1000.000
G1 X222.411 Y30.951 Z-0.500 F1000.000
G1 X227.217 Y26.145 Z-0.500 F1000.000
G2 X226.502 Y26.435 Z-0.500 I2.149 J6.319 K0.000 F1000.000
G1 X222.222 Y30.716 Z-0.500 F1000.000
G3 X222.050 Y30.463 Z-0.500 I0.679 J-0.648 K0.000 F1000.000
G1 X225.718 Y26.795 Z-0.500 F1000.000
G2 X224.835 Y27.254 Z-0.500 I3.925 J8.630 K0.000 F1000.000
G1 X221.922 Y30.167 Z-0.500 F1000.000
G3 X221.969 Y29.696 Z-0.500 I0.607 J-0.177 K0.000 F1000.000
G1 X223.749 Y27.915 Z-0.500 F1000.000
G2 X221.981 Y29.663 Z-0.500 I2.630 J4.430 K0.000 F1000.000
G1 X221.969 Y29.696 Z-0.500 F1000.000
G0 Z5.000
G0 X224.821 Y27.942 Z5.000
G0 X224.821 Y27.942 Z3.000
G1 X224.821 Y27.942 Z-1.000 F1000.000
G2 X224.091 Y28.480 Z-1.000 I3.240 J5.155 K0.000 F1000.000
G2 X223.032 Y29.730 Z-1.000 I2.239 J2.969 K0.000 F1000.000
G1 X224.821 Y27.942 Z-1.000 F1000.000
G3 X225.902 Y27.285 Z-1.000 I5.773 J8.282 K0.000 F1000.000
G1 X223.002 Y30.184 Z-1.000 F1000.000
G2 X223.133 Y30.477 Z-1.000 I1.091 J-0.311 K0.000 F1000.000
G1 X226.778 Y26.833 Z-1.000 F1000.000
G1 X227.565 Y26.470 Z-1.000 F1000.000
G1 X223.311 Y30.724 Z-1.000 F1000.000
G2 X223.505 Y30.954 Z-1.000 I1.140 J-0.765 K0.000 F1000.000
G1 X228.275 Y26.185 Z-1.000 F1000.000
G1 X228.973 Y25.910 Z-1.000 F1000.000
G1 X223.712 Y31.171 Z-1.000 F1000.000
G1 X223.938 Y31.369 Z-1.000 F1000.000
G1 X229.660 Y25.647 Z-1.000 F1000.000
G1 X230.299 Y25.433 Z-1.000 F1000.000
G1 X224.164 Y31.568 Z-1.000 F1000.000
G2 X224.399 Y31.757 Z-1.000 I1.084 J-1.101 K0.000 F1000.000
G1 X230.938 Y25.219 Z-1.000 F1000.000
G3 X231.545 Y25.035 Z-1.000 I2.811 J8.218 K0.000 F1000.000
G1 X224.646 Y31.935 Z-1.000 F1000.000
G1 X224.893 Y32.112 Z-1.000 F1000.000
G1 X232.148 Y24.857 Z-1.000 F1000.000
G3 X232.749 Y24.680 Z-1.000 I2.992 J9.031 K0.000 F1000.000
G1 X225.157 Y32.272 Z-1.000 F1000.000
G1 X225.422 Y32.431 Z-1.000 F1000.000
G1 X233.323 Y24.531 Z-1.000 F1000.000
G1 X233.896 Y24.382 Z-1.000 F1000.000
G1 X225.687 Y32.591 Z-1.000 F1000.000
G2 X225.955 Y32.747 Z-1.000 I1.244 J-1.825 K0.000 F1000.000
G1 X234.469 Y24.233 Z-1.000 F1000.000
G3 X235.030 Y24.096 Z-1.000 I2.938 J10.835 K0.000 F1000.000
G1 X226.236 Y32.890 Z-1.000 F1000.000
G1 X226.517 Y33.034 Z-1.000 F1000.000
G1 X235.578 Y23.972 Z-1.000 F1000.000
G1 X236.126 Y23.848 Z-1.000 F1000.000
G1 X226.798 Y33.177 Z-1.000 F1000.000
G2 X227.084 Y33.314 Z-1.000 I1.560 J-2.884 K0.000 F1000.000
G1 X236.674 Y23.724 Z-1.000 F1000.000
G3 X237.216 Y23.608 Z-1.000 I2.181 J8.789 K0.000 F1000.000
G1 X227.377 Y33.446 Z-1.000 F1000.000
G1 X227.670 Y33.578 Z-1.000 F1000.000
G1 X237.742 Y23.506 Z-1.000 F1000.000
G1 X238.268 Y23.403 Z-1.000 F1000.000
G1 X227.971 Y33.700 Z-1.000 F1000.000
G1 X228.274 Y33.822 Z-1.000 F1000.000
G1 X238.795 Y23.301 Z-1.000 F1000.000
G1 X239.321 Y23.199 Z-1.000 F1000.000
G1 X228.577 Y33.943 Z-1.000 F1000.000
G1 X228.880 Y34.064 Z-1.000 F1000.000
G1 X239.847 Y23.097 Z-1.000 F1000.000
G3 X240.372 Y22.997 Z-1.000 I2.109 J9.627 K0.000 F1000.000
G1 X229.187 Y34.182 Z-1.000 F1000.000
G1 X229.502 Y34.291 Z-1.000 F1000.000
G1 X240.880 Y22.913 Z-1.000 F1000.000
G1 X241.389 Y22.828 Z-1.000 F1000.000
G1 X229.817 Y34.400 Z-1.000 F1000.000
G1 X230.132 Y34.510 Z-1.000 F1000.000
G1 X241.898 Y22.744 Z-1.000 F1000.000
G1 X242.406 Y22.659 Z-1.000 F1000.000
G1 X230.447 Y34.619 Z-1.000 F1000.000
G2 X230.764 Y34.726 Z-1.000 I1.393 J-3.626 K0.000 F1000.000
G1 X242.915 Y22.575 Z-1.000 F1000.000
G3 X243.417 Y22.498 Z-1.000 I2.081 J11.806 K0.000 F1000.000
G1 X231.091 Y34.824 Z-1.000 F1000.000
G1 X231.417 Y34.921 Z-1.000 F1000.000
G1 X243.913 Y22.426 Z-1.000 F1000.000
G1 X244.408 Y22.354 Z-1.000 F1000.000
G1 X231.744 Y35.019 Z-1.000 F1000.000
G1 X232.070 Y35.117 Z-1.000 F1000.000
G1 X244.904 Y22.283 Z-1.000 F1000.000
G1 X245.400 Y22.211 Z-1.000 F1000.000
G1 X232.397 Y35.215 Z-1.000 F1000.000
G1 X232.723 Y35.313 Z-1.000 F1000.000
G1 X245.896 Y22.140 Z-1.000 F1000.000
G3 X246.390 Y22.069 Z-1.000 I2.559 J16.210 K0.000 F1000.000
G1 X233.060 Y35.400 Z-1.000 F1000.000
G1 X233.397 Y35.487 Z-1.000 F1000.000
G1 X246.877 Y22.007 Z-1.000 F1000.000
G1 X247.000 Y21.991 Z-1.000 F1000.000
G1 X247.000 Y22.308 Z-1.000 F1000.000
G1 X233.734 Y35.575 Z-1.000 F1000.000
G1 X234.071 Y35.662 Z-1.000 F1000.000
G1 X247.000 Y22.733 Z-1.000 F1000.000
G1 X247.000 Y23.157 Z-1.000 F1000.000
G1 X234.408 Y35.749 Z-1.000 F1000.000
G1 X234.745 Y35.836 Z-1.000 F1000.000
G1 X247.000 Y23.581 Z-1.000 F1000.000
G1 X247.000 Y24.006 Z-1.000 F1000.000
G1 X235.087 Y35.919 Z-1.000 F1000.000
G1 X235.433 Y35.997 Z-1.000 F1000.000
G1 X247.000 Y24.430 Z-1.000 F1000.000
G1 X247.000 Y24.854 Z-1.000 F1000.000
G1 X235.778 Y36.076 Z-1.000 F1000.000
G1 X236.124 Y36.154 Z-1.000 F1000.000
G1 X247.000 Y25.278 Z-1.000 F1000.000
G1 X247.000 Y25.703 Z-1.000 F1000.000
G1 X236.470 Y36.232 Z-1.000 F1000.000
G2 X236.817 Y36.310 Z-1.000 I1.666 J-6.608 K0.000 F1000.000
G1 X247.000 Y26.127 Z-1.000 F1000.000
G1 X247.000 Y26.551 Z-1.000 F1000.000
G1 X237.170 Y36.381 Z-1.000 F1000.000
G1 X237.524 Y36.451 Z-1.000 F1000.000
G1 X247.000 Y26.975 Z-1.000 F1000.000
G1 X247.000 Y27.400 Z-1.000 F1000.000
G1 X237.878 Y36.522 Z-1.000 F1000.000
G1 X238.231 Y36.593 Z-1.000 F1000.000
G1 X247.000 Y27.824 Z-1.000 F1000.000
G1 X247.000 Y28.248 Z-1.000 F1000.000
G1 X238.585 Y36.663 Z-1.000 F1000.000
G1 X238.939 Y36.734 Z-1.000 F1000.000
G1 X247.000 Y28.672 Z-1.000 F1000.000
G1 X247.000 Y29.097 Z-1.000 F1000.000
G1 X239.292 Y36.804 Z-1.000 F1000.000
G2 X239.650 Y36.871 Z-1.000 I1.434 J-6.683 K0.000 F1000.000
G1 X247.000 Y29.521 Z-1.000 F1000.000
G1 X247.000 Y29.945 Z-1.000 F1000.000
G1 X240.012 Y36.933 Z-1.000 F1000.000
G1 X240.374 Y36.996 Z-1.000 F1000.000
G1 X247.000 Y30.369 Z-1.000 F1000.000
G1 X247.000 Y30.794 Z-1.000 F1000.000
G1 X240.736 Y37.058 Z-1.000 F1000.000
G1 X241.098 Y37.120 Z-1.000 F1000.000
G1 X247.000 Y31.218 Z-1.000 F1000.000
G1 X247.000 Y31.642 Z-1.000 F1000.000
G1 X241.460 Y37.182 Z-1.000 F1000.000
G1 X241.822 Y37.245 Z-1.000 F1000.000
G1 X247.000 Y32.067 Z-1.000 F1000.000
G1 X247.000 Y32.491 Z-1.000 F1000.000
G1 X242.184 Y37.307 Z-1.000 F1000.000
G2 X242.546 Y37.369 Z-1.000 I1.404 J-7.145 K0.000 F1000.000
G1 X247.000 Y32.915 Z-1.000 F1000.000
G1 X247.000 Y33.339 Z-1.000 F1000.000
G1 X242.917 Y37.423 Z-1.000 F1000.000
G1 X243.287 Y37.477 Z-1.000 F1000.000
G1 X247.000 Y33.764 Z-1.000 F1000.000
G1 X247.000 Y34.188 Z-1.000 F1000.000
G1 X243.657 Y37.531 Z-1.000 F1000.000
G1 X244.027 Y37.585 Z-1.000 F1000.000
G1 X247.000 Y34.612 Z-1.000 F1000.000
G1 X247.000 Y35.036 Z-1.000 F1000.000
G1 X244.397 Y37.639 Z-1.000 F1000.000
G1 X244.767 Y37.693 Z-1.000 F1000.000
G1 X247.000 Y35.461 Z-1.000 F1000.000
G1 X247.000 Y35.885 Z-1.000 F1000.000
G1 X245.138 Y37.747 Z-1.000 F1000.000
G1 X245.508 Y37.801 Z-1.000 F1000.000
G1 X247.000 Y36.309 Z-1.000 F1000.000
G1 X247.000 Y36.733 Z-1.000 F1000.000
G1 X245.878 Y37.856 Z-1.000 F1000.000
G1 X246.248 Y37.910 Z-1.000 F1000.000
G1 X247.000 Y37.158 Z-1.000 F1000.000
G1 X247.000 Y37.582 Z-1.000 F1000.000
G1 X246.622 Y37.960 Z-1.000 F1000.000
G1 X247.000 Y38.006 Z-1.000 F1000.000
G0 Z5.000
G0 Y37.825 Z5.000
G0 Y37.825 Z3.000
G1 X247.000 Y37.825 Z-1.500 F1000.000
G1 X246.624 Y37.776 Z-1.500 F1000.000
G1 X247.000 Y37.400 Z-1.500 F1000.000
G1 X247.000 Y36.976 Z-1.500 F1000.000
G1 X246.254 Y37.722 Z-1.500 F1000.000
G1 X245.886 Y37.666 Z-1.500 F1000.000
G1 X247.000 Y36.552 Z-1.500 F1000.000
G1 X247.000 Y36.128 Z-1.500 F1000.000
G1 X245.518 Y37.610 Z-1.500 F1000.000
G1 X245.150 Y37.554 Z-1.500 F1000.000
G1 X247.000 Y35.703 Z-1.500 F1000.000
G1 X247.000 Y35.279 Z-1.500 F1000.000
G1 X244.782 Y37.498 Z-1.500 F1000.000
G1 X244.413 Y37.442 Z-1.500 F1000.000
G1 X247.000 Y34.855 Z-1.500 F1000.000
G1 X247.000 Y34.431 Z-1.500 F1000.000
G1 X244.045 Y37.385 Z-1.500 F1000.000
G1 X243.677 Y37.329 Z-1.500 F1000.000
G1 X247.000 Y34.006 Z-1.500 F1000.000
G1 X247.000 Y33.582 Z-1.500 F1000.000
G1 X243.309 Y37.273 Z-1.500 F1000.000
G1 X242.940 Y37.217 Z-1.500 F1000.000
G1 X247.000 Y33.158 Z-1.500 F1000.000
G1 X247.000 Y32.734 Z-1.500 F1000.000
G1 X242.577 Y37.157 Z-1.500 F1000.000
G1 X242.217 Y37.092 Z-1.500 F1000.000
G1 X247.000 Y32.309 Z-1.500 F1000.000
G1 X247.000 Y31.885 Z-1.500 F1000.000
G1 X241.857 Y37.028 Z-1.500 F1000.000
G1 X241.497 Y36.964 Z-1.500 F1000.000
G1 X247.000 Y31.461 Z-1.500 F1000.000
G1 X247.000 Y31.036 Z-1.500 F1000.000
G1 X241.137 Y36.899 Z-1.500 F1000.000
G1 X240.777 Y36.835 Z-1.500 F1000.000
G1 X247.000 Y30.612 Z-1.500 F1000.000
G1 X247.000 Y30.188 Z-1.500 F1000.000
G1 X240.417 Y36.771 Z-1.500 F1000.000
G1 X240.057 Y36.706 Z-1.500 F1000.000
G1 X247.000 Y29.764 Z-1.500 F1000.000
G1 X247.000 Y29.339 Z-1.500 F1000.000
G1 X239.700 Y36.639 Z-1.500 F1000.000
G1 X239.349 Y36.566 Z-1.500 F1000.000
G1 X247.000 Y28.915 Z-1.500 F1000.000
G1 X247.000 Y28.491 Z-1.500 F1000.000
G1 X238.997 Y36.493 Z-1.500 F1000.000
G1 X238.646 Y36.421 Z-1.500 F1000.000
G1 X247.000 Y28.067 Z-1.500 F1000.000
G1 X247.000 Y27.642 Z-1.500 F1000.000
G1 X238.294 Y36.348 Z-1.500 F1000.000
G1 X237.943 Y36.275 Z-1.500 F1000.000
G1 X247.000 Y27.218 Z-1.500 F1000.000
G1 X247.000 Y26.794 Z-1.500 F1000.000
G1 X237.592 Y36.202 Z-1.500 F1000.000
G1 X237.240 Y36.129 Z-1.500 F1000.000
G1 X247.000 Y26.370 Z-1.500 F1000.000
G1 X247.000 Y25.945 Z-1.500 F1000.000
G1 X236.896 Y36.049 Z-1.500 F1000.000
G1 X236.552 Y35.969 Z-1.500 F1000.000
G1 X247.000 Y25.521 Z-1.500 F1000.000
G1 X247.000 Y25.097 Z-1.500 F1000.000
G1 X236.209 Y35.888 Z-1.500 F1000.000
G1 X235.866 Y35.807 Z-1.500 F1000.000
G1 X247.000 Y24.672 Z-1.500 F1000.000
G1 X247.000 Y24.248 Z-1.500 F1000.000
G1 X235.522 Y35.726 Z-1.500 F1000.000
G3 X235.183 Y35.641 Z-1.500 I1.378 J-6.170 K0.000 F1000.000
G1 X247.000 Y23.824 Z-1.500 F1000.000
G1 X247.000 Y23.400 Z-1.500 F1000.000
G1 X234.849 Y35.551 Z-1.500 F1000.000
G1 X234.514 Y35.461 Z-1.500 F1000.000
G1 X247.000 Y22.975 Z-1.500 F1000.000
G1 X247.000 Y22.551 Z-1.500 F1000.000
G1 X234.180 Y35.371 Z-1.500 F1000.000
G1 X233.845 Y35.281 Z-1.500 F1000.000
G1 X246.946 Y22.180 Z-1.500 F1000.000
G1 X246.450 Y22.253 Z-1.500 F1000.000
G1 X233.511 Y35.192 Z-1.500 F1000.000
G3 X233.179 Y35.100 Z-1.500 I1.011 J-4.289 K0.000 F1000.000
G1 X245.953 Y22.325 Z-1.500 F1000.000
G1 X245.456 Y22.398 Z-1.500 F1000.000
G1 X232.855 Y34.999 Z-1.500 F1000.000
G1 X232.532 Y34.898 Z-1.500 F1000.000
G1 X244.960 Y22.470 Z-1.500 F1000.000
G1 X244.463 Y22.542 Z-1.500 F1000.000
G1 X232.208 Y34.798 Z-1.500 F1000.000
G1 X231.884 Y34.697 Z-1.500 F1000.000
G1 X243.965 Y22.616 Z-1.500 F1000.000
G1 X243.455 Y22.702 Z-1.500 F1000.000
G1 X231.561 Y34.597 Z-1.500 F1000.000
G3 X231.239 Y34.494 Z-1.500 I1.001 J-3.691 K0.000 F1000.000
G1 X242.946 Y22.787 Z-1.500 F1000.000
G1 X242.436 Y22.872 Z-1.500 F1000.000
G1 X230.927 Y34.382 Z-1.500 F1000.000
G1 X230.615 Y34.269 Z-1.500 F1000.000
G1 X241.926 Y22.958 Z-1.500 F1000.000
G1 X241.417 Y23.043 Z-1.500 F1000.000
G1 X230.303 Y34.157 Z-1.500 F1000.000
G1 X229.991 Y34.045 Z-1.500 F1000.000
G1 X240.897 Y23.139 Z-1.500 F1000.000
G1 X240.370 Y23.242 Z-1.500 F1000.000
G1 X229.682 Y33.929 Z-1.500 F1000.000
G1 X229.382 Y33.805 Z-1.500 F1000.000
G1 X239.842 Y23.345 Z-1.500 F1000.000
G1 X239.315 Y23.448 Z-1.500 F1000.000
G1 X229.082 Y33.681 Z-1.500 F1000.000
G1 X228.782 Y33.556 Z-1.500 F1000.000
G1 X238.787 Y23.552 Z-1.500 F1000.000
G1 X238.260 Y23.655 Z-1.500 F1000.000
G1 X228.483 Y33.432 Z-1.500 F1000.000
G3 X228.191 Y33.299 Z-1.500 I1.407 J-3.467 K0.000 F1000.000
G1 X237.723 Y23.767 Z-1.500 F1000.000
G1 X237.174 Y23.892 Z-1.500 F1000.000
G1 X227.902 Y33.164 Z-1.500 F1000.000
G3 X227.618 Y33.024 Z-1.500 I1.294 J-2.987 K0.000 F1000.000
G1 X236.624 Y24.017 Z-1.500 F1000.000
G1 X236.075 Y24.142 Z-1.500 F1000.000
G1 X227.340 Y32.878 Z-1.500 F1000.000
G1 X227.062 Y32.731 Z-1.500 F1000.000
G1 X235.518 Y24.275 Z-1.500 F1000.000
G1 X234.943 Y24.426 Z-1.500 F1000.000
G1 X226.784 Y32.585 Z-1.500 F1000.000
G3 X226.520 Y32.425 Z-1.500 I0.989 J-1.923 K0.000 F1000.000
G1 X234.369 Y24.576 Z-1.500 F1000.000
G1 X233.794 Y24.726 Z-1.500 F1000.000
G1 X226.258 Y32.262 Z-1.500 F1000.000
G1 X225.997 Y32.100 Z-1.500 F1000.000
G1 X233.195 Y24.901 Z-1.500 F1000.000
G1 X232.592 Y25.080 Z-1.500 F1000.000
G1 X225.740 Y31.931 Z-1.500 F1000.000
G1 X225.497 Y31.751 Z-1.500 F1000.000
G1 X231.987 Y25.260 Z-1.500 F1000.000
G1 X231.347 Y25.476 Z-1.500 F1000.000
G1 X225.253 Y31.570 Z-1.500 F1000.000
G3 X225.030 Y31.369 Z-1.500 I0.887 J-1.205 K0.000 F1000.000
G1 X230.707 Y25.692 Z-1.500 F1000.000
G2 X230.024 Y25.951 Z-1.500 I2.236 J6.935 K0.000 F1000.000
G1 X224.808 Y31.166 Z-1.500 F1000.000
G3 X224.593 Y30.958 Z-1.500 I0.784 J-1.025 K0.000 F1000.000
G1 X229.323 Y26.227 Z-1.500 F1000.000
G2 X228.617 Y26.509 Z-1.500 I2.097 J6.274 K0.000 F1000.000
G1 X224.397 Y30.729 Z-1.500 F1000.000
G1 X224.229 Y30.473 Z-1.500 F1000.000
G1 X227.827 Y26.874 Z-1.500 F1000.000
G2 X226.956 Y27.322 Z-1.500 I3.512 J7.914 K0.000 F1000.000
G1 X224.081 Y30.197 Z-1.500 F1000.000
G3 X224.098 Y29.755 Z-1.500 I0.456 J-0.203 K0.000 F1000.000
G1 X224.120 Y29.696 Z-1.500 F1000.000
G3 X225.875 Y27.978 Z-1.500 I4.302 J2.640 K0.000 F1000.000
G1 X224.098 Y29.755 Z-1.500 F1000.000
G0 Z5.000
G0 X226.911 Y28.027 Z5.000
G0 X226.911 Y28.027 Z3.000
G1 X226.911 Y28.027 Z-2.000 F1000.000
G2 X226.185 Y28.563 Z-2.000 I3.286 J5.206 K0.000 F1000.000
G2 X225.168 Y29.770 Z-2.000 I2.129 J2.827 K0.000 F1000.000
G1 X226.911 Y28.027 Z-2.000 F1000.000
G3 X227.997 Y27.366 Z-2.000 I5.754 J8.222 K0.000 F1000.000
G1 X225.158 Y30.204 Z-2.000 F1000.000
G2 X225.309 Y30.478 Z-2.000 I1.007 J-0.374 K0.000 F1000.000
G1 X228.864 Y26.922 Z-2.000 F1000.000
G3 X229.656 Y26.555 Z-2.000 I3.573 J6.660 K0.000 F1000.000
G1 X225.482 Y30.728 Z-2.000 F1000.000
G2 X225.679 Y30.956 Z-2.000 I1.055 J-0.713 K0.000 F1000.000
G1 X230.361 Y26.274 Z-2.000 F1000.000
G1 X231.067 Y25.993 Z-2.000 F1000.000
G1 X225.897 Y31.162 Z-2.000 F1000.000
G1 X226.116 Y31.368 Z-2.000 F1000.000
G1 X231.743 Y25.741 Z-2.000 F1000.000
G1 X232.387 Y25.521 Z-2.000 F1000.000
G1 X226.348 Y31.560 Z-2.000 F1000.000
G1 X226.588 Y31.744 Z-2.000 F1000.000
G1 X233.023 Y25.309 Z-2.000 F1000.000
G1 X233.629 Y25.127 Z-2.000 F1000.000
G1 X226.835 Y31.921 Z-2.000 F1000.000
G1 X227.093 Y32.087 Z-2.000 F1000.000
G1 X234.236 Y24.945 Z-2.000 F1000.000
G3 X234.830 Y24.775 Z-2.000 I2.836 J8.811 K0.000 F1000.000
G1 X227.352 Y32.253 Z-2.000 F1000.000
G2 X227.611 Y32.419 Z-2.000 I1.264 J-1.695 K0.000 F1000.000
G1 X235.407 Y24.623 Z-2.000 F1000.000
G1 X235.983 Y24.470 Z-2.000 F1000.000
G1 X227.885 Y32.568 Z-2.000 F1000.000
G1 X228.160 Y32.718 Z-2.000 F1000.000
G1 X236.559 Y24.319 Z-2.000 F1000.000
G3 X237.111 Y24.191 Z-2.000 I4.366 J17.589 K0.000 F1000.000
G1 X228.435 Y32.867 Z-2.000 F1000.000
G2 X228.716 Y33.010 Z-2.000 I1.608 J-2.815 K0.000 F1000.000
G1 X237.663 Y24.064 Z-2.000 F1000.000
G1 X238.214 Y23.936 Z-2.000 F1000.000
G1 X229.002 Y33.148 Z-2.000 F1000.000
G2 X229.293 Y33.281 Z-2.000 I1.695 J-3.315 K0.000 F1000.000
G1 X238.766 Y23.809 Z-2.000 F1000.000
G3 X239.295 Y23.704 Z-2.000 I1.971 J8.526 K0.000 F1000.000
G1 X229.590 Y33.409 Z-2.000 F1000.000
G1 X229.887 Y33.537 Z-2.000 F1000.000
G1 X239.824 Y23.599 Z-2.000 F1000.000
G1 X240.354 Y23.494 Z-2.000 F1000.000
G1 X230.183 Y33.664 Z-2.000 F1000.000
G2 X230.482 Y33.790 Z-2.000 I1.427 J-2.975 K0.000 F1000.000
G1 X240.883 Y23.389 Z-2.000 F1000.000
G1 X241.412 Y23.284 Z-2.000 F1000.000
G1 X230.791 Y33.905 Z-2.000 F1000.000
G1 X231.100 Y34.021 Z-2.000 F1000.000
G1 X241.941 Y23.179 Z-2.000 F1000.000
G3 X242.454 Y23.091 Z-2.000 I1.867 J9.320 K0.000 F1000.000
G1 X231.409 Y34.136 Z-2.000 F1000.000
G1 X231.717 Y34.251 Z-2.000 F1000.000
G1 X242.965 Y23.004 Z-2.000 F1000.000
G1 X243.476 Y22.917 Z-2.000 F1000.000
G1 X232.031 Y34.362 Z-2.000 F1000.000
G1 X232.352 Y34.466 Z-2.000 F1000.000
G1 X243.987 Y22.830 Z-2.000 F1000.000
G1 X244.498 Y22.743 Z-2.000 F1000.000
G1 X232.673 Y34.569 Z-2.000 F1000.000
G1 X232.994 Y34.672 Z-2.000 F1000.000
G1 X245.004 Y22.662 Z-2.000 F1000.000
G1 X245.502 Y22.589 Z-2.000 F1000.000
G1 X233.314 Y34.776 Z-2.000 F1000.000
G1 X233.635 Y34.879 Z-2.000 F1000.000
G1 X246.000 Y22.515 Z-2.000 F1000.000
G1 X246.498 Y22.441 Z-2.000 F1000.000
G1 X233.962 Y34.977 Z-2.000 F1000.000
G1 X234.294 Y35.069 Z-2.000 F1000.000
G1 X246.996 Y22.367 Z-2.000 F1000.000
G1 X247.000 Y22.367 Z-2.000 F1000.000
G1 X247.000 Y22.787 Z-2.000 F1000.000
G1 X234.625 Y35.162 Z-2.000 F1000.000
G1 X234.957 Y35.254 Z-2.000 F1000.000
G1 X247.000 Y23.212 Z-2.000 F1000.000
G1 X247.000 Y23.636 Z-2.000 F1000.000
G1 X235.289 Y35.347 Z-2.000 F1000.000
G1 X235.621 Y35.439 Z-2.000 F1000.000
G1 X247.000 Y24.060 Z-2.000 F1000.000
G1 X247.000 Y24.484 Z-2.000 F1000.000
G1 X235.956 Y35.528 Z-2.000 F1000.000
G1 X236.297 Y35.611 Z-2.000 F1000.000
G1 X247.000 Y24.909 Z-2.000 F1000.000
G1 X247.000 Y25.333 Z-2.000 F1000.000
G1 X236.638 Y35.695 Z-2.000 F1000.000
G1 X236.979 Y35.778 Z-2.000 F1000.000
G1 X247.000 Y25.757 Z-2.000 F1000.000
G1 X247.000 Y26.181 Z-2.000 F1000.000
G1 X237.320 Y35.861 Z-2.000 F1000.000
G2 X237.662 Y35.944 Z-2.000 I1.656 J-6.143 K0.000 F1000.000
G1 X247.000 Y26.606 Z-2.000 F1000.000
G1 X247.000 Y27.030 Z-2.000 F1000.000
G1 X238.011 Y36.019 Z-2.000 F1000.000
G1 X238.360 Y36.094 Z-2.000 F1000.000
G1 X247.000 Y27.454 Z-2.000 F1000.000
G1 X247.000 Y27.878 Z-2.000 F1000.000
G1 X238.709 Y36.169 Z-2.000 F1000.000
G1 X239.058 Y36.244 Z-2.000 F1000.000
G1 X247.000 Y28.303 Z-2.000 F1000.000
G1 X247.000 Y28.727 Z-2.000 F1000.000
G1 X239.408 Y36.319 Z-2.000 F1000.000
G1 X239.757 Y36.395 Z-2.000 F1000.000
G1 X247.000 Y29.151 Z-2.000 F1000.000
G1 X247.000 Y29.575 Z-2.000 F1000.000
G1 X240.106 Y36.470 Z-2.000 F1000.000
G2 X240.462 Y36.537 Z-2.000 I1.382 J-6.315 K0.000 F1000.000
G1 X247.000 Y30.000 Z-2.000 F1000.000
G1 X247.000 Y30.424 Z-2.000 F1000.000
G1 X240.820 Y36.604 Z-2.000 F1000.000
G1 X241.178 Y36.670 Z-2.000 F1000.000
G1 X247.000 Y30.848 Z-2.000 F1000.000
G1 X247.000 Y31.273 Z-2.000 F1000.000
G1 X241.536 Y36.737 Z-2.000 F1000.000
G1 X241.893 Y36.803 Z-2.000 F1000.000
G1 X247.000 Y31.697 Z-2.000 F1000.000
G1 X247.000 Y32.121 Z-2.000 F1000.000
G1 X242.251 Y36.870 Z-2.000 F1000.000
G1 X242.609 Y36.937 Z-2.000 F1000.000
G1 X247.000 Y32.545 Z-2.000 F1000.000
G1 X247.000 Y32.970 Z-2.000 F1000.000
G1 X242.966 Y37.003 Z-2.000 F1000.000
G2 X243.332 Y37.062 Z-2.000 I1.294 J-6.831 K0.000 F1000.000
G1 X247.000 Y33.394 Z-2.000 F1000.000
G1 X247.000 Y33.818 Z-2.000 F1000.000
G1 X243.698 Y37.120 Z-2.000 F1000.000
G1 X244.064 Y37.179 Z-2.000 F1000.000
G1 X247.000 Y34.242 Z-2.000 F1000.000
G1 X247.000 Y34.667 Z-2.000 F1000.000
G1 X244.430 Y37.237 Z-2.000 F1000.000
G1 X244.796 Y37.295 Z-2.000 F1000.000
G1 X247.000 Y35.091 Z-2.000 F1000.000
G1 X247.000 Y35.515 Z-2.000 F1000.000
G1 X245.162 Y37.353 Z-2.000 F1000.000
G1 X245.529 Y37.411 Z-2.000 F1000.000
G1 X247.000 Y35.939 Z-2.000 F1000.000
G1 X247.000 Y36.364 Z-2.000 F1000.000
G1 X245.895 Y37.469 Z-2.000 F1000.000
G1 X246.261 Y37.527 Z-2.000 F1000.000
G1 X247.000 Y36.788 Z-2.000 F1000.000
G1 X247.000 Y37.212 Z-2.000 F1000.000
G1 X246.627 Y37.585 Z-2.000 F1000.000
G2 X247.000 Y37.636 Z-2.000 I1.275 J-7.882 K0.000 F1000.000
G0 Z5.000
G0 Y37.441 Z5.000
G0 Y37.441 Z3.000
G1 X247.000 Y37.441 Z-2.500 F1000.000
G3 X246.632 Y37.385 Z-2.500 I0.971 J-7.625 K0.000 F1000.000
G1 X247.000 Y37.017 Z-2.500 F1000.000
G1 X247.000 Y36.593 Z-2.500 F1000.000
G1 X246.268 Y37.325 Z-2.500 F1000.000
G1 X245.904 Y37.265 Z-2.500 F1000.000
G1 X247.000 Y36.169 Z-2.500 F1000.000
G1 X247.000 Y35.744 Z-2.500 F1000.000
G1 X245.540 Y37.205 Z-2.500 F1000.000
G1 X245.176 Y37.144 Z-2.500 F1000.000
G1 X247.000 Y35.320 Z-2.500 F1000.000
G1 X247.000 Y34.896 Z-2.500 F1000.000
G1 X244.812 Y37.084 Z-2.500 F1000.000
G1 X244.448 Y37.024 Z-2.500 F1000.000
G1 X247.000 Y34.471 Z-2.500 F1000.000
G1 X247.000 Y34.047 Z-2.500 F1000.000
G1 X244.083 Y36.964 Z-2.500 F1000.000
G1 X243.719 Y36.904 Z-2.500 F1000.000
G1 X247.000 Y33.623 Z-2.500 F1000.000
G1 X247.000 Y33.199 Z-2.500 F1000.000
G1 X243.355 Y36.843 Z-2.500 F1000.000
G3 X242.998 Y36.777 Z-2.500 I1.038 J-6.576 K0.000 F1000.000
G1 X247.000 Y32.774 Z-2.500 F1000.000
G1 X247.000 Y32.350 Z-2.500 F1000.000
G1 X242.642 Y36.708 Z-2.500 F1000.000
G1 X242.287 Y36.639 Z-2.500 F1000.000
G1 X247.000 Y31.926 Z-2.500 F1000.000
G1 X247.000 Y31.502 Z-2.500 F1000.000
G1 X241.931 Y36.570 Z-2.500 F1000.000
G1 X241.576 Y36.501 Z-2.500 F1000.000
G1 X247.000 Y31.077 Z-2.500 F1000.000
G1 X247.000 Y30.653 Z-2.500 F1000.000
G1 X241.221 Y36.433 Z-2.500 F1000.000
G1 X240.865 Y36.364 Z-2.500 F1000.000
G1 X247.000 Y30.229 Z-2.500 F1000.000
G1 X247.000 Y29.805 Z-2.500 F1000.000
G1 X240.510 Y36.295 Z-2.500 F1000.000
G3 X240.162 Y36.218 Z-2.500 I1.158 J-6.049 K0.000 F1000.000
G1 X247.000 Y29.380 Z-2.500 F1000.000
G1 X247.000 Y28.956 Z-2.500 F1000.000
G1 X239.816 Y36.140 Z-2.500 F1000.000
G1 X239.469 Y36.063 Z-2.500 F1000.000
G1 X247.000 Y28.532 Z-2.500 F1000.000
G1 X247.000 Y28.108 Z-2.500 F1000.000
G1 X239.122 Y35.985 Z-2.500 F1000.000
G1 X238.776 Y35.908 Z-2.500 F1000.000
G1 X247.000 Y27.683 Z-2.500 F1000.000
G1 X247.000 Y27.259 Z-2.500 F1000.000
G1 X238.429 Y35.830 Z-2.500 F1000.000
G1 X238.082 Y35.752 Z-2.500 F1000.000
G1 X247.000 Y26.835 Z-2.500 F1000.000
G1 X247.000 Y26.410 Z-2.500 F1000.000
G1 X237.743 Y35.668 Z-2.500 F1000.000
G1 X237.404 Y35.582 Z-2.500 F1000.000
G1 X247.000 Y25.986 Z-2.500 F1000.000
G1 X247.000 Y25.562 Z-2.500 F1000.000
G1 X237.066 Y35.496 Z-2.500 F1000.000
G1 X236.727 Y35.410 Z-2.500 F1000.000
G1 X247.000 Y25.138 Z-2.500 F1000.000
G1 X247.000 Y24.713 Z-2.500 F1000.000
G1 X236.389 Y35.324 Z-2.500 F1000.000
G3 X236.058 Y35.231 Z-2.500 I1.548 J-6.152 K0.000 F1000.000
G1 X247.000 Y24.289 Z-2.500 F1000.000
G1 X247.000 Y23.865 Z-2.500 F1000.000
G1 X235.729 Y35.136 Z-2.500 F1000.000
G1 X235.400 Y35.041 Z-2.500 F1000.000
G1 X247.000 Y23.441 Z-2.500 F1000.000
G1 X247.000 Y23.016 Z-2.500 F1000.000
G1 X235.070 Y34.946 Z-2.500 F1000.000
G1 X234.741 Y34.851 Z-2.500 F1000.000
G1 X247.000 Y22.592 Z-2.500 F1000.000
G1 X247.000 Y22.565 Z-2.500 F1000.000
G1 X246.533 Y22.635 Z-2.500 F1000.000
G1 X234.412 Y34.756 Z-2.500 F1000.000
G3 X234.092 Y34.652 Z-2.500 I1.089 J-3.898 K0.000 F1000.000
G1 X246.034 Y22.710 Z-2.500 F1000.000
G2 X245.534 Y22.785 Z-2.500 I1.502 J11.603 K0.000 F1000.000
G1 X233.774 Y34.545 Z-2.500 F1000.000
G1 X233.456 Y34.439 Z-2.500 F1000.000
G1 X245.021 Y22.874 Z-2.500 F1000.000
G1 X244.509 Y22.962 Z-2.500 F1000.000
G1 X233.138 Y34.332 Z-2.500 F1000.000
G1 X232.820 Y34.226 Z-2.500 F1000.000
G1 X243.996 Y23.050 Z-2.500 F1000.000
G1 X243.484 Y23.139 Z-2.500 F1000.000
G1 X232.503 Y34.119 Z-2.500 F1000.000
G1 X232.197 Y34.001 Z-2.500 F1000.000
G1 X242.971 Y23.227 Z-2.500 F1000.000
G2 X242.447 Y23.327 Z-2.500 I1.561 J9.603 K0.000 F1000.000
G1 X231.892 Y33.882 Z-2.500 F1000.000
G1 X231.586 Y33.763 Z-2.500 F1000.000
G1 X241.916 Y23.433 Z-2.500 F1000.000
G1 X241.385 Y23.540 Z-2.500 F1000.000
G1 X231.280 Y33.645 Z-2.500 F1000.000
G3 X230.980 Y33.521 Z-2.500 I1.070 J-3.017 K0.000 F1000.000
G1 X240.854 Y23.647 Z-2.500 F1000.000
G1 X240.324 Y23.753 Z-2.500 F1000.000
G1 X230.687 Y33.390 Z-2.500 F1000.000
G1 X230.394 Y33.258 Z-2.500 F1000.000
G1 X239.793 Y23.860 Z-2.500 F1000.000
G2 X239.246 Y23.982 Z-2.500 I1.702 J8.890 K0.000 F1000.000
G1 X230.101 Y33.127 Z-2.500 F1000.000
G3 X229.811 Y32.993 Z-2.500 I1.412 J-3.438 K0.000 F1000.000
G1 X238.693 Y24.111 Z-2.500 F1000.000
G1 X238.140 Y24.240 Z-2.500 F1000.000
G1 X229.528 Y32.852 Z-2.500 F1000.000
G3 X229.250 Y32.705 Z-2.500 I1.372 J-2.936 K0.000 F1000.000
G1 X237.587 Y24.369 Z-2.500 F1000.000
G2 X237.015 Y24.516 Z-2.500 I2.512 J10.909 K0.000 F1000.000
G1 X228.979 Y32.552 Z-2.500 F1000.000
G1 X228.707 Y32.400 Z-2.500 F1000.000
G1 X236.436 Y24.671 Z-2.500 F1000.000
G1 X235.857 Y24.825 Z-2.500 F1000.000
G1 X228.437 Y32.245 Z-2.500 F1000.000
G1 X228.183 Y32.076 Z-2.500 F1000.000
G1 X235.267 Y24.991 Z-2.500 F1000.000
G1 X234.659 Y25.175 Z-2.500 F1000.000
G1 X227.928 Y31.906 Z-2.500 F1000.000
G1 X227.673 Y31.737 Z-2.500 F1000.000
G1 X234.050 Y25.360 Z-2.500 F1000.000
G2 X233.417 Y25.569 Z-2.500 I2.486 J8.603 K0.000 F1000.000
G1 X227.435 Y31.550 Z-2.500 F1000.000
G1 X227.199 Y31.362 Z-2.500 F1000.000
G1 X232.770 Y25.791 Z-2.500 F1000.000
G2 X232.099 Y26.038 Z-2.500 I2.111 J6.774 K0.000 F1000.000
G1 X226.981 Y31.156 Z-2.500 F1000.000
G1 X226.767 Y30.946 Z-2.500 F1000.000
G1 X231.390 Y26.323 Z-2.500 F1000.000
G1 X230.680 Y26.608 Z-2.500 F1000.000
G1 X226.564 Y30.725 Z-2.500 F1000.000
G3 X226.385 Y30.480 Z-2.500 I0.886 J-0.837 K0.000 F1000.000
G1 X229.890 Y26.974 Z-2.500 F1000.000
G2 X229.023 Y27.417 Z-2.500 I3.201 J7.338 K0.000 F1000.000
G1 X226.236 Y30.204 Z-2.500 F1000.000
G3 X226.243 Y29.773 Z-2.500 I0.430 J-0.209 K0.000 F1000.000
G1 X227.927 Y28.089 Z-2.500 F1000.000
G2 X226.259 Y29.728 Z-2.500 I2.469 J4.180 K0.000 F1000.000
G1 X226.243 Y29.773 Z-2.500 F1000.000
G0 Z5.000
G0 X228.923 Y28.163 Z5.000
G0 X228.923 Y28.163 Z3.000
G1 X228.923 Y28.163 Z-3.000 F1000.000
G2 X228.291 Y28.635 Z-3.000 I2.944 J4.596 K0.000 F1000.000
G2 X227.321 Y29.765 Z-3.000 I2.137 J2.817 K0.000 F1000.000
G1 X228.923 Y28.163 Z-3.000 F1000.000
G3 X230.029 Y27.481 Z-3.000 I5.874 J8.292 K0.000 F1000.000
G1 X227.310 Y30.200 Z-3.000 F1000.000
G2 X227.457 Y30.477 Z-3.000 I1.099 J-0.407 K0.000 F1000.000
G1 X230.903 Y27.031 Z-3.000 F1000.000
G3 X231.697 Y26.662 Z-3.000 I3.593 J6.689 K0.000 F1000.000
G1 X227.640 Y30.719 Z-3.000 F1000.000
G2 X227.848 Y30.935 Z-3.000 I0.966 J-0.722 K0.000 F1000.000
G1 X232.407 Y26.376 Z-3.000 F1000.000
G1 X233.117 Y26.090 Z-3.000 F1000.000
G1 X228.056 Y31.151 Z-3.000 F1000.000
G2 X228.283 Y31.348 Z-3.000 I1.024 J-0.947 K0.000 F1000.000
G1 X233.788 Y25.844 Z-3.000 F1000.000
G1 X234.436 Y25.620 Z-3.000 F1000.000
G1 X228.515 Y31.541 Z-3.000 F1000.000
G2 X228.762 Y31.718 Z-3.000 I1.123 J-1.300 K0.000 F1000.000
G1 X235.068 Y25.412 Z-3.000 F1000.000
G1 X235.678 Y25.226 Z-3.000 F1000.000
G1 X229.013 Y31.891 Z-3.000 F1000.000
G1 X229.264 Y32.065 Z-3.000 F1000.000
G1 X236.288 Y25.041 Z-3.000 F1000.000
G3 X236.877 Y24.876 Z-3.000 I2.755 J8.699 K0.000 F1000.000
G1 X229.527 Y32.226 Z-3.000 F1000.000
G1 X229.795 Y32.382 Z-3.000 F1000.000
G1 X237.456 Y24.721 Z-3.000 F1000.000
G1 X238.036 Y24.566 Z-3.000 F1000.000
G1 X230.063 Y32.538 Z-3.000 F1000.000
G2 X230.337 Y32.689 Z-3.000 I1.707 J-2.773 K0.000 F1000.000
G1 X238.606 Y24.419 Z-3.000 F1000.000
G1 X239.160 Y24.289 Z-3.000 F1000.000
G1 X230.616 Y32.834 Z-3.000 F1000.000
G2 X230.905 Y32.969 Z-3.000 I1.722 J-3.301 K0.000 F1000.000
G1 X239.714 Y24.160 Z-3.000 F1000.000
G1 X240.268 Y24.030 Z-3.000 F1000.000
G1 X231.194 Y33.104 Z-3.000 F1000.000
G1 X231.484 Y33.239 Z-3.000 F1000.000
G1 X240.813 Y23.909 Z-3.000 F1000.000
G1 X241.345 Y23.802 Z-3.000 F1000.000
G1 X231.773 Y33.374 Z-3.000 F1000.000
G2 X232.075 Y33.496 Z-3.000 I1.316 J-2.806 K0.000 F1000.000
G1 X241.877 Y23.694 Z-3.000 F1000.000
G1 X242.408 Y23.587 Z-3.000 F1000.000
G1 X232.377 Y33.618 Z-3.000 F1000.000
G1 X232.679 Y33.740 Z-3.000 F1000.000
G1 X242.940 Y23.480 Z-3.000 F1000.000
G1 X243.472 Y23.372 Z-3.000 F1000.000
G1 X232.982 Y33.862 Z-3.000 F1000.000
G2 X233.290 Y33.978 Z-3.000 I1.331 J-3.078 K0.000 F1000.000
G1 X243.993 Y23.275 Z-3.000 F1000.000
G1 X244.506 Y23.186 Z-3.000 F1000.000
G1 X233.605 Y34.088 Z-3.000 F1000.000
G1 X233.920 Y34.197 Z-3.000 F1000.000
G1 X245.020 Y23.097 Z-3.000 F1000.000
G1 X245.533 Y23.008 Z-3.000 F1000.000
G1 X234.234 Y34.307 Z-3.000 F1000.000
G1 X234.549 Y34.416 Z-3.000 F1000.000
G1 X246.047 Y22.919 Z-3.000 F1000.000
G3 X246.557 Y22.833 Z-3.000 I2.019 J10.413 K0.000 F1000.000
G1 X234.864 Y34.525 Z-3.000 F1000.000
G2 X235.188 Y34.625 Z-3.000 I1.315 J-3.693 K0.000 F1000.000
G1 X247.000 Y22.814 Z-3.000 F1000.000
G1 X247.000 Y23.238 Z-3.000 F1000.000
G1 X235.515 Y34.723 Z-3.000 F1000.000
G1 X235.841 Y34.821 Z-3.000 F1000.000
G1 X247.000 Y23.662 Z-3.000 F1000.000
G1 X247.000 Y24.087 Z-3.000 F1000.000
G1 X236.168 Y34.919 Z-3.000 F1000.000
G1 X236.494 Y35.017 Z-3.000 F1000.000
G1 X247.000 Y24.511 Z-3.000 F1000.000
G1 X247.000 Y24.935 Z-3.000 F1000.000
G1 X236.821 Y35.114 Z-3.000 F1000.000
G2 X237.156 Y35.203 Z-3.000 I3.256 J-11.641 K0.000 F1000.000
G1 X247.000 Y25.359 Z-3.000 F1000.000
G1 X247.000 Y25.784 Z-3.000 F1000.000
G1 X237.492 Y35.291 Z-3.000 F1000.000
G1 X237.828 Y35.380 Z-3.000 F1000.000
G1 X247.000 Y26.208 Z-3.000 F1000.000
G1 X247.000 Y26.632 Z-3.000 F1000.000
G1 X238.164 Y35.468 Z-3.000 F1000.000
G2 X238.500 Y35.556 Z-3.000 I1.669 J-5.719 K0.000 F1000.000
G1 X247.000 Y27.056 Z-3.000 F1000.000
G1 X247.000 Y27.481 Z-3.000 F1000.000
G1 X238.845 Y35.636 Z-3.000 F1000.000
G1 X239.189 Y35.716 Z-3.000 F1000.000
G1 X247.000 Y27.905 Z-3.000 F1000.000
G1 X247.000 Y28.329 Z-3.000 F1000.000
G1 X239.533 Y35.796 Z-3.000 F1000.000
G1 X239.877 Y35.876 Z-3.000 F1000.000
G1 X247.000 Y28.753 Z-3.000 F1000.000
G1 X247.000 Y29.178 Z-3.000 F1000.000
G1 X240.222 Y35.956 Z-3.000 F1000.000
G1 X240.566 Y36.036 Z-3.000 F1000.000
G1 X247.000 Y29.602 Z-3.000 F1000.000
G1 X247.000 Y30.026 Z-3.000 F1000.000
G1 X240.912 Y36.115 Z-3.000 F1000.000
G1 X241.265 Y36.186 Z-3.000 F1000.000
G1 X247.000 Y30.451 Z-3.000 F1000.000
G1 X247.000 Y30.875 Z-3.000 F1000.000
G1 X241.618 Y36.257 Z-3.000 F1000.000
G1 X241.971 Y36.328 Z-3.000 F1000.000
G1 X247.000 Y31.299 Z-3.000 F1000.000
G1 X247.000 Y31.723 Z-3.000 F1000.000
G1 X242.324 Y36.399 Z-3.000 F1000.000
G1 X242.677 Y36.470 Z-3.000 F1000.000
G1 X247.000 Y32.148 Z-3.000 F1000.000
G1 X247.000 Y32.572 Z-3.000 F1000.000
G1 X243.031 Y36.541 Z-3.000 F1000.000
G1 X243.384 Y36.612 Z-3.000 F1000.000
G1 X247.000 Y32.996 Z-3.000 F1000.000
G1 X247.000 Y33.420 Z-3.000 F1000.000
G1 X243.742 Y36.679 Z-3.000 F1000.000
G1 X244.104 Y36.741 Z-3.000 F1000.000
G1 X247.000 Y33.845 Z-3.000 F1000.000
G1 X247.000 Y34.269 Z-3.000 F1000.000
G1 X244.465 Y36.803 Z-3.000 F1000.000
G1 X244.827 Y36.866 Z-3.000 F1000.000
G1 X247.000 Y34.693 Z-3.000 F1000.000
G1 X247.000 Y35.117 Z-3.000 F1000.000
G1 X245.189 Y36.928 Z-3.000 F1000.000
G1 X245.551 Y36.991 Z-3.000 F1000.000
G1 X247.000 Y35.542 Z-3.000 F1000.000
G1 X247.000 Y35.966 Z-3.000 F1000.000
G1 X245.913 Y37.053 Z-3.000 F1000.000
G1 X246.275 Y37.115 Z-3.000 F1000.000
G1 X247.000 Y36.390 Z-3.000 F1000.000
G1 X247.000 Y36.815 Z-3.000 F1000.000
G1 X246.637 Y37.178 Z-3.000 F1000.000
G2 X247.000 Y37.239 Z-3.000 I1.410 J-7.297 K0.000 F1000.000
G0 Z5.000
G0 Y37.027 Z5.000
G0 Y37.027 Z3.000
G1 X247.000 Y37.027 Z-3.500 F1000.000
G1 X246.640 Y36.962 Z-3.500 F1000.000
G1 X247.000 Y36.603 Z-3.500 F1000.000
G1 X247.000 Y36.178 Z-3.500 F1000.000
G1 X246.281 Y36.897 Z-3.500 F1000.000
G1 X245.921 Y36.833 Z-3.500 F1000.000
G1 X247.000 Y35.754 Z-3.500 F1000.000
G1 X247.000 Y35.330 Z-3.500 F1000.000
G1 X245.562 Y36.768 Z-3.500 F1000.000
G1 X245.202 Y36.703 Z-3.500 F1000.000
G1 X247.000 Y34.905 Z-3.500 F1000.000
G1 X247.000 Y34.481 Z-3.500 F1000.000
G1 X244.843 Y36.638 Z-3.500 F1000.000
G1 X244.483 Y36.574 Z-3.500 F1000.000
G1 X247.000 Y34.057 Z-3.500 F1000.000
G1 X247.000 Y33.633 Z-3.500 F1000.000
G1 X244.124 Y36.509 Z-3.500 F1000.000
G3 X243.765 Y36.444 Z-3.500 I0.955 J-6.275 K0.000 F1000.000
G1 X247.000 Y33.208 Z-3.500 F1000.000
G1 X247.000 Y32.784 Z-3.500 F1000.000
G1 X243.414 Y36.370 Z-3.500 F1000.000
G1 X243.063 Y36.297 Z-3.500 F1000.000
G1 X247.000 Y32.360 Z-3.500 F1000.000
G1 X247.000 Y31.936 Z-3.500 F1000.000
G1 X242.713 Y36.223 Z-3.500 F1000.000
G1 X242.362 Y36.149 Z-3.500 F1000.000
G1 X247.000 Y31.511 Z-3.500 F1000.000
G1 X247.000 Y31.087 Z-3.500 F1000.000
G1 X242.011 Y36.076 Z-3.500 F1000.000
G1 X241.661 Y36.002 Z-3.500 F1000.000
G1 X247.000 Y30.663 Z-3.500 F1000.000
G1 X247.000 Y30.239 Z-3.500 F1000.000
G1 X241.310 Y35.929 Z-3.500 F1000.000
G3 X240.965 Y35.849 Z-3.500 I1.124 J-5.667 K0.000 F1000.000
G1 X247.000 Y29.814 Z-3.500 F1000.000
G1 X247.000 Y29.390 Z-3.500 F1000.000
G1 X240.624 Y35.766 Z-3.500 F1000.000
G1 X240.282 Y35.684 Z-3.500 F1000.000
G1 X247.000 Y28.966 Z-3.500 F1000.000
G1 X247.000 Y28.542 Z-3.500 F1000.000
G1 X239.940 Y35.601 Z-3.500 F1000.000
G1 X239.599 Y35.518 Z-3.500 F1000.000
G1 X247.000 Y28.117 Z-3.500 F1000.000
G1 X247.000 Y27.693 Z-3.500 F1000.000
G1 X239.257 Y35.436 Z-3.500 F1000.000
G1 X238.916 Y35.353 Z-3.500 F1000.000
G1 X247.000 Y27.269 Z-3.500 F1000.000
G1 X247.000 Y26.844 Z-3.500 F1000.000
G1 X238.582 Y35.262 Z-3.500 F1000.000
G1 X238.249 Y35.171 Z-3.500 F1000.000
G1 X247.000 Y26.420 Z-3.500 F1000.000
G1 X247.000 Y25.996 Z-3.500 F1000.000
G1 X237.916 Y35.080 Z-3.500 F1000.000
G1 X237.583 Y34.988 Z-3.500 F1000.000
G1 X247.000 Y25.572 Z-3.500 F1000.000
G1 X247.000 Y25.147 Z-3.500 F1000.000
G1 X237.252 Y34.896 Z-3.500 F1000.000
G1 X236.928 Y34.795 Z-3.500 F1000.000
G1 X247.000 Y24.723 Z-3.500 F1000.000
G1 X247.000 Y24.299 Z-3.500 F1000.000
G1 X236.605 Y34.694 Z-3.500 F1000.000
G1 X236.281 Y34.593 Z-3.500 F1000.000
G1 X247.000 Y23.875 Z-3.500 F1000.000
G1 X247.000 Y23.450 Z-3.500 F1000.000
G1 X235.958 Y34.492 Z-3.500 F1000.000
G1 X235.635 Y34.391 Z-3.500 F1000.000
G1 X247.000 Y23.026 Z-3.500 F1000.000
G1 X247.000 Y22.974 Z-3.500 F1000.000
G1 X246.548 Y23.054 Z-3.500 F1000.000
G1 X235.317 Y34.285 Z-3.500 F1000.000
G1 X235.006 Y34.172 Z-3.500 F1000.000
G1 X246.033 Y23.145 Z-3.500 F1000.000
G1 X245.517 Y23.236 Z-3.500 F1000.000
G1 X234.694 Y34.059 Z-3.500 F1000.000
G1 X234.383 Y33.946 Z-3.500 F1000.000
G1 X245.002 Y23.327 Z-3.500 F1000.000
G1 X244.487 Y23.418 Z-3.500 F1000.000
G1 X234.071 Y33.834 Z-3.500 F1000.000
G3 X233.760 Y33.721 Z-3.500 I0.951 J-3.112 K0.000 F1000.000
G1 X243.955 Y23.526 Z-3.500 F1000.000
G1 X243.421 Y23.635 Z-3.500 F1000.000
G1 X233.461 Y33.595 Z-3.500 F1000.000
G1 X233.162 Y33.470 Z-3.500 F1000.000
G1 X242.887 Y23.745 Z-3.500 F1000.000
G1 X242.354 Y23.854 Z-3.500 F1000.000
G1 X232.864 Y33.344 Z-3.500 F1000.000
G1 X232.565 Y33.218 Z-3.500 F1000.000
G1 X241.820 Y23.964 Z-3.500 F1000.000
G2 X241.282 Y24.077 Z-3.500 I1.563 J8.720 K0.000 F1000.000
G1 X232.279 Y33.080 Z-3.500 F1000.000
G1 X231.996 Y32.939 Z-3.500 F1000.000
G1 X240.725 Y24.210 Z-3.500 F1000.000
G1 X240.169 Y24.342 Z-3.500 F1000.000
G1 X231.714 Y32.797 Z-3.500 F1000.000
G1 X231.431 Y32.655 Z-3.500 F1000.000
G1 X239.612 Y24.474 Z-3.500 F1000.000
G2 X239.048 Y24.615 Z-3.500 I2.076 J9.555 K0.000 F1000.000
G1 X231.149 Y32.513 Z-3.500 F1000.000
G3 X230.873 Y32.365 Z-3.500 I0.803 J-1.818 K0.000 F1000.000
G1 X238.465 Y24.773 Z-3.500 F1000.000
G1 X237.883 Y24.931 Z-3.500 F1000.000
G1 X230.609 Y32.205 Z-3.500 F1000.000
G1 X230.345 Y32.045 Z-3.500 F1000.000
G1 X237.298 Y25.092 Z-3.500 F1000.000
G1 X236.685 Y25.280 Z-3.500 F1000.000
G1 X230.088 Y31.877 Z-3.500 F1000.000
G1 X229.841 Y31.700 Z-3.500 F1000.000
G1 X236.072 Y25.469 Z-3.500 F1000.000
G2 X235.443 Y25.674 Z-3.500 I2.406 J8.455 K0.000 F1000.000
G1 X229.594 Y31.522 Z-3.500 F1000.000
G3 X229.359 Y31.333 Z-3.500 I0.923 J-1.389 K0.000 F1000.000
G1 X234.791 Y25.902 Z-3.500 F1000.000
G2 X234.124 Y26.144 Z-3.500 I2.088 J6.784 K0.000 F1000.000
G1 X229.132 Y31.136 Z-3.500 F1000.000
G3 X228.921 Y30.922 Z-3.500 I0.848 J-1.045 K0.000 F1000.000
G1 X233.409 Y26.434 Z-3.500 F1000.000
G1 X232.695 Y26.725 Z-3.500 F1000.000
G1 X228.718 Y30.702 Z-3.500 F1000.000
G3 X228.532 Y30.463 Z-3.500 I0.830 J-0.834 K0.000 F1000.000
G1 X231.899 Y27.096 Z-3.500 F1000.000
G2 X231.017 Y27.554 Z-3.500 I3.310 J7.457 K0.000 F1000.000
G1 X228.381 Y30.190 Z-3.500 F1000.000
G3 X228.413 Y29.734 Z-3.500 I0.405 J-0.201 K0.000 F1000.000
G3 X229.889 Y28.257 Z-3.500 I3.927 J2.451 K0.000 F1000.000
G1 X228.413 Y29.734 Z-3.500 F1000.000
G0 Z5.000
G0 X230.825 Y28.373 Z5.000
G0 X230.825 Y28.373 Z3.000
G1 X230.825 Y28.373 Z-4.000 F1000.000
G1 X229.528 Y29.669 Z-4.000 F1000.000
G3 X230.825 Y28.373 Z-4.000 I3.866 J2.569 K0.000 F1000.000
G3 X231.949 Y27.672 Z-4.000 I4.935 J6.671 K0.000 F1000.000
G1 X229.449 Y30.172 Z-4.000 F1000.000
G2 X229.601 Y30.444 Z-4.000 I0.768 J-0.250 K0.000 F1000.000
G1 X232.876 Y27.170 Z-4.000 F1000.000
G3 X233.677 Y26.793 Z-4.000 I3.696 J6.813 K0.000 F1000.000
G1 X229.789 Y30.681 Z-4.000 F1000.000
G1 X229.987 Y30.907 Z-4.000 F1000.000
G1 X234.395 Y26.500 Z-4.000 F1000.000
G1 X235.112 Y26.206 Z-4.000 F1000.000
G1 X230.203 Y31.115 Z-4.000 F1000.000
G1 X230.426 Y31.316 Z-4.000 F1000.000
G1 X235.779 Y25.964 Z-4.000 F1000.000
G1 X236.434 Y25.733 Z-4.000 F1000.000
G1 X230.669 Y31.498 Z-4.000 F1000.000
G1 X230.911 Y31.680 Z-4.000 F1000.000
G1 X237.063 Y25.529 Z-4.000 F1000.000
G1 X237.677 Y25.338 Z-4.000 F1000.000
G1 X231.159 Y31.857 Z-4.000 F1000.000
G1 X231.420 Y32.020 Z-4.000 F1000.000
G1 X238.292 Y25.148 Z-4.000 F1000.000
G3 X238.876 Y24.988 Z-4.000 I2.672 J8.596 K0.000 F1000.000
G1 X231.680 Y32.184 Z-4.000 F1000.000
G2 X231.949 Y32.339 Z-4.000 I1.111 J-1.613 K0.000 F1000.000
G1 X239.460 Y24.828 Z-4.000 F1000.000
G1 X240.044 Y24.669 Z-4.000 F1000.000
G1 X232.228 Y32.484 Z-4.000 F1000.000
G1 X232.507 Y32.630 Z-4.000 F1000.000
G1 X240.607 Y24.530 Z-4.000 F1000.000
G1 X241.165 Y24.396 Z-4.000 F1000.000
G1 X232.786 Y32.775 Z-4.000 F1000.000
G1 X233.065 Y32.921 Z-4.000 F1000.000
G1 X241.722 Y24.263 Z-4.000 F1000.000
G1 X242.280 Y24.129 Z-4.000 F1000.000
G1 X233.352 Y33.058 Z-4.000 F1000.000
G1 X233.647 Y33.187 Z-4.000 F1000.000
G1 X242.816 Y24.018 Z-4.000 F1000.000
G1 X243.351 Y23.907 Z-4.000 F1000.000
G1 X233.942 Y33.317 Z-4.000 F1000.000
G1 X234.237 Y33.446 Z-4.000 F1000.000
G1 X243.886 Y23.796 Z-4.000 F1000.000
G1 X244.421 Y23.686 Z-4.000 F1000.000
G1 X234.537 Y33.569 Z-4.000 F1000.000
G1 X234.845 Y33.685 Z-4.000 F1000.000
G1 X244.956 Y23.575 Z-4.000 F1000.000
G3 X245.485 Y23.471 Z-4.000 I2.164 J9.557 K0.000 F1000.000
G1 X235.154 Y33.802 Z-4.000 F1000.000
G1 X235.462 Y33.918 Z-4.000 F1000.000
G1 X246.001 Y23.379 Z-4.000 F1000.000
G1 X246.517 Y23.287 Z-4.000 F1000.000
G1 X235.770 Y34.034 Z-4.000 F1000.000
G2 X236.079 Y34.149 Z-4.000 I1.393 J-3.261 K0.000 F1000.000
G1 X247.000 Y23.228 Z-4.000 F1000.000
G1 X247.000 Y23.652 Z-4.000 F1000.000
G1 X236.399 Y34.253 Z-4.000 F1000.000
G1 X236.720 Y34.357 Z-4.000 F1000.000
G1 X247.000 Y24.077 Z-4.000 F1000.000
G1 X247.000 Y24.501 Z-4.000 F1000.000
G1 X237.040 Y34.461 Z-4.000 F1000.000
G1 X237.361 Y34.564 Z-4.000 F1000.000
G1 X247.000 Y24.925 Z-4.000 F1000.000
G1 X247.000 Y25.349 Z-4.000 F1000.000
G1 X237.681 Y34.668 Z-4.000 F1000.000
G2 X238.007 Y34.766 Z-4.000 I1.609 J-4.756 K0.000 F1000.000
G1 X247.000 Y25.774 Z-4.000 F1000.000
G1 X247.000 Y26.198 Z-4.000 F1000.000
G1 X238.337 Y34.861 Z-4.000 F1000.000
G1 X238.667 Y34.955 Z-4.000 F1000.000
G1 X247.000 Y26.622 Z-4.000 F1000.000
G1 X247.000 Y27.046 Z-4.000 F1000.000
G1 X238.997 Y35.049 Z-4.000 F1000.000
G1 X239.328 Y35.143 Z-4.000 F1000.000
G1 X247.000 Y27.471 Z-4.000 F1000.000
G1 X247.000 Y27.895 Z-4.000 F1000.000
G1 X239.666 Y35.229 Z-4.000 F1000.000
G1 X240.005 Y35.314 Z-4.000 F1000.000
G1 X247.000 Y28.319 Z-4.000 F1000.000
G1 X247.000 Y28.743 Z-4.000 F1000.000
G1 X240.344 Y35.399 Z-4.000 F1000.000
G1 X240.683 Y35.485 Z-4.000 F1000.000
G1 X247.000 Y29.168 Z-4.000 F1000.000
G1 X247.000 Y29.592 Z-4.000 F1000.000
G1 X241.022 Y35.570 Z-4.000 F1000.000
G1 X241.361 Y35.655 Z-4.000 F1000.000
G1 X247.000 Y30.016 Z-4.000 F1000.000
G1 X247.000 Y30.441 Z-4.000 F1000.000
G1 X241.704 Y35.737 Z-4.000 F1000.000
G1 X242.052 Y35.813 Z-4.000 F1000.000
G1 X247.000 Y30.865 Z-4.000 F1000.000
G1 X247.000 Y31.289 Z-4.000 F1000.000
G1 X242.400 Y35.889 Z-4.000 F1000.000
G1 X242.748 Y35.965 Z-4.000 F1000.000
G1 X247.000 Y31.713 Z-4.000 F1000.000
G1 X247.000 Y32.138 Z-4.000 F1000.000
G1 X243.096 Y36.041 Z-4.000 F1000.000
G1 X243.445 Y36.117 Z-4.000 F1000.000
G1 X247.000 Y32.562 Z-4.000 F1000.000
G1 X247.000 Y32.986 Z-4.000 F1000.000
G1 X243.793 Y36.193 Z-4.000 F1000.000
G2 X244.143 Y36.268 Z-4.000 I1.435 J-5.909 K0.000 F1000.000
G1 X247.000 Y33.410 Z-4.000 F1000.000
G1 X247.000 Y33.835 Z-4.000 F1000.000
G1 X244.500 Y36.335 Z-4.000 F1000.000
G1 X244.857 Y36.402 Z-4.000 F1000.000
G1 X247.000 Y34.259 Z-4.000 F1000.000
G1 X247.000 Y34.683 Z-4.000 F1000.000
G1 X245.214 Y36.469 Z-4.000 F1000.000
G1 X245.571 Y36.536 Z-4.000 F1000.000
G1 X247.000 Y35.107 Z-4.000 F1000.000
G1 X247.000 Y35.532 Z-4.000 F1000.000
G1 X245.929 Y36.603 Z-4.000 F1000.000
G1 X246.286 Y36.670 Z-4.000 F1000.000
G1 X247.000 Y35.956 Z-4.000 F1000.000
G1 X247.000 Y36.380 Z-4.000 F1000.000
G1 X246.643 Y36.737 Z-4.000 F1000.000
G1 X247.000 Y36.804 Z-4.000 F1000.000
G0 Z5.000
G0 Y36.573 Z5.000
G0 Y36.573 Z3.000
G1 X247.000 Y36.573 Z-4.500 F1000.000
G1 X246.645 Y36.503 Z-4.500 F1000.000
G1 X247.000 Y36.149 Z-4.500 F1000.000
G1 X247.000 Y35.724 Z-4.500 F1000.000
G1 X246.291 Y36.434 Z-4.500 F1000.000
G1 X245.936 Y36.364 Z-4.500 F1000.000
G1 X247.000 Y35.300 Z-4.500 F1000.000
G1 X247.000 Y34.876 Z-4.500 F1000.000
G1 X245.581 Y36.295 Z-4.500 F1000.000
G1 X245.227 Y36.225 Z-4.500 F1000.000
G1 X247.000 Y34.452 Z-4.500 F1000.000
G1 X247.000 Y34.027 Z-4.500 F1000.000
G1 X244.872 Y36.155 Z-4.500 F1000.000
G1 X244.518 Y36.086 Z-4.500 F1000.000
G1 X247.000 Y33.603 Z-4.500 F1000.000
G1 X247.000 Y33.179 Z-4.500 F1000.000
G1 X244.168 Y36.011 Z-4.500 F1000.000
G1 X243.822 Y35.933 Z-4.500 F1000.000
G1 X247.000 Y32.755 Z-4.500 F1000.000
G1 X247.000 Y32.330 Z-4.500 F1000.000
G1 X243.477 Y35.854 Z-4.500 F1000.000
G1 X243.131 Y35.775 Z-4.500 F1000.000
G1 X247.000 Y31.906 Z-4.500 F1000.000
G1 X247.000 Y31.482 Z-4.500 F1000.000
G1 X242.785 Y35.696 Z-4.500 F1000.000
G1 X242.440 Y35.618 Z-4.500 F1000.000
G1 X247.000 Y31.058 Z-4.500 F1000.000
G1 X247.000 Y30.633 Z-4.500 F1000.000
G1 X242.094 Y35.539 Z-4.500 F1000.000
G3 X241.754 Y35.455 Z-4.500 I1.110 J-5.269 K0.000 F1000.000
G1 X247.000 Y30.209 Z-4.500 F1000.000
G1 X247.000 Y29.785 Z-4.500 F1000.000
G1 X241.417 Y35.367 Z-4.500 F1000.000
G1 X241.081 Y35.279 Z-4.500 F1000.000
G1 X247.000 Y29.361 Z-4.500 F1000.000
G1 X247.000 Y28.936 Z-4.500 F1000.000
G1 X240.745 Y35.191 Z-4.500 F1000.000
G1 X240.409 Y35.103 Z-4.500 F1000.000
G1 X247.000 Y28.512 Z-4.500 F1000.000
G1 X247.000 Y28.088 Z-4.500 F1000.000
G1 X240.073 Y35.015 Z-4.500 F1000.000
G3 X239.738 Y34.925 Z-4.500 I1.242 J-5.319 K0.000 F1000.000
G1 X247.000 Y27.663 Z-4.500 F1000.000
G1 X247.000 Y27.239 Z-4.500 F1000.000
G1 X239.411 Y34.828 Z-4.500 F1000.000
G1 X239.084 Y34.731 Z-4.500 F1000.000
G1 X247.000 Y26.815 Z-4.500 F1000.000
G1 X247.000 Y26.391 Z-4.500 F1000.000
G1 X238.757 Y34.634 Z-4.500 F1000.000
G1 X238.429 Y34.537 Z-4.500 F1000.000
G1 X247.000 Y25.966 Z-4.500 F1000.000
G1 X247.000 Y25.542 Z-4.500 F1000.000
G1 X238.110 Y34.432 Z-4.500 F1000.000
G1 X237.793 Y34.325 Z-4.500 F1000.000
G1 X247.000 Y25.118 Z-4.500 F1000.000
G1 X247.000 Y24.694 Z-4.500 F1000.000
G1 X237.475 Y34.218 Z-4.500 F1000.000
G1 X237.158 Y34.112 Z-4.500 F1000.000
G1 X247.000 Y24.269 Z-4.500 F1000.000
G1 X247.000 Y23.845 Z-4.500 F1000.000
G1 X236.840 Y34.005 Z-4.500 F1000.000
G3 X236.529 Y33.892 Z-4.500 I1.016 J-3.294 K0.000 F1000.000
G1 X246.989 Y23.432 Z-4.500 F1000.000
G1 X246.471 Y23.525 Z-4.500 F1000.000
G1 X236.224 Y33.773 Z-4.500 F1000.000
G1 X235.919 Y33.653 Z-4.500 F1000.000
G1 X245.947 Y23.626 Z-4.500 F1000.000
G1 X245.410 Y23.738 Z-4.500 F1000.000
G1 X235.614 Y33.534 Z-4.500 F1000.000
G1 X235.309 Y33.415 Z-4.500 F1000.000
G1 X244.874 Y23.850 Z-4.500 F1000.000
G1 X244.338 Y23.962 Z-4.500 F1000.000
G1 X235.008 Y33.292 Z-4.500 F1000.000
G1 X234.716 Y33.159 Z-4.500 F1000.000
G1 X243.802 Y24.074 Z-4.500 F1000.000
G1 X243.265 Y24.186 Z-4.500 F1000.000
G1 X234.425 Y33.026 Z-4.500 F1000.000
G1 X234.134 Y32.893 Z-4.500 F1000.000
G1 X242.709 Y24.318 Z-4.500 F1000.000
G1 X242.149 Y24.453 Z-4.500 F1000.000
G1 X233.848 Y32.755 Z-4.500 F1000.000
G1 X233.573 Y32.605 Z-4.500 F1000.000
G1 X241.590 Y24.588 Z-4.500 F1000.000
G2 X241.029 Y24.725 Z-4.500 I1.976 J9.318 K0.000 F1000.000
G1 X233.298 Y32.456 Z-4.500 F1000.000
G1 X233.023 Y32.307 Z-4.500 F1000.000
G1 X240.443 Y24.886 Z-4.500 F1000.000
G1 X239.858 Y25.047 Z-4.500 F1000.000
G1 X232.747 Y32.158 Z-4.500 F1000.000
G3 X232.486 Y31.995 Z-4.500 I0.877 J-1.701 K0.000 F1000.000
G1 X239.273 Y25.208 Z-4.500 F1000.000
G2 X238.657 Y25.400 Z-4.500 I2.539 J9.258 K0.000 F1000.000
G1 X232.229 Y31.828 Z-4.500 F1000.000
G3 X231.973 Y31.660 Z-4.500 I0.932 J-1.701 K0.000 F1000.000
G1 X238.041 Y25.592 Z-4.500 F1000.000
G2 X237.411 Y25.797 Z-4.500 I2.387 J8.380 K0.000 F1000.000
G1 X231.733 Y31.475 Z-4.500 F1000.000
G1 X231.493 Y31.291 Z-4.500 F1000.000
G1 X236.754 Y26.030 Z-4.500 F1000.000
G2 X236.085 Y26.274 Z-4.500 I2.115 J6.819 K0.000 F1000.000
G1 X231.269 Y31.091 Z-4.500 F1000.000
G1 X231.048 Y30.887 Z-4.500 F1000.000
G1 X235.365 Y26.571 Z-4.500 F1000.000
G1 X234.644 Y26.867 Z-4.500 F1000.000
G1 X230.849 Y30.662 Z-4.500 F1000.000
G3 X230.665 Y30.422 Z-4.500 I0.678 J-0.710 K0.000 F1000.000
G1 X233.835 Y27.252 Z-4.500 F1000.000
G2 X232.894 Y27.769 Z-4.500 I3.288 J7.102 K0.000 F1000.000
G1 X230.515 Y30.148 Z-4.500 F1000.000
G3 X230.671 Y29.568 Z-4.500 I0.531 J-0.168 K0.000 F1000.000
G3 X231.672 Y28.566 Z-4.500 I3.588 J2.586 K0.000 F1000.000
G1 X230.671 Y29.568 Z-4.500 F1000.000
G0 Z5.000
G0 X232.407 Y28.863 Z5.000
G0 X232.407 Y28.863 Z3.000
G1 X232.407 Y28.863 Z-5.000 F1000.000
G2 X231.907 Y29.363 Z-5.000 I2.468 J2.968 K0.000 F1000.000
G3 X233.815 Y27.879 Z-5.000 I5.045 J4.518 K0.000 F1000.000
G1 X231.579 Y30.116 Z-5.000 F1000.000
G2 X231.725 Y30.394 Z-5.000 I0.731 J-0.206 K0.000 F1000.000
G1 X234.776 Y27.343 Z-5.000 F1000.000
G1 X235.595 Y26.948 Z-5.000 F1000.000
G1 X231.909 Y30.633 Z-5.000 F1000.000
G2 X232.111 Y30.856 Z-5.000 I1.150 J-0.839 K0.000 F1000.000
G1 X236.319 Y26.648 Z-5.000 F1000.000
G1 X237.042 Y26.349 Z-5.000 F1000.000
G1 X232.326 Y31.065 Z-5.000 F1000.000
G2 X232.556 Y31.259 Z-5.000 I1.156 J-1.132 K0.000 F1000.000
G1 X237.715 Y26.101 Z-5.000 F1000.000
G1 X238.374 Y25.866 Z-5.000 F1000.000
G1 X232.791 Y31.449 Z-5.000 F1000.000
G2 X233.037 Y31.627 Z-5.000 I1.213 J-1.408 K0.000 F1000.000
G1 X239.005 Y25.659 Z-5.000 F1000.000
G1 X239.623 Y25.465 Z-5.000 F1000.000
G1 X233.290 Y31.799 Z-5.000 F1000.000
G1 X233.543 Y31.970 Z-5.000 F1000.000
G1 X240.240 Y25.273 Z-5.000 F1000.000
G1 X240.827 Y25.110 Z-5.000 F1000.000
G1 X233.814 Y32.123 Z-5.000 F1000.000
G1 X234.085 Y32.276 Z-5.000 F1000.000
G1 X241.414 Y24.947 Z-5.000 F1000.000
G3 X242.000 Y24.786 Z-5.000 I5.019 J17.049 K0.000 F1000.000
G1 X234.357 Y32.429 Z-5.000 F1000.000
G1 X234.628 Y32.582 Z-5.000 F1000.000
G1 X242.561 Y24.649 Z-5.000 F1000.000
G1 X243.122 Y24.512 Z-5.000 F1000.000
G1 X234.911 Y32.723 Z-5.000 F1000.000
G1 X235.199 Y32.859 Z-5.000 F1000.000
G1 X243.683 Y24.376 Z-5.000 F1000.000
G3 X244.237 Y24.245 Z-5.000 I2.365 J8.826 K0.000 F1000.000
G1 X235.487 Y32.996 Z-5.000 F1000.000
G1 X235.774 Y33.132 Z-5.000 F1000.000
G1 X244.775 Y24.132 Z-5.000 F1000.000
G1 X245.312 Y24.019 Z-5.000 F1000.000
G1 X236.075 Y33.256 Z-5.000 F1000.000
G1 X236.377 Y33.378 Z-5.000 F1000.000
G1 X245.850 Y23.905 Z-5.000 F1000.000
G1 X246.388 Y23.792 Z-5.000 F1000.000
G1 X236.678 Y33.501 Z-5.000 F1000.000
G1 X236.980 Y33.624 Z-5.000 F1000.000
G1 X246.925 Y23.679 Z-5.000 F1000.000
G1 X247.000 Y23.663 Z-5.000 F1000.000
G1 X247.000 Y24.028 Z-5.000 F1000.000
G1 X237.282 Y33.746 Z-5.000 F1000.000
G2 X237.595 Y33.857 Z-5.000 I1.269 J-3.107 K0.000 F1000.000
G1 X247.000 Y24.452 Z-5.000 F1000.000
G1 X247.000 Y24.877 Z-5.000 F1000.000
G1 X237.910 Y33.967 Z-5.000 F1000.000
G1 X238.224 Y34.077 Z-5.000 F1000.000
G1 X247.000 Y25.301 Z-5.000 F1000.000
G1 X247.000 Y25.725 Z-5.000 F1000.000
G1 X238.538 Y34.187 Z-5.000 F1000.000
G1 X238.852 Y34.297 Z-5.000 F1000.000
G1 X247.000 Y26.149 Z-5.000 F1000.000
G1 X247.000 Y26.574 Z-5.000 F1000.000
G1 X239.175 Y34.399 Z-5.000 F1000.000
G1 X239.499 Y34.499 Z-5.000 F1000.000
G1 X247.000 Y26.998 Z-5.000 F1000.000
G1 X247.000 Y27.422 Z-5.000 F1000.000
G1 X239.823 Y34.599 Z-5.000 F1000.000
G1 X240.147 Y34.699 Z-5.000 F1000.000
G1 X247.000 Y27.846 Z-5.000 F1000.000
G1 X247.000 Y28.271 Z-5.000 F1000.000
G1 X240.478 Y34.793 Z-5.000 F1000.000
G1 X240.811 Y34.884 Z-5.000 F1000.000
G1 X247.000 Y28.695 Z-5.000 F1000.000
G1 X247.000 Y29.119 Z-5.000 F1000.000
G1 X241.144 Y34.975 Z-5.000 F1000.000
G1 X241.477 Y35.066 Z-5.000 F1000.000
G1 X247.000 Y29.543 Z-5.000 F1000.000
G1 X247.000 Y29.968 Z-5.000 F1000.000
G1 X241.810 Y35.157 Z-5.000 F1000.000
G1 X242.143 Y35.249 Z-5.000 F1000.000
G1 X247.000 Y30.392 Z-5.000 F1000.000
G1 X247.000 Y30.816 Z-5.000 F1000.000
G1 X242.482 Y35.334 Z-5.000 F1000.000
G1 X242.825 Y35.416 Z-5.000 F1000.000
G1 X247.000 Y31.241 Z-5.000 F1000.000
G1 X247.000 Y31.665 Z-5.000 F1000.000
G1 X243.167 Y35.497 Z-5.000 F1000.000
G1 X243.510 Y35.579 Z-5.000 F1000.000
G1 X247.000 Y32.089 Z-5.000 F1000.000
G1 X247.000 Y32.513 Z-5.000 F1000.000
G1 X243.853 Y35.660 Z-5.000 F1000.000
G1 X244.196 Y35.742 Z-5.000 F1000.000
G1 X247.000 Y32.938 Z-5.000 F1000.000
G1 X247.000 Y33.362 Z-5.000 F1000.000
G1 X244.538 Y35.823 Z-5.000 F1000.000
G2 X244.888 Y35.898 Z-5.000 I1.383 J-5.613 K0.000 F1000.000
G1 X247.000 Y33.786 Z-5.000 F1000.000
G1 X247.000 Y34.210 Z-5.000 F1000.000
G1 X245.240 Y35.970 Z-5.000 F1000.000
G1 X245.592 Y36.043 Z-5.000 F1000.000
G1 X247.000 Y34.635 Z-5.000 F1000.000
G1 X247.000 Y35.059 Z-5.000 F1000.000
G1 X245.944 Y36.115 Z-5.000 F1000.000
G1 X246.296 Y36.187 Z-5.000 F1000.000
G1 X247.000 Y35.483 Z-5.000 F1000.000
G1 X247.000 Y35.907 Z-5.000 F1000.000
G1 X246.648 Y36.259 Z-5.000 F1000.000
G1 X247.000 Y36.332 Z-5.000 F1000.000
G0 Z5.000
G0 Y36.080 Z5.000
G0 Y36.080 Z3.000
G1 X247.000 Y36.080 Z-5.500 F1000.000
G1 X246.651 Y36.005 Z-5.500 F1000.000
G1 X247.000 Y35.655 Z-5.500 F1000.000
G1 X247.000 Y35.231 Z-5.500 F1000.000
G1 X246.302 Y35.929 Z-5.500 F1000.000
G1 X245.952 Y35.854 Z-5.500 F1000.000
G1 X247.000 Y34.807 Z-5.500 F1000.000
G1 X247.000 Y34.383 Z-5.500 F1000.000
G1 X245.603 Y35.779 Z-5.500 F1000.000
G1 X245.254 Y35.704 Z-5.500 F1000.000
G1 X247.000 Y33.958 Z-5.500 F1000.000
G1 X247.000 Y33.534 Z-5.500 F1000.000
G1 X244.905 Y35.629 Z-5.500 F1000.000
G3 X244.565 Y35.545 Z-5.500 I1.143 J-5.359 K0.000 F1000.000
G1 X247.000 Y33.110 Z-5.500 F1000.000
G1 X247.000 Y32.685 Z-5.500 F1000.000
G1 X244.225 Y35.461 Z-5.500 F1000.000
G1 X243.885 Y35.376 Z-5.500 F1000.000
G1 X247.000 Y32.261 Z-5.500 F1000.000
G1 X247.000 Y31.837 Z-5.500 F1000.000
G1 X243.545 Y35.291 Z-5.500 F1000.000
G1 X243.206 Y35.207 Z-5.500 F1000.000
G1 X247.000 Y31.413 Z-5.500 F1000.000
G1 X247.000 Y30.988 Z-5.500 F1000.000
G1 X242.866 Y35.122 Z-5.500 F1000.000
G3 X242.530 Y35.035 Z-5.500 I1.090 J-4.857 K0.000 F1000.000
G1 X247.000 Y30.564 Z-5.500 F1000.000
G1 X247.000 Y30.140 Z-5.500 F1000.000
G1 X242.200 Y34.940 Z-5.500 F1000.000
G1 X241.870 Y34.846 Z-5.500 F1000.000
G1 X247.000 Y29.716 Z-5.500 F1000.000
G1 X247.000 Y29.291 Z-5.500 F1000.000
G1 X241.540 Y34.751 Z-5.500 F1000.000
G1 X241.210 Y34.657 Z-5.500 F1000.000
G1 X247.000 Y28.867 Z-5.500 F1000.000
G1 X247.000 Y28.443 Z-5.500 F1000.000
G1 X240.880 Y34.563 Z-5.500 F1000.000
G3 X240.554 Y34.465 Z-5.500 I1.298 J-4.919 K0.000 F1000.000
G1 X247.000 Y28.019 Z-5.500 F1000.000
G1 X247.000 Y27.594 Z-5.500 F1000.000
G1 X240.233 Y34.361 Z-5.500 F1000.000
G1 X239.913 Y34.258 Z-5.500 F1000.000
G1 X247.000 Y27.170 Z-5.500 F1000.000
G1 X247.000 Y26.746 Z-5.500 F1000.000
G1 X239.592 Y34.154 Z-5.500 F1000.000
G3 X239.276 Y34.046 Z-5.500 I1.278 J-4.246 K0.000 F1000.000
G1 X247.000 Y26.322 Z-5.500 F1000.000
G1 X247.000 Y25.897 Z-5.500 F1000.000
G1 X238.965 Y33.932 Z-5.500 F1000.000
G1 X238.655 Y33.818 Z-5.500 F1000.000
G1 X247.000 Y25.473 Z-5.500 F1000.000
G1 X247.000 Y25.049 Z-5.500 F1000.000
G1 X238.344 Y33.705 Z-5.500 F1000.000
G1 X238.033 Y33.591 Z-5.500 F1000.000
G1 X247.000 Y24.624 Z-5.500 F1000.000
G1 X247.000 Y24.200 Z-5.500 F1000.000
G1 X237.729 Y33.471 Z-5.500 F1000.000
G1 X237.432 Y33.344 Z-5.500 F1000.000
G1 X246.814 Y23.962 Z-5.500 F1000.000
G1 X246.274 Y24.078 Z-5.500 F1000.000
G1 X237.134 Y33.218 Z-5.500 F1000.000
G1 X236.836 Y33.091 Z-5.500 F1000.000
G1 X245.735 Y24.193 Z-5.500 F1000.000
G1 X245.195 Y24.308 Z-5.500 F1000.000
G1 X236.539 Y32.965 Z-5.500 F1000.000
G3 X236.252 Y32.827 Z-5.500 I1.031 J-2.513 K0.000 F1000.000
G1 X244.643 Y24.436 Z-5.500 F1000.000
G1 X244.080 Y24.574 Z-5.500 F1000.000
G1 X235.968 Y32.686 Z-5.500 F1000.000
G1 X235.685 Y32.545 Z-5.500 F1000.000
G1 X243.517 Y24.713 Z-5.500 F1000.000
G1 X242.954 Y24.852 Z-5.500 F1000.000
G1 X235.404 Y32.402 Z-5.500 F1000.000
G1 X235.137 Y32.245 Z-5.500 F1000.000
G1 X242.370 Y25.012 Z-5.500 F1000.000
G1 X241.781 Y25.177 Z-5.500 F1000.000
G1 X234.870 Y32.087 Z-5.500 F1000.000
G1 X234.603 Y31.930 Z-5.500 F1000.000
G1 X241.191 Y25.342 Z-5.500 F1000.000
G2 X240.575 Y25.534 Z-5.500 I2.552 J9.268 K0.000 F1000.000
G1 X234.341 Y31.768 Z-5.500 F1000.000
G1 X234.092 Y31.592 Z-5.500 F1000.000
G1 X239.954 Y25.731 Z-5.500 F1000.000
G2 X239.321 Y25.940 Z-5.500 I2.387 J8.309 K0.000 F1000.000
G1 X233.844 Y31.417 Z-5.500 F1000.000
G3 X233.610 Y31.226 Z-5.500 I1.002 J-1.468 K0.000 F1000.000
G1 X238.658 Y26.178 Z-5.500 F1000.000
G2 X237.983 Y26.429 Z-5.500 I2.172 J6.873 K0.000 F1000.000
G1 X233.380 Y31.032 Z-5.500 F1000.000
G3 X233.166 Y30.821 Z-5.500 I0.978 J-1.205 K0.000 F1000.000
G1 X237.254 Y26.733 Z-5.500 F1000.000
G2 X236.521 Y27.043 Z-5.500 I2.334 J6.556 K0.000 F1000.000
G1 X232.964 Y30.600 Z-5.500 F1000.000
G3 X232.781 Y30.358 Z-5.500 I0.839 J-0.825 K0.000 F1000.000
G1 X235.695 Y27.445 Z-5.500 F1000.000
G2 X234.712 Y28.003 Z-5.500 I3.593 J7.467 K0.000 F1000.000
G2 X232.771 Y29.653 Z-5.500 I2.857 J5.327 K0.000 F1000.000
G2 X232.640 Y30.075 Z-5.500 I0.273 J0.317 K0.000 F1000.000
G1 X234.712 Y28.003 Z-5.500 F1000.000
G0 Z5.000
G0 X233.700 Y30.024 Z5.000
G0 X233.700 Y30.024 Z3.000
G1 X233.700 Y30.024 Z-6.000 F1000.000
G1 X235.580 Y28.145 Z-6.000 F1000.000
G2 X233.841 Y29.667 Z-6.000 I2.939 J5.111 K0.000 F1000.000
G2 X233.700 Y30.024 Z-6.000 I0.286 J0.319 K0.000 F1000.000
G2 X233.833 Y30.315 Z-6.000 I0.583 J-0.091 K0.000 F1000.000
G1 X236.582 Y27.566 Z-6.000 F1000.000
G3 X237.422 Y27.151 Z-6.000 I3.457 J5.930 K0.000 F1000.000
G1 X234.010 Y30.563 Z-6.000 F1000.000
G1 X234.214 Y30.783 Z-6.000 F1000.000
G1 X238.171 Y26.826 Z-6.000 F1000.000
G1 X238.902 Y26.519 Z-6.000 F1000.000
G1 X234.430 Y30.991 Z-6.000 F1000.000
G1 X234.655 Y31.190 Z-6.000 F1000.000
G1 X239.585 Y26.261 Z-6.000 F1000.000
G1 X240.250 Y26.020 Z-6.000 F1000.000
G1 X234.894 Y31.376 Z-6.000 F1000.000
G1 X235.138 Y31.556 Z-6.000 F1000.000
G1 X240.886 Y25.808 Z-6.000 F1000.000
G1 X241.509 Y25.609 Z-6.000 F1000.000
G1 X235.390 Y31.729 Z-6.000 F1000.000
G1 X235.653 Y31.890 Z-6.000 F1000.000
G1 X242.128 Y25.414 Z-6.000 F1000.000
G1 X242.720 Y25.247 Z-6.000 F1000.000
G1 X235.916 Y32.051 Z-6.000 F1000.000
G1 X236.179 Y32.212 Z-6.000 F1000.000
G1 X243.311 Y25.080 Z-6.000 F1000.000
G3 X243.895 Y24.920 Z-6.000 I3.164 J10.410 K0.000 F1000.000
G1 X236.454 Y32.362 Z-6.000 F1000.000
G1 X236.734 Y32.506 Z-6.000 F1000.000
G1 X244.460 Y24.780 Z-6.000 F1000.000
G1 X245.024 Y24.640 Z-6.000 F1000.000
G1 X237.014 Y32.651 Z-6.000 F1000.000
G2 X237.297 Y32.791 Z-6.000 I1.316 J-2.291 K0.000 F1000.000
G1 X245.589 Y24.499 Z-6.000 F1000.000
G3 X246.140 Y24.373 Z-6.000 I2.291 J8.718 K0.000 F1000.000
G1 X237.591 Y32.922 Z-6.000 F1000.000
G1 X237.885 Y33.052 Z-6.000 F1000.000
G1 X246.681 Y24.256 Z-6.000 F1000.000
G1 X247.000 Y24.187 Z-6.000 F1000.000
G1 X247.000 Y24.361 Z-6.000 F1000.000
G1 X238.179 Y33.182 Z-6.000 F1000.000
G1 X238.473 Y33.312 Z-6.000 F1000.000
G1 X247.000 Y24.785 Z-6.000 F1000.000
G1 X247.000 Y25.210 Z-6.000 F1000.000
G1 X238.778 Y33.432 Z-6.000 F1000.000
G1 X239.085 Y33.549 Z-6.000 F1000.000
G1 X247.000 Y25.634 Z-6.000 F1000.000
G1 X247.000 Y26.058 Z-6.000 F1000.000
G1 X239.392 Y33.666 Z-6.000 F1000.000
G1 X239.700 Y33.783 Z-6.000 F1000.000
G1 X247.000 Y26.482 Z-6.000 F1000.000
G1 X247.000 Y26.907 Z-6.000 F1000.000
G1 X240.007 Y33.900 Z-6.000 F1000.000
G1 X240.325 Y34.006 Z-6.000 F1000.000
G1 X247.000 Y27.331 Z-6.000 F1000.000
G1 X247.000 Y27.755 Z-6.000 F1000.000
G1 X240.642 Y34.113 Z-6.000 F1000.000
G1 X240.959 Y34.220 Z-6.000 F1000.000
G1 X247.000 Y28.179 Z-6.000 F1000.000
G1 X247.000 Y28.604 Z-6.000 F1000.000
G1 X241.280 Y34.324 Z-6.000 F1000.000
G1 X241.607 Y34.421 Z-6.000 F1000.000
G1 X247.000 Y29.028 Z-6.000 F1000.000
G1 X247.000 Y29.452 Z-6.000 F1000.000
G1 X241.933 Y34.519 Z-6.000 F1000.000
G1 X242.260 Y34.616 Z-6.000 F1000.000
G1 X247.000 Y29.877 Z-6.000 F1000.000
G1 X247.000 Y30.301 Z-6.000 F1000.000
G1 X242.587 Y34.714 Z-6.000 F1000.000
G1 X242.914 Y34.812 Z-6.000 F1000.000
G1 X247.000 Y30.725 Z-6.000 F1000.000
G1 X247.000 Y31.149 Z-6.000 F1000.000
G1 X243.246 Y34.903 Z-6.000 F1000.000
G1 X243.583 Y34.991 Z-6.000 F1000.000
G1 X247.000 Y31.574 Z-6.000 F1000.000
G1 X247.000 Y31.998 Z-6.000 F1000.000
G1 X243.920 Y35.078 Z-6.000 F1000.000
G1 X244.256 Y35.166 Z-6.000 F1000.000
G1 X247.000 Y32.422 Z-6.000 F1000.000
G1 X247.000 Y32.846 Z-6.000 F1000.000
G1 X244.593 Y35.253 Z-6.000 F1000.000
G1 X244.930 Y35.341 Z-6.000 F1000.000
G1 X247.000 Y33.271 Z-6.000 F1000.000
G1 X247.000 Y33.695 Z-6.000 F1000.000
G1 X245.269 Y35.426 Z-6.000 F1000.000
G1 X245.615 Y35.504 Z-6.000 F1000.000
G1 X247.000 Y34.119 Z-6.000 F1000.000
G1 X247.000 Y34.543 Z-6.000 F1000.000
G1 X245.961 Y35.582 Z-6.000 F1000.000
G1 X246.307 Y35.660 Z-6.000 F1000.000
G1 X247.000 Y34.968 Z-6.000 F1000.000
G1 X247.000 Y35.392 Z-6.000 F1000.000
G1 X246.654 Y35.738 Z-6.000 F1000.000
G1 X247.000 Y35.816 Z-6.000 F1000.000
G0 Z5.000
G0 Y35.540 Z5.000
G0 Y35.540 Z3.000
G1 X247.000 Y35.540 Z-6.500 F1000.000
G1 X246.657 Y35.459 Z-6.500 F1000.000
G1 X247.000 Y35.116 Z-6.500 F1000.000
G1 X247.000 Y34.692 Z-6.500 F1000.000
G1 X246.314 Y35.378 Z-6.500 F1000.000
G1 X245.970 Y35.297 Z-6.500 F1000.000
G1 X247.000 Y34.267 Z-6.500 F1000.000
G1 X247.000 Y33.843 Z-6.500 F1000.000
G1 X245.627 Y35.216 Z-6.500 F1000.000
G3 X245.290 Y35.129 Z-6.500 I1.125 J-5.058 K0.000 F1000.000
G1 X247.000 Y33.419 Z-6.500 F1000.000
G1 X247.000 Y32.994 Z-6.500 F1000.000
G1 X244.957 Y35.038 Z-6.500 F1000.000
G1 X244.623 Y34.947 Z-6.500 F1000.000
G1 X247.000 Y32.570 Z-6.500 F1000.000
G1 X247.000 Y32.146 Z-6.500 F1000.000
G1 X244.290 Y34.856 Z-6.500 F1000.000
G1 X243.956 Y34.766 Z-6.500 F1000.000
G1 X247.000 Y31.722 Z-6.500 F1000.000
G1 X247.000 Y31.297 Z-6.500 F1000.000
G1 X243.623 Y34.675 Z-6.500 F1000.000
G3 X243.293 Y34.580 Z-6.500 I1.102 J-4.423 K0.000 F1000.000
G1 X247.000 Y30.873 Z-6.500 F1000.000
G1 X247.000 Y30.449 Z-6.500 F1000.000
G1 X242.970 Y34.479 Z-6.500 F1000.000
G1 X242.647 Y34.377 Z-6.500 F1000.000
G1 X247.000 Y30.025 Z-6.500 F1000.000
G1 X247.000 Y29.600 Z-6.500 F1000.000
G1 X242.324 Y34.276 Z-6.500 F1000.000
G1 X242.001 Y34.175 Z-6.500 F1000.000
G1 X247.000 Y29.176 Z-6.500 F1000.000
G1 X247.000 Y28.752 Z-6.500 F1000.000
G1 X241.678 Y34.074 Z-6.500 F1000.000
G3 X241.363 Y33.965 Z-6.500 I1.388 J-4.508 K0.000 F1000.000
G1 X247.000 Y28.328 Z-6.500 F1000.000
G1 X247.000 Y27.903 Z-6.500 F1000.000
G1 X241.049 Y33.854 Z-6.500 F1000.000
G1 X240.735 Y33.744 Z-6.500 F1000.000
G1 X247.000 Y27.479 Z-6.500 F1000.000
G1 X247.000 Y27.055 Z-6.500 F1000.000
G1 X240.426 Y33.629 Z-6.500 F1000.000
G1 X240.123 Y33.508 Z-6.500 F1000.000
G1 X247.000 Y26.631 Z-6.500 F1000.000
G1 X247.000 Y26.206 Z-6.500 F1000.000
G1 X239.819 Y33.387 Z-6.500 F1000.000
G1 X239.516 Y33.266 Z-6.500 F1000.000
G1 X247.000 Y25.782 Z-6.500 F1000.000
G1 X247.000 Y25.358 Z-6.500 F1000.000
G1 X239.212 Y33.145 Z-6.500 F1000.000
G3 X238.920 Y33.013 Z-6.500 I1.070 J-2.753 K0.000 F1000.000
G1 X247.000 Y24.933 Z-6.500 F1000.000
G1 X247.000 Y24.509 Z-6.500 F1000.000
G1 X238.630 Y32.879 Z-6.500 F1000.000
G1 X238.340 Y32.745 Z-6.500 F1000.000
G1 X246.519 Y24.566 Z-6.500 F1000.000
G1 X245.952 Y24.709 Z-6.500 F1000.000
G1 X238.050 Y32.610 Z-6.500 F1000.000
G3 X237.770 Y32.467 Z-6.500 I1.014 J-2.329 K0.000 F1000.000
G1 X245.386 Y24.851 Z-6.500 F1000.000
G1 X244.819 Y24.993 Z-6.500 F1000.000
G1 X237.494 Y32.318 Z-6.500 F1000.000
G1 X237.219 Y32.169 Z-6.500 F1000.000
G1 X244.234 Y25.154 Z-6.500 F1000.000
G1 X243.641 Y25.323 Z-6.500 F1000.000
G1 X236.949 Y32.014 Z-6.500 F1000.000
G1 X236.691 Y31.848 Z-6.500 F1000.000
G1 X243.048 Y25.492 Z-6.500 F1000.000
G2 X242.426 Y25.689 Z-6.500 I2.642 J9.389 K0.000 F1000.000
G1 X236.433 Y31.683 Z-6.500 F1000.000
G1 X236.174 Y31.517 Z-6.500 F1000.000
G1 X241.801 Y25.890 Z-6.500 F1000.000
G2 X241.159 Y26.107 Z-6.500 I2.462 J8.328 K0.000 F1000.000
G1 X235.935 Y31.332 Z-6.500 F1000.000
G1 X235.695 Y31.147 Z-6.500 F1000.000
G1 X240.491 Y26.351 Z-6.500 F1000.000
G2 X239.800 Y26.618 Z-6.500 I2.321 J7.035 K0.000 F1000.000
G1 X235.472 Y30.946 Z-6.500 F1000.000
G3 X235.254 Y30.740 Z-6.500 I0.877 J-1.143 K0.000 F1000.000
G1 X239.065 Y26.929 Z-6.500 F1000.000
G2 X238.298 Y27.271 Z-6.500 I2.601 J6.856 K0.000 F1000.000
G1 X235.057 Y30.513 Z-6.500 F1000.000
G3 X234.881 Y30.264 Z-6.500 I0.756 J-0.718 K0.000 F1000.000
G1 X237.426 Y27.720 Z-6.500 F1000.000
G2 X236.364 Y28.357 Z-6.500 I3.473 J6.986 K0.000 F1000.000
G1 X234.782 Y29.939 Z-6.500 F1000.000
G3 X235.665 Y28.874 Z-6.500 I2.577 J1.238 K0.000 F1000.000
G3 X236.364 Y28.357 Z-6.500 I4.174 J4.916 K0.000 F1000.000
G0 Z5.000
G0 X235.944 Y29.760 Z5.000
G0 X235.944 Y29.760 Z3.000
G1 X235.944 Y29.760 Z-7.000 F1000.000
G3 X237.079 Y28.625 Z-7.000 I3.483 J2.348 K0.000 F1000.000
G1 X235.944 Y29.760 Z-7.000 F1000.000
G2 X235.925 Y30.203 Z-7.000 I0.218 J0.231 K0.000 F1000.000
G1 X238.234 Y27.894 Z-7.000 F1000.000
G3 X239.146 Y27.406 Z-7.000 I4.014 J6.407 K0.000 F1000.000
G1 X236.096 Y30.457 Z-7.000 F1000.000
G2 X236.291 Y30.686 Z-7.000 I1.153 J-0.782 K0.000 F1000.000
G1 X239.934 Y27.043 Z-7.000 F1000.000
G1 X240.673 Y26.728 Z-7.000 F1000.000
G1 X236.505 Y30.896 Z-7.000 F1000.000
G2 X236.730 Y31.095 Z-7.000 I1.154 J-1.085 K0.000 F1000.000
G1 X241.375 Y26.450 Z-7.000 F1000.000
G1 X242.046 Y26.203 Z-7.000 F1000.000
G1 X236.965 Y31.284 Z-7.000 F1000.000
G2 X237.210 Y31.464 Z-7.000 I1.117 J-1.268 K0.000 F1000.000
G1 X242.694 Y25.979 Z-7.000 F1000.000
G1 X243.322 Y25.776 Z-7.000 F1000.000
G1 X237.464 Y31.634 Z-7.000 F1000.000
G1 X237.718 Y31.804 Z-7.000 F1000.000
G1 X243.948 Y25.574 Z-7.000 F1000.000
G1 X244.546 Y25.401 Z-7.000 F1000.000
G1 X237.979 Y31.968 Z-7.000 F1000.000
G1 X238.250 Y32.120 Z-7.000 F1000.000
G1 X245.143 Y25.227 Z-7.000 F1000.000
G3 X245.720 Y25.075 Z-7.000 I2.970 J10.077 K0.000 F1000.000
G1 X238.522 Y32.273 Z-7.000 F1000.000
G2 X238.797 Y32.422 Z-7.000 I1.317 J-2.100 K0.000 F1000.000
G1 X246.292 Y24.927 Z-7.000 F1000.000
G1 X246.865 Y24.779 Z-7.000 F1000.000
G1 X239.083 Y32.561 Z-7.000 F1000.000
G1 X239.369 Y32.699 Z-7.000 F1000.000
G1 X247.000 Y25.068 Z-7.000 F1000.000
G1 X247.000 Y25.492 Z-7.000 F1000.000
G1 X239.655 Y32.837 Z-7.000 F1000.000
G2 X239.946 Y32.970 Z-7.000 I1.345 J-2.564 K0.000 F1000.000
G1 X247.000 Y25.916 Z-7.000 F1000.000
G1 X247.000 Y26.340 Z-7.000 F1000.000
G1 X240.246 Y33.095 Z-7.000 F1000.000
G1 X240.545 Y33.219 Z-7.000 F1000.000
G1 X247.000 Y26.765 Z-7.000 F1000.000
G1 X247.000 Y27.189 Z-7.000 F1000.000
G1 X240.845 Y33.344 Z-7.000 F1000.000
G1 X241.144 Y33.469 Z-7.000 F1000.000
G1 X247.000 Y27.613 Z-7.000 F1000.000
G1 X247.000 Y28.038 Z-7.000 F1000.000
G1 X241.454 Y33.583 Z-7.000 F1000.000
G1 X241.764 Y33.698 Z-7.000 F1000.000
G1 X247.000 Y28.462 Z-7.000 F1000.000
G1 X247.000 Y28.886 Z-7.000 F1000.000
G1 X242.074 Y33.812 Z-7.000 F1000.000
G2 X242.392 Y33.918 Z-7.000 I1.629 J-4.356 K0.000 F1000.000
G1 X247.000 Y29.310 Z-7.000 F1000.000
G1 X247.000 Y29.735 Z-7.000 F1000.000
G1 X242.712 Y34.023 Z-7.000 F1000.000
G1 X243.031 Y34.128 Z-7.000 F1000.000
G1 X247.000 Y30.159 Z-7.000 F1000.000
G1 X247.000 Y30.583 Z-7.000 F1000.000
G1 X243.350 Y34.233 Z-7.000 F1000.000
G1 X243.670 Y34.338 Z-7.000 F1000.000
G1 X247.000 Y31.007 Z-7.000 F1000.000
G1 X247.000 Y31.432 Z-7.000 F1000.000
G1 X243.995 Y34.437 Z-7.000 F1000.000
G1 X244.325 Y34.531 Z-7.000 F1000.000
G1 X247.000 Y31.856 Z-7.000 F1000.000
G1 X247.000 Y32.280 Z-7.000 F1000.000
G1 X244.655 Y34.625 Z-7.000 F1000.000
G1 X244.985 Y34.720 Z-7.000 F1000.000
G1 X247.000 Y32.704 Z-7.000 F1000.000
G1 X247.000 Y33.129 Z-7.000 F1000.000
G1 X245.315 Y34.814 Z-7.000 F1000.000
G1 X245.645 Y34.908 Z-7.000 F1000.000
G1 X247.000 Y33.553 Z-7.000 F1000.000
G1 X247.000 Y33.977 Z-7.000 F1000.000
G1 X245.980 Y34.997 Z-7.000 F1000.000
G1 X246.320 Y35.081 Z-7.000 F1000.000
G1 X247.000 Y34.401 Z-7.000 F1000.000
G1 X247.000 Y34.826 Z-7.000 F1000.000
G1 X246.660 Y35.166 Z-7.000 F1000.000
G1 X247.000 Y35.250 Z-7.000 F1000.000
G0 Z5.000
G0 Y34.945 Z5.000
G0 Y34.945 Z3.000
G1 X247.000 Y34.945 Z-7.500 F1000.000
G1 X246.664 Y34.857 Z-7.500 F1000.000
G1 X247.000 Y34.520 Z-7.500 F1000.000
G1 X247.000 Y34.096 Z-7.500 F1000.000
G1 X246.327 Y34.769 Z-7.500 F1000.000
G3 X245.994 Y34.678 Z-7.500 I1.097 J-4.693 K0.000 F1000.000
G1 X247.000 Y33.672 Z-7.500 F1000.000
G1 X247.000 Y33.248 Z-7.500 F1000.000
G1 X245.668 Y34.580 Z-7.500 F1000.000
G1 X245.341 Y34.482 Z-7.500 F1000.000
G1 X247.000 Y32.823 Z-7.500 F1000.000
G1 X247.000 Y32.399 Z-7.500 F1000.000
G1 X245.015 Y34.384 Z-7.500 F1000.000
G1 X244.689 Y34.286 Z-7.500 F1000.000
G1 X247.000 Y31.975 Z-7.500 F1000.000
G1 X247.000 Y31.550 Z-7.500 F1000.000
G1 X244.362 Y34.188 Z-7.500 F1000.000
G3 X244.042 Y34.084 Z-7.500 I1.111 J-3.968 K0.000 F1000.000
G1 X247.000 Y31.126 Z-7.500 F1000.000
G1 X247.000 Y30.702 Z-7.500 F1000.000
G1 X243.727 Y33.975 Z-7.500 F1000.000
G1 X243.412 Y33.866 Z-7.500 F1000.000
G1 X247.000 Y30.278 Z-7.500 F1000.000
G1 X247.000 Y29.853 Z-7.500 F1000.000
G1 X243.096 Y33.757 Z-7.500 F1000.000
G1 X242.781 Y33.648 Z-7.500 F1000.000
G1 X247.000 Y29.429 Z-7.500 F1000.000
G1 X247.000 Y29.005 Z-7.500 F1000.000
G1 X242.470 Y33.535 Z-7.500 F1000.000
G1 X242.164 Y33.417 Z-7.500 F1000.000
G1 X247.000 Y28.581 Z-7.500 F1000.000
G1 X247.000 Y28.156 Z-7.500 F1000.000
G1 X241.858 Y33.298 Z-7.500 F1000.000
G3 X241.558 Y33.174 Z-7.500 I1.317 J-3.594 K0.000 F1000.000
G1 X247.000 Y27.732 Z-7.500 F1000.000
G1 X247.000 Y27.308 Z-7.500 F1000.000
G1 X241.263 Y33.045 Z-7.500 F1000.000
G1 X240.968 Y32.916 Z-7.500 F1000.000
G1 X247.000 Y26.884 Z-7.500 F1000.000
G1 X247.000 Y26.459 Z-7.500 F1000.000
G1 X240.673 Y32.787 Z-7.500 F1000.000
G3 X240.382 Y32.653 Z-7.500 I1.024 J-2.599 K0.000 F1000.000
G1 X247.000 Y26.035 Z-7.500 F1000.000
G1 X247.000 Y25.611 Z-7.500 F1000.000
G1 X240.101 Y32.510 Z-7.500 F1000.000
G1 X239.819 Y32.367 Z-7.500 F1000.000
G1 X247.000 Y25.186 Z-7.500 F1000.000
G1 X247.000 Y25.054 Z-7.500 F1000.000
G1 X246.605 Y25.157 Z-7.500 F1000.000
G1 X239.538 Y32.224 Z-7.500 F1000.000
G3 X239.268 Y32.070 Z-7.500 I1.045 J-2.139 K0.000 F1000.000
G1 X246.025 Y25.313 Z-7.500 F1000.000
G1 X245.425 Y25.488 Z-7.500 F1000.000
G1 X239.002 Y31.912 Z-7.500 F1000.000
G1 X238.735 Y31.754 Z-7.500 F1000.000
G1 X244.825 Y25.664 Z-7.500 F1000.000
G1 X244.195 Y25.870 Z-7.500 F1000.000
G1 X238.483 Y31.582 Z-7.500 F1000.000
G1 X238.234 Y31.406 Z-7.500 F1000.000
G1 X243.564 Y26.077 Z-7.500 F1000.000
G2 X242.909 Y26.307 Z-7.500 I2.584 J8.381 K0.000 F1000.000
G1 X237.986 Y31.231 Z-7.500 F1000.000
G3 X237.756 Y31.037 Z-7.500 I0.922 J-1.327 K0.000 F1000.000
G1 X242.234 Y26.558 Z-7.500 F1000.000
G2 X241.519 Y26.849 Z-7.500 I2.536 J7.255 K0.000 F1000.000
G1 X237.528 Y30.840 Z-7.500 F1000.000
G1 X237.321 Y30.623 Z-7.500 F1000.000
G1 X240.774 Y27.169 Z-7.500 F1000.000
G2 X239.961 Y27.558 Z-7.500 I2.972 J7.259 K0.000 F1000.000
G1 X237.128 Y30.392 Z-7.500 F1000.000
G3 X236.963 Y30.132 Z-7.500 I0.746 J-0.655 K0.000 F1000.000
G1 X239.001 Y28.094 Z-7.500 F1000.000
G2 X237.043 Y29.721 Z-7.500 I2.678 J5.215 K0.000 F1000.000
G2 X236.916 Y30.000 Z-7.500 I0.456 J0.377 K0.000 F1000.000
G2 X236.963 Y30.132 Z-7.500 I0.382 J-0.063 K0.000 F1000.000
G0 Z5.000
G0 X239.723 Y28.322 Z5.000
G0 X239.723 Y28.322 Z3.000
G1 X239.723 Y28.322 Z-8.000 F1000.000
G1 X238.002 Y30.044 Z-8.000 F1000.000
G3 X238.027 Y29.889 Z-8.000 I0.125 J-0.059 K0.000 F1000.000
G3 X239.082 Y28.764 Z-8.000 I3.251 J1.993 K0.000 F1000.000
G3 X239.723 Y28.322 Z-8.000 I3.084 J3.789 K0.000 F1000.000
G3 X240.741 Y27.729 Z-8.000 I4.818 J7.096 K0.000 F1000.000
G1 X238.153 Y30.317 Z-8.000 F1000.000
G2 X238.342 Y30.552 Z-8.000 I1.115 J-0.702 K0.000 F1000.000
G1 X241.586 Y27.308 Z-8.000 F1000.000
G1 X242.332 Y26.986 Z-8.000 F1000.000
G1 X238.548 Y30.771 Z-8.000 F1000.000
G1 X238.770 Y30.973 Z-8.000 F1000.000
G1 X243.066 Y26.676 Z-8.000 F1000.000
G1 X243.743 Y26.424 Z-8.000 F1000.000
G1 X239.003 Y31.164 Z-8.000 F1000.000
G1 X239.246 Y31.345 Z-8.000 F1000.000
G1 X244.410 Y26.181 Z-8.000 F1000.000
G1 X245.042 Y25.974 Z-8.000 F1000.000
G1 X239.489 Y31.526 Z-8.000 F1000.000
G2 X239.749 Y31.691 Z-8.000 I1.113 J-1.467 K0.000 F1000.000
G1 X245.674 Y25.766 Z-8.000 F1000.000
G3 X246.284 Y25.580 Z-8.000 I3.704 J11.045 K0.000 F1000.000
G1 X240.010 Y31.854 Z-8.000 F1000.000
G2 X240.273 Y32.015 Z-8.000 I1.321 J-1.858 K0.000 F1000.000
G1 X246.882 Y25.406 Z-8.000 F1000.000
G1 X247.000 Y25.374 Z-8.000 F1000.000
G1 X247.000 Y25.712 Z-8.000 F1000.000
G1 X240.549 Y32.163 Z-8.000 F1000.000
G1 X240.826 Y32.310 Z-8.000 F1000.000
G1 X247.000 Y26.137 Z-8.000 F1000.000
G1 X247.000 Y26.561 Z-8.000 F1000.000
G1 X241.103 Y32.458 Z-8.000 F1000.000
G2 X241.391 Y32.595 Z-8.000 I1.294 J-2.353 K0.000 F1000.000
G1 X247.000 Y26.985 Z-8.000 F1000.000
G1 X247.000 Y27.409 Z-8.000 F1000.000
G1 X241.681 Y32.728 Z-8.000 F1000.000
G1 X241.972 Y32.862 Z-8.000 F1000.000
G1 X247.000 Y27.834 Z-8.000 F1000.000
G1 X247.000 Y28.258 Z-8.000 F1000.000
G1 X242.263 Y32.995 Z-8.000 F1000.000
G2 X242.562 Y33.121 Z-8.000 I1.597 J-3.391 K0.000 F1000.000
G1 X247.000 Y28.682 Z-8.000 F1000.000
G1 X247.000 Y29.106 Z-8.000 F1000.000
G1 X242.863 Y33.244 Z-8.000 F1000.000
G2 X243.167 Y33.364 Z-8.000 I1.739 J-3.937 K0.000 F1000.000
G1 X247.000 Y29.531 Z-8.000 F1000.000
G1 X247.000 Y29.955 Z-8.000 F1000.000
G1 X243.478 Y33.477 Z-8.000 F1000.000
G1 X243.789 Y33.591 Z-8.000 F1000.000
G1 X247.000 Y30.379 Z-8.000 F1000.000
G1 X247.000 Y30.803 Z-8.000 F1000.000
G1 X244.099 Y33.704 Z-8.000 F1000.000
G1 X244.410 Y33.817 Z-8.000 F1000.000
G1 X247.000 Y31.228 Z-8.000 F1000.000
G1 X247.000 Y31.652 Z-8.000 F1000.000
G1 X244.725 Y33.927 Z-8.000 F1000.000
G1 X245.048 Y34.029 Z-8.000 F1000.000
G1 X247.000 Y32.076 Z-8.000 F1000.000
G1 X247.000 Y32.501 Z-8.000 F1000.000
G1 X245.370 Y34.131 Z-8.000 F1000.000
G1 X245.692 Y34.233 Z-8.000 F1000.000
G1 X247.000 Y32.925 Z-8.000 F1000.000
G1 X247.000 Y33.349 Z-8.000 F1000.000
G1 X246.014 Y34.335 Z-8.000 F1000.000
G1 X246.336 Y34.437 Z-8.000 F1000.000
G1 X247.000 Y33.773 Z-8.000 F1000.000
G1 X247.000 Y34.198 Z-8.000 F1000.000
G1 X246.668 Y34.530 Z-8.000 F1000.000
G1 X247.000 Y34.622 Z-8.000 F1000.000
G0 Z5.000
G0 Y34.280 Z5.000
G0 Y34.280 Z3.000
G1 X247.000 Y34.280 Z-8.500 F1000.000
G3 X246.672 Y34.183 Z-8.500 I1.079 J-4.282 K0.000 F1000.000
G1 X247.000 Y33.855 Z-8.500 F1000.000
G1 X247.000 Y33.431 Z-8.500 F1000.000
G1 X246.354 Y34.077 Z-8.500 F1000.000
G1 X246.036 Y33.971 Z-8.500 F1000.000
G1 X247.000 Y33.007 Z-8.500 F1000.000
G1 X247.000 Y32.583 Z-8.500 F1000.000
G1 X245.718 Y33.864 Z-8.500 F1000.000
G1 X245.401 Y33.758 Z-8.500 F1000.000
G1 X247.000 Y32.158 Z-8.500 F1000.000
G1 X247.000 Y31.734 Z-8.500 F1000.000
G1 X245.083 Y33.651 Z-8.500 F1000.000
G3 X244.774 Y33.536 Z-8.500 I1.132 J-3.485 K0.000 F1000.000
G1 X247.000 Y31.310 Z-8.500 F1000.000
G1 X247.000 Y30.886 Z-8.500 F1000.000
G1 X244.468 Y33.417 Z-8.500 F1000.000
G1 X244.162 Y33.299 Z-8.500 F1000.000
G1 X247.000 Y30.461 Z-8.500 F1000.000
G1 X247.000 Y30.037 Z-8.500 F1000.000
G1 X243.856 Y33.181 Z-8.500 F1000.000
G3 X243.551 Y33.062 Z-8.500 I1.393 J-4.008 K0.000 F1000.000
G1 X247.000 Y29.613 Z-8.500 F1000.000
G1 X247.000 Y29.188 Z-8.500 F1000.000
G1 X243.254 Y32.934 Z-8.500 F1000.000
G1 X242.958 Y32.807 Z-8.500 F1000.000
G1 X247.000 Y28.764 Z-8.500 F1000.000
G1 X247.000 Y28.340 Z-8.500 F1000.000
G1 X242.671 Y32.669 Z-8.500 F1000.000
G1 X242.385 Y32.530 Z-8.500 F1000.000
G1 X247.000 Y27.916 Z-8.500 F1000.000
G1 X247.000 Y27.491 Z-8.500 F1000.000
G1 X242.099 Y32.392 Z-8.500 F1000.000
G3 X241.816 Y32.251 Z-8.500 I1.000 J-2.369 K0.000 F1000.000
G1 X247.000 Y27.067 Z-8.500 F1000.000
G1 X247.000 Y26.643 Z-8.500 F1000.000
G1 X241.544 Y32.099 Z-8.500 F1000.000
G1 X241.273 Y31.946 Z-8.500 F1000.000
G1 X247.000 Y26.219 Z-8.500 F1000.000
G1 X247.000 Y25.794 Z-8.500 F1000.000
G1 X241.003 Y31.792 Z-8.500 F1000.000
G1 X240.747 Y31.623 Z-8.500 F1000.000
G1 X246.494 Y25.877 Z-8.500 F1000.000
G1 X245.859 Y26.087 Z-8.500 F1000.000
G1 X240.491 Y31.455 Z-8.500 F1000.000
G3 X240.244 Y31.277 Z-8.500 I0.896 J-1.503 K0.000 F1000.000
G1 X245.225 Y26.297 Z-8.500 F1000.000
G2 X244.545 Y26.552 Z-8.500 I2.841 J8.602 K0.000 F1000.000
G1 X240.008 Y31.090 Z-8.500 F1000.000
G3 X239.772 Y30.901 Z-8.500 I0.818 J-1.257 K0.000 F1000.000
G1 X243.861 Y26.812 Z-8.500 F1000.000
G1 X243.110 Y27.139 Z-8.500 F1000.000
G1 X239.557 Y30.692 Z-8.500 F1000.000
G3 X239.354 Y30.470 Z-8.500 I0.912 J-1.040 K0.000 F1000.000
G1 X242.335 Y27.490 Z-8.500 F1000.000
G2 X241.439 Y27.962 Z-8.500 I2.975 J6.736 K0.000 F1000.000
G1 X239.169 Y30.231 Z-8.500 F1000.000
G3 X239.062 Y29.998 Z-8.500 I0.611 J-0.422 K0.000 F1000.000
G3 X239.124 Y29.852 Z-8.500 I0.454 J0.106 K0.000 F1000.000
G1 X240.285 Y28.691 Z-8.500 F1000.000
G2 X239.124 Y29.852 Z-8.500 I2.122 J3.283 K0.000 F1000.000
G0 Z5.000
G0 X240.188 Y30.121 Z5.000
G0 X240.188 Y30.121 Z3.000
G1 X240.188 Y30.121 Z-9.000 F1000.000
G1 X242.055 Y28.254 Z-9.000 F1000.000
G2 X240.246 Y29.771 Z-9.000 I2.591 J4.924 K0.000 F1000.000
G2 X240.136 Y29.998 Z-9.000 I0.413 J0.341 K0.000 F1000.000
G2 X240.188 Y30.121 Z-9.000 I0.434 J-0.111 K0.000 F1000.000
G2 X240.358 Y30.375 Z-9.000 I0.711 J-0.293 K0.000 F1000.000
G1 X243.029 Y27.704 Z-9.000 F1000.000
G3 X243.846 Y27.311 Z-9.000 I3.846 J6.952 K0.000 F1000.000
G1 X240.556 Y30.602 Z-9.000 F1000.000
G2 X240.768 Y30.813 Z-9.000 I1.107 J-0.900 K0.000 F1000.000
G1 X244.604 Y26.977 Z-9.000 F1000.000
G3 X245.310 Y26.696 Z-9.000 I3.161 J6.903 K0.000 F1000.000
G1 X240.998 Y31.007 Z-9.000 F1000.000
G2 X241.229 Y31.200 Z-9.000 I1.173 J-1.170 K0.000 F1000.000
G1 X245.996 Y26.434 Z-9.000 F1000.000
G3 X246.641 Y26.213 Z-9.000 I3.049 J7.844 K0.000 F1000.000
G1 X241.479 Y31.375 Z-9.000 F1000.000
G1 X241.729 Y31.550 Z-9.000 F1000.000
G1 X247.000 Y26.278 Z-9.000 F1000.000
G1 X247.000 Y26.703 Z-9.000 F1000.000
G1 X241.989 Y31.714 Z-9.000 F1000.000
G1 X242.255 Y31.872 Z-9.000 F1000.000
G1 X247.000 Y27.127 Z-9.000 F1000.000
G1 X247.000 Y27.551 Z-9.000 F1000.000
G1 X242.521 Y32.030 Z-9.000 F1000.000
G2 X242.799 Y32.176 Z-9.000 I1.274 J-2.088 K0.000 F1000.000
G1 X247.000 Y27.975 Z-9.000 F1000.000
G1 X247.000 Y28.400 Z-9.000 F1000.000
G1 X243.080 Y32.320 Z-9.000 F1000.000
G1 X243.360 Y32.464 Z-9.000 F1000.000
G1 X247.000 Y28.824 Z-9.000 F1000.000
G1 X247.000 Y29.248 Z-9.000 F1000.000
G1 X243.644 Y32.605 Z-9.000 F1000.000
G1 X243.935 Y32.738 Z-9.000 F1000.000
G1 X247.000 Y29.672 Z-9.000 F1000.000
G1 X247.000 Y30.097 Z-9.000 F1000.000
G1 X244.230 Y32.866 Z-9.000 F1000.000
G1 X244.531 Y32.990 Z-9.000 F1000.000
G1 X247.000 Y30.521 Z-9.000 F1000.000
G1 X247.000 Y30.945 Z-9.000 F1000.000
G1 X244.832 Y33.113 Z-9.000 F1000.000
G1 X245.133 Y33.236 Z-9.000 F1000.000
G1 X247.000 Y31.370 Z-9.000 F1000.000
G1 X247.000 Y31.794 Z-9.000 F1000.000
G1 X245.434 Y33.359 Z-9.000 F1000.000
G2 X245.747 Y33.471 Z-9.000 I1.327 J-3.239 K0.000 F1000.000
G1 X247.000 Y32.218 Z-9.000 F1000.000
G1 X247.000 Y32.642 Z-9.000 F1000.000
G1 X246.060 Y33.582 Z-9.000 F1000.000
G1 X246.374 Y33.693 Z-9.000 F1000.000
G1 X247.000 Y33.067 Z-9.000 F1000.000
G1 X247.000 Y33.491 Z-9.000 F1000.000
G1 X246.687 Y33.804 Z-9.000 F1000.000
G2 X247.000 Y33.915 Z-9.000 I1.526 J-3.817 K0.000 F1000.000
G0 Z5.000
G0 Y33.511 Z5.000
G0 Y33.511 Z3.000
G1 X247.000 Y33.511 Z-9.500 F1000.000
G1 X246.692 Y33.394 Z-9.500 F1000.000
G1 X247.000 Y33.086 Z-9.500 F1000.000
G1 X247.000 Y32.662 Z-9.500 F1000.000
G1 X246.385 Y33.277 Z-9.500 F1000.000
G1 X246.077 Y33.161 Z-9.500 F1000.000
G1 X247.000 Y32.238 Z-9.500 F1000.000
G1 X247.000 Y31.814 Z-9.500 F1000.000
G1 X245.774 Y33.040 Z-9.500 F1000.000
G1 X245.481 Y32.908 Z-9.500 F1000.000
G1 X247.000 Y31.389 Z-9.500 F1000.000
G1 X247.000 Y30.965 Z-9.500 F1000.000
G1 X245.189 Y32.776 Z-9.500 F1000.000
G1 X244.897 Y32.644 Z-9.500 F1000.000
G1 X247.000 Y30.541 Z-9.500 F1000.000
G1 X247.000 Y30.116 Z-9.500 F1000.000
G1 X244.605 Y32.512 Z-9.500 F1000.000
G1 X244.313 Y32.380 Z-9.500 F1000.000
G1 X247.000 Y29.692 Z-9.500 F1000.000
G1 X247.000 Y29.268 Z-9.500 F1000.000
G1 X244.029 Y32.239 Z-9.500 F1000.000
G1 X243.754 Y32.090 Z-9.500 F1000.000
G1 X247.000 Y28.844 Z-9.500 F1000.000
G1 X247.000 Y28.419 Z-9.500 F1000.000
G1 X243.479 Y31.940 Z-9.500 F1000.000
G3 X243.208 Y31.787 Z-9.500 I1.000 J-2.080 K0.000 F1000.000
G1 X247.000 Y27.995 Z-9.500 F1000.000
G1 X247.000 Y27.571 Z-9.500 F1000.000
G1 X242.949 Y31.622 Z-9.500 F1000.000
G1 X242.689 Y31.458 Z-9.500 F1000.000
G1 X247.000 Y27.147 Z-9.500 F1000.000
G1 X247.000 Y26.722 Z-9.500 F1000.000
G1 X242.442 Y31.281 Z-9.500 F1000.000
G1 X242.199 Y31.099 Z-9.500 F1000.000
G1 X246.697 Y26.601 Z-9.500 F1000.000
G1 X246.007 Y26.867 Z-9.500 F1000.000
G1 X241.967 Y30.907 Z-9.500 F1000.000
G1 X241.744 Y30.705 Z-9.500 F1000.000
G1 X245.270 Y27.180 Z-9.500 F1000.000
G1 X244.507 Y27.518 Z-9.500 F1000.000
G1 X241.536 Y30.489 Z-9.500 F1000.000
G3 X241.352 Y30.249 Z-9.500 I0.780 J-0.789 K0.000 F1000.000
G1 X243.635 Y27.966 Z-9.500 F1000.000
G2 X242.501 Y28.675 Z-9.500 I3.822 J7.369 K0.000 F1000.000
G1 X241.226 Y29.951 Z-9.500 F1000.000
G3 X241.988 Y29.064 Z-9.500 I2.366 J1.262 K0.000 F1000.000
G3 X242.501 Y28.675 Z-9.500 I3.386 J3.944 K0.000 F1000.000
G0 Z5.000
G0 X244.053 Y28.382 Z5.000
G0 X244.053 Y28.382 Z3.000
G1 X244.053 Y28.382 Z-10.000 F1000.000
G1 X242.331 Y30.104 Z-10.000 F1000.000
G3 X242.301 Y29.950 Z-10.000 I0.063 J-0.092 K0.000 F1000.000
G3 X242.681 Y29.437 Z-10.000 I1.818 J0.950 K0.000 F1000.000
G3 X244.053 Y28.382 Z-10.000 I4.478 J4.403 K0.000 F1000.000
G3 X245.046 Y27.814 Z-10.000 I4.560 J6.812 K0.000 F1000.000
G1 X242.505 Y30.355 Z-10.000 F1000.000
G2 X242.705 Y30.579 Z-10.000 I1.054 J-0.740 K0.000 F1000.000
G1 X245.869 Y27.414 Z-10.000 F1000.000
G1 X246.639 Y27.069 Z-10.000 F1000.000
G1 X242.918 Y30.790 Z-10.000 F1000.000
G2 X243.149 Y30.983 Z-10.000 I1.066 J-1.038 K0.000 F1000.000
G1 X247.000 Y27.132 Z-10.000 F1000.000
G1 X247.000 Y27.556 Z-10.000 F1000.000
G1 X243.383 Y31.173 Z-10.000 F1000.000
G2 X243.633 Y31.348 Z-10.000 I1.197 J-1.441 K0.000 F1000.000
G1 X247.000 Y27.981 Z-10.000 F1000.000
G1 X247.000 Y28.405 Z-10.000 F1000.000
G1 X243.885 Y31.520 Z-10.000 F1000.000
G2 X244.146 Y31.683 Z-10.000 I1.274 J-1.746 K0.000 F1000.000
G1 X247.000 Y28.829 Z-10.000 F1000.000
G1 X247.000 Y29.253 Z-10.000 F1000.000
G1 X244.414 Y31.839 Z-10.000 F1000.000
G1 X244.683 Y31.995 Z-10.000 F1000.000
G1 X247.000 Y29.678 Z-10.000 F1000.000
G1 X247.000 Y30.102 Z-10.000 F1000.000
G1 X244.961 Y32.141 Z-10.000 F1000.000
G1 X245.246 Y32.280 Z-10.000 F1000.000
G1 X247.000 Y30.526 Z-10.000 F1000.000
G1 X247.000 Y30.951 Z-10.000 F1000.000
G1 X245.532 Y32.418 Z-10.000 F1000.000
G1 X245.818 Y32.557 Z-10.000 F1000.000
G1 X247.000 Y31.375 Z-10.000 F1000.000
G1 X247.000 Y31.799 Z-10.000 F1000.000
G1 X246.103 Y32.696 Z-10.000 F1000.000
G2 X246.398 Y32.826 Z-10.000 I1.168 J-2.244 K0.000 F1000.000
G1 X247.000 Y32.223 Z-10.000 F1000.000
G1 X247.000 Y32.648 Z-10.000 F1000.000
G1 X246.699 Y32.949 Z-10.000 F1000.000
G1 X247.000 Y33.072 Z-10.000 F1000.000
G0 Z5.000
G0 Y32.591 Z5.000
G0 Y32.591 Z3.000
G1 X247.000 Y32.591 Z-10.500 F1000.000
G1 X246.706 Y32.461 Z-10.500 F1000.000
G1 X247.000 Y32.167 Z-10.500 F1000.000
G1 X247.000 Y31.742 Z-10.500 F1000.000
G1 X246.425 Y32.317 Z-10.500 F1000.000
G1 X246.146 Y32.172 Z-10.500 F1000.000
G1 X247.000 Y31.318 Z-10.500 F1000.000
G1 X247.000 Y30.894 Z-10.500 F1000.000
G1 X245.868 Y32.026 Z-10.500 F1000.000
G1 X245.589 Y31.881 Z-10.500 F1000.000
G1 X247.000 Y30.470 Z-10.500 F1000.000
G1 X247.000 Y30.045 Z-10.500 F1000.000
G1 X245.320 Y31.725 Z-10.500 F1000.000
G1 X245.059 Y31.562 Z-10.500 F1000.000
G1 X247.000 Y29.621 Z-10.500 F1000.000
G1 X247.000 Y29.197 Z-10.500 F1000.000
G1 X244.798 Y31.399 Z-10.500 F1000.000
G3 X244.552 Y31.221 Z-10.500 I1.000 J-1.643 K0.000 F1000.000
G1 X247.000 Y28.772 Z-10.500 F1000.000
G1 X247.000 Y28.348 Z-10.500 F1000.000
G1 X244.308 Y31.040 Z-10.500 F1000.000
G3 X244.076 Y30.848 Z-10.500 I0.939 J-1.366 K0.000 F1000.000
G1 X247.000 Y27.924 Z-10.500 F1000.000
G1 X247.000 Y27.500 Z-10.500 F1000.000
G1 X243.852 Y30.648 Z-10.500 F1000.000
G3 X243.647 Y30.428 Z-10.500 I0.937 J-1.075 K0.000 F1000.000
G1 X246.377 Y27.698 Z-10.500 F1000.000
G2 X245.452 Y28.199 Z-10.500 I3.091 J6.816 K0.000 F1000.000
G1 X243.462 Y30.189 Z-10.500 F1000.000
G3 X243.450 Y29.820 Z-10.500 I0.120 J-0.189 K0.000 F1000.000
G3 X243.977 Y29.250 Z-10.500 I2.287 J1.587 K0.000 F1000.000
G2 X243.580 Y29.646 Z-10.500 I1.475 J1.871 K0.000 F1000.000
G0 Z5.000
G0 X244.486 Y29.893 Z5.000
G0 X244.486 Y29.893 Z3.000
G1 X244.486 Y29.893 Z-11.000 F1000.000
G1 X245.477 Y28.902 Z-11.000 F1000.000
G2 X244.516 Y29.838 Z-11.000 I2.167 J3.186 K0.000 F1000.000
G1 X244.486 Y29.893 Z-11.000 F1000.000
G1 X244.437 Y29.982 Z-11.000 F1000.000
G2 X244.570 Y30.233 Z-11.000 I0.372 J-0.037 K0.000 F1000.000
G1 X246.673 Y28.130 Z-11.000 F1000.000
G1 X247.000 Y27.955 Z-11.000 F1000.000
G1 X247.000 Y28.228 Z-11.000 F1000.000
G1 X244.760 Y30.468 Z-11.000 F1000.000
G1 X244.974 Y30.678 Z-11.000 F1000.000
G1 X247.000 Y28.652 Z-11.000 F1000.000
G1 X247.000 Y29.076 Z-11.000 F1000.000
G1 X245.200 Y30.877 Z-11.000 F1000.000
G1 X245.434 Y31.067 Z-11.000 F1000.000
G1 X247.000 Y29.501 Z-11.000 F1000.000
G1 X247.000 Y29.925 Z-11.000 F1000.000
G1 X245.680 Y31.245 Z-11.000 F1000.000
G1 X245.933 Y31.416 Z-11.000 F1000.000
G1 X247.000 Y30.349 Z-11.000 F1000.000
G1 X247.000 Y30.773 Z-11.000 F1000.000
G1 X246.188 Y31.585 Z-11.000 F1000.000
G1 X246.459 Y31.739 Z-11.000 F1000.000
G1 X247.000 Y31.198 Z-11.000 F1000.000
G1 X247.000 Y31.622 Z-11.000 F1000.000
G1 X246.729 Y31.892 Z-11.000 F1000.000
G1 X247.000 Y32.046 Z-11.000 F1000.000
G0 Z5.000
G0 Y31.396 Z5.000
G0 Y31.396 Z3.000
G1 X247.000 Y31.396 Z-11.500 F1000.000
G3 X246.746 Y31.226 Z-11.500 I0.895 J-1.609 K0.000 F1000.000
G1 X247.000 Y30.972 Z-11.500 F1000.000
G1 X247.000 Y30.548 Z-11.500 F1000.000
G1 X246.503 Y31.045 Z-11.500 F1000.000
G3 X246.264 Y30.859 Z-11.500 I0.887 J-1.387 K0.000 F1000.000
G1 X247.000 Y30.123 Z-11.500 F1000.000
G1 X247.000 Y29.699 Z-11.500 F1000.000
G1 X246.040 Y30.659 Z-11.500 F1000.000
G3 X245.829 Y30.446 Z-11.500 I0.898 J-1.102 K0.000 F1000.000
G1 X247.000 Y29.275 Z-11.500 F1000.000
G1 X247.000 Y28.851 Z-11.500 F1000.000
G1 X245.634 Y30.217 Z-11.500 F1000.000
G3 X245.510 Y29.990 Z-11.500 I0.191 J-0.252 K0.000 F1000.000
G3 X245.610 Y29.816 Z-11.500 I0.836 J0.367 K0.000 F1000.000
G1 X246.370 Y29.057 Z-11.500 F1000.000
G2 X245.610 Y29.816 Z-11.500 I2.075 J2.834 K0.000 F1000.000
G0 Z5.000
G0 X247.000 Y29.688 Z5.000
G0 X247.000 Y29.688 Z3.000
G1 X247.000 Y29.688 Z-12.000 F1000.000
G1 X247.000 Y29.461 Z-12.000 F1000.000
G2 X246.582 Y29.998 Z-12.000 I1.190 J1.357 K0.000 F1000.000
G2 X246.620 Y30.068 Z-12.000 I0.253 J-0.089 K0.000 F1000.000
G1 X247.000 Y29.688 Z-12.000 F1000.000
G1 X247.000 Y30.112 Z-12.000 F1000.000
G1 X246.796 Y30.316 Z-12.000 F1000.000
G2 X247.000 Y30.536 Z-12.000 I1.050 J-0.770 K0.000 F1000.000
G0 Z5.000
G0 Z5.000
(Finish operation: Pocket3D)
(Begin postamble)
M5
G17 G90
M2
