(Exported by FreeCAD)
(Post Processor: script_module)
(Output Time:2025-05-17 11:27:08.322818)
(Begin preamble)
G17 G90
G21
(Begin operation: Fixture)
(Path: Fixture)
G54
(Finish operation: Fixture)
(Begin operation: endmill_compression_3175_spe001)
(Path: endmill_compression_3175_spe001)
(endmill_compression_3175_spe001)
(Begin toolchange)
( M6 T2 )
M3 S18000
(Finish operation: endmill_compression_3175_spe001)
(Begin operation: Pocket_Shape)
(Path: Pocket_Shape)
(Pocket_Shape)
G0 Z15.000
G0 X234.409 Y36.290
G0 Z13.000
G1 X234.409 Y36.290 Z9.500 F600.000
G1 X234.409 Y38.980 Z9.500 F600.000
G1 X231.719 Y36.290 Z9.500 F600.000
G1 X229.029 Y36.290 Z9.500 F600.000
G1 X234.409 Y41.670 Z9.500 F600.000
G1 X234.409 Y44.360 Z9.500 F600.000
G1 X226.339 Y36.290 Z9.500 F600.000
G1 X223.649 Y36.290 Z9.500 F600.000
G1 X234.409 Y47.050 Z9.500 F600.000
G1 X234.409 Y49.739 Z9.500 F600.000
G1 X220.960 Y36.290 Z9.500 F600.000
G1 X218.270 Y36.290 Z9.500 F600.000
G1 X234.409 Y52.429 Z9.500 F600.000
G1 X234.409 Y55.119 Z9.500 F600.000
G1 X215.580 Y36.290 Z9.500 F600.000
G1 X212.890 Y36.290 Z9.500 F600.000
G1 X234.409 Y57.809 Z9.500 F600.000
G1 X234.409 Y60.499 Z9.500 F600.000
G1 X210.200 Y36.290 Z9.500 F600.000
G1 X207.510 Y36.290 Z9.500 F600.000
G1 X234.409 Y63.189 Z9.500 F600.000
G1 X234.409 Y65.878 Z9.500 F600.000
G1 X204.821 Y36.290 Z9.500 F600.000
G1 X202.131 Y36.290 Z9.500 F600.000
G1 X234.409 Y68.568 Z9.500 F600.000
G1 X234.409 Y71.258 Z9.500 F600.000
G1 X199.441 Y36.290 Z9.500 F600.000
G1 X196.751 Y36.290 Z9.500 F600.000
G1 X234.409 Y73.948 Z9.500 F600.000
G1 X234.409 Y76.638 Z9.500 F600.000
G1 X194.061 Y36.290 Z9.500 F600.000
G1 X191.371 Y36.290 Z9.500 F600.000
G1 X234.409 Y79.328 Z9.500 F600.000
G1 X234.409 Y82.017 Z9.500 F600.000
G1 X188.682 Y36.290 Z9.500 F600.000
G1 X185.992 Y36.290 Z9.500 F600.000
G1 X234.409 Y84.707 Z9.500 F600.000
G1 X234.409 Y87.397 Z9.500 F600.000
G1 X183.302 Y36.290 Z9.500 F600.000
G1 X180.612 Y36.290 Z9.500 F600.000
G1 X234.409 Y90.087 Z9.500 F600.000
G1 X234.409 Y92.777 Z9.500 F600.000
G1 X177.922 Y36.290 Z9.500 F600.000
G1 X175.232 Y36.290 Z9.500 F600.000
G1 X234.409 Y95.467 Z9.500 F600.000
G1 X234.409 Y98.156 Z9.500 F600.000
G1 X172.543 Y36.290 Z9.500 F600.000
G1 X169.853 Y36.290 Z9.500 F600.000
G1 X234.409 Y100.846 Z9.500 F600.000
G1 X234.409 Y103.536 Z9.500 F600.000
G1 X167.163 Y36.290 Z9.500 F600.000
G1 X164.473 Y36.290 Z9.500 F600.000
G1 X234.409 Y106.226 Z9.500 F600.000
G1 X234.409 Y108.916 Z9.500 F600.000
G1 X161.783 Y36.290 Z9.500 F600.000
G1 X159.093 Y36.290 Z9.500 F600.000
G1 X234.409 Y111.606 Z9.500 F600.000
G1 X234.409 Y114.295 Z9.500 F600.000
G1 X156.404 Y36.290 Z9.500 F600.000
G1 X153.714 Y36.290 Z9.500 F600.000
G1 X234.409 Y116.985 Z9.500 F600.000
G1 X234.409 Y119.675 Z9.500 F600.000
G1 X151.024 Y36.290 Z9.500 F600.000
G1 X148.334 Y36.290 Z9.500 F600.000
G1 X234.409 Y122.365 Z9.500 F600.000
G1 X234.409 Y125.055 Z9.500 F600.000
G1 X145.644 Y36.290 Z9.500 F600.000
G1 X142.954 Y36.290 Z9.500 F600.000
G1 X234.409 Y127.745 Z9.500 F600.000
G1 X234.409 Y130.434 Z9.500 F600.000
G1 X140.265 Y36.290 Z9.500 F600.000
G1 X137.575 Y36.290 Z9.500 F600.000
G1 X234.409 Y133.124 Z9.500 F600.000
G1 X234.409 Y135.814 Z9.500 F600.000
G1 X134.885 Y36.290 Z9.500 F600.000
G1 X132.195 Y36.290 Z9.500 F600.000
G1 X234.409 Y138.504 Z9.500 F600.000
G1 X234.409 Y141.194 Z9.500 F600.000
G1 X129.505 Y36.290 Z9.500 F600.000
G1 X126.815 Y36.290 Z9.500 F600.000
G1 X234.409 Y143.884 Z9.500 F600.000
G1 X234.409 Y146.573 Z9.500 F600.000
G1 X124.126 Y36.290 Z9.500 F600.000
G1 X121.436 Y36.290 Z9.500 F600.000
G1 X234.409 Y149.263 Z9.500 F600.000
G1 X234.409 Y151.953 Z9.500 F600.000
G1 X118.746 Y36.290 Z9.500 F600.000
G1 X116.056 Y36.290 Z9.500 F600.000
G1 X234.409 Y154.643 Z9.500 F600.000
G1 X234.409 Y157.333 Z9.500 F600.000
G1 X113.366 Y36.290 Z9.500 F600.000
G1 X110.676 Y36.290 Z9.500 F600.000
G1 X234.409 Y160.023 Z9.500 F600.000
G1 X234.409 Y162.712 Z9.500 F600.000
G1 X107.987 Y36.290 Z9.500 F600.000
G1 X105.297 Y36.290 Z9.500 F600.000
G1 X234.409 Y165.402 Z9.500 F600.000
G1 X234.409 Y168.092 Z9.500 F600.000
G1 X102.607 Y36.290 Z9.500 F600.000
G1 X99.917 Y36.290 Z9.500 F600.000
G1 X234.409 Y170.782 Z9.500 F600.000
G1 X234.409 Y173.472 Z9.500 F600.000
G1 X97.227 Y36.290 Z9.500 F600.000
G1 X94.537 Y36.290 Z9.500 F600.000
G1 X234.409 Y176.162 Z9.500 F600.000
G1 X234.409 Y178.851 Z9.500 F600.000
G1 X91.848 Y36.290 Z9.500 F600.000
G1 X89.158 Y36.290 Z9.500 F600.000
G1 X234.409 Y181.541 Z9.500 F600.000
G1 X234.409 Y184.231 Z9.500 F600.000
G1 X86.468 Y36.290 Z9.500 F600.000
G1 X83.778 Y36.290 Z9.500 F600.000
G1 X234.409 Y186.921 Z9.500 F600.000
G1 X234.409 Y189.611 Z9.500 F600.000
G1 X81.088 Y36.290 Z9.500 F600.000
G1 X78.398 Y36.290 Z9.500 F600.000
G1 X234.409 Y192.301 Z9.500 F600.000
G1 X234.409 Y194.990 Z9.500 F600.000
G1 X75.709 Y36.290 Z9.500 F600.000
G1 X73.019 Y36.290 Z9.500 F600.000
G1 X234.409 Y197.680 Z9.500 F600.000
G1 X234.409 Y200.370 Z9.500 F600.000
G1 X70.329 Y36.290 Z9.500 F600.000
G1 X67.639 Y36.290 Z9.500 F600.000
G1 X234.409 Y203.060 Z9.500 F600.000
G1 X234.409 Y205.750 Z9.500 F600.000
G1 X64.949 Y36.290 Z9.500 F600.000
G1 X62.259 Y36.290 Z9.500 F600.000
G1 X234.409 Y208.440 Z9.500 F600.000
G1 X234.409 Y211.129 Z9.500 F600.000
G1 X59.570 Y36.290 Z9.500 F600.000
G1 X56.880 Y36.290 Z9.500 F600.000
G1 X234.409 Y213.819 Z9.500 F600.000
G1 X234.409 Y216.509 Z9.500 F600.000
G1 X54.190 Y36.290 Z9.500 F600.000
G1 X51.500 Y36.290 Z9.500 F600.000
G1 X234.409 Y219.199 Z9.500 F600.000
G1 X234.409 Y221.889 Z9.500 F600.000
G1 X48.810 Y36.290 Z9.500 F600.000
G1 X46.120 Y36.290 Z9.500 F600.000
G1 X234.409 Y224.579 Z9.500 F600.000
G1 X234.409 Y227.268 Z9.500 F600.000
G1 X43.431 Y36.290 Z9.500 F600.000
G1 X40.741 Y36.290 Z9.500 F600.000
G1 X234.409 Y229.958 Z9.500 F600.000
G1 X234.409 Y232.648 Z9.500 F600.000
G1 X38.051 Y36.290 Z9.500 F600.000
G1 X37.579 Y36.290 Z9.500 F600.000
G1 X37.579 Y38.508 Z9.500 F600.000
G1 X232.191 Y233.120 Z9.500 F600.000
G1 X229.501 Y233.120 Z9.500 F600.000
G1 X37.579 Y41.198 Z9.500 F600.000
G1 X37.579 Y43.888 Z9.500 F600.000
G1 X226.811 Y233.120 Z9.500 F600.000
G1 X224.122 Y233.120 Z9.500 F600.000
G1 X37.579 Y46.577 Z9.500 F600.000
G1 X37.579 Y49.267 Z9.500 F600.000
G1 X221.432 Y233.120 Z9.500 F600.000
G1 X218.742 Y233.120 Z9.500 F600.000
G1 X37.579 Y51.957 Z9.500 F600.000
G1 X37.579 Y54.647 Z9.500 F600.000
G1 X216.052 Y233.120 Z9.500 F600.000
G1 X213.362 Y233.120 Z9.500 F600.000
G1 X37.579 Y57.337 Z9.500 F600.000
G1 X37.579 Y60.027 Z9.500 F600.000
G1 X210.672 Y233.120 Z9.500 F600.000
G1 X207.983 Y233.120 Z9.500 F600.000
G1 X37.579 Y62.716 Z9.500 F600.000
G1 X37.579 Y65.406 Z9.500 F600.000
G1 X205.293 Y233.120 Z9.500 F600.000
G1 X202.603 Y233.120 Z9.500 F600.000
G1 X37.579 Y68.096 Z9.500 F600.000
G1 X37.579 Y70.786 Z9.500 F600.000
G1 X199.913 Y233.120 Z9.500 F600.000
G1 X197.223 Y233.120 Z9.500 F600.000
G1 X37.579 Y73.476 Z9.500 F600.000
G1 X37.579 Y76.166 Z9.500 F600.000
G1 X194.533 Y233.120 Z9.500 F600.000
G1 X191.844 Y233.120 Z9.500 F600.000
G1 X37.579 Y78.855 Z9.500 F600.000
G1 X37.579 Y81.545 Z9.500 F600.000
G1 X189.154 Y233.120 Z9.500 F600.000
G1 X186.464 Y233.120 Z9.500 F600.000
G1 X37.579 Y84.235 Z9.500 F600.000
G1 X37.579 Y86.925 Z9.500 F600.000
G1 X183.774 Y233.120 Z9.500 F600.000
G1 X181.084 Y233.120 Z9.500 F600.000
G1 X37.579 Y89.615 Z9.500 F600.000
G1 X37.579 Y92.305 Z9.500 F600.000
G1 X178.394 Y233.120 Z9.500 F600.000
G1 X175.705 Y233.120 Z9.500 F600.000
G1 X37.579 Y94.994 Z9.500 F600.000
G1 X37.579 Y97.684 Z9.500 F600.000
G1 X173.015 Y233.120 Z9.500 F600.000
G1 X170.325 Y233.120 Z9.500 F600.000
G1 X37.579 Y100.374 Z9.500 F600.000
G1 X37.579 Y103.064 Z9.500 F600.000
G1 X167.635 Y233.120 Z9.500 F600.000
G1 X164.945 Y233.120 Z9.500 F600.000
G1 X37.579 Y105.754 Z9.500 F600.000
G1 X37.579 Y108.444 Z9.500 F600.000
G1 X162.255 Y233.120 Z9.500 F600.000
G1 X159.566 Y233.120 Z9.500 F600.000
G1 X37.579 Y111.133 Z9.500 F600.000
G1 X37.579 Y113.823 Z9.500 F600.000
G1 X156.876 Y233.120 Z9.500 F600.000
G1 X154.186 Y233.120 Z9.500 F600.000
G1 X37.579 Y116.513 Z9.500 F600.000
G1 X37.579 Y119.203 Z9.500 F600.000
G1 X151.496 Y233.120 Z9.500 F600.000
G1 X148.806 Y233.120 Z9.500 F600.000
G1 X37.579 Y121.893 Z9.500 F600.000
G1 X37.579 Y124.583 Z9.500 F600.000
G1 X146.116 Y233.120 Z9.500 F600.000
G1 X143.426 Y233.120 Z9.500 F600.000
G1 X37.579 Y127.272 Z9.500 F600.000
G1 X37.579 Y129.962 Z9.500 F600.000
G1 X140.737 Y233.120 Z9.500 F600.000
G1 X138.047 Y233.120 Z9.500 F600.000
G1 X37.579 Y132.652 Z9.500 F600.000
G1 X37.579 Y135.342 Z9.500 F600.000
G1 X135.357 Y233.120 Z9.500 F600.000
G1 X132.667 Y233.120 Z9.500 F600.000
G1 X37.579 Y138.032 Z9.500 F600.000
G1 X37.579 Y140.722 Z9.500 F600.000
G1 X129.977 Y233.120 Z9.500 F600.000
G1 X127.287 Y233.120 Z9.500 F600.000
G1 X37.579 Y143.411 Z9.500 F600.000
G1 X37.579 Y146.101 Z9.500 F600.000
G1 X124.598 Y233.120 Z9.500 F600.000
G1 X121.908 Y233.120 Z9.500 F600.000
G1 X37.579 Y148.791 Z9.500 F600.000
G1 X37.579 Y151.481 Z9.500 F600.000
G1 X119.218 Y233.120 Z9.500 F600.000
G1 X116.528 Y233.120 Z9.500 F600.000
G1 X37.579 Y154.171 Z9.500 F600.000
G1 X37.579 Y156.861 Z9.500 F600.000
G1 X113.838 Y233.120 Z9.500 F600.000
G1 X111.148 Y233.120 Z9.500 F600.000
G1 X37.579 Y159.550 Z9.500 F600.000
G1 X37.579 Y162.240 Z9.500 F600.000
G1 X108.459 Y233.120 Z9.500 F600.000
G1 X105.769 Y233.120 Z9.500 F600.000
G1 X37.579 Y164.930 Z9.500 F600.000
G1 X37.579 Y167.620 Z9.500 F600.000
G1 X103.079 Y233.120 Z9.500 F600.000
G1 X100.389 Y233.120 Z9.500 F600.000
G1 X37.579 Y170.310 Z9.500 F600.000
G1 X37.579 Y173.000 Z9.500 F600.000
G1 X97.699 Y233.120 Z9.500 F600.000
G1 X95.009 Y233.120 Z9.500 F600.000
G1 X37.579 Y175.689 Z9.500 F600.000
G1 X37.579 Y178.379 Z9.500 F600.000
G1 X92.320 Y233.120 Z9.500 F600.000
G1 X89.630 Y233.120 Z9.500 F600.000
G1 X37.579 Y181.069 Z9.500 F600.000
G1 X37.579 Y183.759 Z9.500 F600.000
G1 X86.940 Y233.120 Z9.500 F600.000
G1 X84.250 Y233.120 Z9.500 F600.000
G1 X37.579 Y186.449 Z9.500 F600.000
G1 X37.579 Y189.139 Z9.500 F600.000
G1 X81.560 Y233.120 Z9.500 F600.000
G1 X78.870 Y233.120 Z9.500 F600.000
G1 X37.579 Y191.828 Z9.500 F600.000
G1 X37.579 Y194.518 Z9.500 F600.000
G1 X76.181 Y233.120 Z9.500 F600.000
G1 X73.491 Y233.120 Z9.500 F600.000
G1 X37.579 Y197.208 Z9.500 F600.000
G1 X37.579 Y199.898 Z9.500 F600.000
G1 X70.801 Y233.120 Z9.500 F600.000
G1 X68.111 Y233.120 Z9.500 F600.000
G1 X37.579 Y202.588 Z9.500 F600.000
G1 X37.579 Y205.278 Z9.500 F600.000
G1 X65.421 Y233.120 Z9.500 F600.000
G1 X62.731 Y233.120 Z9.500 F600.000
G1 X37.579 Y207.967 Z9.500 F600.000
G1 X37.579 Y210.657 Z9.500 F600.000
G1 X60.042 Y233.120 Z9.500 F600.000
G1 X57.352 Y233.120 Z9.500 F600.000
G1 X37.579 Y213.347 Z9.500 F600.000
G1 X37.579 Y216.037 Z9.500 F600.000
G1 X54.662 Y233.120 Z9.500 F600.000
G1 X51.972 Y233.120 Z9.500 F600.000
G1 X37.579 Y218.727 Z9.500 F600.000
G1 X37.579 Y221.417 Z9.500 F600.000
G1 X49.282 Y233.120 Z9.500 F600.000
G1 X46.592 Y233.120 Z9.500 F600.000
G1 X37.579 Y224.106 Z9.500 F600.000
G1 X37.579 Y226.796 Z9.500 F600.000
G1 X43.903 Y233.120 Z9.500 F600.000
G1 X41.213 Y233.120 Z9.500 F600.000
G1 X37.579 Y229.486 Z9.500 F600.000
G1 X37.579 Y232.176 Z9.500 F600.000
G1 X38.523 Y233.120 Z9.500 F600.000
G1 X37.579 Y233.120 Z9.500 F600.000
G1 X37.579 Y232.176 Z9.500 F600.000
G1 X37.579 Y232.176 Z9.000 F600.000
G1 X37.579 Y233.120 Z9.000 F600.000
G1 X38.523 Y233.120 Z9.000 F600.000
G1 X37.579 Y232.176 Z9.000 F600.000
G1 X37.579 Y229.486 Z9.000 F600.000
G1 X41.213 Y233.120 Z9.000 F600.000
G1 X43.903 Y233.120 Z9.000 F600.000
G1 X37.579 Y226.796 Z9.000 F600.000
G1 X37.579 Y224.106 Z9.000 F600.000
G1 X46.592 Y233.120 Z9.000 F600.000
G1 X49.282 Y233.120 Z9.000 F600.000
G1 X37.579 Y221.417 Z9.000 F600.000
G1 X37.579 Y218.727 Z9.000 F600.000
G1 X51.972 Y233.120 Z9.000 F600.000
G1 X54.662 Y233.120 Z9.000 F600.000
G1 X37.579 Y216.037 Z9.000 F600.000
G1 X37.579 Y213.347 Z9.000 F600.000
G1 X57.352 Y233.120 Z9.000 F600.000
G1 X60.042 Y233.120 Z9.000 F600.000
G1 X37.579 Y210.657 Z9.000 F600.000
G1 X37.579 Y207.967 Z9.000 F600.000
G1 X62.731 Y233.120 Z9.000 F600.000
G1 X65.421 Y233.120 Z9.000 F600.000
G1 X37.579 Y205.278 Z9.000 F600.000
G1 X37.579 Y202.588 Z9.000 F600.000
G1 X68.111 Y233.120 Z9.000 F600.000
G1 X70.801 Y233.120 Z9.000 F600.000
G1 X37.579 Y199.898 Z9.000 F600.000
G1 X37.579 Y197.208 Z9.000 F600.000
G1 X73.491 Y233.120 Z9.000 F600.000
G1 X76.181 Y233.120 Z9.000 F600.000
G1 X37.579 Y194.518 Z9.000 F600.000
G1 X37.579 Y191.828 Z9.000 F600.000
G1 X78.870 Y233.120 Z9.000 F600.000
G1 X81.560 Y233.120 Z9.000 F600.000
G1 X37.579 Y189.139 Z9.000 F600.000
G1 X37.579 Y186.449 Z9.000 F600.000
G1 X84.250 Y233.120 Z9.000 F600.000
G1 X86.940 Y233.120 Z9.000 F600.000
G1 X37.579 Y183.759 Z9.000 F600.000
G1 X37.579 Y181.069 Z9.000 F600.000
G1 X89.630 Y233.120 Z9.000 F600.000
G1 X92.320 Y233.120 Z9.000 F600.000
G1 X37.579 Y178.379 Z9.000 F600.000
G1 X37.579 Y175.689 Z9.000 F600.000
G1 X95.009 Y233.120 Z9.000 F600.000
G1 X97.699 Y233.120 Z9.000 F600.000
G1 X37.579 Y173.000 Z9.000 F600.000
G1 X37.579 Y170.310 Z9.000 F600.000
G1 X100.389 Y233.120 Z9.000 F600.000
G1 X103.079 Y233.120 Z9.000 F600.000
G1 X37.579 Y167.620 Z9.000 F600.000
G1 X37.579 Y164.930 Z9.000 F600.000
G1 X105.769 Y233.120 Z9.000 F600.000
G1 X108.459 Y233.120 Z9.000 F600.000
G1 X37.579 Y162.240 Z9.000 F600.000
G1 X37.579 Y159.550 Z9.000 F600.000
G1 X111.148 Y233.120 Z9.000 F600.000
G1 X113.838 Y233.120 Z9.000 F600.000
G1 X37.579 Y156.861 Z9.000 F600.000
G1 X37.579 Y154.171 Z9.000 F600.000
G1 X116.528 Y233.120 Z9.000 F600.000
G1 X119.218 Y233.120 Z9.000 F600.000
G1 X37.579 Y151.481 Z9.000 F600.000
G1 X37.579 Y148.791 Z9.000 F600.000
G1 X121.908 Y233.120 Z9.000 F600.000
G1 X124.598 Y233.120 Z9.000 F600.000
G1 X37.579 Y146.101 Z9.000 F600.000
G1 X37.579 Y143.411 Z9.000 F600.000
G1 X127.287 Y233.120 Z9.000 F600.000
G1 X129.977 Y233.120 Z9.000 F600.000
G1 X37.579 Y140.722 Z9.000 F600.000
G1 X37.579 Y138.032 Z9.000 F600.000
G1 X132.667 Y233.120 Z9.000 F600.000
G1 X135.357 Y233.120 Z9.000 F600.000
G1 X37.579 Y135.342 Z9.000 F600.000
G1 X37.579 Y132.652 Z9.000 F600.000
G1 X138.047 Y233.120 Z9.000 F600.000
G1 X140.737 Y233.120 Z9.000 F600.000
G1 X37.579 Y129.962 Z9.000 F600.000
G1 X37.579 Y127.272 Z9.000 F600.000
G1 X143.426 Y233.120 Z9.000 F600.000
G1 X146.116 Y233.120 Z9.000 F600.000
G1 X37.579 Y124.583 Z9.000 F600.000
G1 X37.579 Y121.893 Z9.000 F600.000
G1 X148.806 Y233.120 Z9.000 F600.000
G1 X151.496 Y233.120 Z9.000 F600.000
G1 X37.579 Y119.203 Z9.000 F600.000
G1 X37.579 Y116.513 Z9.000 F600.000
G1 X154.186 Y233.120 Z9.000 F600.000
G1 X156.876 Y233.120 Z9.000 F600.000
G1 X37.579 Y113.823 Z9.000 F600.000
G1 X37.579 Y111.133 Z9.000 F600.000
G1 X159.566 Y233.120 Z9.000 F600.000
G1 X162.255 Y233.120 Z9.000 F600.000
G1 X37.579 Y108.444 Z9.000 F600.000
G1 X37.579 Y105.754 Z9.000 F600.000
G1 X164.945 Y233.120 Z9.000 F600.000
G1 X167.635 Y233.120 Z9.000 F600.000
G1 X37.579 Y103.064 Z9.000 F600.000
G1 X37.579 Y100.374 Z9.000 F600.000
G1 X170.325 Y233.120 Z9.000 F600.000
G1 X173.015 Y233.120 Z9.000 F600.000
G1 X37.579 Y97.684 Z9.000 F600.000
G1 X37.579 Y94.994 Z9.000 F600.000
G1 X175.705 Y233.120 Z9.000 F600.000
G1 X178.394 Y233.120 Z9.000 F600.000
G1 X37.579 Y92.305 Z9.000 F600.000
G1 X37.579 Y89.615 Z9.000 F600.000
G1 X181.084 Y233.120 Z9.000 F600.000
G1 X183.774 Y233.120 Z9.000 F600.000
G1 X37.579 Y86.925 Z9.000 F600.000
G1 X37.579 Y84.235 Z9.000 F600.000
G1 X186.464 Y233.120 Z9.000 F600.000
G1 X189.154 Y233.120 Z9.000 F600.000
G1 X37.579 Y81.545 Z9.000 F600.000
G1 X37.579 Y78.855 Z9.000 F600.000
G1 X191.844 Y233.120 Z9.000 F600.000
G1 X194.533 Y233.120 Z9.000 F600.000
G1 X37.579 Y76.166 Z9.000 F600.000
G1 X37.579 Y73.476 Z9.000 F600.000
G1 X197.223 Y233.120 Z9.000 F600.000
G1 X199.913 Y233.120 Z9.000 F600.000
G1 X37.579 Y70.786 Z9.000 F600.000
G1 X37.579 Y68.096 Z9.000 F600.000
G1 X202.603 Y233.120 Z9.000 F600.000
G1 X205.293 Y233.120 Z9.000 F600.000
G1 X37.579 Y65.406 Z9.000 F600.000
G1 X37.579 Y62.716 Z9.000 F600.000
G1 X207.983 Y233.120 Z9.000 F600.000
G1 X210.672 Y233.120 Z9.000 F600.000
G1 X37.579 Y60.027 Z9.000 F600.000
G1 X37.579 Y57.337 Z9.000 F600.000
G1 X213.362 Y233.120 Z9.000 F600.000
G1 X216.052 Y233.120 Z9.000 F600.000
G1 X37.579 Y54.647 Z9.000 F600.000
G1 X37.579 Y51.957 Z9.000 F600.000
G1 X218.742 Y233.120 Z9.000 F600.000
G1 X221.432 Y233.120 Z9.000 F600.000
G1 X37.579 Y49.267 Z9.000 F600.000
G1 X37.579 Y46.577 Z9.000 F600.000
G1 X224.122 Y233.120 Z9.000 F600.000
G1 X226.811 Y233.120 Z9.000 F600.000
G1 X37.579 Y43.888 Z9.000 F600.000
G1 X37.579 Y41.198 Z9.000 F600.000
G1 X229.501 Y233.120 Z9.000 F600.000
G1 X232.191 Y233.120 Z9.000 F600.000
G1 X37.579 Y38.508 Z9.000 F600.000
G1 X37.579 Y36.290 Z9.000 F600.000
G1 X38.051 Y36.290 Z9.000 F600.000
G1 X234.409 Y232.648 Z9.000 F600.000
G1 X234.409 Y229.958 Z9.000 F600.000
G1 X40.741 Y36.290 Z9.000 F600.000
G1 X43.431 Y36.290 Z9.000 F600.000
G1 X234.409 Y227.268 Z9.000 F600.000
G1 X234.409 Y224.579 Z9.000 F600.000
G1 X46.120 Y36.290 Z9.000 F600.000
G1 X48.810 Y36.290 Z9.000 F600.000
G1 X234.409 Y221.889 Z9.000 F600.000
G1 X234.409 Y219.199 Z9.000 F600.000
G1 X51.500 Y36.290 Z9.000 F600.000
G1 X54.190 Y36.290 Z9.000 F600.000
G1 X234.409 Y216.509 Z9.000 F600.000
G1 X234.409 Y213.819 Z9.000 F600.000
G1 X56.880 Y36.290 Z9.000 F600.000
G1 X59.570 Y36.290 Z9.000 F600.000
G1 X234.409 Y211.129 Z9.000 F600.000
G1 X234.409 Y208.440 Z9.000 F600.000
G1 X62.259 Y36.290 Z9.000 F600.000
G1 X64.949 Y36.290 Z9.000 F600.000
G1 X234.409 Y205.750 Z9.000 F600.000
G1 X234.409 Y203.060 Z9.000 F600.000
G1 X67.639 Y36.290 Z9.000 F600.000
G1 X70.329 Y36.290 Z9.000 F600.000
G1 X234.409 Y200.370 Z9.000 F600.000
G1 X234.409 Y197.680 Z9.000 F600.000
G1 X73.019 Y36.290 Z9.000 F600.000
G1 X75.709 Y36.290 Z9.000 F600.000
G1 X234.409 Y194.990 Z9.000 F600.000
G1 X234.409 Y192.301 Z9.000 F600.000
G1 X78.398 Y36.290 Z9.000 F600.000
G1 X81.088 Y36.290 Z9.000 F600.000
G1 X234.409 Y189.611 Z9.000 F600.000
G1 X234.409 Y186.921 Z9.000 F600.000
G1 X83.778 Y36.290 Z9.000 F600.000
G1 X86.468 Y36.290 Z9.000 F600.000
G1 X234.409 Y184.231 Z9.000 F600.000
G1 X234.409 Y181.541 Z9.000 F600.000
G1 X89.158 Y36.290 Z9.000 F600.000
G1 X91.848 Y36.290 Z9.000 F600.000
G1 X234.409 Y178.851 Z9.000 F600.000
G1 X234.409 Y176.162 Z9.000 F600.000
G1 X94.537 Y36.290 Z9.000 F600.000
G1 X97.227 Y36.290 Z9.000 F600.000
G1 X234.409 Y173.472 Z9.000 F600.000
G1 X234.409 Y170.782 Z9.000 F600.000
G1 X99.917 Y36.290 Z9.000 F600.000
G1 X102.607 Y36.290 Z9.000 F600.000
G1 X234.409 Y168.092 Z9.000 F600.000
G1 X234.409 Y165.402 Z9.000 F600.000
G1 X105.297 Y36.290 Z9.000 F600.000
G1 X107.987 Y36.290 Z9.000 F600.000
G1 X234.409 Y162.712 Z9.000 F600.000
G1 X234.409 Y160.023 Z9.000 F600.000
G1 X110.676 Y36.290 Z9.000 F600.000
G1 X113.366 Y36.290 Z9.000 F600.000
G1 X234.409 Y157.333 Z9.000 F600.000
G1 X234.409 Y154.643 Z9.000 F600.000
G1 X116.056 Y36.290 Z9.000 F600.000
G1 X118.746 Y36.290 Z9.000 F600.000
G1 X234.409 Y151.953 Z9.000 F600.000
G1 X234.409 Y149.263 Z9.000 F600.000
G1 X121.436 Y36.290 Z9.000 F600.000
G1 X124.126 Y36.290 Z9.000 F600.000
G1 X234.409 Y146.573 Z9.000 F600.000
G1 X234.409 Y143.884 Z9.000 F600.000
G1 X126.815 Y36.290 Z9.000 F600.000
G1 X129.505 Y36.290 Z9.000 F600.000
G1 X234.409 Y141.194 Z9.000 F600.000
G1 X234.409 Y138.504 Z9.000 F600.000
G1 X132.195 Y36.290 Z9.000 F600.000
G1 X134.885 Y36.290 Z9.000 F600.000
G1 X234.409 Y135.814 Z9.000 F600.000
G1 X234.409 Y133.124 Z9.000 F600.000
G1 X137.575 Y36.290 Z9.000 F600.000
G1 X140.265 Y36.290 Z9.000 F600.000
G1 X234.409 Y130.434 Z9.000 F600.000
G1 X234.409 Y127.745 Z9.000 F600.000
G1 X142.954 Y36.290 Z9.000 F600.000
G1 X145.644 Y36.290 Z9.000 F600.000
G1 X234.409 Y125.055 Z9.000 F600.000
G1 X234.409 Y122.365 Z9.000 F600.000
G1 X148.334 Y36.290 Z9.000 F600.000
G1 X151.024 Y36.290 Z9.000 F600.000
G1 X234.409 Y119.675 Z9.000 F600.000
G1 X234.409 Y116.985 Z9.000 F600.000
G1 X153.714 Y36.290 Z9.000 F600.000
G1 X156.404 Y36.290 Z9.000 F600.000
G1 X234.409 Y114.295 Z9.000 F600.000
G1 X234.409 Y111.606 Z9.000 F600.000
G1 X159.093 Y36.290 Z9.000 F600.000
G1 X161.783 Y36.290 Z9.000 F600.000
G1 X234.409 Y108.916 Z9.000 F600.000
G1 X234.409 Y106.226 Z9.000 F600.000
G1 X164.473 Y36.290 Z9.000 F600.000
G1 X167.163 Y36.290 Z9.000 F600.000
G1 X234.409 Y103.536 Z9.000 F600.000
G1 X234.409 Y100.846 Z9.000 F600.000
G1 X169.853 Y36.290 Z9.000 F600.000
G1 X172.543 Y36.290 Z9.000 F600.000
G1 X234.409 Y98.156 Z9.000 F600.000
G1 X234.409 Y95.467 Z9.000 F600.000
G1 X175.232 Y36.290 Z9.000 F600.000
G1 X177.922 Y36.290 Z9.000 F600.000
G1 X234.409 Y92.777 Z9.000 F600.000
G1 X234.409 Y90.087 Z9.000 F600.000
G1 X180.612 Y36.290 Z9.000 F600.000
G1 X183.302 Y36.290 Z9.000 F600.000
G1 X234.409 Y87.397 Z9.000 F600.000
G1 X234.409 Y84.707 Z9.000 F600.000
G1 X185.992 Y36.290 Z9.000 F600.000
G1 X188.682 Y36.290 Z9.000 F600.000
G1 X234.409 Y82.017 Z9.000 F600.000
G1 X234.409 Y79.328 Z9.000 F600.000
G1 X191.371 Y36.290 Z9.000 F600.000
G1 X194.061 Y36.290 Z9.000 F600.000
G1 X234.409 Y76.638 Z9.000 F600.000
G1 X234.409 Y73.948 Z9.000 F600.000
G1 X196.751 Y36.290 Z9.000 F600.000
G1 X199.441 Y36.290 Z9.000 F600.000
G1 X234.409 Y71.258 Z9.000 F600.000
G1 X234.409 Y68.568 Z9.000 F600.000
G1 X202.131 Y36.290 Z9.000 F600.000
G1 X204.821 Y36.290 Z9.000 F600.000
G1 X234.409 Y65.878 Z9.000 F600.000
G1 X234.409 Y63.189 Z9.000 F600.000
G1 X207.510 Y36.290 Z9.000 F600.000
G1 X210.200 Y36.290 Z9.000 F600.000
G1 X234.409 Y60.499 Z9.000 F600.000
G1 X234.409 Y57.809 Z9.000 F600.000
G1 X212.890 Y36.290 Z9.000 F600.000
G1 X215.580 Y36.290 Z9.000 F600.000
G1 X234.409 Y55.119 Z9.000 F600.000
G1 X234.409 Y52.429 Z9.000 F600.000
G1 X218.270 Y36.290 Z9.000 F600.000
G1 X220.960 Y36.290 Z9.000 F600.000
G1 X234.409 Y49.739 Z9.000 F600.000
G1 X234.409 Y47.050 Z9.000 F600.000
G1 X223.649 Y36.290 Z9.000 F600.000
G1 X226.339 Y36.290 Z9.000 F600.000
G1 X234.409 Y44.360 Z9.000 F600.000
G1 X234.409 Y41.670 Z9.000 F600.000
G1 X229.029 Y36.290 Z9.000 F600.000
G1 X231.719 Y36.290 Z9.000 F600.000
G1 X234.409 Y38.980 Z9.000 F600.000
G1 X234.409 Y36.290 Z9.000 F600.000
G1 X234.409 Y36.290 Z8.500 F600.000
G1 X234.409 Y38.980 Z8.500 F600.000
G1 X231.719 Y36.290 Z8.500 F600.000
G1 X229.029 Y36.290 Z8.500 F600.000
G1 X234.409 Y41.670 Z8.500 F600.000
G1 X234.409 Y44.360 Z8.500 F600.000
G1 X226.339 Y36.290 Z8.500 F600.000
G1 X223.649 Y36.290 Z8.500 F600.000
G1 X234.409 Y47.050 Z8.500 F600.000
G1 X234.409 Y49.739 Z8.500 F600.000
G1 X220.960 Y36.290 Z8.500 F600.000
G1 X218.270 Y36.290 Z8.500 F600.000
G1 X234.409 Y52.429 Z8.500 F600.000
G1 X234.409 Y55.119 Z8.500 F600.000
G1 X215.580 Y36.290 Z8.500 F600.000
G1 X212.890 Y36.290 Z8.500 F600.000
G1 X234.409 Y57.809 Z8.500 F600.000
G1 X234.409 Y60.499 Z8.500 F600.000
G1 X210.200 Y36.290 Z8.500 F600.000
G1 X207.510 Y36.290 Z8.500 F600.000
G1 X234.409 Y63.189 Z8.500 F600.000
G1 X234.409 Y65.878 Z8.500 F600.000
G1 X204.821 Y36.290 Z8.500 F600.000
G1 X202.131 Y36.290 Z8.500 F600.000
G1 X234.409 Y68.568 Z8.500 F600.000
G1 X234.409 Y71.258 Z8.500 F600.000
G1 X199.441 Y36.290 Z8.500 F600.000
G1 X196.751 Y36.290 Z8.500 F600.000
G1 X234.409 Y73.948 Z8.500 F600.000
G1 X234.409 Y76.638 Z8.500 F600.000
G1 X194.061 Y36.290 Z8.500 F600.000
G1 X191.371 Y36.290 Z8.500 F600.000
G1 X234.409 Y79.328 Z8.500 F600.000
G1 X234.409 Y82.017 Z8.500 F600.000
G1 X188.682 Y36.290 Z8.500 F600.000
G1 X185.992 Y36.290 Z8.500 F600.000
G1 X234.409 Y84.707 Z8.500 F600.000
G1 X234.409 Y87.397 Z8.500 F600.000
G1 X183.302 Y36.290 Z8.500 F600.000
G1 X180.612 Y36.290 Z8.500 F600.000
G1 X234.409 Y90.087 Z8.500 F600.000
G1 X234.409 Y92.777 Z8.500 F600.000
G1 X177.922 Y36.290 Z8.500 F600.000
G1 X175.232 Y36.290 Z8.500 F600.000
G1 X234.409 Y95.467 Z8.500 F600.000
G1 X234.409 Y98.156 Z8.500 F600.000
G1 X172.543 Y36.290 Z8.500 F600.000
G1 X169.853 Y36.290 Z8.500 F600.000
G1 X234.409 Y100.846 Z8.500 F600.000
G1 X234.409 Y103.536 Z8.500 F600.000
G1 X167.163 Y36.290 Z8.500 F600.000
G1 X164.473 Y36.290 Z8.500 F600.000
G1 X234.409 Y106.226 Z8.500 F600.000
G1 X234.409 Y108.916 Z8.500 F600.000
G1 X161.783 Y36.290 Z8.500 F600.000
G1 X159.093 Y36.290 Z8.500 F600.000
G1 X234.409 Y111.606 Z8.500 F600.000
G1 X234.409 Y114.295 Z8.500 F600.000
G1 X156.404 Y36.290 Z8.500 F600.000
G1 X153.714 Y36.290 Z8.500 F600.000
G1 X234.409 Y116.985 Z8.500 F600.000
G1 X234.409 Y119.675 Z8.500 F600.000
G1 X151.024 Y36.290 Z8.500 F600.000
G1 X148.334 Y36.290 Z8.500 F600.000
G1 X234.409 Y122.365 Z8.500 F600.000
G1 X234.409 Y125.055 Z8.500 F600.000
G1 X145.644 Y36.290 Z8.500 F600.000
G1 X142.954 Y36.290 Z8.500 F600.000
G1 X234.409 Y127.745 Z8.500 F600.000
G1 X234.409 Y130.434 Z8.500 F600.000
G1 X140.265 Y36.290 Z8.500 F600.000
G1 X137.575 Y36.290 Z8.500 F600.000
G1 X234.409 Y133.124 Z8.500 F600.000
G1 X234.409 Y135.814 Z8.500 F600.000
G1 X134.885 Y36.290 Z8.500 F600.000
G1 X132.195 Y36.290 Z8.500 F600.000
G1 X234.409 Y138.504 Z8.500 F600.000
G1 X234.409 Y141.194 Z8.500 F600.000
G1 X129.505 Y36.290 Z8.500 F600.000
G1 X126.815 Y36.290 Z8.500 F600.000
G1 X234.409 Y143.884 Z8.500 F600.000
G1 X234.409 Y146.573 Z8.500 F600.000
G1 X124.126 Y36.290 Z8.500 F600.000
G1 X121.436 Y36.290 Z8.500 F600.000
G1 X234.409 Y149.263 Z8.500 F600.000
G1 X234.409 Y151.953 Z8.500 F600.000
G1 X118.746 Y36.290 Z8.500 F600.000
G1 X116.056 Y36.290 Z8.500 F600.000
G1 X234.409 Y154.643 Z8.500 F600.000
G1 X234.409 Y157.333 Z8.500 F600.000
G1 X113.366 Y36.290 Z8.500 F600.000
G1 X110.676 Y36.290 Z8.500 F600.000
G1 X234.409 Y160.023 Z8.500 F600.000
G1 X234.409 Y162.712 Z8.500 F600.000
G1 X107.987 Y36.290 Z8.500 F600.000
G1 X105.297 Y36.290 Z8.500 F600.000
G1 X234.409 Y165.402 Z8.500 F600.000
G1 X234.409 Y168.092 Z8.500 F600.000
G1 X102.607 Y36.290 Z8.500 F600.000
G1 X99.917 Y36.290 Z8.500 F600.000
G1 X234.409 Y170.782 Z8.500 F600.000
G1 X234.409 Y173.472 Z8.500 F600.000
G1 X97.227 Y36.290 Z8.500 F600.000
G1 X94.537 Y36.290 Z8.500 F600.000
G1 X234.409 Y176.162 Z8.500 F600.000
G1 X234.409 Y178.851 Z8.500 F600.000
G1 X91.848 Y36.290 Z8.500 F600.000
G1 X89.158 Y36.290 Z8.500 F600.000
G1 X234.409 Y181.541 Z8.500 F600.000
G1 X234.409 Y184.231 Z8.500 F600.000
G1 X86.468 Y36.290 Z8.500 F600.000
G1 X83.778 Y36.290 Z8.500 F600.000
G1 X234.409 Y186.921 Z8.500 F600.000
G1 X234.409 Y189.611 Z8.500 F600.000
G1 X81.088 Y36.290 Z8.500 F600.000
G1 X78.398 Y36.290 Z8.500 F600.000
G1 X234.409 Y192.301 Z8.500 F600.000
G1 X234.409 Y194.990 Z8.500 F600.000
G1 X75.709 Y36.290 Z8.500 F600.000
G1 X73.019 Y36.290 Z8.500 F600.000
G1 X234.409 Y197.680 Z8.500 F600.000
G1 X234.409 Y200.370 Z8.500 F600.000
G1 X70.329 Y36.290 Z8.500 F600.000
G1 X67.639 Y36.290 Z8.500 F600.000
G1 X234.409 Y203.060 Z8.500 F600.000
G1 X234.409 Y205.750 Z8.500 F600.000
G1 X64.949 Y36.290 Z8.500 F600.000
G1 X62.259 Y36.290 Z8.500 F600.000
G1 X234.409 Y208.440 Z8.500 F600.000
G1 X234.409 Y211.129 Z8.500 F600.000
G1 X59.570 Y36.290 Z8.500 F600.000
G1 X56.880 Y36.290 Z8.500 F600.000
G1 X234.409 Y213.819 Z8.500 F600.000
G1 X234.409 Y216.509 Z8.500 F600.000
G1 X54.190 Y36.290 Z8.500 F600.000
G1 X51.500 Y36.290 Z8.500 F600.000
G1 X234.409 Y219.199 Z8.500 F600.000
G1 X234.409 Y221.889 Z8.500 F600.000
G1 X48.810 Y36.290 Z8.500 F600.000
G1 X46.120 Y36.290 Z8.500 F600.000
G1 X234.409 Y224.579 Z8.500 F600.000
G1 X234.409 Y227.268 Z8.500 F600.000
G1 X43.431 Y36.290 Z8.500 F600.000
G1 X40.741 Y36.290 Z8.500 F600.000
G1 X234.409 Y229.958 Z8.500 F600.000
G1 X234.409 Y232.648 Z8.500 F600.000
G1 X38.051 Y36.290 Z8.500 F600.000
G1 X37.579 Y36.290 Z8.500 F600.000
G1 X37.579 Y38.508 Z8.500 F600.000
G1 X232.191 Y233.120 Z8.500 F600.000
G1 X229.501 Y233.120 Z8.500 F600.000
G1 X37.579 Y41.198 Z8.500 F600.000
G1 X37.579 Y43.888 Z8.500 F600.000
G1 X226.811 Y233.120 Z8.500 F600.000
G1 X224.122 Y233.120 Z8.500 F600.000
G1 X37.579 Y46.577 Z8.500 F600.000
G1 X37.579 Y49.267 Z8.500 F600.000
G1 X221.432 Y233.120 Z8.500 F600.000
G1 X218.742 Y233.120 Z8.500 F600.000
G1 X37.579 Y51.957 Z8.500 F600.000
G1 X37.579 Y54.647 Z8.500 F600.000
G1 X216.052 Y233.120 Z8.500 F600.000
G1 X213.362 Y233.120 Z8.500 F600.000
G1 X37.579 Y57.337 Z8.500 F600.000
G1 X37.579 Y60.027 Z8.500 F600.000
G1 X210.672 Y233.120 Z8.500 F600.000
G1 X207.983 Y233.120 Z8.500 F600.000
G1 X37.579 Y62.716 Z8.500 F600.000
G1 X37.579 Y65.406 Z8.500 F600.000
G1 X205.293 Y233.120 Z8.500 F600.000
G1 X202.603 Y233.120 Z8.500 F600.000
G1 X37.579 Y68.096 Z8.500 F600.000
G1 X37.579 Y70.786 Z8.500 F600.000
G1 X199.913 Y233.120 Z8.500 F600.000
G1 X197.223 Y233.120 Z8.500 F600.000
G1 X37.579 Y73.476 Z8.500 F600.000
G1 X37.579 Y76.166 Z8.500 F600.000
G1 X194.533 Y233.120 Z8.500 F600.000
G1 X191.844 Y233.120 Z8.500 F600.000
G1 X37.579 Y78.855 Z8.500 F600.000
G1 X37.579 Y81.545 Z8.500 F600.000
G1 X189.154 Y233.120 Z8.500 F600.000
G1 X186.464 Y233.120 Z8.500 F600.000
G1 X37.579 Y84.235 Z8.500 F600.000
G1 X37.579 Y86.925 Z8.500 F600.000
G1 X183.774 Y233.120 Z8.500 F600.000
G1 X181.084 Y233.120 Z8.500 F600.000
G1 X37.579 Y89.615 Z8.500 F600.000
G1 X37.579 Y92.305 Z8.500 F600.000
G1 X178.394 Y233.120 Z8.500 F600.000
G1 X175.705 Y233.120 Z8.500 F600.000
G1 X37.579 Y94.994 Z8.500 F600.000
G1 X37.579 Y97.684 Z8.500 F600.000
G1 X173.015 Y233.120 Z8.500 F600.000
G1 X170.325 Y233.120 Z8.500 F600.000
G1 X37.579 Y100.374 Z8.500 F600.000
G1 X37.579 Y103.064 Z8.500 F600.000
G1 X167.635 Y233.120 Z8.500 F600.000
G1 X164.945 Y233.120 Z8.500 F600.000
G1 X37.579 Y105.754 Z8.500 F600.000
G1 X37.579 Y108.444 Z8.500 F600.000
G1 X162.255 Y233.120 Z8.500 F600.000
G1 X159.566 Y233.120 Z8.500 F600.000
G1 X37.579 Y111.133 Z8.500 F600.000
G1 X37.579 Y113.823 Z8.500 F600.000
G1 X156.876 Y233.120 Z8.500 F600.000
G1 X154.186 Y233.120 Z8.500 F600.000
G1 X37.579 Y116.513 Z8.500 F600.000
G1 X37.579 Y119.203 Z8.500 F600.000
G1 X151.496 Y233.120 Z8.500 F600.000
G1 X148.806 Y233.120 Z8.500 F600.000
G1 X37.579 Y121.893 Z8.500 F600.000
G1 X37.579 Y124.583 Z8.500 F600.000
G1 X146.116 Y233.120 Z8.500 F600.000
G1 X143.426 Y233.120 Z8.500 F600.000
G1 X37.579 Y127.272 Z8.500 F600.000
G1 X37.579 Y129.962 Z8.500 F600.000
G1 X140.737 Y233.120 Z8.500 F600.000
G1 X138.047 Y233.120 Z8.500 F600.000
G1 X37.579 Y132.652 Z8.500 F600.000
G1 X37.579 Y135.342 Z8.500 F600.000
G1 X135.357 Y233.120 Z8.500 F600.000
G1 X132.667 Y233.120 Z8.500 F600.000
G1 X37.579 Y138.032 Z8.500 F600.000
G1 X37.579 Y140.722 Z8.500 F600.000
G1 X129.977 Y233.120 Z8.500 F600.000
G1 X127.287 Y233.120 Z8.500 F600.000
G1 X37.579 Y143.411 Z8.500 F600.000
G1 X37.579 Y146.101 Z8.500 F600.000
G1 X124.598 Y233.120 Z8.500 F600.000
G1 X121.908 Y233.120 Z8.500 F600.000
G1 X37.579 Y148.791 Z8.500 F600.000
G1 X37.579 Y151.481 Z8.500 F600.000
G1 X119.218 Y233.120 Z8.500 F600.000
G1 X116.528 Y233.120 Z8.500 F600.000
G1 X37.579 Y154.171 Z8.500 F600.000
G1 X37.579 Y156.861 Z8.500 F600.000
G1 X113.838 Y233.120 Z8.500 F600.000
G1 X111.148 Y233.120 Z8.500 F600.000
G1 X37.579 Y159.550 Z8.500 F600.000
G1 X37.579 Y162.240 Z8.500 F600.000
G1 X108.459 Y233.120 Z8.500 F600.000
G1 X105.769 Y233.120 Z8.500 F600.000
G1 X37.579 Y164.930 Z8.500 F600.000
G1 X37.579 Y167.620 Z8.500 F600.000
G1 X103.079 Y233.120 Z8.500 F600.000
G1 X100.389 Y233.120 Z8.500 F600.000
G1 X37.579 Y170.310 Z8.500 F600.000
G1 X37.579 Y173.000 Z8.500 F600.000
G1 X97.699 Y233.120 Z8.500 F600.000
G1 X95.009 Y233.120 Z8.500 F600.000
G1 X37.579 Y175.689 Z8.500 F600.000
G1 X37.579 Y178.379 Z8.500 F600.000
G1 X92.320 Y233.120 Z8.500 F600.000
G1 X89.630 Y233.120 Z8.500 F600.000
G1 X37.579 Y181.069 Z8.500 F600.000
G1 X37.579 Y183.759 Z8.500 F600.000
G1 X86.940 Y233.120 Z8.500 F600.000
G1 X84.250 Y233.120 Z8.500 F600.000
G1 X37.579 Y186.449 Z8.500 F600.000
G1 X37.579 Y189.139 Z8.500 F600.000
G1 X81.560 Y233.120 Z8.500 F600.000
G1 X78.870 Y233.120 Z8.500 F600.000
G1 X37.579 Y191.828 Z8.500 F600.000
G1 X37.579 Y194.518 Z8.500 F600.000
G1 X76.181 Y233.120 Z8.500 F600.000
G1 X73.491 Y233.120 Z8.500 F600.000
G1 X37.579 Y197.208 Z8.500 F600.000
G1 X37.579 Y199.898 Z8.500 F600.000
G1 X70.801 Y233.120 Z8.500 F600.000
G1 X68.111 Y233.120 Z8.500 F600.000
G1 X37.579 Y202.588 Z8.500 F600.000
G1 X37.579 Y205.278 Z8.500 F600.000
G1 X65.421 Y233.120 Z8.500 F600.000
G1 X62.731 Y233.120 Z8.500 F600.000
G1 X37.579 Y207.967 Z8.500 F600.000
G1 X37.579 Y210.657 Z8.500 F600.000
G1 X60.042 Y233.120 Z8.500 F600.000
G1 X57.352 Y233.120 Z8.500 F600.000
G1 X37.579 Y213.347 Z8.500 F600.000
G1 X37.579 Y216.037 Z8.500 F600.000
G1 X54.662 Y233.120 Z8.500 F600.000
G1 X51.972 Y233.120 Z8.500 F600.000
G1 X37.579 Y218.727 Z8.500 F600.000
G1 X37.579 Y221.417 Z8.500 F600.000
G1 X49.282 Y233.120 Z8.500 F600.000
G1 X46.592 Y233.120 Z8.500 F600.000
G1 X37.579 Y224.106 Z8.500 F600.000
G1 X37.579 Y226.796 Z8.500 F600.000
G1 X43.903 Y233.120 Z8.500 F600.000
G1 X41.213 Y233.120 Z8.500 F600.000
G1 X37.579 Y229.486 Z8.500 F600.000
G1 X37.579 Y232.176 Z8.500 F600.000
G1 X38.523 Y233.120 Z8.500 F600.000
G1 X37.579 Y233.120 Z8.500 F600.000
G1 X37.579 Y232.176 Z8.500 F600.000
G1 X37.579 Y232.176 Z8.000 F600.000
G1 X37.579 Y233.120 Z8.000 F600.000
G1 X38.523 Y233.120 Z8.000 F600.000
G1 X37.579 Y232.176 Z8.000 F600.000
G1 X37.579 Y229.486 Z8.000 F600.000
G1 X41.213 Y233.120 Z8.000 F600.000
G1 X43.903 Y233.120 Z8.000 F600.000
G1 X37.579 Y226.796 Z8.000 F600.000
G1 X37.579 Y224.106 Z8.000 F600.000
G1 X46.592 Y233.120 Z8.000 F600.000
G1 X49.282 Y233.120 Z8.000 F600.000
G1 X37.579 Y221.417 Z8.000 F600.000
G1 X37.579 Y218.727 Z8.000 F600.000
G1 X51.972 Y233.120 Z8.000 F600.000
G1 X54.662 Y233.120 Z8.000 F600.000
G1 X37.579 Y216.037 Z8.000 F600.000
G1 X37.579 Y213.347 Z8.000 F600.000
G1 X57.352 Y233.120 Z8.000 F600.000
G1 X60.042 Y233.120 Z8.000 F600.000
G1 X37.579 Y210.657 Z8.000 F600.000
G1 X37.579 Y207.967 Z8.000 F600.000
G1 X62.731 Y233.120 Z8.000 F600.000
G1 X65.421 Y233.120 Z8.000 F600.000
G1 X37.579 Y205.278 Z8.000 F600.000
G1 X37.579 Y202.588 Z8.000 F600.000
G1 X68.111 Y233.120 Z8.000 F600.000
G1 X70.801 Y233.120 Z8.000 F600.000
G1 X37.579 Y199.898 Z8.000 F600.000
G1 X37.579 Y197.208 Z8.000 F600.000
G1 X73.491 Y233.120 Z8.000 F600.000
G1 X76.181 Y233.120 Z8.000 F600.000
G1 X37.579 Y194.518 Z8.000 F600.000
G1 X37.579 Y191.828 Z8.000 F600.000
G1 X78.870 Y233.120 Z8.000 F600.000
G1 X81.560 Y233.120 Z8.000 F600.000
G1 X37.579 Y189.139 Z8.000 F600.000
G1 X37.579 Y186.449 Z8.000 F600.000
G1 X84.250 Y233.120 Z8.000 F600.000
G1 X86.940 Y233.120 Z8.000 F600.000
G1 X37.579 Y183.759 Z8.000 F600.000
G1 X37.579 Y181.069 Z8.000 F600.000
G1 X89.630 Y233.120 Z8.000 F600.000
G1 X92.320 Y233.120 Z8.000 F600.000
G1 X37.579 Y178.379 Z8.000 F600.000
G1 X37.579 Y175.689 Z8.000 F600.000
G1 X95.009 Y233.120 Z8.000 F600.000
G1 X97.699 Y233.120 Z8.000 F600.000
G1 X37.579 Y173.000 Z8.000 F600.000
G1 X37.579 Y170.310 Z8.000 F600.000
G1 X100.389 Y233.120 Z8.000 F600.000
G1 X103.079 Y233.120 Z8.000 F600.000
G1 X37.579 Y167.620 Z8.000 F600.000
G1 X37.579 Y164.930 Z8.000 F600.000
G1 X105.769 Y233.120 Z8.000 F600.000
G1 X108.459 Y233.120 Z8.000 F600.000
G1 X37.579 Y162.240 Z8.000 F600.000
G1 X37.579 Y159.550 Z8.000 F600.000
G1 X111.148 Y233.120 Z8.000 F600.000
G1 X113.838 Y233.120 Z8.000 F600.000
G1 X37.579 Y156.861 Z8.000 F600.000
G1 X37.579 Y154.171 Z8.000 F600.000
G1 X116.528 Y233.120 Z8.000 F600.000
G1 X119.218 Y233.120 Z8.000 F600.000
G1 X37.579 Y151.481 Z8.000 F600.000
G1 X37.579 Y148.791 Z8.000 F600.000
G1 X121.908 Y233.120 Z8.000 F600.000
G1 X124.598 Y233.120 Z8.000 F600.000
G1 X37.579 Y146.101 Z8.000 F600.000
G1 X37.579 Y143.411 Z8.000 F600.000
G1 X127.287 Y233.120 Z8.000 F600.000
G1 X129.977 Y233.120 Z8.000 F600.000
G1 X37.579 Y140.722 Z8.000 F600.000
G1 X37.579 Y138.032 Z8.000 F600.000
G1 X132.667 Y233.120 Z8.000 F600.000
G1 X135.357 Y233.120 Z8.000 F600.000
G1 X37.579 Y135.342 Z8.000 F600.000
G1 X37.579 Y132.652 Z8.000 F600.000
G1 X138.047 Y233.120 Z8.000 F600.000
G1 X140.737 Y233.120 Z8.000 F600.000
G1 X37.579 Y129.962 Z8.000 F600.000
G1 X37.579 Y127.272 Z8.000 F600.000
G1 X143.426 Y233.120 Z8.000 F600.000
G1 X146.116 Y233.120 Z8.000 F600.000
G1 X37.579 Y124.583 Z8.000 F600.000
G1 X37.579 Y121.893 Z8.000 F600.000
G1 X148.806 Y233.120 Z8.000 F600.000
G1 X151.496 Y233.120 Z8.000 F600.000
G1 X37.579 Y119.203 Z8.000 F600.000
G1 X37.579 Y116.513 Z8.000 F600.000
G1 X154.186 Y233.120 Z8.000 F600.000
G1 X156.876 Y233.120 Z8.000 F600.000
G1 X37.579 Y113.823 Z8.000 F600.000
G1 X37.579 Y111.133 Z8.000 F600.000
G1 X159.566 Y233.120 Z8.000 F600.000
G1 X162.255 Y233.120 Z8.000 F600.000
G1 X37.579 Y108.444 Z8.000 F600.000
G1 X37.579 Y105.754 Z8.000 F600.000
G1 X164.945 Y233.120 Z8.000 F600.000
G1 X167.635 Y233.120 Z8.000 F600.000
G1 X37.579 Y103.064 Z8.000 F600.000
G1 X37.579 Y100.374 Z8.000 F600.000
G1 X170.325 Y233.120 Z8.000 F600.000
G1 X173.015 Y233.120 Z8.000 F600.000
G1 X37.579 Y97.684 Z8.000 F600.000
G1 X37.579 Y94.994 Z8.000 F600.000
G1 X175.705 Y233.120 Z8.000 F600.000
G1 X178.394 Y233.120 Z8.000 F600.000
G1 X37.579 Y92.305 Z8.000 F600.000
G1 X37.579 Y89.615 Z8.000 F600.000
G1 X181.084 Y233.120 Z8.000 F600.000
G1 X183.774 Y233.120 Z8.000 F600.000
G1 X37.579 Y86.925 Z8.000 F600.000
G1 X37.579 Y84.235 Z8.000 F600.000
G1 X186.464 Y233.120 Z8.000 F600.000
G1 X189.154 Y233.120 Z8.000 F600.000
G1 X37.579 Y81.545 Z8.000 F600.000
G1 X37.579 Y78.855 Z8.000 F600.000
G1 X191.844 Y233.120 Z8.000 F600.000
G1 X194.533 Y233.120 Z8.000 F600.000
G1 X37.579 Y76.166 Z8.000 F600.000
G1 X37.579 Y73.476 Z8.000 F600.000
G1 X197.223 Y233.120 Z8.000 F600.000
G1 X199.913 Y233.120 Z8.000 F600.000
G1 X37.579 Y70.786 Z8.000 F600.000
G1 X37.579 Y68.096 Z8.000 F600.000
G1 X202.603 Y233.120 Z8.000 F600.000
G1 X205.293 Y233.120 Z8.000 F600.000
G1 X37.579 Y65.406 Z8.000 F600.000
G1 X37.579 Y62.716 Z8.000 F600.000
G1 X207.983 Y233.120 Z8.000 F600.000
G1 X210.672 Y233.120 Z8.000 F600.000
G1 X37.579 Y60.027 Z8.000 F600.000
G1 X37.579 Y57.337 Z8.000 F600.000
G1 X213.362 Y233.120 Z8.000 F600.000
G1 X216.052 Y233.120 Z8.000 F600.000
G1 X37.579 Y54.647 Z8.000 F600.000
G1 X37.579 Y51.957 Z8.000 F600.000
G1 X218.742 Y233.120 Z8.000 F600.000
G1 X221.432 Y233.120 Z8.000 F600.000
G1 X37.579 Y49.267 Z8.000 F600.000
G1 X37.579 Y46.577 Z8.000 F600.000
G1 X224.122 Y233.120 Z8.000 F600.000
G1 X226.811 Y233.120 Z8.000 F600.000
G1 X37.579 Y43.888 Z8.000 F600.000
G1 X37.579 Y41.198 Z8.000 F600.000
G1 X229.501 Y233.120 Z8.000 F600.000
G1 X232.191 Y233.120 Z8.000 F600.000
G1 X37.579 Y38.508 Z8.000 F600.000
G1 X37.579 Y36.290 Z8.000 F600.000
G1 X38.051 Y36.290 Z8.000 F600.000
G1 X234.409 Y232.648 Z8.000 F600.000
G1 X234.409 Y229.958 Z8.000 F600.000
G1 X40.741 Y36.290 Z8.000 F600.000
G1 X43.431 Y36.290 Z8.000 F600.000
G1 X234.409 Y227.268 Z8.000 F600.000
G1 X234.409 Y224.579 Z8.000 F600.000
G1 X46.120 Y36.290 Z8.000 F600.000
G1 X48.810 Y36.290 Z8.000 F600.000
G1 X234.409 Y221.889 Z8.000 F600.000
G1 X234.409 Y219.199 Z8.000 F600.000
G1 X51.500 Y36.290 Z8.000 F600.000
G1 X54.190 Y36.290 Z8.000 F600.000
G1 X234.409 Y216.509 Z8.000 F600.000
G1 X234.409 Y213.819 Z8.000 F600.000
G1 X56.880 Y36.290 Z8.000 F600.000
G1 X59.570 Y36.290 Z8.000 F600.000
G1 X234.409 Y211.129 Z8.000 F600.000
G1 X234.409 Y208.440 Z8.000 F600.000
G1 X62.259 Y36.290 Z8.000 F600.000
G1 X64.949 Y36.290 Z8.000 F600.000
G1 X234.409 Y205.750 Z8.000 F600.000
G1 X234.409 Y203.060 Z8.000 F600.000
G1 X67.639 Y36.290 Z8.000 F600.000
G1 X70.329 Y36.290 Z8.000 F600.000
G1 X234.409 Y200.370 Z8.000 F600.000
G1 X234.409 Y197.680 Z8.000 F600.000
G1 X73.019 Y36.290 Z8.000 F600.000
G1 X75.709 Y36.290 Z8.000 F600.000
G1 X234.409 Y194.990 Z8.000 F600.000
G1 X234.409 Y192.301 Z8.000 F600.000
G1 X78.398 Y36.290 Z8.000 F600.000
G1 X81.088 Y36.290 Z8.000 F600.000
G1 X234.409 Y189.611 Z8.000 F600.000
G1 X234.409 Y186.921 Z8.000 F600.000
G1 X83.778 Y36.290 Z8.000 F600.000
G1 X86.468 Y36.290 Z8.000 F600.000
G1 X234.409 Y184.231 Z8.000 F600.000
G1 X234.409 Y181.541 Z8.000 F600.000
G1 X89.158 Y36.290 Z8.000 F600.000
G1 X91.848 Y36.290 Z8.000 F600.000
G1 X234.409 Y178.851 Z8.000 F600.000
G1 X234.409 Y176.162 Z8.000 F600.000
G1 X94.537 Y36.290 Z8.000 F600.000
G1 X97.227 Y36.290 Z8.000 F600.000
G1 X234.409 Y173.472 Z8.000 F600.000
G1 X234.409 Y170.782 Z8.000 F600.000
G1 X99.917 Y36.290 Z8.000 F600.000
G1 X102.607 Y36.290 Z8.000 F600.000
G1 X234.409 Y168.092 Z8.000 F600.000
G1 X234.409 Y165.402 Z8.000 F600.000
G1 X105.297 Y36.290 Z8.000 F600.000
G1 X107.987 Y36.290 Z8.000 F600.000
G1 X234.409 Y162.712 Z8.000 F600.000
G1 X234.409 Y160.023 Z8.000 F600.000
G1 X110.676 Y36.290 Z8.000 F600.000
G1 X113.366 Y36.290 Z8.000 F600.000
G1 X234.409 Y157.333 Z8.000 F600.000
G1 X234.409 Y154.643 Z8.000 F600.000
G1 X116.056 Y36.290 Z8.000 F600.000
G1 X118.746 Y36.290 Z8.000 F600.000
G1 X234.409 Y151.953 Z8.000 F600.000
G1 X234.409 Y149.263 Z8.000 F600.000
G1 X121.436 Y36.290 Z8.000 F600.000
G1 X124.126 Y36.290 Z8.000 F600.000
G1 X234.409 Y146.573 Z8.000 F600.000
G1 X234.409 Y143.884 Z8.000 F600.000
G1 X126.815 Y36.290 Z8.000 F600.000
G1 X129.505 Y36.290 Z8.000 F600.000
G1 X234.409 Y141.194 Z8.000 F600.000
G1 X234.409 Y138.504 Z8.000 F600.000
G1 X132.195 Y36.290 Z8.000 F600.000
G1 X134.885 Y36.290 Z8.000 F600.000
G1 X234.409 Y135.814 Z8.000 F600.000
G1 X234.409 Y133.124 Z8.000 F600.000
G1 X137.575 Y36.290 Z8.000 F600.000
G1 X140.265 Y36.290 Z8.000 F600.000
G1 X234.409 Y130.434 Z8.000 F600.000
G1 X234.409 Y127.745 Z8.000 F600.000
G1 X142.954 Y36.290 Z8.000 F600.000
G1 X145.644 Y36.290 Z8.000 F600.000
G1 X234.409 Y125.055 Z8.000 F600.000
G1 X234.409 Y122.365 Z8.000 F600.000
G1 X148.334 Y36.290 Z8.000 F600.000
G1 X151.024 Y36.290 Z8.000 F600.000
G1 X234.409 Y119.675 Z8.000 F600.000
G1 X234.409 Y116.985 Z8.000 F600.000
G1 X153.714 Y36.290 Z8.000 F600.000
G1 X156.404 Y36.290 Z8.000 F600.000
G1 X234.409 Y114.295 Z8.000 F600.000
G1 X234.409 Y111.606 Z8.000 F600.000
G1 X159.093 Y36.290 Z8.000 F600.000
G1 X161.783 Y36.290 Z8.000 F600.000
G1 X234.409 Y108.916 Z8.000 F600.000
G1 X234.409 Y106.226 Z8.000 F600.000
G1 X164.473 Y36.290 Z8.000 F600.000
G1 X167.163 Y36.290 Z8.000 F600.000
G1 X234.409 Y103.536 Z8.000 F600.000
G1 X234.409 Y100.846 Z8.000 F600.000
G1 X169.853 Y36.290 Z8.000 F600.000
G1 X172.543 Y36.290 Z8.000 F600.000
G1 X234.409 Y98.156 Z8.000 F600.000
G1 X234.409 Y95.467 Z8.000 F600.000
G1 X175.232 Y36.290 Z8.000 F600.000
G1 X177.922 Y36.290 Z8.000 F600.000
G1 X234.409 Y92.777 Z8.000 F600.000
G1 X234.409 Y90.087 Z8.000 F600.000
G1 X180.612 Y36.290 Z8.000 F600.000
G1 X183.302 Y36.290 Z8.000 F600.000
G1 X234.409 Y87.397 Z8.000 F600.000
G1 X234.409 Y84.707 Z8.000 F600.000
G1 X185.992 Y36.290 Z8.000 F600.000
G1 X188.682 Y36.290 Z8.000 F600.000
G1 X234.409 Y82.017 Z8.000 F600.000
G1 X234.409 Y79.328 Z8.000 F600.000
G1 X191.371 Y36.290 Z8.000 F600.000
G1 X194.061 Y36.290 Z8.000 F600.000
G1 X234.409 Y76.638 Z8.000 F600.000
G1 X234.409 Y73.948 Z8.000 F600.000
G1 X196.751 Y36.290 Z8.000 F600.000
G1 X199.441 Y36.290 Z8.000 F600.000
G1 X234.409 Y71.258 Z8.000 F600.000
G1 X234.409 Y68.568 Z8.000 F600.000
G1 X202.131 Y36.290 Z8.000 F600.000
G1 X204.821 Y36.290 Z8.000 F600.000
G1 X234.409 Y65.878 Z8.000 F600.000
G1 X234.409 Y63.189 Z8.000 F600.000
G1 X207.510 Y36.290 Z8.000 F600.000
G1 X210.200 Y36.290 Z8.000 F600.000
G1 X234.409 Y60.499 Z8.000 F600.000
G1 X234.409 Y57.809 Z8.000 F600.000
G1 X212.890 Y36.290 Z8.000 F600.000
G1 X215.580 Y36.290 Z8.000 F600.000
G1 X234.409 Y55.119 Z8.000 F600.000
G1 X234.409 Y52.429 Z8.000 F600.000
G1 X218.270 Y36.290 Z8.000 F600.000
G1 X220.960 Y36.290 Z8.000 F600.000
G1 X234.409 Y49.739 Z8.000 F600.000
G1 X234.409 Y47.050 Z8.000 F600.000
G1 X223.649 Y36.290 Z8.000 F600.000
G1 X226.339 Y36.290 Z8.000 F600.000
G1 X234.409 Y44.360 Z8.000 F600.000
G1 X234.409 Y41.670 Z8.000 F600.000
G1 X229.029 Y36.290 Z8.000 F600.000
G1 X231.719 Y36.290 Z8.000 F600.000
G1 X234.409 Y38.980 Z8.000 F600.000
G1 X234.409 Y36.290 Z8.000 F600.000
G1 X234.409 Y36.290 Z7.500 F600.000
G1 X234.409 Y38.980 Z7.500 F600.000
G1 X231.719 Y36.290 Z7.500 F600.000
G1 X229.029 Y36.290 Z7.500 F600.000
G1 X234.409 Y41.670 Z7.500 F600.000
G1 X234.409 Y44.360 Z7.500 F600.000
G1 X226.339 Y36.290 Z7.500 F600.000
G1 X223.649 Y36.290 Z7.500 F600.000
G1 X234.409 Y47.050 Z7.500 F600.000
G1 X234.409 Y49.739 Z7.500 F600.000
G1 X220.960 Y36.290 Z7.500 F600.000
G1 X218.270 Y36.290 Z7.500 F600.000
G1 X234.409 Y52.429 Z7.500 F600.000
G1 X234.409 Y55.119 Z7.500 F600.000
G1 X215.580 Y36.290 Z7.500 F600.000
G1 X212.890 Y36.290 Z7.500 F600.000
G1 X234.409 Y57.809 Z7.500 F600.000
G1 X234.409 Y60.499 Z7.500 F600.000
G1 X210.200 Y36.290 Z7.500 F600.000
G1 X207.510 Y36.290 Z7.500 F600.000
G1 X234.409 Y63.189 Z7.500 F600.000
G1 X234.409 Y65.878 Z7.500 F600.000
G1 X204.821 Y36.290 Z7.500 F600.000
G1 X202.131 Y36.290 Z7.500 F600.000
G1 X234.409 Y68.568 Z7.500 F600.000
G1 X234.409 Y71.258 Z7.500 F600.000
G1 X199.441 Y36.290 Z7.500 F600.000
G1 X196.751 Y36.290 Z7.500 F600.000
G1 X234.409 Y73.948 Z7.500 F600.000
G1 X234.409 Y76.638 Z7.500 F600.000
G1 X194.061 Y36.290 Z7.500 F600.000
G1 X191.371 Y36.290 Z7.500 F600.000
G1 X234.409 Y79.328 Z7.500 F600.000
G1 X234.409 Y82.017 Z7.500 F600.000
G1 X188.682 Y36.290 Z7.500 F600.000
G1 X185.992 Y36.290 Z7.500 F600.000
G1 X234.409 Y84.707 Z7.500 F600.000
G1 X234.409 Y87.397 Z7.500 F600.000
G1 X183.302 Y36.290 Z7.500 F600.000
G1 X180.612 Y36.290 Z7.500 F600.000
G1 X234.409 Y90.087 Z7.500 F600.000
G1 X234.409 Y92.777 Z7.500 F600.000
G1 X177.922 Y36.290 Z7.500 F600.000
G1 X175.232 Y36.290 Z7.500 F600.000
G1 X234.409 Y95.467 Z7.500 F600.000
G1 X234.409 Y98.156 Z7.500 F600.000
G1 X172.543 Y36.290 Z7.500 F600.000
G1 X169.853 Y36.290 Z7.500 F600.000
G1 X234.409 Y100.846 Z7.500 F600.000
G1 X234.409 Y103.536 Z7.500 F600.000
G1 X167.163 Y36.290 Z7.500 F600.000
G1 X164.473 Y36.290 Z7.500 F600.000
G1 X234.409 Y106.226 Z7.500 F600.000
G1 X234.409 Y108.916 Z7.500 F600.000
G1 X161.783 Y36.290 Z7.500 F600.000
G1 X159.093 Y36.290 Z7.500 F600.000
G1 X234.409 Y111.606 Z7.500 F600.000
G1 X234.409 Y114.295 Z7.500 F600.000
G1 X156.404 Y36.290 Z7.500 F600.000
G1 X153.714 Y36.290 Z7.500 F600.000
G1 X234.409 Y116.985 Z7.500 F600.000
G1 X234.409 Y119.675 Z7.500 F600.000
G1 X151.024 Y36.290 Z7.500 F600.000
G1 X148.334 Y36.290 Z7.500 F600.000
G1 X234.409 Y122.365 Z7.500 F600.000
G1 X234.409 Y125.055 Z7.500 F600.000
G1 X145.644 Y36.290 Z7.500 F600.000
G1 X142.954 Y36.290 Z7.500 F600.000
G1 X234.409 Y127.745 Z7.500 F600.000
G1 X234.409 Y130.434 Z7.500 F600.000
G1 X140.265 Y36.290 Z7.500 F600.000
G1 X137.575 Y36.290 Z7.500 F600.000
G1 X234.409 Y133.124 Z7.500 F600.000
G1 X234.409 Y135.814 Z7.500 F600.000
G1 X134.885 Y36.290 Z7.500 F600.000
G1 X132.195 Y36.290 Z7.500 F600.000
G1 X234.409 Y138.504 Z7.500 F600.000
G1 X234.409 Y141.194 Z7.500 F600.000
G1 X129.505 Y36.290 Z7.500 F600.000
G1 X126.815 Y36.290 Z7.500 F600.000
G1 X234.409 Y143.884 Z7.500 F600.000
G1 X234.409 Y146.573 Z7.500 F600.000
G1 X124.126 Y36.290 Z7.500 F600.000
G1 X121.436 Y36.290 Z7.500 F600.000
G1 X234.409 Y149.263 Z7.500 F600.000
G1 X234.409 Y151.953 Z7.500 F600.000
G1 X118.746 Y36.290 Z7.500 F600.000
G1 X116.056 Y36.290 Z7.500 F600.000
G1 X234.409 Y154.643 Z7.500 F600.000
G1 X234.409 Y157.333 Z7.500 F600.000
G1 X113.366 Y36.290 Z7.500 F600.000
G1 X110.676 Y36.290 Z7.500 F600.000
G1 X234.409 Y160.023 Z7.500 F600.000
G1 X234.409 Y162.712 Z7.500 F600.000
G1 X107.987 Y36.290 Z7.500 F600.000
G1 X105.297 Y36.290 Z7.500 F600.000
G1 X234.409 Y165.402 Z7.500 F600.000
G1 X234.409 Y168.092 Z7.500 F600.000
G1 X102.607 Y36.290 Z7.500 F600.000
G1 X99.917 Y36.290 Z7.500 F600.000
G1 X234.409 Y170.782 Z7.500 F600.000
G1 X234.409 Y173.472 Z7.500 F600.000
G1 X97.227 Y36.290 Z7.500 F600.000
G1 X94.537 Y36.290 Z7.500 F600.000
G1 X234.409 Y176.162 Z7.500 F600.000
G1 X234.409 Y178.851 Z7.500 F600.000
G1 X91.848 Y36.290 Z7.500 F600.000
G1 X89.158 Y36.290 Z7.500 F600.000
G1 X234.409 Y181.541 Z7.500 F600.000
G1 X234.409 Y184.231 Z7.500 F600.000
G1 X86.468 Y36.290 Z7.500 F600.000
G1 X83.778 Y36.290 Z7.500 F600.000
G1 X234.409 Y186.921 Z7.500 F600.000
G1 X234.409 Y189.611 Z7.500 F600.000
G1 X81.088 Y36.290 Z7.500 F600.000
G1 X78.398 Y36.290 Z7.500 F600.000
G1 X234.409 Y192.301 Z7.500 F600.000
G1 X234.409 Y194.990 Z7.500 F600.000
G1 X75.709 Y36.290 Z7.500 F600.000
G1 X73.019 Y36.290 Z7.500 F600.000
G1 X234.409 Y197.680 Z7.500 F600.000
G1 X234.409 Y200.370 Z7.500 F600.000
G1 X70.329 Y36.290 Z7.500 F600.000
G1 X67.639 Y36.290 Z7.500 F600.000
G1 X234.409 Y203.060 Z7.500 F600.000
G1 X234.409 Y205.750 Z7.500 F600.000
G1 X64.949 Y36.290 Z7.500 F600.000
G1 X62.259 Y36.290 Z7.500 F600.000
G1 X234.409 Y208.440 Z7.500 F600.000
G1 X234.409 Y211.129 Z7.500 F600.000
G1 X59.570 Y36.290 Z7.500 F600.000
G1 X56.880 Y36.290 Z7.500 F600.000
G1 X234.409 Y213.819 Z7.500 F600.000
G1 X234.409 Y216.509 Z7.500 F600.000
G1 X54.190 Y36.290 Z7.500 F600.000
G1 X51.500 Y36.290 Z7.500 F600.000
G1 X234.409 Y219.199 Z7.500 F600.000
G1 X234.409 Y221.889 Z7.500 F600.000
G1 X48.810 Y36.290 Z7.500 F600.000
G1 X46.120 Y36.290 Z7.500 F600.000
G1 X234.409 Y224.579 Z7.500 F600.000
G1 X234.409 Y227.268 Z7.500 F600.000
G1 X43.431 Y36.290 Z7.500 F600.000
G1 X40.741 Y36.290 Z7.500 F600.000
G1 X234.409 Y229.958 Z7.500 F600.000
G1 X234.409 Y232.648 Z7.500 F600.000
G1 X38.051 Y36.290 Z7.500 F600.000
G1 X37.579 Y36.290 Z7.500 F600.000
G1 X37.579 Y38.508 Z7.500 F600.000
G1 X232.191 Y233.120 Z7.500 F600.000
G1 X229.501 Y233.120 Z7.500 F600.000
G1 X37.579 Y41.198 Z7.500 F600.000
G1 X37.579 Y43.888 Z7.500 F600.000
G1 X226.811 Y233.120 Z7.500 F600.000
G1 X224.122 Y233.120 Z7.500 F600.000
G1 X37.579 Y46.577 Z7.500 F600.000
G1 X37.579 Y49.267 Z7.500 F600.000
G1 X221.432 Y233.120 Z7.500 F600.000
G1 X218.742 Y233.120 Z7.500 F600.000
G1 X37.579 Y51.957 Z7.500 F600.000
G1 X37.579 Y54.647 Z7.500 F600.000
G1 X216.052 Y233.120 Z7.500 F600.000
G1 X213.362 Y233.120 Z7.500 F600.000
G1 X37.579 Y57.337 Z7.500 F600.000
G1 X37.579 Y60.027 Z7.500 F600.000
G1 X210.672 Y233.120 Z7.500 F600.000
G1 X207.983 Y233.120 Z7.500 F600.000
G1 X37.579 Y62.716 Z7.500 F600.000
G1 X37.579 Y65.406 Z7.500 F600.000
G1 X205.293 Y233.120 Z7.500 F600.000
G1 X202.603 Y233.120 Z7.500 F600.000
G1 X37.579 Y68.096 Z7.500 F600.000
G1 X37.579 Y70.786 Z7.500 F600.000
G1 X199.913 Y233.120 Z7.500 F600.000
G1 X197.223 Y233.120 Z7.500 F600.000
G1 X37.579 Y73.476 Z7.500 F600.000
G1 X37.579 Y76.166 Z7.500 F600.000
G1 X194.533 Y233.120 Z7.500 F600.000
G1 X191.844 Y233.120 Z7.500 F600.000
G1 X37.579 Y78.855 Z7.500 F600.000
G1 X37.579 Y81.545 Z7.500 F600.000
G1 X189.154 Y233.120 Z7.500 F600.000
G1 X186.464 Y233.120 Z7.500 F600.000
G1 X37.579 Y84.235 Z7.500 F600.000
G1 X37.579 Y86.925 Z7.500 F600.000
G1 X183.774 Y233.120 Z7.500 F600.000
G1 X181.084 Y233.120 Z7.500 F600.000
G1 X37.579 Y89.615 Z7.500 F600.000
G1 X37.579 Y92.305 Z7.500 F600.000
G1 X178.394 Y233.120 Z7.500 F600.000
G1 X175.705 Y233.120 Z7.500 F600.000
G1 X37.579 Y94.994 Z7.500 F600.000
G1 X37.579 Y97.684 Z7.500 F600.000
G1 X173.015 Y233.120 Z7.500 F600.000
G1 X170.325 Y233.120 Z7.500 F600.000
G1 X37.579 Y100.374 Z7.500 F600.000
G1 X37.579 Y103.064 Z7.500 F600.000
G1 X167.635 Y233.120 Z7.500 F600.000
G1 X164.945 Y233.120 Z7.500 F600.000
G1 X37.579 Y105.754 Z7.500 F600.000
G1 X37.579 Y108.444 Z7.500 F600.000
G1 X162.255 Y233.120 Z7.500 F600.000
G1 X159.566 Y233.120 Z7.500 F600.000
G1 X37.579 Y111.133 Z7.500 F600.000
G1 X37.579 Y113.823 Z7.500 F600.000
G1 X156.876 Y233.120 Z7.500 F600.000
G1 X154.186 Y233.120 Z7.500 F600.000
G1 X37.579 Y116.513 Z7.500 F600.000
G1 X37.579 Y119.203 Z7.500 F600.000
G1 X151.496 Y233.120 Z7.500 F600.000
G1 X148.806 Y233.120 Z7.500 F600.000
G1 X37.579 Y121.893 Z7.500 F600.000
G1 X37.579 Y124.583 Z7.500 F600.000
G1 X146.116 Y233.120 Z7.500 F600.000
G1 X143.426 Y233.120 Z7.500 F600.000
G1 X37.579 Y127.272 Z7.500 F600.000
G1 X37.579 Y129.962 Z7.500 F600.000
G1 X140.737 Y233.120 Z7.500 F600.000
G1 X138.047 Y233.120 Z7.500 F600.000
G1 X37.579 Y132.652 Z7.500 F600.000
G1 X37.579 Y135.342 Z7.500 F600.000
G1 X135.357 Y233.120 Z7.500 F600.000
G1 X132.667 Y233.120 Z7.500 F600.000
G1 X37.579 Y138.032 Z7.500 F600.000
G1 X37.579 Y140.722 Z7.500 F600.000
G1 X129.977 Y233.120 Z7.500 F600.000
G1 X127.287 Y233.120 Z7.500 F600.000
G1 X37.579 Y143.411 Z7.500 F600.000
G1 X37.579 Y146.101 Z7.500 F600.000
G1 X124.598 Y233.120 Z7.500 F600.000
G1 X121.908 Y233.120 Z7.500 F600.000
G1 X37.579 Y148.791 Z7.500 F600.000
G1 X37.579 Y151.481 Z7.500 F600.000
G1 X119.218 Y233.120 Z7.500 F600.000
G1 X116.528 Y233.120 Z7.500 F600.000
G1 X37.579 Y154.171 Z7.500 F600.000
G1 X37.579 Y156.861 Z7.500 F600.000
G1 X113.838 Y233.120 Z7.500 F600.000
G1 X111.148 Y233.120 Z7.500 F600.000
G1 X37.579 Y159.550 Z7.500 F600.000
G1 X37.579 Y162.240 Z7.500 F600.000
G1 X108.459 Y233.120 Z7.500 F600.000
G1 X105.769 Y233.120 Z7.500 F600.000
G1 X37.579 Y164.930 Z7.500 F600.000
G1 X37.579 Y167.620 Z7.500 F600.000
G1 X103.079 Y233.120 Z7.500 F600.000
G1 X100.389 Y233.120 Z7.500 F600.000
G1 X37.579 Y170.310 Z7.500 F600.000
G1 X37.579 Y173.000 Z7.500 F600.000
G1 X97.699 Y233.120 Z7.500 F600.000
G1 X95.009 Y233.120 Z7.500 F600.000
G1 X37.579 Y175.689 Z7.500 F600.000
G1 X37.579 Y178.379 Z7.500 F600.000
G1 X92.320 Y233.120 Z7.500 F600.000
G1 X89.630 Y233.120 Z7.500 F600.000
G1 X37.579 Y181.069 Z7.500 F600.000
G1 X37.579 Y183.759 Z7.500 F600.000
G1 X86.940 Y233.120 Z7.500 F600.000
G1 X84.250 Y233.120 Z7.500 F600.000
G1 X37.579 Y186.449 Z7.500 F600.000
G1 X37.579 Y189.139 Z7.500 F600.000
G1 X81.560 Y233.120 Z7.500 F600.000
G1 X78.870 Y233.120 Z7.500 F600.000
G1 X37.579 Y191.828 Z7.500 F600.000
G1 X37.579 Y194.518 Z7.500 F600.000
G1 X76.181 Y233.120 Z7.500 F600.000
G1 X73.491 Y233.120 Z7.500 F600.000
G1 X37.579 Y197.208 Z7.500 F600.000
G1 X37.579 Y199.898 Z7.500 F600.000
G1 X70.801 Y233.120 Z7.500 F600.000
G1 X68.111 Y233.120 Z7.500 F600.000
G1 X37.579 Y202.588 Z7.500 F600.000
G1 X37.579 Y205.278 Z7.500 F600.000
G1 X65.421 Y233.120 Z7.500 F600.000
G1 X62.731 Y233.120 Z7.500 F600.000
G1 X37.579 Y207.967 Z7.500 F600.000
G1 X37.579 Y210.657 Z7.500 F600.000
G1 X60.042 Y233.120 Z7.500 F600.000
G1 X57.352 Y233.120 Z7.500 F600.000
G1 X37.579 Y213.347 Z7.500 F600.000
G1 X37.579 Y216.037 Z7.500 F600.000
G1 X54.662 Y233.120 Z7.500 F600.000
G1 X51.972 Y233.120 Z7.500 F600.000
G1 X37.579 Y218.727 Z7.500 F600.000
G1 X37.579 Y221.417 Z7.500 F600.000
G1 X49.282 Y233.120 Z7.500 F600.000
G1 X46.592 Y233.120 Z7.500 F600.000
G1 X37.579 Y224.106 Z7.500 F600.000
G1 X37.579 Y226.796 Z7.500 F600.000
G1 X43.903 Y233.120 Z7.500 F600.000
G1 X41.213 Y233.120 Z7.500 F600.000
G1 X37.579 Y229.486 Z7.500 F600.000
G1 X37.579 Y232.176 Z7.500 F600.000
G1 X38.523 Y233.120 Z7.500 F600.000
G1 X37.579 Y233.120 Z7.500 F600.000
G1 X37.579 Y232.176 Z7.500 F600.000
G1 X37.579 Y232.176 Z7.000 F600.000
G1 X37.579 Y233.120 Z7.000 F600.000
G1 X38.523 Y233.120 Z7.000 F600.000
G1 X37.579 Y232.176 Z7.000 F600.000
G1 X37.579 Y229.486 Z7.000 F600.000
G1 X41.213 Y233.120 Z7.000 F600.000
G1 X43.903 Y233.120 Z7.000 F600.000
G1 X37.579 Y226.796 Z7.000 F600.000
G1 X37.579 Y224.106 Z7.000 F600.000
G1 X46.592 Y233.120 Z7.000 F600.000
G1 X49.282 Y233.120 Z7.000 F600.000
G1 X37.579 Y221.417 Z7.000 F600.000
G1 X37.579 Y218.727 Z7.000 F600.000
G1 X51.972 Y233.120 Z7.000 F600.000
G1 X54.662 Y233.120 Z7.000 F600.000
G1 X37.579 Y216.037 Z7.000 F600.000
G1 X37.579 Y213.347 Z7.000 F600.000
G1 X57.352 Y233.120 Z7.000 F600.000
G1 X60.042 Y233.120 Z7.000 F600.000
G1 X37.579 Y210.657 Z7.000 F600.000
G1 X37.579 Y207.967 Z7.000 F600.000
G1 X62.731 Y233.120 Z7.000 F600.000
G1 X65.421 Y233.120 Z7.000 F600.000
G1 X37.579 Y205.278 Z7.000 F600.000
G1 X37.579 Y202.588 Z7.000 F600.000
G1 X68.111 Y233.120 Z7.000 F600.000
G1 X70.801 Y233.120 Z7.000 F600.000
G1 X37.579 Y199.898 Z7.000 F600.000
G1 X37.579 Y197.208 Z7.000 F600.000
G1 X73.491 Y233.120 Z7.000 F600.000
G1 X76.181 Y233.120 Z7.000 F600.000
G1 X37.579 Y194.518 Z7.000 F600.000
G1 X37.579 Y191.828 Z7.000 F600.000
G1 X78.870 Y233.120 Z7.000 F600.000
G1 X81.560 Y233.120 Z7.000 F600.000
G1 X37.579 Y189.139 Z7.000 F600.000
G1 X37.579 Y186.449 Z7.000 F600.000
G1 X84.250 Y233.120 Z7.000 F600.000
G1 X86.940 Y233.120 Z7.000 F600.000
G1 X37.579 Y183.759 Z7.000 F600.000
G1 X37.579 Y181.069 Z7.000 F600.000
G1 X89.630 Y233.120 Z7.000 F600.000
G1 X92.320 Y233.120 Z7.000 F600.000
G1 X37.579 Y178.379 Z7.000 F600.000
G1 X37.579 Y175.689 Z7.000 F600.000
G1 X95.009 Y233.120 Z7.000 F600.000
G1 X97.699 Y233.120 Z7.000 F600.000
G1 X37.579 Y173.000 Z7.000 F600.000
G1 X37.579 Y170.310 Z7.000 F600.000
G1 X100.389 Y233.120 Z7.000 F600.000
G1 X103.079 Y233.120 Z7.000 F600.000
G1 X37.579 Y167.620 Z7.000 F600.000
G1 X37.579 Y164.930 Z7.000 F600.000
G1 X105.769 Y233.120 Z7.000 F600.000
G1 X108.459 Y233.120 Z7.000 F600.000
G1 X37.579 Y162.240 Z7.000 F600.000
G1 X37.579 Y159.550 Z7.000 F600.000
G1 X111.148 Y233.120 Z7.000 F600.000
G1 X113.838 Y233.120 Z7.000 F600.000
G1 X37.579 Y156.861 Z7.000 F600.000
G1 X37.579 Y154.171 Z7.000 F600.000
G1 X116.528 Y233.120 Z7.000 F600.000
G1 X119.218 Y233.120 Z7.000 F600.000
G1 X37.579 Y151.481 Z7.000 F600.000
G1 X37.579 Y148.791 Z7.000 F600.000
G1 X121.908 Y233.120 Z7.000 F600.000
G1 X124.598 Y233.120 Z7.000 F600.000
G1 X37.579 Y146.101 Z7.000 F600.000
G1 X37.579 Y143.411 Z7.000 F600.000
G1 X127.287 Y233.120 Z7.000 F600.000
G1 X129.977 Y233.120 Z7.000 F600.000
G1 X37.579 Y140.722 Z7.000 F600.000
G1 X37.579 Y138.032 Z7.000 F600.000
G1 X132.667 Y233.120 Z7.000 F600.000
G1 X135.357 Y233.120 Z7.000 F600.000
G1 X37.579 Y135.342 Z7.000 F600.000
G1 X37.579 Y132.652 Z7.000 F600.000
G1 X138.047 Y233.120 Z7.000 F600.000
G1 X140.737 Y233.120 Z7.000 F600.000
G1 X37.579 Y129.962 Z7.000 F600.000
G1 X37.579 Y127.272 Z7.000 F600.000
G1 X143.426 Y233.120 Z7.000 F600.000
G1 X146.116 Y233.120 Z7.000 F600.000
G1 X37.579 Y124.583 Z7.000 F600.000
G1 X37.579 Y121.893 Z7.000 F600.000
G1 X148.806 Y233.120 Z7.000 F600.000
G1 X151.496 Y233.120 Z7.000 F600.000
G1 X37.579 Y119.203 Z7.000 F600.000
G1 X37.579 Y116.513 Z7.000 F600.000
G1 X154.186 Y233.120 Z7.000 F600.000
G1 X156.876 Y233.120 Z7.000 F600.000
G1 X37.579 Y113.823 Z7.000 F600.000
G1 X37.579 Y111.133 Z7.000 F600.000
G1 X159.566 Y233.120 Z7.000 F600.000
G1 X162.255 Y233.120 Z7.000 F600.000
G1 X37.579 Y108.444 Z7.000 F600.000
G1 X37.579 Y105.754 Z7.000 F600.000
G1 X164.945 Y233.120 Z7.000 F600.000
G1 X167.635 Y233.120 Z7.000 F600.000
G1 X37.579 Y103.064 Z7.000 F600.000
G1 X37.579 Y100.374 Z7.000 F600.000
G1 X170.325 Y233.120 Z7.000 F600.000
G1 X173.015 Y233.120 Z7.000 F600.000
G1 X37.579 Y97.684 Z7.000 F600.000
G1 X37.579 Y94.994 Z7.000 F600.000
G1 X175.705 Y233.120 Z7.000 F600.000
G1 X178.394 Y233.120 Z7.000 F600.000
G1 X37.579 Y92.305 Z7.000 F600.000
G1 X37.579 Y89.615 Z7.000 F600.000
G1 X181.084 Y233.120 Z7.000 F600.000
G1 X183.774 Y233.120 Z7.000 F600.000
G1 X37.579 Y86.925 Z7.000 F600.000
G1 X37.579 Y84.235 Z7.000 F600.000
G1 X186.464 Y233.120 Z7.000 F600.000
G1 X189.154 Y233.120 Z7.000 F600.000
G1 X37.579 Y81.545 Z7.000 F600.000
G1 X37.579 Y78.855 Z7.000 F600.000
G1 X191.844 Y233.120 Z7.000 F600.000
G1 X194.533 Y233.120 Z7.000 F600.000
G1 X37.579 Y76.166 Z7.000 F600.000
G1 X37.579 Y73.476 Z7.000 F600.000
G1 X197.223 Y233.120 Z7.000 F600.000
G1 X199.913 Y233.120 Z7.000 F600.000
G1 X37.579 Y70.786 Z7.000 F600.000
G1 X37.579 Y68.096 Z7.000 F600.000
G1 X202.603 Y233.120 Z7.000 F600.000
G1 X205.293 Y233.120 Z7.000 F600.000
G1 X37.579 Y65.406 Z7.000 F600.000
G1 X37.579 Y62.716 Z7.000 F600.000
G1 X207.983 Y233.120 Z7.000 F600.000
G1 X210.672 Y233.120 Z7.000 F600.000
G1 X37.579 Y60.027 Z7.000 F600.000
G1 X37.579 Y57.337 Z7.000 F600.000
G1 X213.362 Y233.120 Z7.000 F600.000
G1 X216.052 Y233.120 Z7.000 F600.000
G1 X37.579 Y54.647 Z7.000 F600.000
G1 X37.579 Y51.957 Z7.000 F600.000
G1 X218.742 Y233.120 Z7.000 F600.000
G1 X221.432 Y233.120 Z7.000 F600.000
G1 X37.579 Y49.267 Z7.000 F600.000
G1 X37.579 Y46.577 Z7.000 F600.000
G1 X224.122 Y233.120 Z7.000 F600.000
G1 X226.811 Y233.120 Z7.000 F600.000
G1 X37.579 Y43.888 Z7.000 F600.000
G1 X37.579 Y41.198 Z7.000 F600.000
G1 X229.501 Y233.120 Z7.000 F600.000
G1 X232.191 Y233.120 Z7.000 F600.000
G1 X37.579 Y38.508 Z7.000 F600.000
G1 X37.579 Y36.290 Z7.000 F600.000
G1 X38.051 Y36.290 Z7.000 F600.000
G1 X234.409 Y232.648 Z7.000 F600.000
G1 X234.409 Y229.958 Z7.000 F600.000
G1 X40.741 Y36.290 Z7.000 F600.000
G1 X43.431 Y36.290 Z7.000 F600.000
G1 X234.409 Y227.268 Z7.000 F600.000
G1 X234.409 Y224.579 Z7.000 F600.000
G1 X46.120 Y36.290 Z7.000 F600.000
G1 X48.810 Y36.290 Z7.000 F600.000
G1 X234.409 Y221.889 Z7.000 F600.000
G1 X234.409 Y219.199 Z7.000 F600.000
G1 X51.500 Y36.290 Z7.000 F600.000
G1 X54.190 Y36.290 Z7.000 F600.000
G1 X234.409 Y216.509 Z7.000 F600.000
G1 X234.409 Y213.819 Z7.000 F600.000
G1 X56.880 Y36.290 Z7.000 F600.000
G1 X59.570 Y36.290 Z7.000 F600.000
G1 X234.409 Y211.129 Z7.000 F600.000
G1 X234.409 Y208.440 Z7.000 F600.000
G1 X62.259 Y36.290 Z7.000 F600.000
G1 X64.949 Y36.290 Z7.000 F600.000
G1 X234.409 Y205.750 Z7.000 F600.000
G1 X234.409 Y203.060 Z7.000 F600.000
G1 X67.639 Y36.290 Z7.000 F600.000
G1 X70.329 Y36.290 Z7.000 F600.000
G1 X234.409 Y200.370 Z7.000 F600.000
G1 X234.409 Y197.680 Z7.000 F600.000
G1 X73.019 Y36.290 Z7.000 F600.000
G1 X75.709 Y36.290 Z7.000 F600.000
G1 X234.409 Y194.990 Z7.000 F600.000
G1 X234.409 Y192.301 Z7.000 F600.000
G1 X78.398 Y36.290 Z7.000 F600.000
G1 X81.088 Y36.290 Z7.000 F600.000
G1 X234.409 Y189.611 Z7.000 F600.000
G1 X234.409 Y186.921 Z7.000 F600.000
G1 X83.778 Y36.290 Z7.000 F600.000
G1 X86.468 Y36.290 Z7.000 F600.000
G1 X234.409 Y184.231 Z7.000 F600.000
G1 X234.409 Y181.541 Z7.000 F600.000
G1 X89.158 Y36.290 Z7.000 F600.000
G1 X91.848 Y36.290 Z7.000 F600.000
G1 X234.409 Y178.851 Z7.000 F600.000
G1 X234.409 Y176.162 Z7.000 F600.000
G1 X94.537 Y36.290 Z7.000 F600.000
G1 X97.227 Y36.290 Z7.000 F600.000
G1 X234.409 Y173.472 Z7.000 F600.000
G1 X234.409 Y170.782 Z7.000 F600.000
G1 X99.917 Y36.290 Z7.000 F600.000
G1 X102.607 Y36.290 Z7.000 F600.000
G1 X234.409 Y168.092 Z7.000 F600.000
G1 X234.409 Y165.402 Z7.000 F600.000
G1 X105.297 Y36.290 Z7.000 F600.000
G1 X107.987 Y36.290 Z7.000 F600.000
G1 X234.409 Y162.712 Z7.000 F600.000
G1 X234.409 Y160.023 Z7.000 F600.000
G1 X110.676 Y36.290 Z7.000 F600.000
G1 X113.366 Y36.290 Z7.000 F600.000
G1 X234.409 Y157.333 Z7.000 F600.000
G1 X234.409 Y154.643 Z7.000 F600.000
G1 X116.056 Y36.290 Z7.000 F600.000
G1 X118.746 Y36.290 Z7.000 F600.000
G1 X234.409 Y151.953 Z7.000 F600.000
G1 X234.409 Y149.263 Z7.000 F600.000
G1 X121.436 Y36.290 Z7.000 F600.000
G1 X124.126 Y36.290 Z7.000 F600.000
G1 X234.409 Y146.573 Z7.000 F600.000
G1 X234.409 Y143.884 Z7.000 F600.000
G1 X126.815 Y36.290 Z7.000 F600.000
G1 X129.505 Y36.290 Z7.000 F600.000
G1 X234.409 Y141.194 Z7.000 F600.000
G1 X234.409 Y138.504 Z7.000 F600.000
G1 X132.195 Y36.290 Z7.000 F600.000
G1 X134.885 Y36.290 Z7.000 F600.000
G1 X234.409 Y135.814 Z7.000 F600.000
G1 X234.409 Y133.124 Z7.000 F600.000
G1 X137.575 Y36.290 Z7.000 F600.000
G1 X140.265 Y36.290 Z7.000 F600.000
G1 X234.409 Y130.434 Z7.000 F600.000
G1 X234.409 Y127.745 Z7.000 F600.000
G1 X142.954 Y36.290 Z7.000 F600.000
G1 X145.644 Y36.290 Z7.000 F600.000
G1 X234.409 Y125.055 Z7.000 F600.000
G1 X234.409 Y122.365 Z7.000 F600.000
G1 X148.334 Y36.290 Z7.000 F600.000
G1 X151.024 Y36.290 Z7.000 F600.000
G1 X234.409 Y119.675 Z7.000 F600.000
G1 X234.409 Y116.985 Z7.000 F600.000
G1 X153.714 Y36.290 Z7.000 F600.000
G1 X156.404 Y36.290 Z7.000 F600.000
G1 X234.409 Y114.295 Z7.000 F600.000
G1 X234.409 Y111.606 Z7.000 F600.000
G1 X159.093 Y36.290 Z7.000 F600.000
G1 X161.783 Y36.290 Z7.000 F600.000
G1 X234.409 Y108.916 Z7.000 F600.000
G1 X234.409 Y106.226 Z7.000 F600.000
G1 X164.473 Y36.290 Z7.000 F600.000
G1 X167.163 Y36.290 Z7.000 F600.000
G1 X234.409 Y103.536 Z7.000 F600.000
G1 X234.409 Y100.846 Z7.000 F600.000
G1 X169.853 Y36.290 Z7.000 F600.000
G1 X172.543 Y36.290 Z7.000 F600.000
G1 X234.409 Y98.156 Z7.000 F600.000
G1 X234.409 Y95.467 Z7.000 F600.000
G1 X175.232 Y36.290 Z7.000 F600.000
G1 X177.922 Y36.290 Z7.000 F600.000
G1 X234.409 Y92.777 Z7.000 F600.000
G1 X234.409 Y90.087 Z7.000 F600.000
G1 X180.612 Y36.290 Z7.000 F600.000
G1 X183.302 Y36.290 Z7.000 F600.000
G1 X234.409 Y87.397 Z7.000 F600.000
G1 X234.409 Y84.707 Z7.000 F600.000
G1 X185.992 Y36.290 Z7.000 F600.000
G1 X188.682 Y36.290 Z7.000 F600.000
G1 X234.409 Y82.017 Z7.000 F600.000
G1 X234.409 Y79.328 Z7.000 F600.000
G1 X191.371 Y36.290 Z7.000 F600.000
G1 X194.061 Y36.290 Z7.000 F600.000
G1 X234.409 Y76.638 Z7.000 F600.000
G1 X234.409 Y73.948 Z7.000 F600.000
G1 X196.751 Y36.290 Z7.000 F600.000
G1 X199.441 Y36.290 Z7.000 F600.000
G1 X234.409 Y71.258 Z7.000 F600.000
G1 X234.409 Y68.568 Z7.000 F600.000
G1 X202.131 Y36.290 Z7.000 F600.000
G1 X204.821 Y36.290 Z7.000 F600.000
G1 X234.409 Y65.878 Z7.000 F600.000
G1 X234.409 Y63.189 Z7.000 F600.000
G1 X207.510 Y36.290 Z7.000 F600.000
G1 X210.200 Y36.290 Z7.000 F600.000
G1 X234.409 Y60.499 Z7.000 F600.000
G1 X234.409 Y57.809 Z7.000 F600.000
G1 X212.890 Y36.290 Z7.000 F600.000
G1 X215.580 Y36.290 Z7.000 F600.000
G1 X234.409 Y55.119 Z7.000 F600.000
G1 X234.409 Y52.429 Z7.000 F600.000
G1 X218.270 Y36.290 Z7.000 F600.000
G1 X220.960 Y36.290 Z7.000 F600.000
G1 X234.409 Y49.739 Z7.000 F600.000
G1 X234.409 Y47.050 Z7.000 F600.000
G1 X223.649 Y36.290 Z7.000 F600.000
G1 X226.339 Y36.290 Z7.000 F600.000
G1 X234.409 Y44.360 Z7.000 F600.000
G1 X234.409 Y41.670 Z7.000 F600.000
G1 X229.029 Y36.290 Z7.000 F600.000
G1 X231.719 Y36.290 Z7.000 F600.000
G1 X234.409 Y38.980 Z7.000 F600.000
G1 X234.409 Y36.290 Z7.000 F600.000
G1 X234.409 Y36.290 Z6.500 F600.000
G1 X234.409 Y38.980 Z6.500 F600.000
G1 X231.719 Y36.290 Z6.500 F600.000
G1 X229.029 Y36.290 Z6.500 F600.000
G1 X234.409 Y41.670 Z6.500 F600.000
G1 X234.409 Y44.360 Z6.500 F600.000
G1 X226.339 Y36.290 Z6.500 F600.000
G1 X223.649 Y36.290 Z6.500 F600.000
G1 X234.409 Y47.050 Z6.500 F600.000
G1 X234.409 Y49.739 Z6.500 F600.000
G1 X220.960 Y36.290 Z6.500 F600.000
G1 X218.270 Y36.290 Z6.500 F600.000
G1 X234.409 Y52.429 Z6.500 F600.000
G1 X234.409 Y55.119 Z6.500 F600.000
G1 X215.580 Y36.290 Z6.500 F600.000
G1 X212.890 Y36.290 Z6.500 F600.000
G1 X234.409 Y57.809 Z6.500 F600.000
G1 X234.409 Y60.499 Z6.500 F600.000
G1 X210.200 Y36.290 Z6.500 F600.000
G1 X207.510 Y36.290 Z6.500 F600.000
G1 X234.409 Y63.189 Z6.500 F600.000
G1 X234.409 Y65.878 Z6.500 F600.000
G1 X204.821 Y36.290 Z6.500 F600.000
G1 X202.131 Y36.290 Z6.500 F600.000
G1 X234.409 Y68.568 Z6.500 F600.000
G1 X234.409 Y71.258 Z6.500 F600.000
G1 X199.441 Y36.290 Z6.500 F600.000
G1 X196.751 Y36.290 Z6.500 F600.000
G1 X234.409 Y73.948 Z6.500 F600.000
G1 X234.409 Y76.638 Z6.500 F600.000
G1 X194.061 Y36.290 Z6.500 F600.000
G1 X191.371 Y36.290 Z6.500 F600.000
G1 X234.409 Y79.328 Z6.500 F600.000
G1 X234.409 Y82.017 Z6.500 F600.000
G1 X188.682 Y36.290 Z6.500 F600.000
G1 X185.992 Y36.290 Z6.500 F600.000
G1 X234.409 Y84.707 Z6.500 F600.000
G1 X234.409 Y87.397 Z6.500 F600.000
G1 X183.302 Y36.290 Z6.500 F600.000
G1 X180.612 Y36.290 Z6.500 F600.000
G1 X234.409 Y90.087 Z6.500 F600.000
G1 X234.409 Y92.777 Z6.500 F600.000
G1 X177.922 Y36.290 Z6.500 F600.000
G1 X175.232 Y36.290 Z6.500 F600.000
G1 X234.409 Y95.467 Z6.500 F600.000
G1 X234.409 Y98.156 Z6.500 F600.000
G1 X172.543 Y36.290 Z6.500 F600.000
G1 X169.853 Y36.290 Z6.500 F600.000
G1 X234.409 Y100.846 Z6.500 F600.000
G1 X234.409 Y103.536 Z6.500 F600.000
G1 X167.163 Y36.290 Z6.500 F600.000
G1 X164.473 Y36.290 Z6.500 F600.000
G1 X234.409 Y106.226 Z6.500 F600.000
G1 X234.409 Y108.916 Z6.500 F600.000
G1 X161.783 Y36.290 Z6.500 F600.000
G1 X159.093 Y36.290 Z6.500 F600.000
G1 X234.409 Y111.606 Z6.500 F600.000
G1 X234.409 Y114.295 Z6.500 F600.000
G1 X156.404 Y36.290 Z6.500 F600.000
G1 X153.714 Y36.290 Z6.500 F600.000
G1 X234.409 Y116.985 Z6.500 F600.000
G1 X234.409 Y119.675 Z6.500 F600.000
G1 X151.024 Y36.290 Z6.500 F600.000
G1 X148.334 Y36.290 Z6.500 F600.000
G1 X234.409 Y122.365 Z6.500 F600.000
G1 X234.409 Y125.055 Z6.500 F600.000
G1 X145.644 Y36.290 Z6.500 F600.000
G1 X142.954 Y36.290 Z6.500 F600.000
G1 X234.409 Y127.745 Z6.500 F600.000
G1 X234.409 Y130.434 Z6.500 F600.000
G1 X140.265 Y36.290 Z6.500 F600.000
G1 X137.575 Y36.290 Z6.500 F600.000
G1 X234.409 Y133.124 Z6.500 F600.000
G1 X234.409 Y135.814 Z6.500 F600.000
G1 X134.885 Y36.290 Z6.500 F600.000
G1 X132.195 Y36.290 Z6.500 F600.000
G1 X234.409 Y138.504 Z6.500 F600.000
G1 X234.409 Y141.194 Z6.500 F600.000
G1 X129.505 Y36.290 Z6.500 F600.000
G1 X126.815 Y36.290 Z6.500 F600.000
G1 X234.409 Y143.884 Z6.500 F600.000
G1 X234.409 Y146.573 Z6.500 F600.000
G1 X124.126 Y36.290 Z6.500 F600.000
G1 X121.436 Y36.290 Z6.500 F600.000
G1 X234.409 Y149.263 Z6.500 F600.000
G1 X234.409 Y151.953 Z6.500 F600.000
G1 X118.746 Y36.290 Z6.500 F600.000
G1 X116.056 Y36.290 Z6.500 F600.000
G1 X234.409 Y154.643 Z6.500 F600.000
G1 X234.409 Y157.333 Z6.500 F600.000
G1 X113.366 Y36.290 Z6.500 F600.000
G1 X110.676 Y36.290 Z6.500 F600.000
G1 X234.409 Y160.023 Z6.500 F600.000
G1 X234.409 Y162.712 Z6.500 F600.000
G1 X107.987 Y36.290 Z6.500 F600.000
G1 X105.297 Y36.290 Z6.500 F600.000
G1 X234.409 Y165.402 Z6.500 F600.000
G1 X234.409 Y168.092 Z6.500 F600.000
G1 X102.607 Y36.290 Z6.500 F600.000
G1 X99.917 Y36.290 Z6.500 F600.000
G1 X234.409 Y170.782 Z6.500 F600.000
G1 X234.409 Y173.472 Z6.500 F600.000
G1 X97.227 Y36.290 Z6.500 F600.000
G1 X94.537 Y36.290 Z6.500 F600.000
G1 X234.409 Y176.162 Z6.500 F600.000
G1 X234.409 Y178.851 Z6.500 F600.000
G1 X91.848 Y36.290 Z6.500 F600.000
G1 X89.158 Y36.290 Z6.500 F600.000
G1 X234.409 Y181.541 Z6.500 F600.000
G1 X234.409 Y184.231 Z6.500 F600.000
G1 X86.468 Y36.290 Z6.500 F600.000
G1 X83.778 Y36.290 Z6.500 F600.000
G1 X234.409 Y186.921 Z6.500 F600.000
G1 X234.409 Y189.611 Z6.500 F600.000
G1 X81.088 Y36.290 Z6.500 F600.000
G1 X78.398 Y36.290 Z6.500 F600.000
G1 X234.409 Y192.301 Z6.500 F600.000
G1 X234.409 Y194.990 Z6.500 F600.000
G1 X75.709 Y36.290 Z6.500 F600.000
G1 X73.019 Y36.290 Z6.500 F600.000
G1 X234.409 Y197.680 Z6.500 F600.000
G1 X234.409 Y200.370 Z6.500 F600.000
G1 X70.329 Y36.290 Z6.500 F600.000
G1 X67.639 Y36.290 Z6.500 F600.000
G1 X234.409 Y203.060 Z6.500 F600.000
G1 X234.409 Y205.750 Z6.500 F600.000
G1 X64.949 Y36.290 Z6.500 F600.000
G1 X62.259 Y36.290 Z6.500 F600.000
G1 X234.409 Y208.440 Z6.500 F600.000
G1 X234.409 Y211.129 Z6.500 F600.000
G1 X59.570 Y36.290 Z6.500 F600.000
G1 X56.880 Y36.290 Z6.500 F600.000
G1 X234.409 Y213.819 Z6.500 F600.000
G1 X234.409 Y216.509 Z6.500 F600.000
G1 X54.190 Y36.290 Z6.500 F600.000
G1 X51.500 Y36.290 Z6.500 F600.000
G1 X234.409 Y219.199 Z6.500 F600.000
G1 X234.409 Y221.889 Z6.500 F600.000
G1 X48.810 Y36.290 Z6.500 F600.000
G1 X46.120 Y36.290 Z6.500 F600.000
G1 X234.409 Y224.579 Z6.500 F600.000
G1 X234.409 Y227.268 Z6.500 F600.000
G1 X43.431 Y36.290 Z6.500 F600.000
G1 X40.741 Y36.290 Z6.500 F600.000
G1 X234.409 Y229.958 Z6.500 F600.000
G1 X234.409 Y232.648 Z6.500 F600.000
G1 X38.051 Y36.290 Z6.500 F600.000
G1 X37.579 Y36.290 Z6.500 F600.000
G1 X37.579 Y38.508 Z6.500 F600.000
G1 X232.191 Y233.120 Z6.500 F600.000
G1 X229.501 Y233.120 Z6.500 F600.000
G1 X37.579 Y41.198 Z6.500 F600.000
G1 X37.579 Y43.888 Z6.500 F600.000
G1 X226.811 Y233.120 Z6.500 F600.000
G1 X224.122 Y233.120 Z6.500 F600.000
G1 X37.579 Y46.577 Z6.500 F600.000
G1 X37.579 Y49.267 Z6.500 F600.000
G1 X221.432 Y233.120 Z6.500 F600.000
G1 X218.742 Y233.120 Z6.500 F600.000
G1 X37.579 Y51.957 Z6.500 F600.000
G1 X37.579 Y54.647 Z6.500 F600.000
G1 X216.052 Y233.120 Z6.500 F600.000
G1 X213.362 Y233.120 Z6.500 F600.000
G1 X37.579 Y57.337 Z6.500 F600.000
G1 X37.579 Y60.027 Z6.500 F600.000
G1 X210.672 Y233.120 Z6.500 F600.000
G1 X207.983 Y233.120 Z6.500 F600.000
G1 X37.579 Y62.716 Z6.500 F600.000
G1 X37.579 Y65.406 Z6.500 F600.000
G1 X205.293 Y233.120 Z6.500 F600.000
G1 X202.603 Y233.120 Z6.500 F600.000
G1 X37.579 Y68.096 Z6.500 F600.000
G1 X37.579 Y70.786 Z6.500 F600.000
G1 X199.913 Y233.120 Z6.500 F600.000
G1 X197.223 Y233.120 Z6.500 F600.000
G1 X37.579 Y73.476 Z6.500 F600.000
G1 X37.579 Y76.166 Z6.500 F600.000
G1 X194.533 Y233.120 Z6.500 F600.000
G1 X191.844 Y233.120 Z6.500 F600.000
G1 X37.579 Y78.855 Z6.500 F600.000
G1 X37.579 Y81.545 Z6.500 F600.000
G1 X189.154 Y233.120 Z6.500 F600.000
G1 X186.464 Y233.120 Z6.500 F600.000
G1 X37.579 Y84.235 Z6.500 F600.000
G1 X37.579 Y86.925 Z6.500 F600.000
G1 X183.774 Y233.120 Z6.500 F600.000
G1 X181.084 Y233.120 Z6.500 F600.000
G1 X37.579 Y89.615 Z6.500 F600.000
G1 X37.579 Y92.305 Z6.500 F600.000
G1 X178.394 Y233.120 Z6.500 F600.000
G1 X175.705 Y233.120 Z6.500 F600.000
G1 X37.579 Y94.994 Z6.500 F600.000
G1 X37.579 Y97.684 Z6.500 F600.000
G1 X173.015 Y233.120 Z6.500 F600.000
G1 X170.325 Y233.120 Z6.500 F600.000
G1 X37.579 Y100.374 Z6.500 F600.000
G1 X37.579 Y103.064 Z6.500 F600.000
G1 X167.635 Y233.120 Z6.500 F600.000
G1 X164.945 Y233.120 Z6.500 F600.000
G1 X37.579 Y105.754 Z6.500 F600.000
G1 X37.579 Y108.444 Z6.500 F600.000
G1 X162.255 Y233.120 Z6.500 F600.000
G1 X159.566 Y233.120 Z6.500 F600.000
G1 X37.579 Y111.133 Z6.500 F600.000
G1 X37.579 Y113.823 Z6.500 F600.000
G1 X156.876 Y233.120 Z6.500 F600.000
G1 X154.186 Y233.120 Z6.500 F600.000
G1 X37.579 Y116.513 Z6.500 F600.000
G1 X37.579 Y119.203 Z6.500 F600.000
G1 X151.496 Y233.120 Z6.500 F600.000
G1 X148.806 Y233.120 Z6.500 F600.000
G1 X37.579 Y121.893 Z6.500 F600.000
G1 X37.579 Y124.583 Z6.500 F600.000
G1 X146.116 Y233.120 Z6.500 F600.000
G1 X143.426 Y233.120 Z6.500 F600.000
G1 X37.579 Y127.272 Z6.500 F600.000
G1 X37.579 Y129.962 Z6.500 F600.000
G1 X140.737 Y233.120 Z6.500 F600.000
G1 X138.047 Y233.120 Z6.500 F600.000
G1 X37.579 Y132.652 Z6.500 F600.000
G1 X37.579 Y135.342 Z6.500 F600.000
G1 X135.357 Y233.120 Z6.500 F600.000
G1 X132.667 Y233.120 Z6.500 F600.000
G1 X37.579 Y138.032 Z6.500 F600.000
G1 X37.579 Y140.722 Z6.500 F600.000
G1 X129.977 Y233.120 Z6.500 F600.000
G1 X127.287 Y233.120 Z6.500 F600.000
G1 X37.579 Y143.411 Z6.500 F600.000
G1 X37.579 Y146.101 Z6.500 F600.000
G1 X124.598 Y233.120 Z6.500 F600.000
G1 X121.908 Y233.120 Z6.500 F600.000
G1 X37.579 Y148.791 Z6.500 F600.000
G1 X37.579 Y151.481 Z6.500 F600.000
G1 X119.218 Y233.120 Z6.500 F600.000
G1 X116.528 Y233.120 Z6.500 F600.000
G1 X37.579 Y154.171 Z6.500 F600.000
G1 X37.579 Y156.861 Z6.500 F600.000
G1 X113.838 Y233.120 Z6.500 F600.000
G1 X111.148 Y233.120 Z6.500 F600.000
G1 X37.579 Y159.550 Z6.500 F600.000
G1 X37.579 Y162.240 Z6.500 F600.000
G1 X108.459 Y233.120 Z6.500 F600.000
G1 X105.769 Y233.120 Z6.500 F600.000
G1 X37.579 Y164.930 Z6.500 F600.000
G1 X37.579 Y167.620 Z6.500 F600.000
G1 X103.079 Y233.120 Z6.500 F600.000
G1 X100.389 Y233.120 Z6.500 F600.000
G1 X37.579 Y170.310 Z6.500 F600.000
G1 X37.579 Y173.000 Z6.500 F600.000
G1 X97.699 Y233.120 Z6.500 F600.000
G1 X95.009 Y233.120 Z6.500 F600.000
G1 X37.579 Y175.689 Z6.500 F600.000
G1 X37.579 Y178.379 Z6.500 F600.000
G1 X92.320 Y233.120 Z6.500 F600.000
G1 X89.630 Y233.120 Z6.500 F600.000
G1 X37.579 Y181.069 Z6.500 F600.000
G1 X37.579 Y183.759 Z6.500 F600.000
G1 X86.940 Y233.120 Z6.500 F600.000
G1 X84.250 Y233.120 Z6.500 F600.000
G1 X37.579 Y186.449 Z6.500 F600.000
G1 X37.579 Y189.139 Z6.500 F600.000
G1 X81.560 Y233.120 Z6.500 F600.000
G1 X78.870 Y233.120 Z6.500 F600.000
G1 X37.579 Y191.828 Z6.500 F600.000
G1 X37.579 Y194.518 Z6.500 F600.000
G1 X76.181 Y233.120 Z6.500 F600.000
G1 X73.491 Y233.120 Z6.500 F600.000
G1 X37.579 Y197.208 Z6.500 F600.000
G1 X37.579 Y199.898 Z6.500 F600.000
G1 X70.801 Y233.120 Z6.500 F600.000
G1 X68.111 Y233.120 Z6.500 F600.000
G1 X37.579 Y202.588 Z6.500 F600.000
G1 X37.579 Y205.278 Z6.500 F600.000
G1 X65.421 Y233.120 Z6.500 F600.000
G1 X62.731 Y233.120 Z6.500 F600.000
G1 X37.579 Y207.967 Z6.500 F600.000
G1 X37.579 Y210.657 Z6.500 F600.000
G1 X60.042 Y233.120 Z6.500 F600.000
G1 X57.352 Y233.120 Z6.500 F600.000
G1 X37.579 Y213.347 Z6.500 F600.000
G1 X37.579 Y216.037 Z6.500 F600.000
G1 X54.662 Y233.120 Z6.500 F600.000
G1 X51.972 Y233.120 Z6.500 F600.000
G1 X37.579 Y218.727 Z6.500 F600.000
G1 X37.579 Y221.417 Z6.500 F600.000
G1 X49.282 Y233.120 Z6.500 F600.000
G1 X46.592 Y233.120 Z6.500 F600.000
G1 X37.579 Y224.106 Z6.500 F600.000
G1 X37.579 Y226.796 Z6.500 F600.000
G1 X43.903 Y233.120 Z6.500 F600.000
G1 X41.213 Y233.120 Z6.500 F600.000
G1 X37.579 Y229.486 Z6.500 F600.000
G1 X37.579 Y232.176 Z6.500 F600.000
G1 X38.523 Y233.120 Z6.500 F600.000
G1 X37.579 Y233.120 Z6.500 F600.000
G1 X37.579 Y232.176 Z6.500 F600.000
G1 X37.579 Y232.176 Z6.000 F600.000
G1 X37.579 Y233.120 Z6.000 F600.000
G1 X38.523 Y233.120 Z6.000 F600.000
G1 X37.579 Y232.176 Z6.000 F600.000
G1 X37.579 Y229.486 Z6.000 F600.000
G1 X41.213 Y233.120 Z6.000 F600.000
G1 X43.903 Y233.120 Z6.000 F600.000
G1 X37.579 Y226.796 Z6.000 F600.000
G1 X37.579 Y224.106 Z6.000 F600.000
G1 X46.592 Y233.120 Z6.000 F600.000
G1 X49.282 Y233.120 Z6.000 F600.000
G1 X37.579 Y221.417 Z6.000 F600.000
G1 X37.579 Y218.727 Z6.000 F600.000
G1 X51.972 Y233.120 Z6.000 F600.000
G1 X54.662 Y233.120 Z6.000 F600.000
G1 X37.579 Y216.037 Z6.000 F600.000
G1 X37.579 Y213.347 Z6.000 F600.000
G1 X57.352 Y233.120 Z6.000 F600.000
G1 X60.042 Y233.120 Z6.000 F600.000
G1 X37.579 Y210.657 Z6.000 F600.000
G1 X37.579 Y207.967 Z6.000 F600.000
G1 X62.731 Y233.120 Z6.000 F600.000
G1 X65.421 Y233.120 Z6.000 F600.000
G1 X37.579 Y205.278 Z6.000 F600.000
G1 X37.579 Y202.588 Z6.000 F600.000
G1 X68.111 Y233.120 Z6.000 F600.000
G1 X70.801 Y233.120 Z6.000 F600.000
G1 X37.579 Y199.898 Z6.000 F600.000
G1 X37.579 Y197.208 Z6.000 F600.000
G1 X73.491 Y233.120 Z6.000 F600.000
G1 X76.181 Y233.120 Z6.000 F600.000
G1 X37.579 Y194.518 Z6.000 F600.000
G1 X37.579 Y191.828 Z6.000 F600.000
G1 X78.870 Y233.120 Z6.000 F600.000
G1 X81.560 Y233.120 Z6.000 F600.000
G1 X37.579 Y189.139 Z6.000 F600.000
G1 X37.579 Y186.449 Z6.000 F600.000
G1 X84.250 Y233.120 Z6.000 F600.000
G1 X86.940 Y233.120 Z6.000 F600.000
G1 X37.579 Y183.759 Z6.000 F600.000
G1 X37.579 Y181.069 Z6.000 F600.000
G1 X89.630 Y233.120 Z6.000 F600.000
G1 X92.320 Y233.120 Z6.000 F600.000
G1 X37.579 Y178.379 Z6.000 F600.000
G1 X37.579 Y175.689 Z6.000 F600.000
G1 X95.009 Y233.120 Z6.000 F600.000
G1 X97.699 Y233.120 Z6.000 F600.000
G1 X37.579 Y173.000 Z6.000 F600.000
G1 X37.579 Y170.310 Z6.000 F600.000
G1 X100.389 Y233.120 Z6.000 F600.000
G1 X103.079 Y233.120 Z6.000 F600.000
G1 X37.579 Y167.620 Z6.000 F600.000
G1 X37.579 Y164.930 Z6.000 F600.000
G1 X105.769 Y233.120 Z6.000 F600.000
G1 X108.459 Y233.120 Z6.000 F600.000
G1 X37.579 Y162.240 Z6.000 F600.000
G1 X37.579 Y159.550 Z6.000 F600.000
G1 X111.148 Y233.120 Z6.000 F600.000
G1 X113.838 Y233.120 Z6.000 F600.000
G1 X37.579 Y156.861 Z6.000 F600.000
G1 X37.579 Y154.171 Z6.000 F600.000
G1 X116.528 Y233.120 Z6.000 F600.000
G1 X119.218 Y233.120 Z6.000 F600.000
G1 X37.579 Y151.481 Z6.000 F600.000
G1 X37.579 Y148.791 Z6.000 F600.000
G1 X121.908 Y233.120 Z6.000 F600.000
G1 X124.598 Y233.120 Z6.000 F600.000
G1 X37.579 Y146.101 Z6.000 F600.000
G1 X37.579 Y143.411 Z6.000 F600.000
G1 X127.287 Y233.120 Z6.000 F600.000
G1 X129.977 Y233.120 Z6.000 F600.000
G1 X37.579 Y140.722 Z6.000 F600.000
G1 X37.579 Y138.032 Z6.000 F600.000
G1 X132.667 Y233.120 Z6.000 F600.000
G1 X135.357 Y233.120 Z6.000 F600.000
G1 X37.579 Y135.342 Z6.000 F600.000
G1 X37.579 Y132.652 Z6.000 F600.000
G1 X138.047 Y233.120 Z6.000 F600.000
G1 X140.737 Y233.120 Z6.000 F600.000
G1 X37.579 Y129.962 Z6.000 F600.000
G1 X37.579 Y127.272 Z6.000 F600.000
G1 X143.426 Y233.120 Z6.000 F600.000
G1 X146.116 Y233.120 Z6.000 F600.000
G1 X37.579 Y124.583 Z6.000 F600.000
G1 X37.579 Y121.893 Z6.000 F600.000
G1 X148.806 Y233.120 Z6.000 F600.000
G1 X151.496 Y233.120 Z6.000 F600.000
G1 X37.579 Y119.203 Z6.000 F600.000
G1 X37.579 Y116.513 Z6.000 F600.000
G1 X154.186 Y233.120 Z6.000 F600.000
G1 X156.876 Y233.120 Z6.000 F600.000
G1 X37.579 Y113.823 Z6.000 F600.000
G1 X37.579 Y111.133 Z6.000 F600.000
G1 X159.566 Y233.120 Z6.000 F600.000
G1 X162.255 Y233.120 Z6.000 F600.000
G1 X37.579 Y108.444 Z6.000 F600.000
G1 X37.579 Y105.754 Z6.000 F600.000
G1 X164.945 Y233.120 Z6.000 F600.000
G1 X167.635 Y233.120 Z6.000 F600.000
G1 X37.579 Y103.064 Z6.000 F600.000
G1 X37.579 Y100.374 Z6.000 F600.000
G1 X170.325 Y233.120 Z6.000 F600.000
G1 X173.015 Y233.120 Z6.000 F600.000
G1 X37.579 Y97.684 Z6.000 F600.000
G1 X37.579 Y94.994 Z6.000 F600.000
G1 X175.705 Y233.120 Z6.000 F600.000
G1 X178.394 Y233.120 Z6.000 F600.000
G1 X37.579 Y92.305 Z6.000 F600.000
G1 X37.579 Y89.615 Z6.000 F600.000
G1 X181.084 Y233.120 Z6.000 F600.000
G1 X183.774 Y233.120 Z6.000 F600.000
G1 X37.579 Y86.925 Z6.000 F600.000
G1 X37.579 Y84.235 Z6.000 F600.000
G1 X186.464 Y233.120 Z6.000 F600.000
G1 X189.154 Y233.120 Z6.000 F600.000
G1 X37.579 Y81.545 Z6.000 F600.000
G1 X37.579 Y78.855 Z6.000 F600.000
G1 X191.844 Y233.120 Z6.000 F600.000
G1 X194.533 Y233.120 Z6.000 F600.000
G1 X37.579 Y76.166 Z6.000 F600.000
G1 X37.579 Y73.476 Z6.000 F600.000
G1 X197.223 Y233.120 Z6.000 F600.000
G1 X199.913 Y233.120 Z6.000 F600.000
G1 X37.579 Y70.786 Z6.000 F600.000
G1 X37.579 Y68.096 Z6.000 F600.000
G1 X202.603 Y233.120 Z6.000 F600.000
G1 X205.293 Y233.120 Z6.000 F600.000
G1 X37.579 Y65.406 Z6.000 F600.000
G1 X37.579 Y62.716 Z6.000 F600.000
G1 X207.983 Y233.120 Z6.000 F600.000
G1 X210.672 Y233.120 Z6.000 F600.000
G1 X37.579 Y60.027 Z6.000 F600.000
G1 X37.579 Y57.337 Z6.000 F600.000
G1 X213.362 Y233.120 Z6.000 F600.000
G1 X216.052 Y233.120 Z6.000 F600.000
G1 X37.579 Y54.647 Z6.000 F600.000
G1 X37.579 Y51.957 Z6.000 F600.000
G1 X218.742 Y233.120 Z6.000 F600.000
G1 X221.432 Y233.120 Z6.000 F600.000
G1 X37.579 Y49.267 Z6.000 F600.000
G1 X37.579 Y46.577 Z6.000 F600.000
G1 X224.122 Y233.120 Z6.000 F600.000
G1 X226.811 Y233.120 Z6.000 F600.000
G1 X37.579 Y43.888 Z6.000 F600.000
G1 X37.579 Y41.198 Z6.000 F600.000
G1 X229.501 Y233.120 Z6.000 F600.000
G1 X232.191 Y233.120 Z6.000 F600.000
G1 X37.579 Y38.508 Z6.000 F600.000
G1 X37.579 Y36.290 Z6.000 F600.000
G1 X38.051 Y36.290 Z6.000 F600.000
G1 X234.409 Y232.648 Z6.000 F600.000
G1 X234.409 Y229.958 Z6.000 F600.000
G1 X40.741 Y36.290 Z6.000 F600.000
G1 X43.431 Y36.290 Z6.000 F600.000
G1 X234.409 Y227.268 Z6.000 F600.000
G1 X234.409 Y224.579 Z6.000 F600.000
G1 X46.120 Y36.290 Z6.000 F600.000
G1 X48.810 Y36.290 Z6.000 F600.000
G1 X234.409 Y221.889 Z6.000 F600.000
G1 X234.409 Y219.199 Z6.000 F600.000
G1 X51.500 Y36.290 Z6.000 F600.000
G1 X54.190 Y36.290 Z6.000 F600.000
G1 X234.409 Y216.509 Z6.000 F600.000
G1 X234.409 Y213.819 Z6.000 F600.000
G1 X56.880 Y36.290 Z6.000 F600.000
G1 X59.570 Y36.290 Z6.000 F600.000
G1 X234.409 Y211.129 Z6.000 F600.000
G1 X234.409 Y208.440 Z6.000 F600.000
G1 X62.259 Y36.290 Z6.000 F600.000
G1 X64.949 Y36.290 Z6.000 F600.000
G1 X234.409 Y205.750 Z6.000 F600.000
G1 X234.409 Y203.060 Z6.000 F600.000
G1 X67.639 Y36.290 Z6.000 F600.000
G1 X70.329 Y36.290 Z6.000 F600.000
G1 X234.409 Y200.370 Z6.000 F600.000
G1 X234.409 Y197.680 Z6.000 F600.000
G1 X73.019 Y36.290 Z6.000 F600.000
G1 X75.709 Y36.290 Z6.000 F600.000
G1 X234.409 Y194.990 Z6.000 F600.000
G1 X234.409 Y192.301 Z6.000 F600.000
G1 X78.398 Y36.290 Z6.000 F600.000
G1 X81.088 Y36.290 Z6.000 F600.000
G1 X234.409 Y189.611 Z6.000 F600.000
G1 X234.409 Y186.921 Z6.000 F600.000
G1 X83.778 Y36.290 Z6.000 F600.000
G1 X86.468 Y36.290 Z6.000 F600.000
G1 X234.409 Y184.231 Z6.000 F600.000
G1 X234.409 Y181.541 Z6.000 F600.000
G1 X89.158 Y36.290 Z6.000 F600.000
G1 X91.848 Y36.290 Z6.000 F600.000
G1 X234.409 Y178.851 Z6.000 F600.000
G1 X234.409 Y176.162 Z6.000 F600.000
G1 X94.537 Y36.290 Z6.000 F600.000
G1 X97.227 Y36.290 Z6.000 F600.000
G1 X234.409 Y173.472 Z6.000 F600.000
G1 X234.409 Y170.782 Z6.000 F600.000
G1 X99.917 Y36.290 Z6.000 F600.000
G1 X102.607 Y36.290 Z6.000 F600.000
G1 X234.409 Y168.092 Z6.000 F600.000
G1 X234.409 Y165.402 Z6.000 F600.000
G1 X105.297 Y36.290 Z6.000 F600.000
G1 X107.987 Y36.290 Z6.000 F600.000
G1 X234.409 Y162.712 Z6.000 F600.000
G1 X234.409 Y160.023 Z6.000 F600.000
G1 X110.676 Y36.290 Z6.000 F600.000
G1 X113.366 Y36.290 Z6.000 F600.000
G1 X234.409 Y157.333 Z6.000 F600.000
G1 X234.409 Y154.643 Z6.000 F600.000
G1 X116.056 Y36.290 Z6.000 F600.000
G1 X118.746 Y36.290 Z6.000 F600.000
G1 X234.409 Y151.953 Z6.000 F600.000
G1 X234.409 Y149.263 Z6.000 F600.000
G1 X121.436 Y36.290 Z6.000 F600.000
G1 X124.126 Y36.290 Z6.000 F600.000
G1 X234.409 Y146.573 Z6.000 F600.000
G1 X234.409 Y143.884 Z6.000 F600.000
G1 X126.815 Y36.290 Z6.000 F600.000
G1 X129.505 Y36.290 Z6.000 F600.000
G1 X234.409 Y141.194 Z6.000 F600.000
G1 X234.409 Y138.504 Z6.000 F600.000
G1 X132.195 Y36.290 Z6.000 F600.000
G1 X134.885 Y36.290 Z6.000 F600.000
G1 X234.409 Y135.814 Z6.000 F600.000
G1 X234.409 Y133.124 Z6.000 F600.000
G1 X137.575 Y36.290 Z6.000 F600.000
G1 X140.265 Y36.290 Z6.000 F600.000
G1 X234.409 Y130.434 Z6.000 F600.000
G1 X234.409 Y127.745 Z6.000 F600.000
G1 X142.954 Y36.290 Z6.000 F600.000
G1 X145.644 Y36.290 Z6.000 F600.000
G1 X234.409 Y125.055 Z6.000 F600.000
G1 X234.409 Y122.365 Z6.000 F600.000
G1 X148.334 Y36.290 Z6.000 F600.000
G1 X151.024 Y36.290 Z6.000 F600.000
G1 X234.409 Y119.675 Z6.000 F600.000
G1 X234.409 Y116.985 Z6.000 F600.000
G1 X153.714 Y36.290 Z6.000 F600.000
G1 X156.404 Y36.290 Z6.000 F600.000
G1 X234.409 Y114.295 Z6.000 F600.000
G1 X234.409 Y111.606 Z6.000 F600.000
G1 X159.093 Y36.290 Z6.000 F600.000
G1 X161.783 Y36.290 Z6.000 F600.000
G1 X234.409 Y108.916 Z6.000 F600.000
G1 X234.409 Y106.226 Z6.000 F600.000
G1 X164.473 Y36.290 Z6.000 F600.000
G1 X167.163 Y36.290 Z6.000 F600.000
G1 X234.409 Y103.536 Z6.000 F600.000
G1 X234.409 Y100.846 Z6.000 F600.000
G1 X169.853 Y36.290 Z6.000 F600.000
G1 X172.543 Y36.290 Z6.000 F600.000
G1 X234.409 Y98.156 Z6.000 F600.000
G1 X234.409 Y95.467 Z6.000 F600.000
G1 X175.232 Y36.290 Z6.000 F600.000
G1 X177.922 Y36.290 Z6.000 F600.000
G1 X234.409 Y92.777 Z6.000 F600.000
G1 X234.409 Y90.087 Z6.000 F600.000
G1 X180.612 Y36.290 Z6.000 F600.000
G1 X183.302 Y36.290 Z6.000 F600.000
G1 X234.409 Y87.397 Z6.000 F600.000
G1 X234.409 Y84.707 Z6.000 F600.000
G1 X185.992 Y36.290 Z6.000 F600.000
G1 X188.682 Y36.290 Z6.000 F600.000
G1 X234.409 Y82.017 Z6.000 F600.000
G1 X234.409 Y79.328 Z6.000 F600.000
G1 X191.371 Y36.290 Z6.000 F600.000
G1 X194.061 Y36.290 Z6.000 F600.000
G1 X234.409 Y76.638 Z6.000 F600.000
G1 X234.409 Y73.948 Z6.000 F600.000
G1 X196.751 Y36.290 Z6.000 F600.000
G1 X199.441 Y36.290 Z6.000 F600.000
G1 X234.409 Y71.258 Z6.000 F600.000
G1 X234.409 Y68.568 Z6.000 F600.000
G1 X202.131 Y36.290 Z6.000 F600.000
G1 X204.821 Y36.290 Z6.000 F600.000
G1 X234.409 Y65.878 Z6.000 F600.000
G1 X234.409 Y63.189 Z6.000 F600.000
G1 X207.510 Y36.290 Z6.000 F600.000
G1 X210.200 Y36.290 Z6.000 F600.000
G1 X234.409 Y60.499 Z6.000 F600.000
G1 X234.409 Y57.809 Z6.000 F600.000
G1 X212.890 Y36.290 Z6.000 F600.000
G1 X215.580 Y36.290 Z6.000 F600.000
G1 X234.409 Y55.119 Z6.000 F600.000
G1 X234.409 Y52.429 Z6.000 F600.000
G1 X218.270 Y36.290 Z6.000 F600.000
G1 X220.960 Y36.290 Z6.000 F600.000
G1 X234.409 Y49.739 Z6.000 F600.000
G1 X234.409 Y47.050 Z6.000 F600.000
G1 X223.649 Y36.290 Z6.000 F600.000
G1 X226.339 Y36.290 Z6.000 F600.000
G1 X234.409 Y44.360 Z6.000 F600.000
G1 X234.409 Y41.670 Z6.000 F600.000
G1 X229.029 Y36.290 Z6.000 F600.000
G1 X231.719 Y36.290 Z6.000 F600.000
G1 X234.409 Y38.980 Z6.000 F600.000
G1 X234.409 Y36.290 Z6.000 F600.000
G1 X234.409 Y36.290 Z5.500 F600.000
G1 X234.409 Y38.980 Z5.500 F600.000
G1 X231.719 Y36.290 Z5.500 F600.000
G1 X229.029 Y36.290 Z5.500 F600.000
G1 X234.409 Y41.670 Z5.500 F600.000
G1 X234.409 Y44.360 Z5.500 F600.000
G1 X226.339 Y36.290 Z5.500 F600.000
G1 X223.649 Y36.290 Z5.500 F600.000
G1 X234.409 Y47.050 Z5.500 F600.000
G1 X234.409 Y49.739 Z5.500 F600.000
G1 X220.960 Y36.290 Z5.500 F600.000
G1 X218.270 Y36.290 Z5.500 F600.000
G1 X234.409 Y52.429 Z5.500 F600.000
G1 X234.409 Y55.119 Z5.500 F600.000
G1 X215.580 Y36.290 Z5.500 F600.000
G1 X212.890 Y36.290 Z5.500 F600.000
G1 X234.409 Y57.809 Z5.500 F600.000
G1 X234.409 Y60.499 Z5.500 F600.000
G1 X210.200 Y36.290 Z5.500 F600.000
G1 X207.510 Y36.290 Z5.500 F600.000
G1 X234.409 Y63.189 Z5.500 F600.000
G1 X234.409 Y65.878 Z5.500 F600.000
G1 X204.821 Y36.290 Z5.500 F600.000
G1 X202.131 Y36.290 Z5.500 F600.000
G1 X234.409 Y68.568 Z5.500 F600.000
G1 X234.409 Y71.258 Z5.500 F600.000
G1 X199.441 Y36.290 Z5.500 F600.000
G1 X196.751 Y36.290 Z5.500 F600.000
G1 X234.409 Y73.948 Z5.500 F600.000
G1 X234.409 Y76.638 Z5.500 F600.000
G1 X194.061 Y36.290 Z5.500 F600.000
G1 X191.371 Y36.290 Z5.500 F600.000
G1 X234.409 Y79.328 Z5.500 F600.000
G1 X234.409 Y82.017 Z5.500 F600.000
G1 X188.682 Y36.290 Z5.500 F600.000
G1 X185.992 Y36.290 Z5.500 F600.000
G1 X234.409 Y84.707 Z5.500 F600.000
G1 X234.409 Y87.397 Z5.500 F600.000
G1 X183.302 Y36.290 Z5.500 F600.000
G1 X180.612 Y36.290 Z5.500 F600.000
G1 X234.409 Y90.087 Z5.500 F600.000
G1 X234.409 Y92.777 Z5.500 F600.000
G1 X177.922 Y36.290 Z5.500 F600.000
G1 X175.232 Y36.290 Z5.500 F600.000
G1 X234.409 Y95.467 Z5.500 F600.000
G1 X234.409 Y98.156 Z5.500 F600.000
G1 X172.543 Y36.290 Z5.500 F600.000
G1 X169.853 Y36.290 Z5.500 F600.000
G1 X234.409 Y100.846 Z5.500 F600.000
G1 X234.409 Y103.536 Z5.500 F600.000
G1 X167.163 Y36.290 Z5.500 F600.000
G1 X164.473 Y36.290 Z5.500 F600.000
G1 X234.409 Y106.226 Z5.500 F600.000
G1 X234.409 Y108.916 Z5.500 F600.000
G1 X161.783 Y36.290 Z5.500 F600.000
G1 X159.093 Y36.290 Z5.500 F600.000
G1 X234.409 Y111.606 Z5.500 F600.000
G1 X234.409 Y114.295 Z5.500 F600.000
G1 X156.404 Y36.290 Z5.500 F600.000
G1 X153.714 Y36.290 Z5.500 F600.000
G1 X234.409 Y116.985 Z5.500 F600.000
G1 X234.409 Y119.675 Z5.500 F600.000
G1 X151.024 Y36.290 Z5.500 F600.000
G1 X148.334 Y36.290 Z5.500 F600.000
G1 X234.409 Y122.365 Z5.500 F600.000
G1 X234.409 Y125.055 Z5.500 F600.000
G1 X145.644 Y36.290 Z5.500 F600.000
G1 X142.954 Y36.290 Z5.500 F600.000
G1 X234.409 Y127.745 Z5.500 F600.000
G1 X234.409 Y130.434 Z5.500 F600.000
G1 X140.265 Y36.290 Z5.500 F600.000
G1 X137.575 Y36.290 Z5.500 F600.000
G1 X234.409 Y133.124 Z5.500 F600.000
G1 X234.409 Y135.814 Z5.500 F600.000
G1 X134.885 Y36.290 Z5.500 F600.000
G1 X132.195 Y36.290 Z5.500 F600.000
G1 X234.409 Y138.504 Z5.500 F600.000
G1 X234.409 Y141.194 Z5.500 F600.000
G1 X129.505 Y36.290 Z5.500 F600.000
G1 X126.815 Y36.290 Z5.500 F600.000
G1 X234.409 Y143.884 Z5.500 F600.000
G1 X234.409 Y146.573 Z5.500 F600.000
G1 X124.126 Y36.290 Z5.500 F600.000
G1 X121.436 Y36.290 Z5.500 F600.000
G1 X234.409 Y149.263 Z5.500 F600.000
G1 X234.409 Y151.953 Z5.500 F600.000
G1 X118.746 Y36.290 Z5.500 F600.000
G1 X116.056 Y36.290 Z5.500 F600.000
G1 X234.409 Y154.643 Z5.500 F600.000
G1 X234.409 Y157.333 Z5.500 F600.000
G1 X113.366 Y36.290 Z5.500 F600.000
G1 X110.676 Y36.290 Z5.500 F600.000
G1 X234.409 Y160.023 Z5.500 F600.000
G1 X234.409 Y162.712 Z5.500 F600.000
G1 X107.987 Y36.290 Z5.500 F600.000
G1 X105.297 Y36.290 Z5.500 F600.000
G1 X234.409 Y165.402 Z5.500 F600.000
G1 X234.409 Y168.092 Z5.500 F600.000
G1 X102.607 Y36.290 Z5.500 F600.000
G1 X99.917 Y36.290 Z5.500 F600.000
G1 X234.409 Y170.782 Z5.500 F600.000
G1 X234.409 Y173.472 Z5.500 F600.000
G1 X97.227 Y36.290 Z5.500 F600.000
G1 X94.537 Y36.290 Z5.500 F600.000
G1 X234.409 Y176.162 Z5.500 F600.000
G1 X234.409 Y178.851 Z5.500 F600.000
G1 X91.848 Y36.290 Z5.500 F600.000
G1 X89.158 Y36.290 Z5.500 F600.000
G1 X234.409 Y181.541 Z5.500 F600.000
G1 X234.409 Y184.231 Z5.500 F600.000
G1 X86.468 Y36.290 Z5.500 F600.000
G1 X83.778 Y36.290 Z5.500 F600.000
G1 X234.409 Y186.921 Z5.500 F600.000
G1 X234.409 Y189.611 Z5.500 F600.000
G1 X81.088 Y36.290 Z5.500 F600.000
G1 X78.398 Y36.290 Z5.500 F600.000
G1 X234.409 Y192.301 Z5.500 F600.000
G1 X234.409 Y194.990 Z5.500 F600.000
G1 X75.709 Y36.290 Z5.500 F600.000
G1 X73.019 Y36.290 Z5.500 F600.000
G1 X234.409 Y197.680 Z5.500 F600.000
G1 X234.409 Y200.370 Z5.500 F600.000
G1 X70.329 Y36.290 Z5.500 F600.000
G1 X67.639 Y36.290 Z5.500 F600.000
G1 X234.409 Y203.060 Z5.500 F600.000
G1 X234.409 Y205.750 Z5.500 F600.000
G1 X64.949 Y36.290 Z5.500 F600.000
G1 X62.259 Y36.290 Z5.500 F600.000
G1 X234.409 Y208.440 Z5.500 F600.000
G1 X234.409 Y211.129 Z5.500 F600.000
G1 X59.570 Y36.290 Z5.500 F600.000
G1 X56.880 Y36.290 Z5.500 F600.000
G1 X234.409 Y213.819 Z5.500 F600.000
G1 X234.409 Y216.509 Z5.500 F600.000
G1 X54.190 Y36.290 Z5.500 F600.000
G1 X51.500 Y36.290 Z5.500 F600.000
G1 X234.409 Y219.199 Z5.500 F600.000
G1 X234.409 Y221.889 Z5.500 F600.000
G1 X48.810 Y36.290 Z5.500 F600.000
G1 X46.120 Y36.290 Z5.500 F600.000
G1 X234.409 Y224.579 Z5.500 F600.000
G1 X234.409 Y227.268 Z5.500 F600.000
G1 X43.431 Y36.290 Z5.500 F600.000
G1 X40.741 Y36.290 Z5.500 F600.000
G1 X234.409 Y229.958 Z5.500 F600.000
G1 X234.409 Y232.648 Z5.500 F600.000
G1 X38.051 Y36.290 Z5.500 F600.000
G1 X37.579 Y36.290 Z5.500 F600.000
G1 X37.579 Y38.508 Z5.500 F600.000
G1 X232.191 Y233.120 Z5.500 F600.000
G1 X229.501 Y233.120 Z5.500 F600.000
G1 X37.579 Y41.198 Z5.500 F600.000
G1 X37.579 Y43.888 Z5.500 F600.000
G1 X226.811 Y233.120 Z5.500 F600.000
G1 X224.122 Y233.120 Z5.500 F600.000
G1 X37.579 Y46.577 Z5.500 F600.000
G1 X37.579 Y49.267 Z5.500 F600.000
G1 X221.432 Y233.120 Z5.500 F600.000
G1 X218.742 Y233.120 Z5.500 F600.000
G1 X37.579 Y51.957 Z5.500 F600.000
G1 X37.579 Y54.647 Z5.500 F600.000
G1 X216.052 Y233.120 Z5.500 F600.000
G1 X213.362 Y233.120 Z5.500 F600.000
G1 X37.579 Y57.337 Z5.500 F600.000
G1 X37.579 Y60.027 Z5.500 F600.000
G1 X210.672 Y233.120 Z5.500 F600.000
G1 X207.983 Y233.120 Z5.500 F600.000
G1 X37.579 Y62.716 Z5.500 F600.000
G1 X37.579 Y65.406 Z5.500 F600.000
G1 X205.293 Y233.120 Z5.500 F600.000
G1 X202.603 Y233.120 Z5.500 F600.000
G1 X37.579 Y68.096 Z5.500 F600.000
G1 X37.579 Y70.786 Z5.500 F600.000
G1 X199.913 Y233.120 Z5.500 F600.000
G1 X197.223 Y233.120 Z5.500 F600.000
G1 X37.579 Y73.476 Z5.500 F600.000
G1 X37.579 Y76.166 Z5.500 F600.000
G1 X194.533 Y233.120 Z5.500 F600.000
G1 X191.844 Y233.120 Z5.500 F600.000
G1 X37.579 Y78.855 Z5.500 F600.000
G1 X37.579 Y81.545 Z5.500 F600.000
G1 X189.154 Y233.120 Z5.500 F600.000
G1 X186.464 Y233.120 Z5.500 F600.000
G1 X37.579 Y84.235 Z5.500 F600.000
G1 X37.579 Y86.925 Z5.500 F600.000
G1 X183.774 Y233.120 Z5.500 F600.000
G1 X181.084 Y233.120 Z5.500 F600.000
G1 X37.579 Y89.615 Z5.500 F600.000
G1 X37.579 Y92.305 Z5.500 F600.000
G1 X178.394 Y233.120 Z5.500 F600.000
G1 X175.705 Y233.120 Z5.500 F600.000
G1 X37.579 Y94.994 Z5.500 F600.000
G1 X37.579 Y97.684 Z5.500 F600.000
G1 X173.015 Y233.120 Z5.500 F600.000
G1 X170.325 Y233.120 Z5.500 F600.000
G1 X37.579 Y100.374 Z5.500 F600.000
G1 X37.579 Y103.064 Z5.500 F600.000
G1 X167.635 Y233.120 Z5.500 F600.000
G1 X164.945 Y233.120 Z5.500 F600.000
G1 X37.579 Y105.754 Z5.500 F600.000
G1 X37.579 Y108.444 Z5.500 F600.000
G1 X162.255 Y233.120 Z5.500 F600.000
G1 X159.566 Y233.120 Z5.500 F600.000
G1 X37.579 Y111.133 Z5.500 F600.000
G1 X37.579 Y113.823 Z5.500 F600.000
G1 X156.876 Y233.120 Z5.500 F600.000
G1 X154.186 Y233.120 Z5.500 F600.000
G1 X37.579 Y116.513 Z5.500 F600.000
G1 X37.579 Y119.203 Z5.500 F600.000
G1 X151.496 Y233.120 Z5.500 F600.000
G1 X148.806 Y233.120 Z5.500 F600.000
G1 X37.579 Y121.893 Z5.500 F600.000
G1 X37.579 Y124.583 Z5.500 F600.000
G1 X146.116 Y233.120 Z5.500 F600.000
G1 X143.426 Y233.120 Z5.500 F600.000
G1 X37.579 Y127.272 Z5.500 F600.000
G1 X37.579 Y129.962 Z5.500 F600.000
G1 X140.737 Y233.120 Z5.500 F600.000
G1 X138.047 Y233.120 Z5.500 F600.000
G1 X37.579 Y132.652 Z5.500 F600.000
G1 X37.579 Y135.342 Z5.500 F600.000
G1 X135.357 Y233.120 Z5.500 F600.000
G1 X132.667 Y233.120 Z5.500 F600.000
G1 X37.579 Y138.032 Z5.500 F600.000
G1 X37.579 Y140.722 Z5.500 F600.000
G1 X129.977 Y233.120 Z5.500 F600.000
G1 X127.287 Y233.120 Z5.500 F600.000
G1 X37.579 Y143.411 Z5.500 F600.000
G1 X37.579 Y146.101 Z5.500 F600.000
G1 X124.598 Y233.120 Z5.500 F600.000
G1 X121.908 Y233.120 Z5.500 F600.000
G1 X37.579 Y148.791 Z5.500 F600.000
G1 X37.579 Y151.481 Z5.500 F600.000
G1 X119.218 Y233.120 Z5.500 F600.000
G1 X116.528 Y233.120 Z5.500 F600.000
G1 X37.579 Y154.171 Z5.500 F600.000
G1 X37.579 Y156.861 Z5.500 F600.000
G1 X113.838 Y233.120 Z5.500 F600.000
G1 X111.148 Y233.120 Z5.500 F600.000
G1 X37.579 Y159.550 Z5.500 F600.000
G1 X37.579 Y162.240 Z5.500 F600.000
G1 X108.459 Y233.120 Z5.500 F600.000
G1 X105.769 Y233.120 Z5.500 F600.000
G1 X37.579 Y164.930 Z5.500 F600.000
G1 X37.579 Y167.620 Z5.500 F600.000
G1 X103.079 Y233.120 Z5.500 F600.000
G1 X100.389 Y233.120 Z5.500 F600.000
G1 X37.579 Y170.310 Z5.500 F600.000
G1 X37.579 Y173.000 Z5.500 F600.000
G1 X97.699 Y233.120 Z5.500 F600.000
G1 X95.009 Y233.120 Z5.500 F600.000
G1 X37.579 Y175.689 Z5.500 F600.000
G1 X37.579 Y178.379 Z5.500 F600.000
G1 X92.320 Y233.120 Z5.500 F600.000
G1 X89.630 Y233.120 Z5.500 F600.000
G1 X37.579 Y181.069 Z5.500 F600.000
G1 X37.579 Y183.759 Z5.500 F600.000
G1 X86.940 Y233.120 Z5.500 F600.000
G1 X84.250 Y233.120 Z5.500 F600.000
G1 X37.579 Y186.449 Z5.500 F600.000
G1 X37.579 Y189.139 Z5.500 F600.000
G1 X81.560 Y233.120 Z5.500 F600.000
G1 X78.870 Y233.120 Z5.500 F600.000
G1 X37.579 Y191.828 Z5.500 F600.000
G1 X37.579 Y194.518 Z5.500 F600.000
G1 X76.181 Y233.120 Z5.500 F600.000
G1 X73.491 Y233.120 Z5.500 F600.000
G1 X37.579 Y197.208 Z5.500 F600.000
G1 X37.579 Y199.898 Z5.500 F600.000
G1 X70.801 Y233.120 Z5.500 F600.000
G1 X68.111 Y233.120 Z5.500 F600.000
G1 X37.579 Y202.588 Z5.500 F600.000
G1 X37.579 Y205.278 Z5.500 F600.000
G1 X65.421 Y233.120 Z5.500 F600.000
G1 X62.731 Y233.120 Z5.500 F600.000
G1 X37.579 Y207.967 Z5.500 F600.000
G1 X37.579 Y210.657 Z5.500 F600.000
G1 X60.042 Y233.120 Z5.500 F600.000
G1 X57.352 Y233.120 Z5.500 F600.000
G1 X37.579 Y213.347 Z5.500 F600.000
G1 X37.579 Y216.037 Z5.500 F600.000
G1 X54.662 Y233.120 Z5.500 F600.000
G1 X51.972 Y233.120 Z5.500 F600.000
G1 X37.579 Y218.727 Z5.500 F600.000
G1 X37.579 Y221.417 Z5.500 F600.000
G1 X49.282 Y233.120 Z5.500 F600.000
G1 X46.592 Y233.120 Z5.500 F600.000
G1 X37.579 Y224.106 Z5.500 F600.000
G1 X37.579 Y226.796 Z5.500 F600.000
G1 X43.903 Y233.120 Z5.500 F600.000
G1 X41.213 Y233.120 Z5.500 F600.000
G1 X37.579 Y229.486 Z5.500 F600.000
G1 X37.579 Y232.176 Z5.500 F600.000
G1 X38.523 Y233.120 Z5.500 F600.000
G1 X37.579 Y233.120 Z5.500 F600.000
G1 X37.579 Y232.176 Z5.500 F600.000
G1 X37.579 Y232.176 Z5.000 F600.000
G1 X37.579 Y233.120 Z5.000 F600.000
G1 X38.523 Y233.120 Z5.000 F600.000
G1 X37.579 Y232.176 Z5.000 F600.000
G1 X37.579 Y229.486 Z5.000 F600.000
G1 X41.213 Y233.120 Z5.000 F600.000
G1 X43.903 Y233.120 Z5.000 F600.000
G1 X37.579 Y226.796 Z5.000 F600.000
G1 X37.579 Y224.106 Z5.000 F600.000
G1 X46.592 Y233.120 Z5.000 F600.000
G1 X49.282 Y233.120 Z5.000 F600.000
G1 X37.579 Y221.417 Z5.000 F600.000
G1 X37.579 Y218.727 Z5.000 F600.000
G1 X51.972 Y233.120 Z5.000 F600.000
G1 X54.662 Y233.120 Z5.000 F600.000
G1 X37.579 Y216.037 Z5.000 F600.000
G1 X37.579 Y213.347 Z5.000 F600.000
G1 X57.352 Y233.120 Z5.000 F600.000
G1 X60.042 Y233.120 Z5.000 F600.000
G1 X37.579 Y210.657 Z5.000 F600.000
G1 X37.579 Y207.967 Z5.000 F600.000
G1 X62.731 Y233.120 Z5.000 F600.000
G1 X65.421 Y233.120 Z5.000 F600.000
G1 X37.579 Y205.278 Z5.000 F600.000
G1 X37.579 Y202.588 Z5.000 F600.000
G1 X68.111 Y233.120 Z5.000 F600.000
G1 X70.801 Y233.120 Z5.000 F600.000
G1 X37.579 Y199.898 Z5.000 F600.000
G1 X37.579 Y197.208 Z5.000 F600.000
G1 X73.491 Y233.120 Z5.000 F600.000
G1 X76.181 Y233.120 Z5.000 F600.000
G1 X37.579 Y194.518 Z5.000 F600.000
G1 X37.579 Y191.828 Z5.000 F600.000
G1 X78.870 Y233.120 Z5.000 F600.000
G1 X81.560 Y233.120 Z5.000 F600.000
G1 X37.579 Y189.139 Z5.000 F600.000
G1 X37.579 Y186.449 Z5.000 F600.000
G1 X84.250 Y233.120 Z5.000 F600.000
G1 X86.940 Y233.120 Z5.000 F600.000
G1 X37.579 Y183.759 Z5.000 F600.000
G1 X37.579 Y181.069 Z5.000 F600.000
G1 X89.630 Y233.120 Z5.000 F600.000
G1 X92.320 Y233.120 Z5.000 F600.000
G1 X37.579 Y178.379 Z5.000 F600.000
G1 X37.579 Y175.689 Z5.000 F600.000
G1 X95.009 Y233.120 Z5.000 F600.000
G1 X97.699 Y233.120 Z5.000 F600.000
G1 X37.579 Y173.000 Z5.000 F600.000
G1 X37.579 Y170.310 Z5.000 F600.000
G1 X100.389 Y233.120 Z5.000 F600.000
G1 X103.079 Y233.120 Z5.000 F600.000
G1 X37.579 Y167.620 Z5.000 F600.000
G1 X37.579 Y164.930 Z5.000 F600.000
G1 X105.769 Y233.120 Z5.000 F600.000
G1 X108.459 Y233.120 Z5.000 F600.000
G1 X37.579 Y162.240 Z5.000 F600.000
G1 X37.579 Y159.550 Z5.000 F600.000
G1 X111.148 Y233.120 Z5.000 F600.000
G1 X113.838 Y233.120 Z5.000 F600.000
G1 X37.579 Y156.861 Z5.000 F600.000
G1 X37.579 Y154.171 Z5.000 F600.000
G1 X116.528 Y233.120 Z5.000 F600.000
G1 X119.218 Y233.120 Z5.000 F600.000
G1 X37.579 Y151.481 Z5.000 F600.000
G1 X37.579 Y148.791 Z5.000 F600.000
G1 X121.908 Y233.120 Z5.000 F600.000
G1 X124.598 Y233.120 Z5.000 F600.000
G1 X37.579 Y146.101 Z5.000 F600.000
G1 X37.579 Y143.411 Z5.000 F600.000
G1 X127.287 Y233.120 Z5.000 F600.000
G1 X129.977 Y233.120 Z5.000 F600.000
G1 X37.579 Y140.722 Z5.000 F600.000
G1 X37.579 Y138.032 Z5.000 F600.000
G1 X132.667 Y233.120 Z5.000 F600.000
G1 X135.357 Y233.120 Z5.000 F600.000
G1 X37.579 Y135.342 Z5.000 F600.000
G1 X37.579 Y132.652 Z5.000 F600.000
G1 X138.047 Y233.120 Z5.000 F600.000
G1 X140.737 Y233.120 Z5.000 F600.000
G1 X37.579 Y129.962 Z5.000 F600.000
G1 X37.579 Y127.272 Z5.000 F600.000
G1 X143.426 Y233.120 Z5.000 F600.000
G1 X146.116 Y233.120 Z5.000 F600.000
G1 X37.579 Y124.583 Z5.000 F600.000
G1 X37.579 Y121.893 Z5.000 F600.000
