(Exported by FreeCAD)
(Post Processor: grbl_post)
(Output Time:2024-06-26 16:14:34.570022)
(Begin preamble)
G17 G90
G21
(Begin operation: Fixture)
(Path: Fixture)
G54
(Finish operation: Fixture)
(Begin operation: 6mm_endmill008)
(Path: 6mm_endmill008)
(6mm_endmill008)
(Begin toolchange)
( M6 T3 )
M3 S10000
(Finish operation: 6mm_endmill008)
(Begin operation: DressupTag006)
(Path: DressupTag006)
G0 Z5.000
G0 X-28.664 Y124.037 Z5.000
G0 X-28.664 Y124.037 Z3.000
G1 X-28.664 Y124.037 Z-1.000 F1000.000
G2 X-27.311 Y120.699 Z-1.000 I-3.267 J-3.267 K0.000 F1000.000
G1 X-27.311 Y40.331 Z-1.000 F1000.000
G2 X-31.032 Y35.729 Z-1.000 I-4.626 J-0.065 K0.000 F1000.000
G2 X-36.553 Y40.331 Z-1.000 I-0.899 J4.535 K0.000 F1000.000
G1 X-36.553 Y120.699 Z-1.000 F1000.000
G1 X-36.527 Y121.225 Z-1.000 F1000.000
G2 X-28.664 Y124.037 Z-1.000 I4.597 J-0.455 K0.000 F1000.000
G1 X-28.664 Y124.037 Z-2.000 F1000.000
G2 X-27.311 Y120.699 Z-2.000 I-3.267 J-3.267 K0.000 F1000.000
G1 X-27.311 Y106.612 Z-2.000 F1000.000
G1 X-27.311 Y106.112 Z-1.500 F1000.000
G1 X-27.311 Y95.102 Z-1.500 F1000.000
G1 X-27.311 Y94.602 Z-2.000 F1000.000
G1 X-27.311 Y66.428 Z-2.000 F1000.000
G1 X-27.311 Y65.928 Z-1.500 F1000.000
G1 X-27.311 Y54.918 Z-1.500 F1000.000
G1 X-27.311 Y54.418 Z-2.000 F1000.000
G1 X-27.311 Y40.331 Z-2.000 F1000.000
G2 X-31.032 Y35.729 Z-2.000 I-4.626 J-0.065 K0.000 F1000.000
G2 X-36.553 Y40.331 Z-2.000 I-0.899 J4.535 K0.000 F1000.000
G1 X-36.553 Y94.602 Z-2.000 F1000.000
G1 X-36.553 Y95.102 Z-1.500 F1000.000
G1 X-36.553 Y106.112 Z-1.500 F1000.000
G1 X-36.553 Y106.612 Z-2.000 F1000.000
G1 X-36.553 Y120.699 Z-2.000 F1000.000
G1 X-36.527 Y121.225 Z-2.000 F1000.000
G2 X-28.664 Y124.037 Z-2.000 I4.597 J-0.455 K0.000 F1000.000
G1 X-28.664 Y124.037 Z-3.000 F1000.000
G2 X-27.311 Y120.699 Z-3.000 I-3.267 J-3.267 K0.000 F1000.000
G1 X-27.311 Y107.612 Z-3.000 F1000.000
G1 X-27.311 Y106.112 Z-1.500 F1000.000
G1 X-27.311 Y95.102 Z-1.500 F1000.000
G1 X-27.311 Y93.602 Z-3.000 F1000.000
G1 X-27.311 Y67.428 Z-3.000 F1000.000
G1 X-27.311 Y65.928 Z-1.500 F1000.000
G1 X-27.311 Y54.918 Z-1.500 F1000.000
G1 X-27.311 Y53.418 Z-3.000 F1000.000
G1 X-27.311 Y40.331 Z-3.000 F1000.000
G2 X-31.032 Y35.729 Z-3.000 I-4.626 J-0.065 K0.000 F1000.000
G2 X-36.553 Y40.331 Z-3.000 I-0.899 J4.535 K0.000 F1000.000
G1 X-36.553 Y93.602 Z-3.000 F1000.000
G1 X-36.553 Y95.102 Z-1.500 F1000.000
G1 X-36.553 Y106.112 Z-1.500 F1000.000
G1 X-36.553 Y107.612 Z-3.000 F1000.000
G1 X-36.553 Y120.699 Z-3.000 F1000.000
G1 X-36.527 Y121.225 Z-3.000 F1000.000
G2 X-28.664 Y124.037 Z-3.000 I4.597 J-0.455 K0.000 F1000.000
G0 X-28.664 Y124.037 Z5.000
(Finish operation: DressupTag006)
(Begin operation: DressupTag007)
(Path: DressupTag007)
G0 Z5.000
G0 X-48.986 Y124.037 Z5.000
G0 X-48.986 Y124.037 Z3.000
G1 X-48.986 Y124.037 Z-1.000 F1000.000
G2 X-47.634 Y120.699 Z-1.000 I-3.267 J-3.267 K0.000 F1000.000
G1 X-47.634 Y40.334 Z-1.000 F1000.000
G2 X-51.098 Y35.788 Z-1.000 I-4.628 J-0.066 K0.000 F1000.000
G2 X-56.876 Y40.334 Z-1.000 I-1.156 J4.476 K0.000 F1000.000
G1 X-56.876 Y120.699 Z-1.000 F1000.000
G1 X-56.850 Y121.225 Z-1.000 F1000.000
G2 X-48.986 Y124.037 Z-1.000 I4.597 J-0.455 K0.000 F1000.000
G1 X-48.986 Y124.037 Z-2.000 F1000.000
G2 X-47.634 Y120.699 Z-2.000 I-3.267 J-3.267 K0.000 F1000.000
G1 X-47.634 Y106.613 Z-2.000 F1000.000
G1 X-47.634 Y106.113 Z-1.500 F1000.000
G1 X-47.634 Y95.103 Z-1.500 F1000.000
G1 X-47.634 Y94.603 Z-2.000 F1000.000
G1 X-47.634 Y66.430 Z-2.000 F1000.000
G1 X-47.634 Y65.930 Z-1.500 F1000.000
G1 X-47.634 Y54.920 Z-1.500 F1000.000
G1 X-47.634 Y54.420 Z-2.000 F1000.000
G1 X-47.634 Y40.334 Z-2.000 F1000.000
G2 X-51.098 Y35.788 Z-2.000 I-4.628 J-0.066 K0.000 F1000.000
G2 X-56.876 Y40.334 Z-2.000 I-1.156 J4.476 K0.000 F1000.000
G1 X-56.876 Y94.603 Z-2.000 F1000.000
G1 X-56.876 Y95.103 Z-1.500 F1000.000
G1 X-56.876 Y106.113 Z-1.500 F1000.000
G1 X-56.876 Y106.613 Z-2.000 F1000.000
G1 X-56.876 Y120.699 Z-2.000 F1000.000
G1 X-56.850 Y121.225 Z-2.000 F1000.000
G2 X-48.986 Y124.037 Z-2.000 I4.597 J-0.455 K0.000 F1000.000
G1 X-48.986 Y124.037 Z-3.000 F1000.000
G2 X-47.634 Y120.699 Z-3.000 I-3.267 J-3.267 K0.000 F1000.000
G1 X-47.634 Y107.613 Z-3.000 F1000.000
G1 X-47.634 Y106.113 Z-1.500 F1000.000
G1 X-47.634 Y95.103 Z-1.500 F1000.000
G1 X-47.634 Y93.603 Z-3.000 F1000.000
G1 X-47.634 Y67.430 Z-3.000 F1000.000
G1 X-47.634 Y65.930 Z-1.500 F1000.000
G1 X-47.634 Y54.920 Z-1.500 F1000.000
G1 X-47.634 Y53.420 Z-3.000 F1000.000
G1 X-47.634 Y40.334 Z-3.000 F1000.000
G2 X-51.098 Y35.788 Z-3.000 I-4.628 J-0.066 K0.000 F1000.000
G2 X-56.876 Y40.334 Z-3.000 I-1.156 J4.476 K0.000 F1000.000
G1 X-56.876 Y93.603 Z-3.000 F1000.000
G1 X-56.876 Y95.103 Z-1.500 F1000.000
G1 X-56.876 Y106.113 Z-1.500 F1000.000
G1 X-56.876 Y107.613 Z-3.000 F1000.000
G1 X-56.876 Y120.699 Z-3.000 F1000.000
G1 X-56.850 Y121.225 Z-3.000 F1000.000
G2 X-48.986 Y124.037 Z-3.000 I4.597 J-0.455 K0.000 F1000.000
G0 X-48.986 Y124.037 Z5.000
(Finish operation: DressupTag007)
(Begin operation: DressupTag008)
(Path: DressupTag008)
G0 Z5.000
G0 X-69.309 Y124.037 Z5.000
G0 X-69.309 Y124.037 Z3.000
G1 X-69.309 Y124.037 Z-1.000 F1000.000
G2 X-67.957 Y120.699 Z-1.000 I-3.267 J-3.267 K0.000 F1000.000
G1 X-67.957 Y40.331 Z-1.000 F1000.000
G1 X-67.983 Y39.805 Z-1.000 F1000.000
G2 X-77.199 Y40.331 Z-1.000 I-4.597 J0.455 K0.000 F1000.000
G1 X-77.199 Y120.699 Z-1.000 F1000.000
G1 X-77.173 Y121.225 Z-1.000 F1000.000
G2 X-69.309 Y124.037 Z-1.000 I4.597 J-0.455 K0.000 F1000.000
G1 X-69.309 Y124.037 Z-2.000 F1000.000
G2 X-67.957 Y120.699 Z-2.000 I-3.267 J-3.267 K0.000 F1000.000
G1 X-67.957 Y106.612 Z-2.000 F1000.000
G1 X-67.957 Y106.112 Z-1.500 F1000.000
G1 X-67.957 Y95.102 Z-1.500 F1000.000
G1 X-67.957 Y94.602 Z-2.000 F1000.000
G1 X-67.957 Y66.428 Z-2.000 F1000.000
G1 X-67.957 Y65.928 Z-1.500 F1000.000
G1 X-67.957 Y54.918 Z-1.500 F1000.000
G1 X-67.957 Y54.418 Z-2.000 F1000.000
G1 X-67.957 Y40.331 Z-2.000 F1000.000
G1 X-67.983 Y39.805 Z-2.000 F1000.000
G2 X-77.199 Y40.331 Z-2.000 I-4.597 J0.455 K0.000 F1000.000
G1 X-77.199 Y94.602 Z-2.000 F1000.000
G1 X-77.199 Y95.102 Z-1.500 F1000.000
G1 X-77.199 Y106.112 Z-1.500 F1000.000
G1 X-77.199 Y106.612 Z-2.000 F1000.000
G1 X-77.199 Y120.699 Z-2.000 F1000.000
G1 X-77.173 Y121.225 Z-2.000 F1000.000
G2 X-69.309 Y124.037 Z-2.000 I4.597 J-0.455 K0.000 F1000.000
G1 X-69.309 Y124.037 Z-3.000 F1000.000
G2 X-67.957 Y120.699 Z-3.000 I-3.267 J-3.267 K0.000 F1000.000
G1 X-67.957 Y107.612 Z-3.000 F1000.000
G1 X-67.957 Y106.112 Z-1.500 F1000.000
G1 X-67.957 Y95.102 Z-1.500 F1000.000
G1 X-67.957 Y93.602 Z-3.000 F1000.000
G1 X-67.957 Y67.428 Z-3.000 F1000.000
G1 X-67.957 Y65.928 Z-1.500 F1000.000
G1 X-67.957 Y54.918 Z-1.500 F1000.000
G1 X-67.957 Y53.418 Z-3.000 F1000.000
G1 X-67.957 Y40.331 Z-3.000 F1000.000
G1 X-67.983 Y39.805 Z-3.000 F1000.000
G2 X-77.199 Y40.331 Z-3.000 I-4.597 J0.455 K0.000 F1000.000
G1 X-77.199 Y93.602 Z-3.000 F1000.000
G1 X-77.199 Y95.102 Z-1.500 F1000.000
G1 X-77.199 Y106.112 Z-1.500 F1000.000
G1 X-77.199 Y107.612 Z-3.000 F1000.000
G1 X-77.199 Y120.699 Z-3.000 F1000.000
G1 X-77.173 Y121.225 Z-3.000 F1000.000
G2 X-69.309 Y124.037 Z-3.000 I4.597 J-0.455 K0.000 F1000.000
G0 X-69.309 Y124.037 Z5.000
(Finish operation: DressupTag008)
(Begin operation: 1mm_endmill006)
(Path: 1mm_endmill006)
(1mm_endmill006)
(Begin toolchange)
( M6 T2 )
M3 S10000
(Finish operation: 1mm_endmill006)
(Begin operation: Pocket_Shape003)
(Path: Pocket_Shape003)
(Pocket_Shape003)
G0 Z5.000
G0 X-8.650 Y66.596
G0 Z3.000
G1 X-8.650 Y66.596 Z-0.250 F1000.000
G1 X-8.650 Y27.338 Z-0.250 F1000.000
G1 X-10.650 Y27.338 Z-0.250 F1000.000
G1 X-10.650 Y66.596 Z-0.250 F1000.000
G1 X-8.650 Y66.596 Z-0.250 F1000.000
G0 Z5.000
G0 X-10.650 Y66.068 Z5.000
G0 X-10.650 Y66.068 Z3.000
G1 X-10.650 Y66.068 Z-0.250 F1000.000
G1 X-10.122 Y66.596 Z-0.250 F1000.000
G1 X-10.650 Y66.596 Z-0.250 F1000.000
G1 X-10.650 Y66.068 Z-0.250 F1000.000
G1 X-10.650 Y64.936 Z-0.250 F1000.000
G1 X-8.990 Y66.596 Z-0.250 F1000.000
G1 X-8.650 Y66.596 Z-0.250 F1000.000
G1 X-8.650 Y65.805 Z-0.250 F1000.000
G1 X-10.650 Y63.805 Z-0.250 F1000.000
G1 X-10.650 Y62.674 Z-0.250 F1000.000
G1 X-8.650 Y64.674 Z-0.250 F1000.000
G1 X-8.650 Y63.542 Z-0.250 F1000.000
G1 X-10.650 Y61.542 Z-0.250 F1000.000
G1 X-10.650 Y60.411 Z-0.250 F1000.000
G1 X-8.650 Y62.411 Z-0.250 F1000.000
G1 X-8.650 Y61.279 Z-0.250 F1000.000
G1 X-10.650 Y59.279 Z-0.250 F1000.000
G1 X-10.650 Y58.148 Z-0.250 F1000.000
G1 X-8.650 Y60.148 Z-0.250 F1000.000
G1 X-8.650 Y59.017 Z-0.250 F1000.000
G1 X-10.650 Y57.017 Z-0.250 F1000.000
G1 X-10.650 Y55.885 Z-0.250 F1000.000
G1 X-8.650 Y57.885 Z-0.250 F1000.000
G1 X-8.650 Y56.754 Z-0.250 F1000.000
G1 X-10.650 Y54.754 Z-0.250 F1000.000
G1 X-10.650 Y53.623 Z-0.250 F1000.000
G1 X-8.650 Y55.623 Z-0.250 F1000.000
G1 X-8.650 Y54.491 Z-0.250 F1000.000
G1 X-10.650 Y52.491 Z-0.250 F1000.000
G1 X-10.650 Y51.360 Z-0.250 F1000.000
G1 X-8.650 Y53.360 Z-0.250 F1000.000
G1 X-8.650 Y52.228 Z-0.250 F1000.000
G1 X-10.650 Y50.228 Z-0.250 F1000.000
G1 X-10.650 Y49.097 Z-0.250 F1000.000
G1 X-8.650 Y51.097 Z-0.250 F1000.000
G1 X-8.650 Y49.966 Z-0.250 F1000.000
G1 X-10.650 Y47.966 Z-0.250 F1000.000
G1 X-10.650 Y46.834 Z-0.250 F1000.000
G1 X-8.650 Y48.834 Z-0.250 F1000.000
G1 X-8.650 Y47.703 Z-0.250 F1000.000
G1 X-10.650 Y45.703 Z-0.250 F1000.000
G1 X-10.650 Y44.572 Z-0.250 F1000.000
G1 X-8.650 Y46.572 Z-0.250 F1000.000
G1 X-8.650 Y45.440 Z-0.250 F1000.000
G1 X-10.650 Y43.440 Z-0.250 F1000.000
G1 X-10.650 Y42.309 Z-0.250 F1000.000
G1 X-8.650 Y44.309 Z-0.250 F1000.000
G1 X-8.650 Y43.178 Z-0.250 F1000.000
G1 X-10.650 Y41.178 Z-0.250 F1000.000
G1 X-10.650 Y40.046 Z-0.250 F1000.000
G1 X-8.650 Y42.046 Z-0.250 F1000.000
G1 X-8.650 Y40.915 Z-0.250 F1000.000
G1 X-10.650 Y38.915 Z-0.250 F1000.000
G1 X-10.650 Y37.783 Z-0.250 F1000.000
G1 X-8.650 Y39.783 Z-0.250 F1000.000
G1 X-8.650 Y38.652 Z-0.250 F1000.000
G1 X-10.650 Y36.652 Z-0.250 F1000.000
G1 X-10.650 Y35.521 Z-0.250 F1000.000
G1 X-8.650 Y37.521 Z-0.250 F1000.000
G1 X-8.650 Y36.389 Z-0.250 F1000.000
G1 X-10.650 Y34.389 Z-0.250 F1000.000
G1 X-10.650 Y33.258 Z-0.250 F1000.000
G1 X-8.650 Y35.258 Z-0.250 F1000.000
G1 X-8.650 Y34.127 Z-0.250 F1000.000
G1 X-10.650 Y32.127 Z-0.250 F1000.000
G1 X-10.650 Y30.995 Z-0.250 F1000.000
G1 X-8.650 Y32.995 Z-0.250 F1000.000
G1 X-8.650 Y31.864 Z-0.250 F1000.000
G1 X-10.650 Y29.864 Z-0.250 F1000.000
G1 X-10.650 Y28.732 Z-0.250 F1000.000
G1 X-8.650 Y30.732 Z-0.250 F1000.000
G1 X-8.650 Y29.601 Z-0.250 F1000.000
G1 X-10.650 Y27.601 Z-0.250 F1000.000
G1 X-10.650 Y27.338 Z-0.250 F1000.000
G1 X-9.781 Y27.338 Z-0.250 F1000.000
G1 X-8.650 Y28.470 Z-0.250 F1000.000
G1 X-8.650 Y27.338 Z-0.250 F1000.000
G1 X-8.650 Y27.338 Z-0.500 F1000.000
G1 X-8.650 Y28.470 Z-0.500 F1000.000
G1 X-9.781 Y27.338 Z-0.500 F1000.000
G1 X-10.650 Y27.338 Z-0.500 F1000.000
G1 X-10.650 Y27.601 Z-0.500 F1000.000
G1 X-8.650 Y29.601 Z-0.500 F1000.000
G1 X-8.650 Y30.732 Z-0.500 F1000.000
G1 X-10.650 Y28.732 Z-0.500 F1000.000
G1 X-10.650 Y29.864 Z-0.500 F1000.000
G1 X-8.650 Y31.864 Z-0.500 F1000.000
G1 X-8.650 Y32.995 Z-0.500 F1000.000
G1 X-10.650 Y30.995 Z-0.500 F1000.000
G1 X-10.650 Y32.127 Z-0.500 F1000.000
G1 X-8.650 Y34.127 Z-0.500 F1000.000
G1 X-8.650 Y35.258 Z-0.500 F1000.000
G1 X-10.650 Y33.258 Z-0.500 F1000.000
G1 X-10.650 Y34.389 Z-0.500 F1000.000
G1 X-8.650 Y36.389 Z-0.500 F1000.000
G1 X-8.650 Y37.521 Z-0.500 F1000.000
G1 X-10.650 Y35.521 Z-0.500 F1000.000
G1 X-10.650 Y36.652 Z-0.500 F1000.000
G1 X-8.650 Y38.652 Z-0.500 F1000.000
G1 X-8.650 Y39.783 Z-0.500 F1000.000
G1 X-10.650 Y37.783 Z-0.500 F1000.000
G1 X-10.650 Y38.915 Z-0.500 F1000.000
G1 X-8.650 Y40.915 Z-0.500 F1000.000
G1 X-8.650 Y42.046 Z-0.500 F1000.000
G1 X-10.650 Y40.046 Z-0.500 F1000.000
G1 X-10.650 Y41.178 Z-0.500 F1000.000
G1 X-8.650 Y43.178 Z-0.500 F1000.000
G1 X-8.650 Y44.309 Z-0.500 F1000.000
G1 X-10.650 Y42.309 Z-0.500 F1000.000
G1 X-10.650 Y43.440 Z-0.500 F1000.000
G1 X-8.650 Y45.440 Z-0.500 F1000.000
G1 X-8.650 Y46.572 Z-0.500 F1000.000
G1 X-10.650 Y44.572 Z-0.500 F1000.000
G1 X-10.650 Y45.703 Z-0.500 F1000.000
G1 X-8.650 Y47.703 Z-0.500 F1000.000
G1 X-8.650 Y48.834 Z-0.500 F1000.000
G1 X-10.650 Y46.834 Z-0.500 F1000.000
G1 X-10.650 Y47.966 Z-0.500 F1000.000
G1 X-8.650 Y49.966 Z-0.500 F1000.000
G1 X-8.650 Y51.097 Z-0.500 F1000.000
G1 X-10.650 Y49.097 Z-0.500 F1000.000
G1 X-10.650 Y50.228 Z-0.500 F1000.000
G1 X-8.650 Y52.228 Z-0.500 F1000.000
G1 X-8.650 Y53.360 Z-0.500 F1000.000
G1 X-10.650 Y51.360 Z-0.500 F1000.000
G1 X-10.650 Y52.491 Z-0.500 F1000.000
G1 X-8.650 Y54.491 Z-0.500 F1000.000
G1 X-8.650 Y55.623 Z-0.500 F1000.000
G1 X-10.650 Y53.623 Z-0.500 F1000.000
G1 X-10.650 Y54.754 Z-0.500 F1000.000
G1 X-8.650 Y56.754 Z-0.500 F1000.000
G1 X-8.650 Y57.885 Z-0.500 F1000.000
G1 X-10.650 Y55.885 Z-0.500 F1000.000
G1 X-10.650 Y57.017 Z-0.500 F1000.000
G1 X-8.650 Y59.017 Z-0.500 F1000.000
G1 X-8.650 Y60.148 Z-0.500 F1000.000
G1 X-10.650 Y58.148 Z-0.500 F1000.000
G1 X-10.650 Y59.279 Z-0.500 F1000.000
G1 X-8.650 Y61.279 Z-0.500 F1000.000
G1 X-8.650 Y62.411 Z-0.500 F1000.000
G1 X-10.650 Y60.411 Z-0.500 F1000.000
G1 X-10.650 Y61.542 Z-0.500 F1000.000
G1 X-8.650 Y63.542 Z-0.500 F1000.000
G1 X-8.650 Y64.674 Z-0.500 F1000.000
G1 X-10.650 Y62.674 Z-0.500 F1000.000
G1 X-10.650 Y63.805 Z-0.500 F1000.000
G1 X-8.650 Y65.805 Z-0.500 F1000.000
G1 X-8.650 Y66.596 Z-0.500 F1000.000
G1 X-8.990 Y66.596 Z-0.500 F1000.000
G1 X-10.650 Y64.936 Z-0.500 F1000.000
G1 X-10.650 Y66.068 Z-0.500 F1000.000
G1 X-10.650 Y66.596 Z-0.500 F1000.000
G1 X-10.122 Y66.596 Z-0.500 F1000.000
G1 X-10.650 Y66.068 Z-0.500 F1000.000
G1 X-10.650 Y66.068 Z-0.500 F1000.000
G1 X-10.650 Y66.596 Z-0.500 F1000.000
G1 X-8.650 Y66.596 Z-0.500 F1000.000
G1 X-8.650 Y27.338 Z-0.500 F1000.000
G1 X-10.650 Y27.338 Z-0.500 F1000.000
G1 X-10.650 Y66.068 Z-0.500 F1000.000
G1 X-10.650 Y66.068 Z-0.750 F1000.000
G1 X-10.650 Y66.596 Z-0.750 F1000.000
G1 X-8.650 Y66.596 Z-0.750 F1000.000
G1 X-8.650 Y27.338 Z-0.750 F1000.000
G1 X-10.650 Y27.338 Z-0.750 F1000.000
G1 X-10.650 Y66.068 Z-0.750 F1000.000
G1 X-10.650 Y66.068 Z-0.750 F1000.000
G1 X-10.122 Y66.596 Z-0.750 F1000.000
G1 X-10.650 Y66.596 Z-0.750 F1000.000
G1 X-10.650 Y66.068 Z-0.750 F1000.000
G1 X-10.650 Y64.936 Z-0.750 F1000.000
G1 X-8.990 Y66.596 Z-0.750 F1000.000
G1 X-8.650 Y66.596 Z-0.750 F1000.000
G1 X-8.650 Y65.805 Z-0.750 F1000.000
G1 X-10.650 Y63.805 Z-0.750 F1000.000
G1 X-10.650 Y62.674 Z-0.750 F1000.000
G1 X-8.650 Y64.674 Z-0.750 F1000.000
G1 X-8.650 Y63.542 Z-0.750 F1000.000
G1 X-10.650 Y61.542 Z-0.750 F1000.000
G1 X-10.650 Y60.411 Z-0.750 F1000.000
G1 X-8.650 Y62.411 Z-0.750 F1000.000
G1 X-8.650 Y61.279 Z-0.750 F1000.000
G1 X-10.650 Y59.279 Z-0.750 F1000.000
G1 X-10.650 Y58.148 Z-0.750 F1000.000
G1 X-8.650 Y60.148 Z-0.750 F1000.000
G1 X-8.650 Y59.017 Z-0.750 F1000.000
G1 X-10.650 Y57.017 Z-0.750 F1000.000
G1 X-10.650 Y55.885 Z-0.750 F1000.000
G1 X-8.650 Y57.885 Z-0.750 F1000.000
G1 X-8.650 Y56.754 Z-0.750 F1000.000
G1 X-10.650 Y54.754 Z-0.750 F1000.000
G1 X-10.650 Y53.623 Z-0.750 F1000.000
G1 X-8.650 Y55.623 Z-0.750 F1000.000
G1 X-8.650 Y54.491 Z-0.750 F1000.000
G1 X-10.650 Y52.491 Z-0.750 F1000.000
G1 X-10.650 Y51.360 Z-0.750 F1000.000
G1 X-8.650 Y53.360 Z-0.750 F1000.000
G1 X-8.650 Y52.228 Z-0.750 F1000.000
G1 X-10.650 Y50.228 Z-0.750 F1000.000
G1 X-10.650 Y49.097 Z-0.750 F1000.000
G1 X-8.650 Y51.097 Z-0.750 F1000.000
G1 X-8.650 Y49.966 Z-0.750 F1000.000
G1 X-10.650 Y47.966 Z-0.750 F1000.000
G1 X-10.650 Y46.834 Z-0.750 F1000.000
G1 X-8.650 Y48.834 Z-0.750 F1000.000
G1 X-8.650 Y47.703 Z-0.750 F1000.000
G1 X-10.650 Y45.703 Z-0.750 F1000.000
G1 X-10.650 Y44.572 Z-0.750 F1000.000
G1 X-8.650 Y46.572 Z-0.750 F1000.000
G1 X-8.650 Y45.440 Z-0.750 F1000.000
G1 X-10.650 Y43.440 Z-0.750 F1000.000
G1 X-10.650 Y42.309 Z-0.750 F1000.000
G1 X-8.650 Y44.309 Z-0.750 F1000.000
G1 X-8.650 Y43.178 Z-0.750 F1000.000
G1 X-10.650 Y41.178 Z-0.750 F1000.000
G1 X-10.650 Y40.046 Z-0.750 F1000.000
G1 X-8.650 Y42.046 Z-0.750 F1000.000
G1 X-8.650 Y40.915 Z-0.750 F1000.000
G1 X-10.650 Y38.915 Z-0.750 F1000.000
G1 X-10.650 Y37.783 Z-0.750 F1000.000
G1 X-8.650 Y39.783 Z-0.750 F1000.000
G1 X-8.650 Y38.652 Z-0.750 F1000.000
G1 X-10.650 Y36.652 Z-0.750 F1000.000
G1 X-10.650 Y35.521 Z-0.750 F1000.000
G1 X-8.650 Y37.521 Z-0.750 F1000.000
G1 X-8.650 Y36.389 Z-0.750 F1000.000
G1 X-10.650 Y34.389 Z-0.750 F1000.000
G1 X-10.650 Y33.258 Z-0.750 F1000.000
G1 X-8.650 Y35.258 Z-0.750 F1000.000
G1 X-8.650 Y34.127 Z-0.750 F1000.000
G1 X-10.650 Y32.127 Z-0.750 F1000.000
G1 X-10.650 Y30.995 Z-0.750 F1000.000
G1 X-8.650 Y32.995 Z-0.750 F1000.000
G1 X-8.650 Y31.864 Z-0.750 F1000.000
G1 X-10.650 Y29.864 Z-0.750 F1000.000
G1 X-10.650 Y28.732 Z-0.750 F1000.000
G1 X-8.650 Y30.732 Z-0.750 F1000.000
G1 X-8.650 Y29.601 Z-0.750 F1000.000
G1 X-10.650 Y27.601 Z-0.750 F1000.000
G1 X-10.650 Y27.338 Z-0.750 F1000.000
G1 X-9.781 Y27.338 Z-0.750 F1000.000
G1 X-8.650 Y28.470 Z-0.750 F1000.000
G1 X-8.650 Y27.338 Z-0.750 F1000.000
G1 X-8.650 Y27.338 Z-1.000 F1000.000
G1 X-8.650 Y28.470 Z-1.000 F1000.000
G1 X-9.781 Y27.338 Z-1.000 F1000.000
G1 X-10.650 Y27.338 Z-1.000 F1000.000
G1 X-10.650 Y27.601 Z-1.000 F1000.000
G1 X-8.650 Y29.601 Z-1.000 F1000.000
G1 X-8.650 Y30.732 Z-1.000 F1000.000
G1 X-10.650 Y28.732 Z-1.000 F1000.000
G1 X-10.650 Y29.864 Z-1.000 F1000.000
G1 X-8.650 Y31.864 Z-1.000 F1000.000
G1 X-8.650 Y32.995 Z-1.000 F1000.000
G1 X-10.650 Y30.995 Z-1.000 F1000.000
G1 X-10.650 Y32.127 Z-1.000 F1000.000
G1 X-8.650 Y34.127 Z-1.000 F1000.000
G1 X-8.650 Y35.258 Z-1.000 F1000.000
G1 X-10.650 Y33.258 Z-1.000 F1000.000
G1 X-10.650 Y34.389 Z-1.000 F1000.000
G1 X-8.650 Y36.389 Z-1.000 F1000.000
G1 X-8.650 Y37.521 Z-1.000 F1000.000
G1 X-10.650 Y35.521 Z-1.000 F1000.000
G1 X-10.650 Y36.652 Z-1.000 F1000.000
G1 X-8.650 Y38.652 Z-1.000 F1000.000
G1 X-8.650 Y39.783 Z-1.000 F1000.000
G1 X-10.650 Y37.783 Z-1.000 F1000.000
G1 X-10.650 Y38.915 Z-1.000 F1000.000
G1 X-8.650 Y40.915 Z-1.000 F1000.000
G1 X-8.650 Y42.046 Z-1.000 F1000.000
G1 X-10.650 Y40.046 Z-1.000 F1000.000
G1 X-10.650 Y41.178 Z-1.000 F1000.000
G1 X-8.650 Y43.178 Z-1.000 F1000.000
G1 X-8.650 Y44.309 Z-1.000 F1000.000
G1 X-10.650 Y42.309 Z-1.000 F1000.000
G1 X-10.650 Y43.440 Z-1.000 F1000.000
G1 X-8.650 Y45.440 Z-1.000 F1000.000
G1 X-8.650 Y46.572 Z-1.000 F1000.000
G1 X-10.650 Y44.572 Z-1.000 F1000.000
G1 X-10.650 Y45.703 Z-1.000 F1000.000
G1 X-8.650 Y47.703 Z-1.000 F1000.000
G1 X-8.650 Y48.834 Z-1.000 F1000.000
G1 X-10.650 Y46.834 Z-1.000 F1000.000
G1 X-10.650 Y47.966 Z-1.000 F1000.000
G1 X-8.650 Y49.966 Z-1.000 F1000.000
G1 X-8.650 Y51.097 Z-1.000 F1000.000
G1 X-10.650 Y49.097 Z-1.000 F1000.000
G1 X-10.650 Y50.228 Z-1.000 F1000.000
G1 X-8.650 Y52.228 Z-1.000 F1000.000
G1 X-8.650 Y53.360 Z-1.000 F1000.000
G1 X-10.650 Y51.360 Z-1.000 F1000.000
G1 X-10.650 Y52.491 Z-1.000 F1000.000
G1 X-8.650 Y54.491 Z-1.000 F1000.000
G1 X-8.650 Y55.623 Z-1.000 F1000.000
G1 X-10.650 Y53.623 Z-1.000 F1000.000
G1 X-10.650 Y54.754 Z-1.000 F1000.000
G1 X-8.650 Y56.754 Z-1.000 F1000.000
G1 X-8.650 Y57.885 Z-1.000 F1000.000
G1 X-10.650 Y55.885 Z-1.000 F1000.000
G1 X-10.650 Y57.017 Z-1.000 F1000.000
G1 X-8.650 Y59.017 Z-1.000 F1000.000
G1 X-8.650 Y60.148 Z-1.000 F1000.000
G1 X-10.650 Y58.148 Z-1.000 F1000.000
G1 X-10.650 Y59.279 Z-1.000 F1000.000
G1 X-8.650 Y61.279 Z-1.000 F1000.000
G1 X-8.650 Y62.411 Z-1.000 F1000.000
G1 X-10.650 Y60.411 Z-1.000 F1000.000
G1 X-10.650 Y61.542 Z-1.000 F1000.000
G1 X-8.650 Y63.542 Z-1.000 F1000.000
G1 X-8.650 Y64.674 Z-1.000 F1000.000
G1 X-10.650 Y62.674 Z-1.000 F1000.000
G1 X-10.650 Y63.805 Z-1.000 F1000.000
G1 X-8.650 Y65.805 Z-1.000 F1000.000
G1 X-8.650 Y66.596 Z-1.000 F1000.000
G1 X-8.990 Y66.596 Z-1.000 F1000.000
G1 X-10.650 Y64.936 Z-1.000 F1000.000
G1 X-10.650 Y66.068 Z-1.000 F1000.000
G1 X-10.650 Y66.596 Z-1.000 F1000.000
G1 X-10.122 Y66.596 Z-1.000 F1000.000
G1 X-10.650 Y66.068 Z-1.000 F1000.000
G1 X-10.650 Y66.068 Z-1.000 F1000.000
G1 X-10.650 Y66.596 Z-1.000 F1000.000
G1 X-8.650 Y66.596 Z-1.000 F1000.000
G1 X-8.650 Y27.338 Z-1.000 F1000.000
G1 X-10.650 Y27.338 Z-1.000 F1000.000
G1 X-10.650 Y66.068 Z-1.000 F1000.000
G1 X-10.650 Y66.068 Z-1.250 F1000.000
G1 X-10.650 Y66.596 Z-1.250 F1000.000
G1 X-8.650 Y66.596 Z-1.250 F1000.000
G1 X-8.650 Y27.338 Z-1.250 F1000.000
G1 X-10.650 Y27.338 Z-1.250 F1000.000
G1 X-10.650 Y66.068 Z-1.250 F1000.000
G1 X-10.650 Y66.068 Z-1.250 F1000.000
G1 X-10.122 Y66.596 Z-1.250 F1000.000
G1 X-10.650 Y66.596 Z-1.250 F1000.000
G1 X-10.650 Y66.068 Z-1.250 F1000.000
G1 X-10.650 Y64.936 Z-1.250 F1000.000
G1 X-8.990 Y66.596 Z-1.250 F1000.000
G1 X-8.650 Y66.596 Z-1.250 F1000.000
G1 X-8.650 Y65.805 Z-1.250 F1000.000
G1 X-10.650 Y63.805 Z-1.250 F1000.000
G1 X-10.650 Y62.674 Z-1.250 F1000.000
G1 X-8.650 Y64.674 Z-1.250 F1000.000
G1 X-8.650 Y63.542 Z-1.250 F1000.000
G1 X-10.650 Y61.542 Z-1.250 F1000.000
G1 X-10.650 Y60.411 Z-1.250 F1000.000
G1 X-8.650 Y62.411 Z-1.250 F1000.000
G1 X-8.650 Y61.279 Z-1.250 F1000.000
G1 X-10.650 Y59.279 Z-1.250 F1000.000
G1 X-10.650 Y58.148 Z-1.250 F1000.000
G1 X-8.650 Y60.148 Z-1.250 F1000.000
G1 X-8.650 Y59.017 Z-1.250 F1000.000
G1 X-10.650 Y57.017 Z-1.250 F1000.000
G1 X-10.650 Y55.885 Z-1.250 F1000.000
G1 X-8.650 Y57.885 Z-1.250 F1000.000
G1 X-8.650 Y56.754 Z-1.250 F1000.000
G1 X-10.650 Y54.754 Z-1.250 F1000.000
G1 X-10.650 Y53.623 Z-1.250 F1000.000
G1 X-8.650 Y55.623 Z-1.250 F1000.000
G1 X-8.650 Y54.491 Z-1.250 F1000.000
G1 X-10.650 Y52.491 Z-1.250 F1000.000
G1 X-10.650 Y51.360 Z-1.250 F1000.000
G1 X-8.650 Y53.360 Z-1.250 F1000.000
G1 X-8.650 Y52.228 Z-1.250 F1000.000
G1 X-10.650 Y50.228 Z-1.250 F1000.000
G1 X-10.650 Y49.097 Z-1.250 F1000.000
G1 X-8.650 Y51.097 Z-1.250 F1000.000
G1 X-8.650 Y49.966 Z-1.250 F1000.000
G1 X-10.650 Y47.966 Z-1.250 F1000.000
G1 X-10.650 Y46.834 Z-1.250 F1000.000
G1 X-8.650 Y48.834 Z-1.250 F1000.000
G1 X-8.650 Y47.703 Z-1.250 F1000.000
G1 X-10.650 Y45.703 Z-1.250 F1000.000
G1 X-10.650 Y44.572 Z-1.250 F1000.000
G1 X-8.650 Y46.572 Z-1.250 F1000.000
G1 X-8.650 Y45.440 Z-1.250 F1000.000
G1 X-10.650 Y43.440 Z-1.250 F1000.000
G1 X-10.650 Y42.309 Z-1.250 F1000.000
G1 X-8.650 Y44.309 Z-1.250 F1000.000
G1 X-8.650 Y43.178 Z-1.250 F1000.000
G1 X-10.650 Y41.178 Z-1.250 F1000.000
G1 X-10.650 Y40.046 Z-1.250 F1000.000
G1 X-8.650 Y42.046 Z-1.250 F1000.000
G1 X-8.650 Y40.915 Z-1.250 F1000.000
G1 X-10.650 Y38.915 Z-1.250 F1000.000
G1 X-10.650 Y37.783 Z-1.250 F1000.000
G1 X-8.650 Y39.783 Z-1.250 F1000.000
G1 X-8.650 Y38.652 Z-1.250 F1000.000
G1 X-10.650 Y36.652 Z-1.250 F1000.000
G1 X-10.650 Y35.521 Z-1.250 F1000.000
G1 X-8.650 Y37.521 Z-1.250 F1000.000
G1 X-8.650 Y36.389 Z-1.250 F1000.000
G1 X-10.650 Y34.389 Z-1.250 F1000.000
G1 X-10.650 Y33.258 Z-1.250 F1000.000
G1 X-8.650 Y35.258 Z-1.250 F1000.000
G1 X-8.650 Y34.127 Z-1.250 F1000.000
G1 X-10.650 Y32.127 Z-1.250 F1000.000
G1 X-10.650 Y30.995 Z-1.250 F1000.000
G1 X-8.650 Y32.995 Z-1.250 F1000.000
G1 X-8.650 Y31.864 Z-1.250 F1000.000
G1 X-10.650 Y29.864 Z-1.250 F1000.000
G1 X-10.650 Y28.732 Z-1.250 F1000.000
G1 X-8.650 Y30.732 Z-1.250 F1000.000
G1 X-8.650 Y29.601 Z-1.250 F1000.000
G1 X-10.650 Y27.601 Z-1.250 F1000.000
G1 X-10.650 Y27.338 Z-1.250 F1000.000
G1 X-9.781 Y27.338 Z-1.250 F1000.000
G1 X-8.650 Y28.470 Z-1.250 F1000.000
G1 X-8.650 Y27.338 Z-1.250 F1000.000
G1 X-8.650 Y27.338 Z-1.500 F1000.000
G1 X-8.650 Y28.470 Z-1.500 F1000.000
G1 X-9.781 Y27.338 Z-1.500 F1000.000
G1 X-10.650 Y27.338 Z-1.500 F1000.000
G1 X-10.650 Y27.601 Z-1.500 F1000.000
G1 X-8.650 Y29.601 Z-1.500 F1000.000
G1 X-8.650 Y30.732 Z-1.500 F1000.000
G1 X-10.650 Y28.732 Z-1.500 F1000.000
G1 X-10.650 Y29.864 Z-1.500 F1000.000
G1 X-8.650 Y31.864 Z-1.500 F1000.000
G1 X-8.650 Y32.995 Z-1.500 F1000.000
G1 X-10.650 Y30.995 Z-1.500 F1000.000
G1 X-10.650 Y32.127 Z-1.500 F1000.000
G1 X-8.650 Y34.127 Z-1.500 F1000.000
G1 X-8.650 Y35.258 Z-1.500 F1000.000
G1 X-10.650 Y33.258 Z-1.500 F1000.000
G1 X-10.650 Y34.389 Z-1.500 F1000.000
G1 X-8.650 Y36.389 Z-1.500 F1000.000
G1 X-8.650 Y37.521 Z-1.500 F1000.000
G1 X-10.650 Y35.521 Z-1.500 F1000.000
G1 X-10.650 Y36.652 Z-1.500 F1000.000
G1 X-8.650 Y38.652 Z-1.500 F1000.000
G1 X-8.650 Y39.783 Z-1.500 F1000.000
G1 X-10.650 Y37.783 Z-1.500 F1000.000
G1 X-10.650 Y38.915 Z-1.500 F1000.000
G1 X-8.650 Y40.915 Z-1.500 F1000.000
G1 X-8.650 Y42.046 Z-1.500 F1000.000
G1 X-10.650 Y40.046 Z-1.500 F1000.000
G1 X-10.650 Y41.178 Z-1.500 F1000.000
G1 X-8.650 Y43.178 Z-1.500 F1000.000
G1 X-8.650 Y44.309 Z-1.500 F1000.000
G1 X-10.650 Y42.309 Z-1.500 F1000.000
G1 X-10.650 Y43.440 Z-1.500 F1000.000
G1 X-8.650 Y45.440 Z-1.500 F1000.000
G1 X-8.650 Y46.572 Z-1.500 F1000.000
G1 X-10.650 Y44.572 Z-1.500 F1000.000
G1 X-10.650 Y45.703 Z-1.500 F1000.000
G1 X-8.650 Y47.703 Z-1.500 F1000.000
G1 X-8.650 Y48.834 Z-1.500 F1000.000
G1 X-10.650 Y46.834 Z-1.500 F1000.000
G1 X-10.650 Y47.966 Z-1.500 F1000.000
G1 X-8.650 Y49.966 Z-1.500 F1000.000
G1 X-8.650 Y51.097 Z-1.500 F1000.000
G1 X-10.650 Y49.097 Z-1.500 F1000.000
G1 X-10.650 Y50.228 Z-1.500 F1000.000
G1 X-8.650 Y52.228 Z-1.500 F1000.000
G1 X-8.650 Y53.360 Z-1.500 F1000.000
G1 X-10.650 Y51.360 Z-1.500 F1000.000
G1 X-10.650 Y52.491 Z-1.500 F1000.000
G1 X-8.650 Y54.491 Z-1.500 F1000.000
G1 X-8.650 Y55.623 Z-1.500 F1000.000
G1 X-10.650 Y53.623 Z-1.500 F1000.000
G1 X-10.650 Y54.754 Z-1.500 F1000.000
G1 X-8.650 Y56.754 Z-1.500 F1000.000
G1 X-8.650 Y57.885 Z-1.500 F1000.000
G1 X-10.650 Y55.885 Z-1.500 F1000.000
G1 X-10.650 Y57.017 Z-1.500 F1000.000
G1 X-8.650 Y59.017 Z-1.500 F1000.000
G1 X-8.650 Y60.148 Z-1.500 F1000.000
G1 X-10.650 Y58.148 Z-1.500 F1000.000
G1 X-10.650 Y59.279 Z-1.500 F1000.000
G1 X-8.650 Y61.279 Z-1.500 F1000.000
G1 X-8.650 Y62.411 Z-1.500 F1000.000
G1 X-10.650 Y60.411 Z-1.500 F1000.000
G1 X-10.650 Y61.542 Z-1.500 F1000.000
G1 X-8.650 Y63.542 Z-1.500 F1000.000
G1 X-8.650 Y64.674 Z-1.500 F1000.000
G1 X-10.650 Y62.674 Z-1.500 F1000.000
G1 X-10.650 Y63.805 Z-1.500 F1000.000
G1 X-8.650 Y65.805 Z-1.500 F1000.000
G1 X-8.650 Y66.596 Z-1.500 F1000.000
G1 X-8.990 Y66.596 Z-1.500 F1000.000
G1 X-10.650 Y64.936 Z-1.500 F1000.000
G1 X-10.650 Y66.068 Z-1.500 F1000.000
G1 X-10.650 Y66.596 Z-1.500 F1000.000
G1 X-10.122 Y66.596 Z-1.500 F1000.000
G1 X-10.650 Y66.068 Z-1.500 F1000.000
G1 X-10.650 Y66.068 Z-1.500 F1000.000
G1 X-10.650 Y66.596 Z-1.500 F1000.000
G1 X-8.650 Y66.596 Z-1.500 F1000.000
G1 X-8.650 Y27.338 Z-1.500 F1000.000
G1 X-10.650 Y27.338 Z-1.500 F1000.000
G1 X-10.650 Y66.068 Z-1.500 F1000.000
G1 X-10.650 Y66.068 Z-1.750 F1000.000
G1 X-10.650 Y66.596 Z-1.750 F1000.000
G1 X-8.650 Y66.596 Z-1.750 F1000.000
G1 X-8.650 Y27.338 Z-1.750 F1000.000
G1 X-10.650 Y27.338 Z-1.750 F1000.000
G1 X-10.650 Y66.068 Z-1.750 F1000.000
G1 X-10.650 Y66.068 Z-1.750 F1000.000
G1 X-10.122 Y66.596 Z-1.750 F1000.000
G1 X-10.650 Y66.596 Z-1.750 F1000.000
G1 X-10.650 Y66.068 Z-1.750 F1000.000
G1 X-10.650 Y64.936 Z-1.750 F1000.000
G1 X-8.990 Y66.596 Z-1.750 F1000.000
G1 X-8.650 Y66.596 Z-1.750 F1000.000
G1 X-8.650 Y65.805 Z-1.750 F1000.000
G1 X-10.650 Y63.805 Z-1.750 F1000.000
G1 X-10.650 Y62.674 Z-1.750 F1000.000
G1 X-8.650 Y64.674 Z-1.750 F1000.000
G1 X-8.650 Y63.542 Z-1.750 F1000.000
G1 X-10.650 Y61.542 Z-1.750 F1000.000
G1 X-10.650 Y60.411 Z-1.750 F1000.000
G1 X-8.650 Y62.411 Z-1.750 F1000.000
G1 X-8.650 Y61.279 Z-1.750 F1000.000
G1 X-10.650 Y59.279 Z-1.750 F1000.000
G1 X-10.650 Y58.148 Z-1.750 F1000.000
G1 X-8.650 Y60.148 Z-1.750 F1000.000
G1 X-8.650 Y59.017 Z-1.750 F1000.000
G1 X-10.650 Y57.017 Z-1.750 F1000.000
G1 X-10.650 Y55.885 Z-1.750 F1000.000
G1 X-8.650 Y57.885 Z-1.750 F1000.000
G1 X-8.650 Y56.754 Z-1.750 F1000.000
G1 X-10.650 Y54.754 Z-1.750 F1000.000
G1 X-10.650 Y53.623 Z-1.750 F1000.000
G1 X-8.650 Y55.623 Z-1.750 F1000.000
G1 X-8.650 Y54.491 Z-1.750 F1000.000
G1 X-10.650 Y52.491 Z-1.750 F1000.000
G1 X-10.650 Y51.360 Z-1.750 F1000.000
G1 X-8.650 Y53.360 Z-1.750 F1000.000
G1 X-8.650 Y52.228 Z-1.750 F1000.000
G1 X-10.650 Y50.228 Z-1.750 F1000.000
G1 X-10.650 Y49.097 Z-1.750 F1000.000
G1 X-8.650 Y51.097 Z-1.750 F1000.000
G1 X-8.650 Y49.966 Z-1.750 F1000.000
G1 X-10.650 Y47.966 Z-1.750 F1000.000
G1 X-10.650 Y46.834 Z-1.750 F1000.000
G1 X-8.650 Y48.834 Z-1.750 F1000.000
G1 X-8.650 Y47.703 Z-1.750 F1000.000
G1 X-10.650 Y45.703 Z-1.750 F1000.000
G1 X-10.650 Y44.572 Z-1.750 F1000.000
G1 X-8.650 Y46.572 Z-1.750 F1000.000
G1 X-8.650 Y45.440 Z-1.750 F1000.000
G1 X-10.650 Y43.440 Z-1.750 F1000.000
G1 X-10.650 Y42.309 Z-1.750 F1000.000
G1 X-8.650 Y44.309 Z-1.750 F1000.000
G1 X-8.650 Y43.178 Z-1.750 F1000.000
G1 X-10.650 Y41.178 Z-1.750 F1000.000
G1 X-10.650 Y40.046 Z-1.750 F1000.000
G1 X-8.650 Y42.046 Z-1.750 F1000.000
G1 X-8.650 Y40.915 Z-1.750 F1000.000
G1 X-10.650 Y38.915 Z-1.750 F1000.000
G1 X-10.650 Y37.783 Z-1.750 F1000.000
G1 X-8.650 Y39.783 Z-1.750 F1000.000
G1 X-8.650 Y38.652 Z-1.750 F1000.000
G1 X-10.650 Y36.652 Z-1.750 F1000.000
G1 X-10.650 Y35.521 Z-1.750 F1000.000
G1 X-8.650 Y37.521 Z-1.750 F1000.000
G1 X-8.650 Y36.389 Z-1.750 F1000.000
G1 X-10.650 Y34.389 Z-1.750 F1000.000
G1 X-10.650 Y33.258 Z-1.750 F1000.000
G1 X-8.650 Y35.258 Z-1.750 F1000.000
G1 X-8.650 Y34.127 Z-1.750 F1000.000
G1 X-10.650 Y32.127 Z-1.750 F1000.000
G1 X-10.650 Y30.995 Z-1.750 F1000.000
G1 X-8.650 Y32.995 Z-1.750 F1000.000
G1 X-8.650 Y31.864 Z-1.750 F1000.000
G1 X-10.650 Y29.864 Z-1.750 F1000.000
G1 X-10.650 Y28.732 Z-1.750 F1000.000
G1 X-8.650 Y30.732 Z-1.750 F1000.000
G1 X-8.650 Y29.601 Z-1.750 F1000.000
G1 X-10.650 Y27.601 Z-1.750 F1000.000
G1 X-10.650 Y27.338 Z-1.750 F1000.000
G1 X-9.781 Y27.338 Z-1.750 F1000.000
G1 X-8.650 Y28.470 Z-1.750 F1000.000
G1 X-8.650 Y27.338 Z-1.750 F1000.000
G1 X-8.650 Y27.338 Z-2.000 F1000.000
G1 X-8.650 Y28.470 Z-2.000 F1000.000
G1 X-9.781 Y27.338 Z-2.000 F1000.000
G1 X-10.650 Y27.338 Z-2.000 F1000.000
G1 X-10.650 Y27.601 Z-2.000 F1000.000
G1 X-8.650 Y29.601 Z-2.000 F1000.000
G1 X-8.650 Y30.732 Z-2.000 F1000.000
G1 X-10.650 Y28.732 Z-2.000 F1000.000
G1 X-10.650 Y29.864 Z-2.000 F1000.000
G1 X-8.650 Y31.864 Z-2.000 F1000.000
G1 X-8.650 Y32.995 Z-2.000 F1000.000
G1 X-10.650 Y30.995 Z-2.000 F1000.000
G1 X-10.650 Y32.127 Z-2.000 F1000.000
G1 X-8.650 Y34.127 Z-2.000 F1000.000
G1 X-8.650 Y35.258 Z-2.000 F1000.000
G1 X-10.650 Y33.258 Z-2.000 F1000.000
G1 X-10.650 Y34.389 Z-2.000 F1000.000
G1 X-8.650 Y36.389 Z-2.000 F1000.000
G1 X-8.650 Y37.521 Z-2.000 F1000.000
G1 X-10.650 Y35.521 Z-2.000 F1000.000
G1 X-10.650 Y36.652 Z-2.000 F1000.000
G1 X-8.650 Y38.652 Z-2.000 F1000.000
G1 X-8.650 Y39.783 Z-2.000 F1000.000
G1 X-10.650 Y37.783 Z-2.000 F1000.000
G1 X-10.650 Y38.915 Z-2.000 F1000.000
G1 X-8.650 Y40.915 Z-2.000 F1000.000
G1 X-8.650 Y42.046 Z-2.000 F1000.000
G1 X-10.650 Y40.046 Z-2.000 F1000.000
G1 X-10.650 Y41.178 Z-2.000 F1000.000
G1 X-8.650 Y43.178 Z-2.000 F1000.000
G1 X-8.650 Y44.309 Z-2.000 F1000.000
G1 X-10.650 Y42.309 Z-2.000 F1000.000
G1 X-10.650 Y43.440 Z-2.000 F1000.000
G1 X-8.650 Y45.440 Z-2.000 F1000.000
G1 X-8.650 Y46.572 Z-2.000 F1000.000
G1 X-10.650 Y44.572 Z-2.000 F1000.000
G1 X-10.650 Y45.703 Z-2.000 F1000.000
G1 X-8.650 Y47.703 Z-2.000 F1000.000
G1 X-8.650 Y48.834 Z-2.000 F1000.000
G1 X-10.650 Y46.834 Z-2.000 F1000.000
G1 X-10.650 Y47.966 Z-2.000 F1000.000
G1 X-8.650 Y49.966 Z-2.000 F1000.000
G1 X-8.650 Y51.097 Z-2.000 F1000.000
G1 X-10.650 Y49.097 Z-2.000 F1000.000
G1 X-10.650 Y50.228 Z-2.000 F1000.000
G1 X-8.650 Y52.228 Z-2.000 F1000.000
G1 X-8.650 Y53.360 Z-2.000 F1000.000
G1 X-10.650 Y51.360 Z-2.000 F1000.000
G1 X-10.650 Y52.491 Z-2.000 F1000.000
G1 X-8.650 Y54.491 Z-2.000 F1000.000
G1 X-8.650 Y55.623 Z-2.000 F1000.000
G1 X-10.650 Y53.623 Z-2.000 F1000.000
G1 X-10.650 Y54.754 Z-2.000 F1000.000
G1 X-8.650 Y56.754 Z-2.000 F1000.000
G1 X-8.650 Y57.885 Z-2.000 F1000.000
G1 X-10.650 Y55.885 Z-2.000 F1000.000
G1 X-10.650 Y57.017 Z-2.000 F1000.000
G1 X-8.650 Y59.017 Z-2.000 F1000.000
G1 X-8.650 Y60.148 Z-2.000 F1000.000
G1 X-10.650 Y58.148 Z-2.000 F1000.000
G1 X-10.650 Y59.279 Z-2.000 F1000.000
G1 X-8.650 Y61.279 Z-2.000 F1000.000
G1 X-8.650 Y62.411 Z-2.000 F1000.000
G1 X-10.650 Y60.411 Z-2.000 F1000.000
G1 X-10.650 Y61.542 Z-2.000 F1000.000
G1 X-8.650 Y63.542 Z-2.000 F1000.000
G1 X-8.650 Y64.674 Z-2.000 F1000.000
G1 X-10.650 Y62.674 Z-2.000 F1000.000
G1 X-10.650 Y63.805 Z-2.000 F1000.000
G1 X-8.650 Y65.805 Z-2.000 F1000.000
G1 X-8.650 Y66.596 Z-2.000 F1000.000
G1 X-8.990 Y66.596 Z-2.000 F1000.000
G1 X-10.650 Y64.936 Z-2.000 F1000.000
G1 X-10.650 Y66.068 Z-2.000 F1000.000
G1 X-10.650 Y66.596 Z-2.000 F1000.000
G1 X-10.122 Y66.596 Z-2.000 F1000.000
G1 X-10.650 Y66.068 Z-2.000 F1000.000
G1 X-10.650 Y66.068 Z-2.000 F1000.000
G1 X-10.650 Y66.596 Z-2.000 F1000.000
G1 X-8.650 Y66.596 Z-2.000 F1000.000
G1 X-8.650 Y27.338 Z-2.000 F1000.000
G1 X-10.650 Y27.338 Z-2.000 F1000.000
G1 X-10.650 Y66.068 Z-2.000 F1000.000
G1 X-10.650 Y66.068 Z-2.250 F1000.000
G1 X-10.650 Y66.596 Z-2.250 F1000.000
G1 X-8.650 Y66.596 Z-2.250 F1000.000
G1 X-8.650 Y27.338 Z-2.250 F1000.000
G1 X-10.650 Y27.338 Z-2.250 F1000.000
G1 X-10.650 Y66.068 Z-2.250 F1000.000
G1 X-10.650 Y66.068 Z-2.250 F1000.000
G1 X-10.122 Y66.596 Z-2.250 F1000.000
G1 X-10.650 Y66.596 Z-2.250 F1000.000
G1 X-10.650 Y66.068 Z-2.250 F1000.000
G1 X-10.650 Y64.936 Z-2.250 F1000.000
G1 X-8.990 Y66.596 Z-2.250 F1000.000
G1 X-8.650 Y66.596 Z-2.250 F1000.000
G1 X-8.650 Y65.805 Z-2.250 F1000.000
G1 X-10.650 Y63.805 Z-2.250 F1000.000
G1 X-10.650 Y62.674 Z-2.250 F1000.000
G1 X-8.650 Y64.674 Z-2.250 F1000.000
G1 X-8.650 Y63.542 Z-2.250 F1000.000
G1 X-10.650 Y61.542 Z-2.250 F1000.000
G1 X-10.650 Y60.411 Z-2.250 F1000.000
G1 X-8.650 Y62.411 Z-2.250 F1000.000
G1 X-8.650 Y61.279 Z-2.250 F1000.000
G1 X-10.650 Y59.279 Z-2.250 F1000.000
G1 X-10.650 Y58.148 Z-2.250 F1000.000
G1 X-8.650 Y60.148 Z-2.250 F1000.000
G1 X-8.650 Y59.017 Z-2.250 F1000.000
G1 X-10.650 Y57.017 Z-2.250 F1000.000
G1 X-10.650 Y55.885 Z-2.250 F1000.000
G1 X-8.650 Y57.885 Z-2.250 F1000.000
G1 X-8.650 Y56.754 Z-2.250 F1000.000
G1 X-10.650 Y54.754 Z-2.250 F1000.000
G1 X-10.650 Y53.623 Z-2.250 F1000.000
G1 X-8.650 Y55.623 Z-2.250 F1000.000
G1 X-8.650 Y54.491 Z-2.250 F1000.000
G1 X-10.650 Y52.491 Z-2.250 F1000.000
G1 X-10.650 Y51.360 Z-2.250 F1000.000
G1 X-8.650 Y53.360 Z-2.250 F1000.000
G1 X-8.650 Y52.228 Z-2.250 F1000.000
G1 X-10.650 Y50.228 Z-2.250 F1000.000
G1 X-10.650 Y49.097 Z-2.250 F1000.000
G1 X-8.650 Y51.097 Z-2.250 F1000.000
G1 X-8.650 Y49.966 Z-2.250 F1000.000
G1 X-10.650 Y47.966 Z-2.250 F1000.000
G1 X-10.650 Y46.834 Z-2.250 F1000.000
G1 X-8.650 Y48.834 Z-2.250 F1000.000
G1 X-8.650 Y47.703 Z-2.250 F1000.000
G1 X-10.650 Y45.703 Z-2.250 F1000.000
G1 X-10.650 Y44.572 Z-2.250 F1000.000
G1 X-8.650 Y46.572 Z-2.250 F1000.000
G1 X-8.650 Y45.440 Z-2.250 F1000.000
G1 X-10.650 Y43.440 Z-2.250 F1000.000
G1 X-10.650 Y42.309 Z-2.250 F1000.000
G1 X-8.650 Y44.309 Z-2.250 F1000.000
G1 X-8.650 Y43.178 Z-2.250 F1000.000
G1 X-10.650 Y41.178 Z-2.250 F1000.000
G1 X-10.650 Y40.046 Z-2.250 F1000.000
G1 X-8.650 Y42.046 Z-2.250 F1000.000
G1 X-8.650 Y40.915 Z-2.250 F1000.000
G1 X-10.650 Y38.915 Z-2.250 F1000.000
G1 X-10.650 Y37.783 Z-2.250 F1000.000
G1 X-8.650 Y39.783 Z-2.250 F1000.000
G1 X-8.650 Y38.652 Z-2.250 F1000.000
G1 X-10.650 Y36.652 Z-2.250 F1000.000
G1 X-10.650 Y35.521 Z-2.250 F1000.000
G1 X-8.650 Y37.521 Z-2.250 F1000.000
G1 X-8.650 Y36.389 Z-2.250 F1000.000
G1 X-10.650 Y34.389 Z-2.250 F1000.000
G1 X-10.650 Y33.258 Z-2.250 F1000.000
G1 X-8.650 Y35.258 Z-2.250 F1000.000
G1 X-8.650 Y34.127 Z-2.250 F1000.000
G1 X-10.650 Y32.127 Z-2.250 F1000.000
G1 X-10.650 Y30.995 Z-2.250 F1000.000
G1 X-8.650 Y32.995 Z-2.250 F1000.000
G1 X-8.650 Y31.864 Z-2.250 F1000.000
G1 X-10.650 Y29.864 Z-2.250 F1000.000
G1 X-10.650 Y28.732 Z-2.250 F1000.000
G1 X-8.650 Y30.732 Z-2.250 F1000.000
G1 X-8.650 Y29.601 Z-2.250 F1000.000
G1 X-10.650 Y27.601 Z-2.250 F1000.000
G1 X-10.650 Y27.338 Z-2.250 F1000.000
G1 X-9.781 Y27.338 Z-2.250 F1000.000
G1 X-8.650 Y28.470 Z-2.250 F1000.000
G1 X-8.650 Y27.338 Z-2.250 F1000.000
G0 Z5.000
G0 Z5.000
(Finish operation: Pocket_Shape003)
(Begin operation: Pocket_Shape004)
(Path: Pocket_Shape004)
(Pocket_Shape004)
G0 Z5.000
G0 X-8.650 Y133.692
G0 Z3.000
G1 X-8.650 Y133.692 Z-1.000 F1000.000
G1 X-8.650 Y94.434 Z-1.000 F1000.000
G1 X-10.650 Y94.434 Z-1.000 F1000.000
G1 X-10.650 Y133.692 Z-1.000 F1000.000
G1 X-8.650 Y133.692 Z-1.000 F1000.000
G1 X-8.650 Y133.692 Z-1.000 F1000.000
G1 X-9.781 Y133.692 Z-1.000 F1000.000
G1 X-8.650 Y132.560 Z-1.000 F1000.000
G1 X-8.650 Y131.429 Z-1.000 F1000.000
G1 X-10.650 Y133.429 Z-1.000 F1000.000
G1 X-10.650 Y132.298 Z-1.000 F1000.000
G1 X-8.650 Y130.298 Z-1.000 F1000.000
G1 X-8.650 Y129.166 Z-1.000 F1000.000
G1 X-10.650 Y131.166 Z-1.000 F1000.000
G1 X-10.650 Y130.035 Z-1.000 F1000.000
G1 X-8.650 Y128.035 Z-1.000 F1000.000
G1 X-8.650 Y126.903 Z-1.000 F1000.000
G1 X-10.650 Y128.903 Z-1.000 F1000.000
G1 X-10.650 Y127.772 Z-1.000 F1000.000
G1 X-8.650 Y125.772 Z-1.000 F1000.000
G1 X-8.650 Y124.641 Z-1.000 F1000.000
G1 X-10.650 Y126.641 Z-1.000 F1000.000
G1 X-10.650 Y125.509 Z-1.000 F1000.000
G1 X-8.650 Y123.509 Z-1.000 F1000.000
G1 X-8.650 Y122.378 Z-1.000 F1000.000
G1 X-10.650 Y124.378 Z-1.000 F1000.000
G1 X-10.650 Y123.247 Z-1.000 F1000.000
G1 X-8.650 Y121.247 Z-1.000 F1000.000
G1 X-8.650 Y120.115 Z-1.000 F1000.000
G1 X-10.650 Y122.115 Z-1.000 F1000.000
G1 X-10.650 Y120.984 Z-1.000 F1000.000
G1 X-8.650 Y118.984 Z-1.000 F1000.000
G1 X-8.650 Y117.852 Z-1.000 F1000.000
G1 X-10.650 Y119.852 Z-1.000 F1000.000
G1 X-10.650 Y118.721 Z-1.000 F1000.000
G1 X-8.650 Y116.721 Z-1.000 F1000.000
G1 X-8.650 Y115.590 Z-1.000 F1000.000
G1 X-10.650 Y117.590 Z-1.000 F1000.000
G1 X-10.650 Y116.458 Z-1.000 F1000.000
G1 X-8.650 Y114.458 Z-1.000 F1000.000
G1 X-8.650 Y113.327 Z-1.000 F1000.000
G1 X-10.650 Y115.327 Z-1.000 F1000.000
G1 X-10.650 Y114.196 Z-1.000 F1000.000
G1 X-8.650 Y112.196 Z-1.000 F1000.000
G1 X-8.650 Y111.064 Z-1.000 F1000.000
G1 X-10.650 Y113.064 Z-1.000 F1000.000
G1 X-10.650 Y111.933 Z-1.000 F1000.000
G1 X-8.650 Y109.933 Z-1.000 F1000.000
G1 X-8.650 Y108.802 Z-1.000 F1000.000
G1 X-10.650 Y110.802 Z-1.000 F1000.000
G1 X-10.650 Y109.670 Z-1.000 F1000.000
G1 X-8.650 Y107.670 Z-1.000 F1000.000
G1 X-8.650 Y106.539 Z-1.000 F1000.000
G1 X-10.650 Y108.539 Z-1.000 F1000.000
G1 X-10.650 Y107.407 Z-1.000 F1000.000
G1 X-8.650 Y105.407 Z-1.000 F1000.000
G1 X-8.650 Y104.276 Z-1.000 F1000.000
G1 X-10.650 Y106.276 Z-1.000 F1000.000
G1 X-10.650 Y105.145 Z-1.000 F1000.000
G1 X-8.650 Y103.145 Z-1.000 F1000.000
G1 X-8.650 Y102.013 Z-1.000 F1000.000
G1 X-10.650 Y104.013 Z-1.000 F1000.000
G1 X-10.650 Y102.882 Z-1.000 F1000.000
G1 X-8.650 Y100.882 Z-1.000 F1000.000
G1 X-8.650 Y99.751 Z-1.000 F1000.000
G1 X-10.650 Y101.751 Z-1.000 F1000.000
G1 X-10.650 Y100.619 Z-1.000 F1000.000
G1 X-8.650 Y98.619 Z-1.000 F1000.000
G1 X-8.650 Y97.488 Z-1.000 F1000.000
G1 X-10.650 Y99.488 Z-1.000 F1000.000
G1 X-10.650 Y98.356 Z-1.000 F1000.000
G1 X-8.650 Y96.356 Z-1.000 F1000.000
G1 X-8.650 Y95.225 Z-1.000 F1000.000
G1 X-10.650 Y97.225 Z-1.000 F1000.000
G1 X-10.650 Y96.094 Z-1.000 F1000.000
G1 X-8.990 Y94.434 Z-1.000 F1000.000
G1 X-10.122 Y94.434 Z-1.000 F1000.000
G1 X-10.650 Y94.962 Z-1.000 F1000.000
G1 X-10.650 Y94.434 Z-1.000 F1000.000
G1 X-10.122 Y94.434 Z-1.000 F1000.000
G1 X-10.122 Y94.434 Z-2.000 F1000.000
G1 X-10.650 Y94.434 Z-2.000 F1000.000
G1 X-10.650 Y94.962 Z-2.000 F1000.000
G1 X-10.122 Y94.434 Z-2.000 F1000.000
G1 X-8.990 Y94.434 Z-2.000 F1000.000
G1 X-10.650 Y96.094 Z-2.000 F1000.000
G1 X-10.650 Y97.225 Z-2.000 F1000.000
G1 X-8.650 Y95.225 Z-2.000 F1000.000
G1 X-8.650 Y96.356 Z-2.000 F1000.000
G1 X-10.650 Y98.356 Z-2.000 F1000.000
G1 X-10.650 Y99.488 Z-2.000 F1000.000
G1 X-8.650 Y97.488 Z-2.000 F1000.000
G1 X-8.650 Y98.619 Z-2.000 F1000.000
G1 X-10.650 Y100.619 Z-2.000 F1000.000
G1 X-10.650 Y101.751 Z-2.000 F1000.000
G1 X-8.650 Y99.751 Z-2.000 F1000.000
G1 X-8.650 Y100.882 Z-2.000 F1000.000
G1 X-10.650 Y102.882 Z-2.000 F1000.000
G1 X-10.650 Y104.013 Z-2.000 F1000.000
G1 X-8.650 Y102.013 Z-2.000 F1000.000
G1 X-8.650 Y103.145 Z-2.000 F1000.000
G1 X-10.650 Y105.145 Z-2.000 F1000.000
G1 X-10.650 Y106.276 Z-2.000 F1000.000
G1 X-8.650 Y104.276 Z-2.000 F1000.000
G1 X-8.650 Y105.407 Z-2.000 F1000.000
G1 X-10.650 Y107.407 Z-2.000 F1000.000
G1 X-10.650 Y108.539 Z-2.000 F1000.000
G1 X-8.650 Y106.539 Z-2.000 F1000.000
G1 X-8.650 Y107.670 Z-2.000 F1000.000
G1 X-10.650 Y109.670 Z-2.000 F1000.000
G1 X-10.650 Y110.802 Z-2.000 F1000.000
G1 X-8.650 Y108.802 Z-2.000 F1000.000
G1 X-8.650 Y109.933 Z-2.000 F1000.000
G1 X-10.650 Y111.933 Z-2.000 F1000.000
G1 X-10.650 Y113.064 Z-2.000 F1000.000
G1 X-8.650 Y111.064 Z-2.000 F1000.000
G1 X-8.650 Y112.196 Z-2.000 F1000.000
G1 X-10.650 Y114.196 Z-2.000 F1000.000
G1 X-10.650 Y115.327 Z-2.000 F1000.000
G1 X-8.650 Y113.327 Z-2.000 F1000.000
G1 X-8.650 Y114.458 Z-2.000 F1000.000
G1 X-10.650 Y116.458 Z-2.000 F1000.000
G1 X-10.650 Y117.590 Z-2.000 F1000.000
G1 X-8.650 Y115.590 Z-2.000 F1000.000
G1 X-8.650 Y116.721 Z-2.000 F1000.000
G1 X-10.650 Y118.721 Z-2.000 F1000.000
G1 X-10.650 Y119.852 Z-2.000 F1000.000
G1 X-8.650 Y117.852 Z-2.000 F1000.000
G1 X-8.650 Y118.984 Z-2.000 F1000.000
G1 X-10.650 Y120.984 Z-2.000 F1000.000
G1 X-10.650 Y122.115 Z-2.000 F1000.000
G1 X-8.650 Y120.115 Z-2.000 F1000.000
G1 X-8.650 Y121.247 Z-2.000 F1000.000
G1 X-10.650 Y123.247 Z-2.000 F1000.000
G1 X-10.650 Y124.378 Z-2.000 F1000.000
G1 X-8.650 Y122.378 Z-2.000 F1000.000
G1 X-8.650 Y123.509 Z-2.000 F1000.000
G1 X-10.650 Y125.509 Z-2.000 F1000.000
G1 X-10.650 Y126.641 Z-2.000 F1000.000
G1 X-8.650 Y124.641 Z-2.000 F1000.000
G1 X-8.650 Y125.772 Z-2.000 F1000.000
G1 X-10.650 Y127.772 Z-2.000 F1000.000
G1 X-10.650 Y128.903 Z-2.000 F1000.000
G1 X-8.650 Y126.903 Z-2.000 F1000.000
G1 X-8.650 Y128.035 Z-2.000 F1000.000
G1 X-10.650 Y130.035 Z-2.000 F1000.000
G1 X-10.650 Y131.166 Z-2.000 F1000.000
G1 X-8.650 Y129.166 Z-2.000 F1000.000
G1 X-8.650 Y130.298 Z-2.000 F1000.000
G1 X-10.650 Y132.298 Z-2.000 F1000.000
G1 X-10.650 Y133.429 Z-2.000 F1000.000
G1 X-8.650 Y131.429 Z-2.000 F1000.000
G1 X-8.650 Y132.560 Z-2.000 F1000.000
G1 X-9.781 Y133.692 Z-2.000 F1000.000
G1 X-8.650 Y133.692 Z-2.000 F1000.000
G1 X-8.650 Y133.692 Z-2.000 F1000.000
G1 X-8.650 Y94.434 Z-2.000 F1000.000
G1 X-10.650 Y94.434 Z-2.000 F1000.000
G1 X-10.650 Y133.692 Z-2.000 F1000.000
G1 X-8.650 Y133.692 Z-2.000 F1000.000
G1 X-8.650 Y133.692 Z-2.250 F1000.000
G1 X-8.650 Y94.434 Z-2.250 F1000.000
G1 X-10.650 Y94.434 Z-2.250 F1000.000
G1 X-10.650 Y133.692 Z-2.250 F1000.000
G1 X-8.650 Y133.692 Z-2.250 F1000.000
G1 X-8.650 Y133.692 Z-2.250 F1000.000
G1 X-9.781 Y133.692 Z-2.250 F1000.000
G1 X-8.650 Y132.560 Z-2.250 F1000.000
G1 X-8.650 Y131.429 Z-2.250 F1000.000
G1 X-10.650 Y133.429 Z-2.250 F1000.000
G1 X-10.650 Y132.298 Z-2.250 F1000.000
G1 X-8.650 Y130.298 Z-2.250 F1000.000
G1 X-8.650 Y129.166 Z-2.250 F1000.000
G1 X-10.650 Y131.166 Z-2.250 F1000.000
G1 X-10.650 Y130.035 Z-2.250 F1000.000
G1 X-8.650 Y128.035 Z-2.250 F1000.000
G1 X-8.650 Y126.903 Z-2.250 F1000.000
G1 X-10.650 Y128.903 Z-2.250 F1000.000
G1 X-10.650 Y127.772 Z-2.250 F1000.000
G1 X-8.650 Y125.772 Z-2.250 F1000.000
G1 X-8.650 Y124.641 Z-2.250 F1000.000
G1 X-10.650 Y126.641 Z-2.250 F1000.000
G1 X-10.650 Y125.509 Z-2.250 F1000.000
G1 X-8.650 Y123.509 Z-2.250 F1000.000
G1 X-8.650 Y122.378 Z-2.250 F1000.000
G1 X-10.650 Y124.378 Z-2.250 F1000.000
G1 X-10.650 Y123.247 Z-2.250 F1000.000
G1 X-8.650 Y121.247 Z-2.250 F1000.000
G1 X-8.650 Y120.115 Z-2.250 F1000.000
G1 X-10.650 Y122.115 Z-2.250 F1000.000
G1 X-10.650 Y120.984 Z-2.250 F1000.000
G1 X-8.650 Y118.984 Z-2.250 F1000.000
G1 X-8.650 Y117.852 Z-2.250 F1000.000
G1 X-10.650 Y119.852 Z-2.250 F1000.000
G1 X-10.650 Y118.721 Z-2.250 F1000.000
G1 X-8.650 Y116.721 Z-2.250 F1000.000
G1 X-8.650 Y115.590 Z-2.250 F1000.000
G1 X-10.650 Y117.590 Z-2.250 F1000.000
G1 X-10.650 Y116.458 Z-2.250 F1000.000
G1 X-8.650 Y114.458 Z-2.250 F1000.000
G1 X-8.650 Y113.327 Z-2.250 F1000.000
G1 X-10.650 Y115.327 Z-2.250 F1000.000
G1 X-10.650 Y114.196 Z-2.250 F1000.000
G1 X-8.650 Y112.196 Z-2.250 F1000.000
G1 X-8.650 Y111.064 Z-2.250 F1000.000
G1 X-10.650 Y113.064 Z-2.250 F1000.000
G1 X-10.650 Y111.933 Z-2.250 F1000.000
G1 X-8.650 Y109.933 Z-2.250 F1000.000
G1 X-8.650 Y108.802 Z-2.250 F1000.000
G1 X-10.650 Y110.802 Z-2.250 F1000.000
G1 X-10.650 Y109.670 Z-2.250 F1000.000
G1 X-8.650 Y107.670 Z-2.250 F1000.000
G1 X-8.650 Y106.539 Z-2.250 F1000.000
G1 X-10.650 Y108.539 Z-2.250 F1000.000
G1 X-10.650 Y107.407 Z-2.250 F1000.000
G1 X-8.650 Y105.407 Z-2.250 F1000.000
G1 X-8.650 Y104.276 Z-2.250 F1000.000
G1 X-10.650 Y106.276 Z-2.250 F1000.000
G1 X-10.650 Y105.145 Z-2.250 F1000.000
G1 X-8.650 Y103.145 Z-2.250 F1000.000
G1 X-8.650 Y102.013 Z-2.250 F1000.000
G1 X-10.650 Y104.013 Z-2.250 F1000.000
G1 X-10.650 Y102.882 Z-2.250 F1000.000
G1 X-8.650 Y100.882 Z-2.250 F1000.000
G1 X-8.650 Y99.751 Z-2.250 F1000.000
G1 X-10.650 Y101.751 Z-2.250 F1000.000
G1 X-10.650 Y100.619 Z-2.250 F1000.000
G1 X-8.650 Y98.619 Z-2.250 F1000.000
G1 X-8.650 Y97.488 Z-2.250 F1000.000
G1 X-10.650 Y99.488 Z-2.250 F1000.000
G1 X-10.650 Y98.356 Z-2.250 F1000.000
G1 X-8.650 Y96.356 Z-2.250 F1000.000
G1 X-8.650 Y95.225 Z-2.250 F1000.000
G1 X-10.650 Y97.225 Z-2.250 F1000.000
G1 X-10.650 Y96.094 Z-2.250 F1000.000
G1 X-8.990 Y94.434 Z-2.250 F1000.000
G1 X-10.122 Y94.434 Z-2.250 F1000.000
G1 X-10.650 Y94.962 Z-2.250 F1000.000
G1 X-10.650 Y94.434 Z-2.250 F1000.000
G1 X-10.122 Y94.434 Z-2.250 F1000.000
G0 Z5.000
G0 Z5.000
(Finish operation: Pocket_Shape004)
(Begin operation: 6mm_endmill008)
(Path: 6mm_endmill008)
(6mm_endmill008)
(Begin toolchange)
( M6 T3 )
M3 S10000
(Finish operation: 6mm_endmill008)
(Begin operation: DressupTag005)
(Path: DressupTag005)
G0 Z5.000
G0 X2.121 Y163.151 Z5.000
G0 X2.121 Y163.151 Z3.000
G1 X2.121 Y163.151 Z-1.000 F1000.000
G2 X3.000 Y161.030 Z-1.000 I-2.121 J-2.121 K0.000 F1000.000
G1 X3.000 Y149.030 Z-1.000 F1000.000
G2 X0.000 Y146.030 Z-1.000 I-3.000 J0.000 K0.000 F1000.000
G1 X-4.400 Y146.030 Z-1.000 F1000.000
G1 X-4.400 Y95.515 Z-1.000 F1000.000
G1 X0.000 Y95.515 Z-1.000 F1000.000
G2 X3.000 Y92.515 Z-1.000 I0.000 J-3.000 K0.000 F1000.000
G1 X3.000 Y68.515 Z-1.000 F1000.000
G2 X0.000 Y65.515 Z-1.000 I-3.000 J0.000 K0.000 F1000.000
G1 X-4.400 Y65.515 Z-1.000 F1000.000
G1 X-4.400 Y15.000 Z-1.000 F1000.000
G1 X0.000 Y15.000 Z-1.000 F1000.000
G2 X3.000 Y12.000 Z-1.000 I0.000 J-3.000 K0.000 F1000.000
G1 X3.000 Y0.000 Z-1.000 F1000.000
G2 X0.000 Y-3.000 Z-1.000 I-3.000 J0.000 K0.000 F1000.000
G1 X-9.036 Y-3.000 Z-1.000 F1000.000
G2 X-12.036 Y0.000 Z-1.000 I0.000 J3.000 K0.000 F1000.000
G1 X-37.662 Y0.000 Z-1.000 F1000.000
G2 X-40.662 Y-3.000 Z-1.000 I-3.000 J0.000 K0.000 F1000.000
G1 X-49.698 Y-3.000 Z-1.000 F1000.000
G2 X-52.698 Y0.000 Z-1.000 I0.000 J3.000 K0.000 F1000.000
G1 X-87.360 Y0.000 Z-1.000 F1000.000
G2 X-90.360 Y3.000 Z-1.000 I0.000 J3.000 K0.000 F1000.000
G1 X-90.360 Y71.515 Z-1.000 F1000.000
G2 X-93.360 Y74.515 Z-1.000 I0.000 J3.000 K0.000 F1000.000
G1 X-93.360 Y86.515 Z-1.000 F1000.000
G2 X-90.360 Y89.515 Z-1.000 I3.000 J0.000 K0.000 F1000.000
G1 X-90.360 Y158.030 Z-1.000 F1000.000
G2 X-87.360 Y161.030 Z-1.000 I3.000 J0.000 K0.000 F1000.000
G1 X-52.698 Y161.030 Z-1.000 F1000.000
G2 X-49.698 Y164.030 Z-1.000 I3.000 J0.000 K0.000 F1000.000
G1 X-40.662 Y164.030 Z-1.000 F1000.000
G2 X-37.662 Y161.030 Z-1.000 I0.000 J-3.000 K0.000 F1000.000
G1 X-12.036 Y161.030 Z-1.000 F1000.000
G2 X-9.036 Y164.030 Z-1.000 I3.000 J0.000 K0.000 F1000.000
G1 X0.000 Y164.030 Z-1.000 F1000.000
G2 X2.121 Y163.151 Z-1.000 I0.000 J-3.000 K0.000 F1000.000
G1 X2.121 Y163.151 Z-2.000 F1000.000
G2 X3.000 Y161.030 Z-2.000 I-2.121 J-2.121 K0.000 F1000.000
G1 X3.000 Y149.030 Z-2.000 F1000.000
G2 X0.000 Y146.030 Z-2.000 I-3.000 J0.000 K0.000 F1000.000
G1 X-4.400 Y146.030 Z-2.000 F1000.000
G1 X-4.400 Y126.183 Z-2.000 F1000.000
G1 X-4.400 Y125.683 Z-1.500 F1000.000
G1 X-4.400 Y115.862 Z-1.500 F1000.000
G1 X-4.400 Y115.362 Z-2.000 F1000.000
G1 X-4.400 Y95.515 Z-2.000 F1000.000
G1 X0.000 Y95.515 Z-2.000 F1000.000
G2 X3.000 Y92.515 Z-2.000 I0.000 J-3.000 K0.000 F1000.000
G1 X3.000 Y68.515 Z-2.000 F1000.000
G2 X0.000 Y65.515 Z-2.000 I-3.000 J0.000 K0.000 F1000.000
G1 X-4.400 Y65.515 Z-2.000 F1000.000
G1 X-4.400 Y15.000 Z-2.000 F1000.000
G1 X0.000 Y15.000 Z-2.000 F1000.000
G2 X3.000 Y12.000 Z-2.000 I0.000 J-3.000 K0.000 F1000.000
G1 X3.000 Y0.000 Z-2.000 F1000.000
G2 X0.000 Y-3.000 Z-2.000 I-3.000 J0.000 K0.000 F1000.000
G1 X-9.036 Y-3.000 Z-2.000 F1000.000
G2 X-12.036 Y0.000 Z-2.000 I0.000 J3.000 K0.000 F1000.000
G1 X-19.439 Y0.000 Z-2.000 F1000.000
G1 X-19.939 Y0.000 Z-1.500 F1000.000
G1 X-29.759 Y0.000 Z-1.500 F1000.000
G1 X-30.259 Y0.000 Z-2.000 F1000.000
G1 X-37.662 Y0.000 Z-2.000 F1000.000
G2 X-40.662 Y-3.000 Z-2.000 I-3.000 J0.000 K0.000 F1000.000
G1 X-49.698 Y-3.000 Z-2.000 F1000.000
G2 X-52.698 Y0.000 Z-2.000 I0.000 J3.000 K0.000 F1000.000
G1 X-87.360 Y0.000 Z-2.000 F1000.000
G2 X-90.360 Y3.000 Z-2.000 I0.000 J3.000 K0.000 F1000.000
G1 X-90.360 Y31.848 Z-2.000 F1000.000
G1 X-90.360 Y32.347 Z-1.500 F1000.000
G1 X-90.360 Y42.167 Z-1.500 F1000.000
G1 X-90.360 Y42.667 Z-2.000 F1000.000
G1 X-90.360 Y71.515 Z-2.000 F1000.000
G2 X-93.360 Y74.515 Z-2.000 I0.000 J3.000 K0.000 F1000.000
G1 X-93.360 Y86.515 Z-2.000 F1000.000
G2 X-90.360 Y89.515 Z-2.000 I3.000 J0.000 K0.000 F1000.000
G1 X-90.360 Y158.030 Z-2.000 F1000.000
G2 X-87.360 Y161.030 Z-2.000 I3.000 J0.000 K0.000 F1000.000
G1 X-75.439 Y161.030 Z-2.000 F1000.000
G1 X-74.939 Y161.030 Z-1.500 F1000.000
G1 X-65.119 Y161.030 Z-1.500 F1000.000
G1 X-64.619 Y161.030 Z-2.000 F1000.000
G1 X-52.698 Y161.030 Z-2.000 F1000.000
G2 X-49.698 Y164.030 Z-2.000 I3.000 J0.000 K0.000 F1000.000
G1 X-40.662 Y164.030 Z-2.000 F1000.000
G2 X-37.662 Y161.030 Z-2.000 I0.000 J-3.000 K0.000 F1000.000
G1 X-12.036 Y161.030 Z-2.000 F1000.000
G2 X-9.036 Y164.030 Z-2.000 I3.000 J0.000 K0.000 F1000.000
G1 X0.000 Y164.030 Z-2.000 F1000.000
G2 X2.121 Y163.151 Z-2.000 I0.000 J-3.000 K0.000 F1000.000
G1 X2.121 Y163.151 Z-3.000 F1000.000
G2 X3.000 Y161.030 Z-3.000 I-2.121 J-2.121 K0.000 F1000.000
G1 X3.000 Y149.030 Z-3.000 F1000.000
G2 X0.000 Y146.030 Z-3.000 I-3.000 J0.000 K0.000 F1000.000
G1 X-4.400 Y146.030 Z-3.000 F1000.000
G1 X-4.400 Y127.183 Z-3.000 F1000.000
G1 X-4.400 Y125.683 Z-1.500 F1000.000
G1 X-4.400 Y115.862 Z-1.500 F1000.000
G1 X-4.400 Y114.362 Z-3.000 F1000.000
G1 X-4.400 Y95.515 Z-3.000 F1000.000
G1 X0.000 Y95.515 Z-3.000 F1000.000
G2 X3.000 Y92.515 Z-3.000 I0.000 J-3.000 K0.000 F1000.000
G1 X3.000 Y68.515 Z-3.000 F1000.000
G2 X0.000 Y65.515 Z-3.000 I-3.000 J0.000 K0.000 F1000.000
G1 X-4.400 Y65.515 Z-3.000 F1000.000
G1 X-4.400 Y15.000 Z-3.000 F1000.000
G1 X0.000 Y15.000 Z-3.000 F1000.000
G2 X3.000 Y12.000 Z-3.000 I0.000 J-3.000 K0.000 F1000.000
G1 X3.000 Y0.000 Z-3.000 F1000.000
G2 X0.000 Y-3.000 Z-3.000 I-3.000 J0.000 K0.000 F1000.000
G1 X-9.036 Y-3.000 Z-3.000 F1000.000
G2 X-12.036 Y0.000 Z-3.000 I0.000 J3.000 K0.000 F1000.000
G1 X-18.439 Y0.000 Z-3.000 F1000.000
G1 X-19.939 Y0.000 Z-1.500 F1000.000
G1 X-29.759 Y0.000 Z-1.500 F1000.000
G1 X-31.259 Y0.000 Z-3.000 F1000.000
G1 X-37.662 Y0.000 Z-3.000 F1000.000
G2 X-40.662 Y-3.000 Z-3.000 I-3.000 J0.000 K0.000 F1000.000
G1 X-49.698 Y-3.000 Z-3.000 F1000.000
G2 X-52.698 Y0.000 Z-3.000 I0.000 J3.000 K0.000 F1000.000
G1 X-87.360 Y0.000 Z-3.000 F1000.000
G2 X-90.360 Y3.000 Z-3.000 I0.000 J3.000 K0.000 F1000.000
G1 X-90.360 Y30.848 Z-3.000 F1000.000
G1 X-90.360 Y32.347 Z-1.500 F1000.000
G1 X-90.360 Y42.167 Z-1.500 F1000.000
G1 X-90.360 Y43.667 Z-3.000 F1000.000
G1 X-90.360 Y71.515 Z-3.000 F1000.000
G2 X-93.360 Y74.515 Z-3.000 I0.000 J3.000 K0.000 F1000.000
G1 X-93.360 Y86.515 Z-3.000 F1000.000
G2 X-90.360 Y89.515 Z-3.000 I3.000 J0.000 K0.000 F1000.000
G1 X-90.360 Y158.030 Z-3.000 F1000.000
G2 X-87.360 Y161.030 Z-3.000 I3.000 J0.000 K0.000 F1000.000
G1 X-76.439 Y161.030 Z-3.000 F1000.000
G1 X-74.939 Y161.030 Z-1.500 F1000.000
G1 X-65.119 Y161.030 Z-1.500 F1000.000
G1 X-63.619 Y161.030 Z-3.000 F1000.000
G1 X-52.698 Y161.030 Z-3.000 F1000.000
G2 X-49.698 Y164.030 Z-3.000 I3.000 J0.000 K0.000 F1000.000
G1 X-40.662 Y164.030 Z-3.000 F1000.000
G2 X-37.662 Y161.030 Z-3.000 I0.000 J-3.000 K0.000 F1000.000
G1 X-12.036 Y161.030 Z-3.000 F1000.000
G2 X-9.036 Y164.030 Z-3.000 I3.000 J0.000 K0.000 F1000.000
G1 X0.000 Y164.030 Z-3.000 F1000.000
G2 X2.121 Y163.151 Z-3.000 I0.000 J-3.000 K0.000 F1000.000
G0 X2.121 Y163.151 Z5.000
(Finish operation: DressupTag005)
(Begin postamble)
M5
G17 G90
M2
