(Exported by FreeCAD)
(Post Processor: grbl_post)
(Output Time:2024-11-12 16:25:33.040762)
(Begin preamble)
G17 G90
G21
(Begin operation: Fixture)
(Path: Fixture)
G54
(Finish operation: Fixture)
(Begin operation: endmill_compression_3175_spe001)
(Path: endmill_compression_3175_spe001)
(endmill_compression_3175_spe001)
(Begin toolchange)
( M6 T2 )
M3 S18000
(Finish operation: endmill_compression_3175_spe001)
(Begin operation: Profile)
(Path: Profile)
(Profile)
(Compensated Tool Path. Diameter: 3.17)
G0 Z5.000
G0 X4.301 Y4.301
G1 X4.301 Y4.301 Z-3.000 F1200.000
G2 X0.897 Y-6.016 Z-3.000 I-4.301 J-4.301 K0.000 F1200.000
G2 X-0.897 Y6.016 Z-3.000 I-0.897 J6.016 K0.000 F1200.000
G2 X4.301 Y4.301 Z-3.000 I0.897 J-6.016 K0.000 F1200.000
G1 X4.301 Y4.301 Z-6.000 F1200.000
G2 X0.897 Y-6.016 Z-6.000 I-4.301 J-4.301 K0.000 F1200.000
G2 X-0.897 Y6.016 Z-6.000 I-0.897 J6.016 K0.000 F1200.000
G2 X4.301 Y4.301 Z-6.000 I0.897 J-6.016 K0.000 F1200.000
G1 X4.301 Y4.301 Z-9.000 F1200.000
G2 X0.897 Y-6.016 Z-9.000 I-4.301 J-4.301 K0.000 F1200.000
G2 X-0.897 Y6.016 Z-9.000 I-0.897 J6.016 K0.000 F1200.000
G2 X4.301 Y4.301 Z-9.000 I0.897 J-6.016 K0.000 F1200.000
G1 X4.301 Y4.301 Z-12.000 F1200.000
G2 X0.897 Y-6.016 Z-12.000 I-4.301 J-4.301 K0.000 F1200.000
G2 X-0.897 Y6.016 Z-12.000 I-0.897 J6.016 K0.000 F1200.000
G2 X4.301 Y4.301 Z-12.000 I0.897 J-6.016 K0.000 F1200.000
G1 X4.301 Y4.301 Z-15.000 F1200.000
G2 X0.897 Y-6.016 Z-15.000 I-4.301 J-4.301 K0.000 F1200.000
G2 X-0.897 Y6.016 Z-15.000 I-0.897 J6.016 K0.000 F1200.000
G2 X4.301 Y4.301 Z-15.000 I0.897 J-6.016 K0.000 F1200.000
G1 X4.301 Y4.301 Z-18.000 F1200.000
G2 X0.897 Y-6.016 Z-18.000 I-4.301 J-4.301 K0.000 F1200.000
G2 X-0.897 Y6.016 Z-18.000 I-0.897 J6.016 K0.000 F1200.000
G2 X4.301 Y4.301 Z-18.000 I0.897 J-6.016 K0.000 F1200.000
G1 X4.301 Y4.301 Z-19.000 F1200.000
G2 X0.897 Y-6.016 Z-19.000 I-4.301 J-4.301 K0.000 F1200.000
G2 X-0.897 Y6.016 Z-19.000 I-0.897 J6.016 K0.000 F1200.000
G2 X4.301 Y4.301 Z-19.000 I0.897 J-6.016 K0.000 F1200.000
G0 Z5.000
G0 Z5.000
(Finish operation: Profile)
(Begin postamble)
M5
G17 G90
M2
