(Exported by FreeCAD)
(Post Processor: grbl_post)
(Output Time:2024-12-19 13:54:56.323006)
(Begin preamble)
G17 G90
G21
(Begin operation: Fixture)
(Path: Fixture)
G54
(Finish operation: Fixture)
(Begin operation: endmill_compression_3175_spe001)
(Path: endmill_compression_3175_spe001)
(endmill_compression_3175_spe001)
(Begin toolchange)
( M6 T2 )
M3 S18000
(Finish operation: endmill_compression_3175_spe001)
(Begin operation: RampEntryDressup)
(Path: RampEntryDressup)
G0 X0.000 Y0.000 Z27.000
G0 X228.415 Y12.335 Z27.000
G0 X228.415 Y12.335 Z25.000
G1 X228.415 Y15.025 Z23.447 F800.000
G1 X226.539 Y13.148 Z21.915 F800.000
G1 X228.415 Y15.025 Z20.383 F800.000
G1 X228.415 Y12.335 Z18.830 F800.000
G1 X228.415 Y15.025 Z18.830 F800.000
G1 X225.725 Y12.335 Z18.830 F800.000
G1 X223.035 Y12.335 Z18.830 F800.000
G1 X228.415 Y17.715 Z18.830 F800.000
G1 X228.415 Y20.405 Z18.830 F800.000
G1 X220.345 Y12.335 Z18.830 F800.000
G1 X217.656 Y12.335 Z18.830 F800.000
G1 X228.415 Y23.094 Z18.830 F800.000
G1 X228.415 Y24.165 Z18.830 F800.000
G1 X226.796 Y24.165 Z18.830 F800.000
G1 X214.966 Y12.335 Z18.830 F800.000
G1 X212.276 Y12.335 Z18.830 F800.000
G1 X224.106 Y24.165 Z18.830 F800.000
G1 X221.416 Y24.165 Z18.830 F800.000
G1 X209.586 Y12.335 Z18.830 F800.000
G1 X206.896 Y12.335 Z18.830 F800.000
G1 X218.726 Y24.165 Z18.830 F800.000
G1 X216.036 Y24.165 Z18.830 F800.000
G1 X204.206 Y12.335 Z18.830 F800.000
G1 X201.517 Y12.335 Z18.830 F800.000
G1 X213.347 Y24.165 Z18.830 F800.000
G1 X210.657 Y24.165 Z18.830 F800.000
G1 X198.827 Y12.335 Z18.830 F800.000
G1 X196.137 Y12.335 Z18.830 F800.000
G1 X207.967 Y24.165 Z18.830 F800.000
G1 X205.277 Y24.165 Z18.830 F800.000
G1 X193.447 Y12.335 Z18.830 F800.000
G1 X190.757 Y12.335 Z18.830 F800.000
G1 X202.587 Y24.165 Z18.830 F800.000
G1 X199.897 Y24.165 Z18.830 F800.000
G1 X188.067 Y12.335 Z18.830 F800.000
G1 X185.378 Y12.335 Z18.830 F800.000
G1 X197.208 Y24.165 Z18.830 F800.000
G1 X194.518 Y24.165 Z18.830 F800.000
G1 X182.688 Y12.335 Z18.830 F800.000
G1 X179.998 Y12.335 Z18.830 F800.000
G1 X191.828 Y24.165 Z18.830 F800.000
G1 X189.138 Y24.165 Z18.830 F800.000
G1 X177.308 Y12.335 Z18.830 F800.000
G1 X174.618 Y12.335 Z18.830 F800.000
G1 X186.448 Y24.165 Z18.830 F800.000
G1 X183.758 Y24.165 Z18.830 F800.000
G1 X171.928 Y12.335 Z18.830 F800.000
G1 X169.239 Y12.335 Z18.830 F800.000
G1 X181.069 Y24.165 Z18.830 F800.000
G1 X178.379 Y24.165 Z18.830 F800.000
G1 X166.549 Y12.335 Z18.830 F800.000
G1 X163.859 Y12.335 Z18.830 F800.000
G1 X175.689 Y24.165 Z18.830 F800.000
G1 X172.999 Y24.165 Z18.830 F800.000
G1 X161.169 Y12.335 Z18.830 F800.000
G1 X158.479 Y12.335 Z18.830 F800.000
G1 X170.309 Y24.165 Z18.830 F800.000
G1 X167.619 Y24.165 Z18.830 F800.000
G1 X155.789 Y12.335 Z18.830 F800.000
G1 X153.100 Y12.335 Z18.830 F800.000
G1 X164.930 Y24.165 Z18.830 F800.000
G1 X162.240 Y24.165 Z18.830 F800.000
G1 X150.410 Y12.335 Z18.830 F800.000
G1 X147.720 Y12.335 Z18.830 F800.000
G1 X159.550 Y24.165 Z18.830 F800.000
G1 X156.860 Y24.165 Z18.830 F800.000
G1 X145.030 Y12.335 Z18.830 F800.000
G1 X142.340 Y12.335 Z18.830 F800.000
G1 X154.170 Y24.165 Z18.830 F800.000
G1 X151.480 Y24.165 Z18.830 F800.000
G1 X139.650 Y12.335 Z18.830 F800.000
G1 X136.961 Y12.335 Z18.830 F800.000
G1 X148.791 Y24.165 Z18.830 F800.000
G1 X146.101 Y24.165 Z18.830 F800.000
G1 X134.271 Y12.335 Z18.830 F800.000
G1 X131.581 Y12.335 Z18.830 F800.000
G1 X143.411 Y24.165 Z18.830 F800.000
G1 X140.721 Y24.165 Z18.830 F800.000
G1 X128.891 Y12.335 Z18.830 F800.000
G1 X126.201 Y12.335 Z18.830 F800.000
G1 X138.031 Y24.165 Z18.830 F800.000
G1 X135.341 Y24.165 Z18.830 F800.000
G1 X123.511 Y12.335 Z18.830 F800.000
G1 X120.822 Y12.335 Z18.830 F800.000
G1 X132.652 Y24.165 Z18.830 F800.000
G1 X129.962 Y24.165 Z18.830 F800.000
G1 X118.132 Y12.335 Z18.830 F800.000
G1 X115.442 Y12.335 Z18.830 F800.000
G1 X127.272 Y24.165 Z18.830 F800.000
G1 X124.582 Y24.165 Z18.830 F800.000
G1 X112.752 Y12.335 Z18.830 F800.000
G1 X111.585 Y12.335 Z18.830 F800.000
G1 X111.585 Y13.858 Z18.830 F800.000
G1 X121.892 Y24.165 Z18.830 F800.000
G1 X119.202 Y24.165 Z18.830 F800.000
G1 X111.585 Y16.548 Z18.830 F800.000
G1 X111.585 Y19.237 Z18.830 F800.000
G1 X116.513 Y24.165 Z18.830 F800.000
G1 X113.823 Y24.165 Z18.830 F800.000
G1 X111.585 Y24.165 Z18.830 F800.000
G1 X111.585 Y21.927 Z18.830 F800.000
G1 X113.823 Y24.165 Z18.830 F800.000
G1 X111.882 Y22.224 Z17.245 F800.000
G1 X113.823 Y24.165 Z15.660 F800.000
G1 X111.585 Y21.927 Z15.660 F800.000
G1 X111.585 Y24.165 Z15.660 F800.000
G1 X113.823 Y24.165 Z15.660 F800.000
G1 X116.513 Y24.165 Z15.660 F800.000
G1 X111.585 Y19.237 Z15.660 F800.000
G1 X111.585 Y16.548 Z15.660 F800.000
G1 X119.202 Y24.165 Z15.660 F800.000
G1 X121.892 Y24.165 Z15.660 F800.000
G1 X111.585 Y13.858 Z15.660 F800.000
G1 X111.585 Y12.335 Z15.660 F800.000
G1 X112.752 Y12.335 Z15.660 F800.000
G1 X124.582 Y24.165 Z15.660 F800.000
G1 X127.272 Y24.165 Z15.660 F800.000
G1 X115.442 Y12.335 Z15.660 F800.000
G1 X118.132 Y12.335 Z15.660 F800.000
G1 X129.962 Y24.165 Z15.660 F800.000
G1 X132.652 Y24.165 Z15.660 F800.000
G1 X120.822 Y12.335 Z15.660 F800.000
G1 X123.511 Y12.335 Z15.660 F800.000
G1 X135.341 Y24.165 Z15.660 F800.000
G1 X138.031 Y24.165 Z15.660 F800.000
G1 X126.201 Y12.335 Z15.660 F800.000
G1 X128.891 Y12.335 Z15.660 F800.000
G1 X140.721 Y24.165 Z15.660 F800.000
G1 X143.411 Y24.165 Z15.660 F800.000
G1 X131.581 Y12.335 Z15.660 F800.000
G1 X134.271 Y12.335 Z15.660 F800.000
G1 X146.101 Y24.165 Z15.660 F800.000
G1 X148.791 Y24.165 Z15.660 F800.000
G1 X136.961 Y12.335 Z15.660 F800.000
G1 X139.650 Y12.335 Z15.660 F800.000
G1 X151.480 Y24.165 Z15.660 F800.000
G1 X154.170 Y24.165 Z15.660 F800.000
G1 X142.340 Y12.335 Z15.660 F800.000
G1 X145.030 Y12.335 Z15.660 F800.000
G1 X156.860 Y24.165 Z15.660 F800.000
G1 X159.550 Y24.165 Z15.660 F800.000
G1 X147.720 Y12.335 Z15.660 F800.000
G1 X150.410 Y12.335 Z15.660 F800.000
G1 X162.240 Y24.165 Z15.660 F800.000
G1 X164.930 Y24.165 Z15.660 F800.000
G1 X153.100 Y12.335 Z15.660 F800.000
G1 X155.789 Y12.335 Z15.660 F800.000
G1 X167.619 Y24.165 Z15.660 F800.000
G1 X170.309 Y24.165 Z15.660 F800.000
G1 X158.479 Y12.335 Z15.660 F800.000
G1 X161.169 Y12.335 Z15.660 F800.000
G1 X172.999 Y24.165 Z15.660 F800.000
G1 X175.689 Y24.165 Z15.660 F800.000
G1 X163.859 Y12.335 Z15.660 F800.000
G1 X166.549 Y12.335 Z15.660 F800.000
G1 X178.379 Y24.165 Z15.660 F800.000
G1 X181.069 Y24.165 Z15.660 F800.000
G1 X169.239 Y12.335 Z15.660 F800.000
G1 X171.928 Y12.335 Z15.660 F800.000
G1 X183.758 Y24.165 Z15.660 F800.000
G1 X186.448 Y24.165 Z15.660 F800.000
G1 X174.618 Y12.335 Z15.660 F800.000
G1 X177.308 Y12.335 Z15.660 F800.000
G1 X189.138 Y24.165 Z15.660 F800.000
G1 X191.828 Y24.165 Z15.660 F800.000
G1 X179.998 Y12.335 Z15.660 F800.000
G1 X182.688 Y12.335 Z15.660 F800.000
G1 X194.518 Y24.165 Z15.660 F800.000
G1 X197.208 Y24.165 Z15.660 F800.000
G1 X185.378 Y12.335 Z15.660 F800.000
G1 X188.067 Y12.335 Z15.660 F800.000
G1 X199.897 Y24.165 Z15.660 F800.000
G1 X202.587 Y24.165 Z15.660 F800.000
G1 X190.757 Y12.335 Z15.660 F800.000
G1 X193.447 Y12.335 Z15.660 F800.000
G1 X205.277 Y24.165 Z15.660 F800.000
G1 X207.967 Y24.165 Z15.660 F800.000
G1 X196.137 Y12.335 Z15.660 F800.000
G1 X198.827 Y12.335 Z15.660 F800.000
G1 X210.657 Y24.165 Z15.660 F800.000
G1 X213.347 Y24.165 Z15.660 F800.000
G1 X201.517 Y12.335 Z15.660 F800.000
G1 X204.206 Y12.335 Z15.660 F800.000
G1 X216.036 Y24.165 Z15.660 F800.000
G1 X218.726 Y24.165 Z15.660 F800.000
G1 X206.896 Y12.335 Z15.660 F800.000
G1 X209.586 Y12.335 Z15.660 F800.000
G1 X221.416 Y24.165 Z15.660 F800.000
G1 X224.106 Y24.165 Z15.660 F800.000
G1 X212.276 Y12.335 Z15.660 F800.000
G1 X214.966 Y12.335 Z15.660 F800.000
G1 X226.796 Y24.165 Z15.660 F800.000
G1 X228.415 Y24.165 Z15.660 F800.000
G1 X228.415 Y23.094 Z15.660 F800.000
G1 X217.656 Y12.335 Z15.660 F800.000
G1 X220.345 Y12.335 Z15.660 F800.000
G1 X228.415 Y20.405 Z15.660 F800.000
G1 X228.415 Y17.715 Z15.660 F800.000
G1 X223.035 Y12.335 Z15.660 F800.000
G1 X225.725 Y12.335 Z15.660 F800.000
G1 X228.415 Y15.025 Z15.660 F800.000
G1 X228.415 Y12.335 Z15.660 F800.000
G1 X228.415 Y13.773 Z14.830 F800.000
G1 X228.415 Y12.335 Z14.000 F800.000
G1 X228.415 Y15.025 Z14.000 F800.000
G1 X225.725 Y12.335 Z14.000 F800.000
G1 X223.035 Y12.335 Z14.000 F800.000
G1 X228.415 Y17.715 Z14.000 F800.000
G1 X228.415 Y20.405 Z14.000 F800.000
G1 X220.345 Y12.335 Z14.000 F800.000
G1 X217.656 Y12.335 Z14.000 F800.000
G1 X228.415 Y23.094 Z14.000 F800.000
G1 X228.415 Y24.165 Z14.000 F800.000
G1 X226.796 Y24.165 Z14.000 F800.000
G1 X214.966 Y12.335 Z14.000 F800.000
G1 X212.276 Y12.335 Z14.000 F800.000
G1 X224.106 Y24.165 Z14.000 F800.000
G1 X221.416 Y24.165 Z14.000 F800.000
G1 X209.586 Y12.335 Z14.000 F800.000
G1 X206.896 Y12.335 Z14.000 F800.000
G1 X218.726 Y24.165 Z14.000 F800.000
G1 X216.036 Y24.165 Z14.000 F800.000
G1 X204.206 Y12.335 Z14.000 F800.000
G1 X201.517 Y12.335 Z14.000 F800.000
G1 X213.347 Y24.165 Z14.000 F800.000
G1 X210.657 Y24.165 Z14.000 F800.000
G1 X198.827 Y12.335 Z14.000 F800.000
G1 X196.137 Y12.335 Z14.000 F800.000
G1 X207.967 Y24.165 Z14.000 F800.000
G1 X205.277 Y24.165 Z14.000 F800.000
G1 X193.447 Y12.335 Z14.000 F800.000
G1 X190.757 Y12.335 Z14.000 F800.000
G1 X202.587 Y24.165 Z14.000 F800.000
G1 X199.897 Y24.165 Z14.000 F800.000
G1 X188.067 Y12.335 Z14.000 F800.000
G1 X185.378 Y12.335 Z14.000 F800.000
G1 X197.208 Y24.165 Z14.000 F800.000
G1 X194.518 Y24.165 Z14.000 F800.000
G1 X182.688 Y12.335 Z14.000 F800.000
G1 X179.998 Y12.335 Z14.000 F800.000
G1 X191.828 Y24.165 Z14.000 F800.000
G1 X189.138 Y24.165 Z14.000 F800.000
G1 X177.308 Y12.335 Z14.000 F800.000
G1 X174.618 Y12.335 Z14.000 F800.000
G1 X186.448 Y24.165 Z14.000 F800.000
G1 X183.758 Y24.165 Z14.000 F800.000
G1 X171.928 Y12.335 Z14.000 F800.000
G1 X169.239 Y12.335 Z14.000 F800.000
G1 X181.069 Y24.165 Z14.000 F800.000
G1 X178.379 Y24.165 Z14.000 F800.000
G1 X166.549 Y12.335 Z14.000 F800.000
G1 X163.859 Y12.335 Z14.000 F800.000
G1 X175.689 Y24.165 Z14.000 F800.000
G1 X172.999 Y24.165 Z14.000 F800.000
G1 X161.169 Y12.335 Z14.000 F800.000
G1 X158.479 Y12.335 Z14.000 F800.000
G1 X170.309 Y24.165 Z14.000 F800.000
G1 X167.619 Y24.165 Z14.000 F800.000
G1 X155.789 Y12.335 Z14.000 F800.000
G1 X153.100 Y12.335 Z14.000 F800.000
G1 X164.930 Y24.165 Z14.000 F800.000
G1 X162.240 Y24.165 Z14.000 F800.000
G1 X150.410 Y12.335 Z14.000 F800.000
G1 X147.720 Y12.335 Z14.000 F800.000
G1 X159.550 Y24.165 Z14.000 F800.000
G1 X156.860 Y24.165 Z14.000 F800.000
G1 X145.030 Y12.335 Z14.000 F800.000
G1 X142.340 Y12.335 Z14.000 F800.000
G1 X154.170 Y24.165 Z14.000 F800.000
G1 X151.480 Y24.165 Z14.000 F800.000
G1 X139.650 Y12.335 Z14.000 F800.000
G1 X136.961 Y12.335 Z14.000 F800.000
G1 X148.791 Y24.165 Z14.000 F800.000
G1 X146.101 Y24.165 Z14.000 F800.000
G1 X134.271 Y12.335 Z14.000 F800.000
G1 X131.581 Y12.335 Z14.000 F800.000
G1 X143.411 Y24.165 Z14.000 F800.000
G1 X140.721 Y24.165 Z14.000 F800.000
G1 X128.891 Y12.335 Z14.000 F800.000
G1 X126.201 Y12.335 Z14.000 F800.000
G1 X138.031 Y24.165 Z14.000 F800.000
G1 X135.341 Y24.165 Z14.000 F800.000
G1 X123.511 Y12.335 Z14.000 F800.000
G1 X120.822 Y12.335 Z14.000 F800.000
G1 X132.652 Y24.165 Z14.000 F800.000
G1 X129.962 Y24.165 Z14.000 F800.000
G1 X118.132 Y12.335 Z14.000 F800.000
G1 X115.442 Y12.335 Z14.000 F800.000
G1 X127.272 Y24.165 Z14.000 F800.000
G1 X124.582 Y24.165 Z14.000 F800.000
G1 X112.752 Y12.335 Z14.000 F800.000
G1 X111.585 Y12.335 Z14.000 F800.000
G1 X111.585 Y13.858 Z14.000 F800.000
G1 X121.892 Y24.165 Z14.000 F800.000
G1 X119.202 Y24.165 Z14.000 F800.000
G1 X111.585 Y16.548 Z14.000 F800.000
G1 X111.585 Y19.237 Z14.000 F800.000
G1 X116.513 Y24.165 Z14.000 F800.000
G1 X113.823 Y24.165 Z14.000 F800.000
G1 X111.585 Y24.165 Z14.000 F800.000
G1 X111.585 Y21.927 Z14.000 F800.000
G1 X113.823 Y24.165 Z14.000 F800.000
G0 X113.823 Y24.165 Z27.000
G0 X113.823 Y49.915 Z27.000
G0 X113.823 Y49.915 Z25.000
G1 X111.585 Y47.677 Z23.173 F800.000
G1 X111.585 Y49.856 Z21.915 F800.000
G1 X111.585 Y47.677 Z20.657 F800.000
G1 X113.823 Y49.915 Z18.830 F800.000
G1 X111.585 Y47.677 Z18.830 F800.000
G1 X111.585 Y49.915 Z18.830 F800.000
G1 X113.823 Y49.915 Z18.830 F800.000
G1 X116.513 Y49.915 Z18.830 F800.000
G1 X111.585 Y44.987 Z18.830 F800.000
G1 X111.585 Y42.298 Z18.830 F800.000
G1 X119.202 Y49.915 Z18.830 F800.000
G1 X121.892 Y49.915 Z18.830 F800.000
G1 X111.585 Y39.608 Z18.830 F800.000
G1 X111.585 Y38.085 Z18.830 F800.000
G1 X112.752 Y38.085 Z18.830 F800.000
G1 X124.582 Y49.915 Z18.830 F800.000
G1 X127.272 Y49.915 Z18.830 F800.000
G1 X115.442 Y38.085 Z18.830 F800.000
G1 X118.132 Y38.085 Z18.830 F800.000
G1 X129.962 Y49.915 Z18.830 F800.000
G1 X132.652 Y49.915 Z18.830 F800.000
G1 X120.822 Y38.085 Z18.830 F800.000
G1 X123.511 Y38.085 Z18.830 F800.000
G1 X135.341 Y49.915 Z18.830 F800.000
G1 X138.031 Y49.915 Z18.830 F800.000
G1 X126.201 Y38.085 Z18.830 F800.000
G1 X128.891 Y38.085 Z18.830 F800.000
G1 X140.721 Y49.915 Z18.830 F800.000
G1 X143.411 Y49.915 Z18.830 F800.000
G1 X131.581 Y38.085 Z18.830 F800.000
G1 X134.271 Y38.085 Z18.830 F800.000
G1 X146.101 Y49.915 Z18.830 F800.000
G1 X148.791 Y49.915 Z18.830 F800.000
G1 X136.961 Y38.085 Z18.830 F800.000
G1 X139.650 Y38.085 Z18.830 F800.000
G1 X151.480 Y49.915 Z18.830 F800.000
G1 X154.170 Y49.915 Z18.830 F800.000
G1 X142.340 Y38.085 Z18.830 F800.000
G1 X145.030 Y38.085 Z18.830 F800.000
G1 X156.860 Y49.915 Z18.830 F800.000
G1 X159.550 Y49.915 Z18.830 F800.000
G1 X147.720 Y38.085 Z18.830 F800.000
G1 X150.410 Y38.085 Z18.830 F800.000
G1 X162.240 Y49.915 Z18.830 F800.000
G1 X164.930 Y49.915 Z18.830 F800.000
G1 X153.100 Y38.085 Z18.830 F800.000
G1 X155.789 Y38.085 Z18.830 F800.000
G1 X167.619 Y49.915 Z18.830 F800.000
G1 X170.309 Y49.915 Z18.830 F800.000
G1 X158.479 Y38.085 Z18.830 F800.000
G1 X161.169 Y38.085 Z18.830 F800.000
G1 X172.999 Y49.915 Z18.830 F800.000
G1 X175.689 Y49.915 Z18.830 F800.000
G1 X163.859 Y38.085 Z18.830 F800.000
G1 X166.549 Y38.085 Z18.830 F800.000
G1 X178.379 Y49.915 Z18.830 F800.000
G1 X181.069 Y49.915 Z18.830 F800.000
G1 X169.239 Y38.085 Z18.830 F800.000
G1 X171.928 Y38.085 Z18.830 F800.000
G1 X183.758 Y49.915 Z18.830 F800.000
G1 X186.448 Y49.915 Z18.830 F800.000
G1 X174.618 Y38.085 Z18.830 F800.000
G1 X177.308 Y38.085 Z18.830 F800.000
G1 X189.138 Y49.915 Z18.830 F800.000
G1 X191.828 Y49.915 Z18.830 F800.000
G1 X179.998 Y38.085 Z18.830 F800.000
G1 X182.688 Y38.085 Z18.830 F800.000
G1 X194.518 Y49.915 Z18.830 F800.000
G1 X197.208 Y49.915 Z18.830 F800.000
G1 X185.378 Y38.085 Z18.830 F800.000
G1 X188.067 Y38.085 Z18.830 F800.000
G1 X199.897 Y49.915 Z18.830 F800.000
G1 X202.587 Y49.915 Z18.830 F800.000
G1 X190.757 Y38.085 Z18.830 F800.000
G1 X193.447 Y38.085 Z18.830 F800.000
G1 X205.277 Y49.915 Z18.830 F800.000
G1 X207.967 Y49.915 Z18.830 F800.000
G1 X196.137 Y38.085 Z18.830 F800.000
G1 X198.827 Y38.085 Z18.830 F800.000
G1 X210.657 Y49.915 Z18.830 F800.000
G1 X213.347 Y49.915 Z18.830 F800.000
G1 X201.517 Y38.085 Z18.830 F800.000
G1 X204.206 Y38.085 Z18.830 F800.000
G1 X216.036 Y49.915 Z18.830 F800.000
G1 X218.726 Y49.915 Z18.830 F800.000
G1 X206.896 Y38.085 Z18.830 F800.000
G1 X209.586 Y38.085 Z18.830 F800.000
G1 X221.416 Y49.915 Z18.830 F800.000
G1 X224.106 Y49.915 Z18.830 F800.000
G1 X212.276 Y38.085 Z18.830 F800.000
G1 X214.966 Y38.085 Z18.830 F800.000
G1 X226.796 Y49.915 Z18.830 F800.000
G1 X228.415 Y49.915 Z18.830 F800.000
G1 X228.415 Y48.844 Z18.830 F800.000
G1 X217.656 Y38.085 Z18.830 F800.000
G1 X220.345 Y38.085 Z18.830 F800.000
G1 X228.415 Y46.155 Z18.830 F800.000
G1 X228.415 Y43.465 Z18.830 F800.000
G1 X223.035 Y38.085 Z18.830 F800.000
G1 X225.725 Y38.085 Z18.830 F800.000
G1 X228.415 Y40.775 Z18.830 F800.000
G1 X228.415 Y38.085 Z18.830 F800.000
G1 X228.415 Y40.775 Z17.277 F800.000
G1 X228.376 Y40.736 Z17.245 F800.000
G1 X228.415 Y40.775 Z17.213 F800.000
G1 X228.415 Y38.085 Z15.660 F800.000
G1 X228.415 Y40.775 Z15.660 F800.000
G1 X225.725 Y38.085 Z15.660 F800.000
G1 X223.035 Y38.085 Z15.660 F800.000
G1 X228.415 Y43.465 Z15.660 F800.000
G1 X228.415 Y46.155 Z15.660 F800.000
G1 X220.345 Y38.085 Z15.660 F800.000
G1 X217.656 Y38.085 Z15.660 F800.000
G1 X228.415 Y48.844 Z15.660 F800.000
G1 X228.415 Y49.915 Z15.660 F800.000
G1 X226.796 Y49.915 Z15.660 F800.000
G1 X214.966 Y38.085 Z15.660 F800.000
G1 X212.276 Y38.085 Z15.660 F800.000
G1 X224.106 Y49.915 Z15.660 F800.000
G1 X221.416 Y49.915 Z15.660 F800.000
G1 X209.586 Y38.085 Z15.660 F800.000
G1 X206.896 Y38.085 Z15.660 F800.000
G1 X218.726 Y49.915 Z15.660 F800.000
G1 X216.036 Y49.915 Z15.660 F800.000
G1 X204.206 Y38.085 Z15.660 F800.000
G1 X201.517 Y38.085 Z15.660 F800.000
G1 X213.347 Y49.915 Z15.660 F800.000
G1 X210.657 Y49.915 Z15.660 F800.000
G1 X198.827 Y38.085 Z15.660 F800.000
G1 X196.137 Y38.085 Z15.660 F800.000
G1 X207.967 Y49.915 Z15.660 F800.000
G1 X205.277 Y49.915 Z15.660 F800.000
G1 X193.447 Y38.085 Z15.660 F800.000
G1 X190.757 Y38.085 Z15.660 F800.000
G1 X202.587 Y49.915 Z15.660 F800.000
G1 X199.897 Y49.915 Z15.660 F800.000
G1 X188.067 Y38.085 Z15.660 F800.000
G1 X185.378 Y38.085 Z15.660 F800.000
G1 X197.208 Y49.915 Z15.660 F800.000
G1 X194.518 Y49.915 Z15.660 F800.000
G1 X182.688 Y38.085 Z15.660 F800.000
G1 X179.998 Y38.085 Z15.660 F800.000
G1 X191.828 Y49.915 Z15.660 F800.000
G1 X189.138 Y49.915 Z15.660 F800.000
G1 X177.308 Y38.085 Z15.660 F800.000
G1 X174.618 Y38.085 Z15.660 F800.000
G1 X186.448 Y49.915 Z15.660 F800.000
G1 X183.758 Y49.915 Z15.660 F800.000
G1 X171.928 Y38.085 Z15.660 F800.000
G1 X169.239 Y38.085 Z15.660 F800.000
G1 X181.069 Y49.915 Z15.660 F800.000
G1 X178.379 Y49.915 Z15.660 F800.000
G1 X166.549 Y38.085 Z15.660 F800.000
G1 X163.859 Y38.085 Z15.660 F800.000
G1 X175.689 Y49.915 Z15.660 F800.000
G1 X172.999 Y49.915 Z15.660 F800.000
G1 X161.169 Y38.085 Z15.660 F800.000
G1 X158.479 Y38.085 Z15.660 F800.000
G1 X170.309 Y49.915 Z15.660 F800.000
G1 X167.619 Y49.915 Z15.660 F800.000
G1 X155.789 Y38.085 Z15.660 F800.000
G1 X153.100 Y38.085 Z15.660 F800.000
G1 X164.930 Y49.915 Z15.660 F800.000
G1 X162.240 Y49.915 Z15.660 F800.000
G1 X150.410 Y38.085 Z15.660 F800.000
G1 X147.720 Y38.085 Z15.660 F800.000
G1 X159.550 Y49.915 Z15.660 F800.000
G1 X156.860 Y49.915 Z15.660 F800.000
G1 X145.030 Y38.085 Z15.660 F800.000
G1 X142.340 Y38.085 Z15.660 F800.000
G1 X154.170 Y49.915 Z15.660 F800.000
G1 X151.480 Y49.915 Z15.660 F800.000
G1 X139.650 Y38.085 Z15.660 F800.000
G1 X136.961 Y38.085 Z15.660 F800.000
G1 X148.791 Y49.915 Z15.660 F800.000
G1 X146.101 Y49.915 Z15.660 F800.000
G1 X134.271 Y38.085 Z15.660 F800.000
G1 X131.581 Y38.085 Z15.660 F800.000
G1 X143.411 Y49.915 Z15.660 F800.000
G1 X140.721 Y49.915 Z15.660 F800.000
G1 X128.891 Y38.085 Z15.660 F800.000
G1 X126.201 Y38.085 Z15.660 F800.000
G1 X138.031 Y49.915 Z15.660 F800.000
G1 X135.341 Y49.915 Z15.660 F800.000
G1 X123.511 Y38.085 Z15.660 F800.000
G1 X120.822 Y38.085 Z15.660 F800.000
G1 X132.652 Y49.915 Z15.660 F800.000
G1 X129.962 Y49.915 Z15.660 F800.000
G1 X118.132 Y38.085 Z15.660 F800.000
G1 X115.442 Y38.085 Z15.660 F800.000
G1 X127.272 Y49.915 Z15.660 F800.000
G1 X124.582 Y49.915 Z15.660 F800.000
G1 X112.752 Y38.085 Z15.660 F800.000
G1 X111.585 Y38.085 Z15.660 F800.000
G1 X111.585 Y39.608 Z15.660 F800.000
G1 X121.892 Y49.915 Z15.660 F800.000
G1 X119.202 Y49.915 Z15.660 F800.000
G1 X111.585 Y42.298 Z15.660 F800.000
G1 X111.585 Y44.987 Z15.660 F800.000
G1 X116.513 Y49.915 Z15.660 F800.000
G1 X113.823 Y49.915 Z15.660 F800.000
G1 X111.585 Y49.915 Z15.660 F800.000
G1 X111.585 Y47.677 Z15.660 F800.000
G1 X113.823 Y49.915 Z15.660 F800.000
G1 X112.806 Y48.898 Z14.830 F800.000
G1 X113.823 Y49.915 Z14.000 F800.000
G1 X111.585 Y47.677 Z14.000 F800.000
G1 X111.585 Y49.915 Z14.000 F800.000
G1 X113.823 Y49.915 Z14.000 F800.000
G1 X116.513 Y49.915 Z14.000 F800.000
G1 X111.585 Y44.987 Z14.000 F800.000
G1 X111.585 Y42.298 Z14.000 F800.000
G1 X119.202 Y49.915 Z14.000 F800.000
G1 X121.892 Y49.915 Z14.000 F800.000
G1 X111.585 Y39.608 Z14.000 F800.000
G1 X111.585 Y38.085 Z14.000 F800.000
G1 X112.752 Y38.085 Z14.000 F800.000
G1 X124.582 Y49.915 Z14.000 F800.000
G1 X127.272 Y49.915 Z14.000 F800.000
G1 X115.442 Y38.085 Z14.000 F800.000
G1 X118.132 Y38.085 Z14.000 F800.000
G1 X129.962 Y49.915 Z14.000 F800.000
G1 X132.652 Y49.915 Z14.000 F800.000
G1 X120.822 Y38.085 Z14.000 F800.000
G1 X123.511 Y38.085 Z14.000 F800.000
G1 X135.341 Y49.915 Z14.000 F800.000
G1 X138.031 Y49.915 Z14.000 F800.000
G1 X126.201 Y38.085 Z14.000 F800.000
G1 X128.891 Y38.085 Z14.000 F800.000
G1 X140.721 Y49.915 Z14.000 F800.000
G1 X143.411 Y49.915 Z14.000 F800.000
G1 X131.581 Y38.085 Z14.000 F800.000
G1 X134.271 Y38.085 Z14.000 F800.000
G1 X146.101 Y49.915 Z14.000 F800.000
G1 X148.791 Y49.915 Z14.000 F800.000
G1 X136.961 Y38.085 Z14.000 F800.000
G1 X139.650 Y38.085 Z14.000 F800.000
G1 X151.480 Y49.915 Z14.000 F800.000
G1 X154.170 Y49.915 Z14.000 F800.000
G1 X142.340 Y38.085 Z14.000 F800.000
G1 X145.030 Y38.085 Z14.000 F800.000
G1 X156.860 Y49.915 Z14.000 F800.000
G1 X159.550 Y49.915 Z14.000 F800.000
G1 X147.720 Y38.085 Z14.000 F800.000
G1 X150.410 Y38.085 Z14.000 F800.000
G1 X162.240 Y49.915 Z14.000 F800.000
G1 X164.930 Y49.915 Z14.000 F800.000
G1 X153.100 Y38.085 Z14.000 F800.000
G1 X155.789 Y38.085 Z14.000 F800.000
G1 X167.619 Y49.915 Z14.000 F800.000
G1 X170.309 Y49.915 Z14.000 F800.000
G1 X158.479 Y38.085 Z14.000 F800.000
G1 X161.169 Y38.085 Z14.000 F800.000
G1 X172.999 Y49.915 Z14.000 F800.000
G1 X175.689 Y49.915 Z14.000 F800.000
G1 X163.859 Y38.085 Z14.000 F800.000
G1 X166.549 Y38.085 Z14.000 F800.000
G1 X178.379 Y49.915 Z14.000 F800.000
G1 X181.069 Y49.915 Z14.000 F800.000
G1 X169.239 Y38.085 Z14.000 F800.000
G1 X171.928 Y38.085 Z14.000 F800.000
G1 X183.758 Y49.915 Z14.000 F800.000
G1 X186.448 Y49.915 Z14.000 F800.000
G1 X174.618 Y38.085 Z14.000 F800.000
G1 X177.308 Y38.085 Z14.000 F800.000
G1 X189.138 Y49.915 Z14.000 F800.000
G1 X191.828 Y49.915 Z14.000 F800.000
G1 X179.998 Y38.085 Z14.000 F800.000
G1 X182.688 Y38.085 Z14.000 F800.000
G1 X194.518 Y49.915 Z14.000 F800.000
G1 X197.208 Y49.915 Z14.000 F800.000
G1 X185.378 Y38.085 Z14.000 F800.000
G1 X188.067 Y38.085 Z14.000 F800.000
G1 X199.897 Y49.915 Z14.000 F800.000
G1 X202.587 Y49.915 Z14.000 F800.000
G1 X190.757 Y38.085 Z14.000 F800.000
G1 X193.447 Y38.085 Z14.000 F800.000
G1 X205.277 Y49.915 Z14.000 F800.000
G1 X207.967 Y49.915 Z14.000 F800.000
G1 X196.137 Y38.085 Z14.000 F800.000
G1 X198.827 Y38.085 Z14.000 F800.000
G1 X210.657 Y49.915 Z14.000 F800.000
G1 X213.347 Y49.915 Z14.000 F800.000
G1 X201.517 Y38.085 Z14.000 F800.000
G1 X204.206 Y38.085 Z14.000 F800.000
G1 X216.036 Y49.915 Z14.000 F800.000
G1 X218.726 Y49.915 Z14.000 F800.000
G1 X206.896 Y38.085 Z14.000 F800.000
G1 X209.586 Y38.085 Z14.000 F800.000
G1 X221.416 Y49.915 Z14.000 F800.000
G1 X224.106 Y49.915 Z14.000 F800.000
G1 X212.276 Y38.085 Z14.000 F800.000
G1 X214.966 Y38.085 Z14.000 F800.000
G1 X226.796 Y49.915 Z14.000 F800.000
G1 X228.415 Y49.915 Z14.000 F800.000
G1 X228.415 Y48.844 Z14.000 F800.000
G1 X217.656 Y38.085 Z14.000 F800.000
G1 X220.345 Y38.085 Z14.000 F800.000
G1 X228.415 Y46.155 Z14.000 F800.000
G1 X228.415 Y43.465 Z14.000 F800.000
G1 X223.035 Y38.085 Z14.000 F800.000
G1 X225.725 Y38.085 Z14.000 F800.000
G1 X228.415 Y40.775 Z14.000 F800.000
G1 X228.415 Y38.085 Z14.000 F800.000
G0 X228.415 Y38.085 Z27.000
G0 X228.415 Y63.835 Z27.000
G0 X228.415 Y63.835 Z25.000
G1 X228.415 Y66.525 Z23.447 F800.000
G1 X226.539 Y64.648 Z21.915 F800.000
G1 X228.415 Y66.525 Z20.383 F800.000
G1 X228.415 Y63.835 Z18.830 F800.000
G1 X228.415 Y66.525 Z18.830 F800.000
G1 X225.725 Y63.835 Z18.830 F800.000
G1 X223.035 Y63.835 Z18.830 F800.000
G1 X228.415 Y69.215 Z18.830 F800.000
G1 X228.415 Y71.905 Z18.830 F800.000
G1 X220.345 Y63.835 Z18.830 F800.000
G1 X217.656 Y63.835 Z18.830 F800.000
G1 X228.415 Y74.594 Z18.830 F800.000
G1 X228.415 Y75.665 Z18.830 F800.000
G1 X226.796 Y75.665 Z18.830 F800.000
G1 X214.966 Y63.835 Z18.830 F800.000
G1 X212.276 Y63.835 Z18.830 F800.000
G1 X224.106 Y75.665 Z18.830 F800.000
G1 X221.416 Y75.665 Z18.830 F800.000
G1 X209.586 Y63.835 Z18.830 F800.000
G1 X206.896 Y63.835 Z18.830 F800.000
G1 X218.726 Y75.665 Z18.830 F800.000
G1 X216.036 Y75.665 Z18.830 F800.000
G1 X204.206 Y63.835 Z18.830 F800.000
G1 X201.517 Y63.835 Z18.830 F800.000
G1 X213.347 Y75.665 Z18.830 F800.000
G1 X210.657 Y75.665 Z18.830 F800.000
G1 X198.827 Y63.835 Z18.830 F800.000
G1 X196.137 Y63.835 Z18.830 F800.000
G1 X207.967 Y75.665 Z18.830 F800.000
G1 X205.277 Y75.665 Z18.830 F800.000
G1 X193.447 Y63.835 Z18.830 F800.000
G1 X190.757 Y63.835 Z18.830 F800.000
G1 X202.587 Y75.665 Z18.830 F800.000
G1 X199.897 Y75.665 Z18.830 F800.000
G1 X188.067 Y63.835 Z18.830 F800.000
G1 X185.378 Y63.835 Z18.830 F800.000
G1 X197.208 Y75.665 Z18.830 F800.000
G1 X194.518 Y75.665 Z18.830 F800.000
G1 X182.688 Y63.835 Z18.830 F800.000
G1 X179.998 Y63.835 Z18.830 F800.000
G1 X191.828 Y75.665 Z18.830 F800.000
G1 X189.138 Y75.665 Z18.830 F800.000
G1 X177.308 Y63.835 Z18.830 F800.000
G1 X174.618 Y63.835 Z18.830 F800.000
G1 X186.448 Y75.665 Z18.830 F800.000
G1 X183.758 Y75.665 Z18.830 F800.000
G1 X171.928 Y63.835 Z18.830 F800.000
G1 X169.239 Y63.835 Z18.830 F800.000
G1 X181.069 Y75.665 Z18.830 F800.000
G1 X178.379 Y75.665 Z18.830 F800.000
G1 X166.549 Y63.835 Z18.830 F800.000
G1 X163.859 Y63.835 Z18.830 F800.000
G1 X175.689 Y75.665 Z18.830 F800.000
G1 X172.999 Y75.665 Z18.830 F800.000
G1 X161.169 Y63.835 Z18.830 F800.000
G1 X158.479 Y63.835 Z18.830 F800.000
G1 X170.309 Y75.665 Z18.830 F800.000
G1 X167.619 Y75.665 Z18.830 F800.000
G1 X155.789 Y63.835 Z18.830 F800.000
G1 X153.100 Y63.835 Z18.830 F800.000
G1 X164.930 Y75.665 Z18.830 F800.000
G1 X162.240 Y75.665 Z18.830 F800.000
G1 X150.410 Y63.835 Z18.830 F800.000
G1 X147.720 Y63.835 Z18.830 F800.000
G1 X159.550 Y75.665 Z18.830 F800.000
G1 X156.860 Y75.665 Z18.830 F800.000
G1 X145.030 Y63.835 Z18.830 F800.000
G1 X142.340 Y63.835 Z18.830 F800.000
G1 X154.170 Y75.665 Z18.830 F800.000
G1 X151.480 Y75.665 Z18.830 F800.000
G1 X139.650 Y63.835 Z18.830 F800.000
G1 X136.961 Y63.835 Z18.830 F800.000
G1 X148.791 Y75.665 Z18.830 F800.000
G1 X146.101 Y75.665 Z18.830 F800.000
G1 X134.271 Y63.835 Z18.830 F800.000
G1 X131.581 Y63.835 Z18.830 F800.000
G1 X143.411 Y75.665 Z18.830 F800.000
G1 X140.721 Y75.665 Z18.830 F800.000
G1 X128.891 Y63.835 Z18.830 F800.000
G1 X126.201 Y63.835 Z18.830 F800.000
G1 X138.031 Y75.665 Z18.830 F800.000
G1 X135.341 Y75.665 Z18.830 F800.000
G1 X123.511 Y63.835 Z18.830 F800.000
G1 X120.822 Y63.835 Z18.830 F800.000
G1 X132.652 Y75.665 Z18.830 F800.000
G1 X129.962 Y75.665 Z18.830 F800.000
G1 X118.132 Y63.835 Z18.830 F800.000
G1 X115.442 Y63.835 Z18.830 F800.000
G1 X127.272 Y75.665 Z18.830 F800.000
G1 X124.582 Y75.665 Z18.830 F800.000
G1 X112.752 Y63.835 Z18.830 F800.000
G1 X111.585 Y63.835 Z18.830 F800.000
G1 X111.585 Y65.358 Z18.830 F800.000
G1 X121.892 Y75.665 Z18.830 F800.000
G1 X119.202 Y75.665 Z18.830 F800.000
G1 X111.585 Y68.048 Z18.830 F800.000
G1 X111.585 Y70.737 Z18.830 F800.000
G1 X116.513 Y75.665 Z18.830 F800.000
G1 X113.823 Y75.665 Z18.830 F800.000
G1 X111.585 Y75.665 Z18.830 F800.000
G1 X111.585 Y73.427 Z18.830 F800.000
G1 X113.823 Y75.665 Z18.830 F800.000
G1 X111.882 Y73.724 Z17.245 F800.000
G1 X113.823 Y75.665 Z15.660 F800.000
G1 X111.585 Y73.427 Z15.660 F800.000
G1 X111.585 Y75.665 Z15.660 F800.000
G1 X113.823 Y75.665 Z15.660 F800.000
G1 X116.513 Y75.665 Z15.660 F800.000
G1 X111.585 Y70.737 Z15.660 F800.000
G1 X111.585 Y68.048 Z15.660 F800.000
G1 X119.202 Y75.665 Z15.660 F800.000
G1 X121.892 Y75.665 Z15.660 F800.000
G1 X111.585 Y65.358 Z15.660 F800.000
G1 X111.585 Y63.835 Z15.660 F800.000
G1 X112.752 Y63.835 Z15.660 F800.000
G1 X124.582 Y75.665 Z15.660 F800.000
G1 X127.272 Y75.665 Z15.660 F800.000
G1 X115.442 Y63.835 Z15.660 F800.000
G1 X118.132 Y63.835 Z15.660 F800.000
G1 X129.962 Y75.665 Z15.660 F800.000
G1 X132.652 Y75.665 Z15.660 F800.000
G1 X120.822 Y63.835 Z15.660 F800.000
G1 X123.511 Y63.835 Z15.660 F800.000
G1 X135.341 Y75.665 Z15.660 F800.000
G1 X138.031 Y75.665 Z15.660 F800.000
G1 X126.201 Y63.835 Z15.660 F800.000
G1 X128.891 Y63.835 Z15.660 F800.000
G1 X140.721 Y75.665 Z15.660 F800.000
G1 X143.411 Y75.665 Z15.660 F800.000
G1 X131.581 Y63.835 Z15.660 F800.000
G1 X134.271 Y63.835 Z15.660 F800.000
G1 X146.101 Y75.665 Z15.660 F800.000
G1 X148.791 Y75.665 Z15.660 F800.000
G1 X136.961 Y63.835 Z15.660 F800.000
G1 X139.650 Y63.835 Z15.660 F800.000
G1 X151.480 Y75.665 Z15.660 F800.000
G1 X154.170 Y75.665 Z15.660 F800.000
G1 X142.340 Y63.835 Z15.660 F800.000
G1 X145.030 Y63.835 Z15.660 F800.000
G1 X156.860 Y75.665 Z15.660 F800.000
G1 X159.550 Y75.665 Z15.660 F800.000
G1 X147.720 Y63.835 Z15.660 F800.000
G1 X150.410 Y63.835 Z15.660 F800.000
G1 X162.240 Y75.665 Z15.660 F800.000
G1 X164.930 Y75.665 Z15.660 F800.000
G1 X153.100 Y63.835 Z15.660 F800.000
G1 X155.789 Y63.835 Z15.660 F800.000
G1 X167.619 Y75.665 Z15.660 F800.000
G1 X170.309 Y75.665 Z15.660 F800.000
G1 X158.479 Y63.835 Z15.660 F800.000
G1 X161.169 Y63.835 Z15.660 F800.000
G1 X172.999 Y75.665 Z15.660 F800.000
G1 X175.689 Y75.665 Z15.660 F800.000
G1 X163.859 Y63.835 Z15.660 F800.000
G1 X166.549 Y63.835 Z15.660 F800.000
G1 X178.379 Y75.665 Z15.660 F800.000
G1 X181.069 Y75.665 Z15.660 F800.000
G1 X169.239 Y63.835 Z15.660 F800.000
G1 X171.928 Y63.835 Z15.660 F800.000
G1 X183.758 Y75.665 Z15.660 F800.000
G1 X186.448 Y75.665 Z15.660 F800.000
G1 X174.618 Y63.835 Z15.660 F800.000
G1 X177.308 Y63.835 Z15.660 F800.000
G1 X189.138 Y75.665 Z15.660 F800.000
G1 X191.828 Y75.665 Z15.660 F800.000
G1 X179.998 Y63.835 Z15.660 F800.000
G1 X182.688 Y63.835 Z15.660 F800.000
G1 X194.518 Y75.665 Z15.660 F800.000
G1 X197.208 Y75.665 Z15.660 F800.000
G1 X185.378 Y63.835 Z15.660 F800.000
G1 X188.067 Y63.835 Z15.660 F800.000
G1 X199.897 Y75.665 Z15.660 F800.000
G1 X202.587 Y75.665 Z15.660 F800.000
G1 X190.757 Y63.835 Z15.660 F800.000
G1 X193.447 Y63.835 Z15.660 F800.000
G1 X205.277 Y75.665 Z15.660 F800.000
G1 X207.967 Y75.665 Z15.660 F800.000
G1 X196.137 Y63.835 Z15.660 F800.000
G1 X198.827 Y63.835 Z15.660 F800.000
G1 X210.657 Y75.665 Z15.660 F800.000
G1 X213.347 Y75.665 Z15.660 F800.000
G1 X201.517 Y63.835 Z15.660 F800.000
G1 X204.206 Y63.835 Z15.660 F800.000
G1 X216.036 Y75.665 Z15.660 F800.000
G1 X218.726 Y75.665 Z15.660 F800.000
G1 X206.896 Y63.835 Z15.660 F800.000
G1 X209.586 Y63.835 Z15.660 F800.000
G1 X221.416 Y75.665 Z15.660 F800.000
G1 X224.106 Y75.665 Z15.660 F800.000
G1 X212.276 Y63.835 Z15.660 F800.000
G1 X214.966 Y63.835 Z15.660 F800.000
G1 X226.796 Y75.665 Z15.660 F800.000
G1 X228.415 Y75.665 Z15.660 F800.000
G1 X228.415 Y74.594 Z15.660 F800.000
G1 X217.656 Y63.835 Z15.660 F800.000
G1 X220.345 Y63.835 Z15.660 F800.000
G1 X228.415 Y71.905 Z15.660 F800.000
G1 X228.415 Y69.215 Z15.660 F800.000
G1 X223.035 Y63.835 Z15.660 F800.000
G1 X225.725 Y63.835 Z15.660 F800.000
G1 X228.415 Y66.525 Z15.660 F800.000
G1 X228.415 Y63.835 Z15.660 F800.000
G1 X228.415 Y65.273 Z14.830 F800.000
G1 X228.415 Y63.835 Z14.000 F800.000
G1 X228.415 Y66.525 Z14.000 F800.000
G1 X225.725 Y63.835 Z14.000 F800.000
G1 X223.035 Y63.835 Z14.000 F800.000
G1 X228.415 Y69.215 Z14.000 F800.000
G1 X228.415 Y71.905 Z14.000 F800.000
G1 X220.345 Y63.835 Z14.000 F800.000
G1 X217.656 Y63.835 Z14.000 F800.000
G1 X228.415 Y74.594 Z14.000 F800.000
G1 X228.415 Y75.665 Z14.000 F800.000
G1 X226.796 Y75.665 Z14.000 F800.000
G1 X214.966 Y63.835 Z14.000 F800.000
G1 X212.276 Y63.835 Z14.000 F800.000
G1 X224.106 Y75.665 Z14.000 F800.000
G1 X221.416 Y75.665 Z14.000 F800.000
G1 X209.586 Y63.835 Z14.000 F800.000
G1 X206.896 Y63.835 Z14.000 F800.000
G1 X218.726 Y75.665 Z14.000 F800.000
G1 X216.036 Y75.665 Z14.000 F800.000
G1 X204.206 Y63.835 Z14.000 F800.000
G1 X201.517 Y63.835 Z14.000 F800.000
G1 X213.347 Y75.665 Z14.000 F800.000
G1 X210.657 Y75.665 Z14.000 F800.000
G1 X198.827 Y63.835 Z14.000 F800.000
G1 X196.137 Y63.835 Z14.000 F800.000
G1 X207.967 Y75.665 Z14.000 F800.000
G1 X205.277 Y75.665 Z14.000 F800.000
G1 X193.447 Y63.835 Z14.000 F800.000
G1 X190.757 Y63.835 Z14.000 F800.000
G1 X202.587 Y75.665 Z14.000 F800.000
G1 X199.897 Y75.665 Z14.000 F800.000
G1 X188.067 Y63.835 Z14.000 F800.000
G1 X185.378 Y63.835 Z14.000 F800.000
G1 X197.208 Y75.665 Z14.000 F800.000
G1 X194.518 Y75.665 Z14.000 F800.000
G1 X182.688 Y63.835 Z14.000 F800.000
G1 X179.998 Y63.835 Z14.000 F800.000
G1 X191.828 Y75.665 Z14.000 F800.000
G1 X189.138 Y75.665 Z14.000 F800.000
G1 X177.308 Y63.835 Z14.000 F800.000
G1 X174.618 Y63.835 Z14.000 F800.000
G1 X186.448 Y75.665 Z14.000 F800.000
G1 X183.758 Y75.665 Z14.000 F800.000
G1 X171.928 Y63.835 Z14.000 F800.000
G1 X169.239 Y63.835 Z14.000 F800.000
G1 X181.069 Y75.665 Z14.000 F800.000
G1 X178.379 Y75.665 Z14.000 F800.000
G1 X166.549 Y63.835 Z14.000 F800.000
G1 X163.859 Y63.835 Z14.000 F800.000
G1 X175.689 Y75.665 Z14.000 F800.000
G1 X172.999 Y75.665 Z14.000 F800.000
G1 X161.169 Y63.835 Z14.000 F800.000
G1 X158.479 Y63.835 Z14.000 F800.000
G1 X170.309 Y75.665 Z14.000 F800.000
G1 X167.619 Y75.665 Z14.000 F800.000
G1 X155.789 Y63.835 Z14.000 F800.000
G1 X153.100 Y63.835 Z14.000 F800.000
G1 X164.930 Y75.665 Z14.000 F800.000
G1 X162.240 Y75.665 Z14.000 F800.000
G1 X150.410 Y63.835 Z14.000 F800.000
G1 X147.720 Y63.835 Z14.000 F800.000
G1 X159.550 Y75.665 Z14.000 F800.000
G1 X156.860 Y75.665 Z14.000 F800.000
G1 X145.030 Y63.835 Z14.000 F800.000
G1 X142.340 Y63.835 Z14.000 F800.000
G1 X154.170 Y75.665 Z14.000 F800.000
G1 X151.480 Y75.665 Z14.000 F800.000
G1 X139.650 Y63.835 Z14.000 F800.000
G1 X136.961 Y63.835 Z14.000 F800.000
G1 X148.791 Y75.665 Z14.000 F800.000
G1 X146.101 Y75.665 Z14.000 F800.000
G1 X134.271 Y63.835 Z14.000 F800.000
G1 X131.581 Y63.835 Z14.000 F800.000
G1 X143.411 Y75.665 Z14.000 F800.000
G1 X140.721 Y75.665 Z14.000 F800.000
G1 X128.891 Y63.835 Z14.000 F800.000
G1 X126.201 Y63.835 Z14.000 F800.000
G1 X138.031 Y75.665 Z14.000 F800.000
G1 X135.341 Y75.665 Z14.000 F800.000
G1 X123.511 Y63.835 Z14.000 F800.000
G1 X120.822 Y63.835 Z14.000 F800.000
G1 X132.652 Y75.665 Z14.000 F800.000
G1 X129.962 Y75.665 Z14.000 F800.000
G1 X118.132 Y63.835 Z14.000 F800.000
G1 X115.442 Y63.835 Z14.000 F800.000
G1 X127.272 Y75.665 Z14.000 F800.000
G1 X124.582 Y75.665 Z14.000 F800.000
G1 X112.752 Y63.835 Z14.000 F800.000
G1 X111.585 Y63.835 Z14.000 F800.000
G1 X111.585 Y65.358 Z14.000 F800.000
G1 X121.892 Y75.665 Z14.000 F800.000
G1 X119.202 Y75.665 Z14.000 F800.000
G1 X111.585 Y68.048 Z14.000 F800.000
G1 X111.585 Y70.737 Z14.000 F800.000
G1 X116.513 Y75.665 Z14.000 F800.000
G1 X113.823 Y75.665 Z14.000 F800.000
G1 X111.585 Y75.665 Z14.000 F800.000
G1 X111.585 Y73.427 Z14.000 F800.000
G1 X113.823 Y75.665 Z14.000 F800.000
G0 X113.823 Y75.665 Z27.000
(Finish operation: RampEntryDressup)
(Begin operation: RampEntryDressup001)
(Path: RampEntryDressup001)
G0 X0.000 Y0.000 Z27.000
G0 X96.415 Y74.415 Z27.000
G0 X96.415 Y74.415 Z25.000
G1 X93.725 Y74.415 Z23.447 F800.000
G1 X94.885 Y73.255 Z22.500 F800.000
G1 X93.725 Y74.415 Z21.553 F800.000
G1 X96.415 Y74.415 Z20.000 F800.000
G1 X93.725 Y74.415 Z20.000 F800.000
G1 X96.415 Y71.725 Z20.000 F800.000
G1 X96.415 Y69.035 Z20.000 F800.000
G1 X91.035 Y74.415 Z20.000 F800.000
G1 X88.345 Y74.415 Z20.000 F800.000
G1 X96.415 Y66.345 Z20.000 F800.000
G1 X96.415 Y63.656 Z20.000 F800.000
G1 X85.656 Y74.415 Z20.000 F800.000
G1 X82.966 Y74.415 Z20.000 F800.000
G1 X96.415 Y60.966 Z20.000 F800.000
G1 X96.415 Y58.276 Z20.000 F800.000
G1 X80.276 Y74.415 Z20.000 F800.000
G1 X77.586 Y74.415 Z20.000 F800.000
G1 X96.415 Y55.586 Z20.000 F800.000
G1 X96.415 Y52.896 Z20.000 F800.000
G1 X74.896 Y74.415 Z20.000 F800.000
G1 X72.206 Y74.415 Z20.000 F800.000
G1 X96.415 Y50.206 Z20.000 F800.000
G1 X96.415 Y47.517 Z20.000 F800.000
G1 X69.517 Y74.415 Z20.000 F800.000
G1 X66.827 Y74.415 Z20.000 F800.000
G1 X96.415 Y44.827 Z20.000 F800.000
G1 X96.415 Y42.137 Z20.000 F800.000
G1 X64.137 Y74.415 Z20.000 F800.000
G1 X61.447 Y74.415 Z20.000 F800.000
G1 X96.415 Y39.447 Z20.000 F800.000
G1 X96.415 Y36.757 Z20.000 F800.000
G1 X58.757 Y74.415 Z20.000 F800.000
G1 X56.067 Y74.415 Z20.000 F800.000
G1 X96.415 Y34.067 Z20.000 F800.000
G1 X96.415 Y31.378 Z20.000 F800.000
G1 X53.378 Y74.415 Z20.000 F800.000
G1 X50.688 Y74.415 Z20.000 F800.000
G1 X96.415 Y28.688 Z20.000 F800.000
G1 X96.415 Y25.998 Z20.000 F800.000
G1 X47.998 Y74.415 Z20.000 F800.000
G1 X45.308 Y74.415 Z20.000 F800.000
G1 X96.415 Y23.308 Z20.000 F800.000
G1 X96.415 Y20.618 Z20.000 F800.000
G1 X42.618 Y74.415 Z20.000 F800.000
G1 X39.928 Y74.415 Z20.000 F800.000
G1 X96.415 Y17.928 Z20.000 F800.000
G1 X96.415 Y15.239 Z20.000 F800.000
G1 X37.239 Y74.415 Z20.000 F800.000
G1 X34.549 Y74.415 Z20.000 F800.000
G1 X95.379 Y13.585 Z20.000 F800.000
G1 X92.689 Y13.585 Z20.000 F800.000
G1 X31.859 Y74.415 Z20.000 F800.000
G1 X29.169 Y74.415 Z20.000 F800.000
G1 X89.999 Y13.585 Z20.000 F800.000
G1 X87.309 Y13.585 Z20.000 F800.000
G1 X26.479 Y74.415 Z20.000 F800.000
G1 X23.789 Y74.415 Z20.000 F800.000
G1 X84.619 Y13.585 Z20.000 F800.000
G1 X81.930 Y13.585 Z20.000 F800.000
G1 X21.100 Y74.415 Z20.000 F800.000
G1 X18.410 Y74.415 Z20.000 F800.000
G1 X79.240 Y13.585 Z20.000 F800.000
G1 X76.550 Y13.585 Z20.000 F800.000
G1 X15.720 Y74.415 Z20.000 F800.000
G1 X13.585 Y74.415 Z20.000 F800.000
G1 X13.585 Y73.860 Z20.000 F800.000
G1 X73.860 Y13.585 Z20.000 F800.000
G1 X71.170 Y13.585 Z20.000 F800.000
G1 X13.585 Y71.170 Z20.000 F800.000
G1 X13.585 Y68.480 Z20.000 F800.000
G1 X68.480 Y13.585 Z20.000 F800.000
G1 X65.791 Y13.585 Z20.000 F800.000
G1 X13.585 Y65.791 Z20.000 F800.000
G1 X13.585 Y63.101 Z20.000 F800.000
G1 X63.101 Y13.585 Z20.000 F800.000
G1 X60.411 Y13.585 Z20.000 F800.000
G1 X13.585 Y60.411 Z20.000 F800.000
G1 X13.585 Y57.721 Z20.000 F800.000
G1 X57.721 Y13.585 Z20.000 F800.000
G1 X55.031 Y13.585 Z20.000 F800.000
G1 X13.585 Y55.031 Z20.000 F800.000
G1 X13.585 Y52.341 Z20.000 F800.000
G1 X52.341 Y13.585 Z20.000 F800.000
G1 X49.652 Y13.585 Z20.000 F800.000
G1 X13.585 Y49.652 Z20.000 F800.000
G1 X13.585 Y46.962 Z20.000 F800.000
G1 X46.962 Y13.585 Z20.000 F800.000
G1 X44.272 Y13.585 Z20.000 F800.000
G1 X13.585 Y44.272 Z20.000 F800.000
G1 X13.585 Y41.582 Z20.000 F800.000
G1 X41.582 Y13.585 Z20.000 F800.000
G1 X38.892 Y13.585 Z20.000 F800.000
G1 X13.585 Y38.892 Z20.000 F800.000
G1 X13.585 Y36.202 Z20.000 F800.000
G1 X36.202 Y13.585 Z20.000 F800.000
G1 X33.513 Y13.585 Z20.000 F800.000
G1 X13.585 Y33.513 Z20.000 F800.000
G1 X13.585 Y30.823 Z20.000 F800.000
G1 X30.823 Y13.585 Z20.000 F800.000
G1 X28.133 Y13.585 Z20.000 F800.000
G1 X13.585 Y28.133 Z20.000 F800.000
G1 X13.585 Y25.443 Z20.000 F800.000
G1 X25.443 Y13.585 Z20.000 F800.000
G1 X22.753 Y13.585 Z20.000 F800.000
G1 X13.585 Y22.753 Z20.000 F800.000
G1 X13.585 Y20.063 Z20.000 F800.000
G1 X20.063 Y13.585 Z20.000 F800.000
G1 X17.374 Y13.585 Z20.000 F800.000
G1 X13.585 Y17.374 Z20.000 F800.000
G1 X13.585 Y14.684 Z20.000 F800.000
G1 X13.585 Y13.585 Z20.000 F800.000
G1 X14.684 Y13.585 Z20.000 F800.000
G1 X13.585 Y14.684 Z20.000 F800.000
G1 X14.684 Y13.585 Z19.103 F800.000
G1 X14.506 Y13.585 Z19.000 F800.000
G1 X14.684 Y13.585 Z18.897 F800.000
G1 X13.585 Y14.684 Z18.000 F800.000
G1 X14.684 Y13.585 Z18.000 F800.000
G1 X13.585 Y13.585 Z18.000 F800.000
G1 X13.585 Y14.684 Z18.000 F800.000
G1 X13.585 Y17.374 Z18.000 F800.000
G1 X17.374 Y13.585 Z18.000 F800.000
G1 X20.063 Y13.585 Z18.000 F800.000
G1 X13.585 Y20.063 Z18.000 F800.000
G1 X13.585 Y22.753 Z18.000 F800.000
G1 X22.753 Y13.585 Z18.000 F800.000
G1 X25.443 Y13.585 Z18.000 F800.000
G1 X13.585 Y25.443 Z18.000 F800.000
G1 X13.585 Y28.133 Z18.000 F800.000
G1 X28.133 Y13.585 Z18.000 F800.000
G1 X30.823 Y13.585 Z18.000 F800.000
G1 X13.585 Y30.823 Z18.000 F800.000
G1 X13.585 Y33.513 Z18.000 F800.000
G1 X33.513 Y13.585 Z18.000 F800.000
G1 X36.202 Y13.585 Z18.000 F800.000
G1 X13.585 Y36.202 Z18.000 F800.000
G1 X13.585 Y38.892 Z18.000 F800.000
G1 X38.892 Y13.585 Z18.000 F800.000
G1 X41.582 Y13.585 Z18.000 F800.000
G1 X13.585 Y41.582 Z18.000 F800.000
G1 X13.585 Y44.272 Z18.000 F800.000
G1 X44.272 Y13.585 Z18.000 F800.000
G1 X46.962 Y13.585 Z18.000 F800.000
G1 X13.585 Y46.962 Z18.000 F800.000
G1 X13.585 Y49.652 Z18.000 F800.000
G1 X49.652 Y13.585 Z18.000 F800.000
G1 X52.341 Y13.585 Z18.000 F800.000
G1 X13.585 Y52.341 Z18.000 F800.000
G1 X13.585 Y55.031 Z18.000 F800.000
G1 X55.031 Y13.585 Z18.000 F800.000
G1 X57.721 Y13.585 Z18.000 F800.000
G1 X13.585 Y57.721 Z18.000 F800.000
G1 X13.585 Y60.411 Z18.000 F800.000
G1 X60.411 Y13.585 Z18.000 F800.000
G1 X63.101 Y13.585 Z18.000 F800.000
G1 X13.585 Y63.101 Z18.000 F800.000
G1 X13.585 Y65.791 Z18.000 F800.000
G1 X65.791 Y13.585 Z18.000 F800.000
G1 X68.480 Y13.585 Z18.000 F800.000
G1 X13.585 Y68.480 Z18.000 F800.000
G1 X13.585 Y71.170 Z18.000 F800.000
G1 X71.170 Y13.585 Z18.000 F800.000
G1 X73.860 Y13.585 Z18.000 F800.000
G1 X13.585 Y73.860 Z18.000 F800.000
G1 X13.585 Y74.415 Z18.000 F800.000
G1 X15.720 Y74.415 Z18.000 F800.000
G1 X76.550 Y13.585 Z18.000 F800.000
G1 X79.240 Y13.585 Z18.000 F800.000
G1 X18.410 Y74.415 Z18.000 F800.000
G1 X21.100 Y74.415 Z18.000 F800.000
G1 X81.930 Y13.585 Z18.000 F800.000
G1 X84.619 Y13.585 Z18.000 F800.000
G1 X23.789 Y74.415 Z18.000 F800.000
G1 X26.479 Y74.415 Z18.000 F800.000
G1 X87.309 Y13.585 Z18.000 F800.000
G1 X89.999 Y13.585 Z18.000 F800.000
G1 X29.169 Y74.415 Z18.000 F800.000
G1 X31.859 Y74.415 Z18.000 F800.000
G1 X92.689 Y13.585 Z18.000 F800.000
G1 X95.379 Y13.585 Z18.000 F800.000
G1 X34.549 Y74.415 Z18.000 F800.000
G1 X37.239 Y74.415 Z18.000 F800.000
G1 X96.415 Y15.239 Z18.000 F800.000
G1 X96.415 Y17.928 Z18.000 F800.000
G1 X39.928 Y74.415 Z18.000 F800.000
G1 X42.618 Y74.415 Z18.000 F800.000
G1 X96.415 Y20.618 Z18.000 F800.000
G1 X96.415 Y23.308 Z18.000 F800.000
G1 X45.308 Y74.415 Z18.000 F800.000
G1 X47.998 Y74.415 Z18.000 F800.000
G1 X96.415 Y25.998 Z18.000 F800.000
G1 X96.415 Y28.688 Z18.000 F800.000
G1 X50.688 Y74.415 Z18.000 F800.000
G1 X53.378 Y74.415 Z18.000 F800.000
G1 X96.415 Y31.378 Z18.000 F800.000
G1 X96.415 Y34.067 Z18.000 F800.000
G1 X56.067 Y74.415 Z18.000 F800.000
G1 X58.757 Y74.415 Z18.000 F800.000
G1 X96.415 Y36.757 Z18.000 F800.000
G1 X96.415 Y39.447 Z18.000 F800.000
G1 X61.447 Y74.415 Z18.000 F800.000
G1 X64.137 Y74.415 Z18.000 F800.000
G1 X96.415 Y42.137 Z18.000 F800.000
G1 X96.415 Y44.827 Z18.000 F800.000
G1 X66.827 Y74.415 Z18.000 F800.000
G1 X69.517 Y74.415 Z18.000 F800.000
G1 X96.415 Y47.517 Z18.000 F800.000
G1 X96.415 Y50.206 Z18.000 F800.000
G1 X72.206 Y74.415 Z18.000 F800.000
G1 X74.896 Y74.415 Z18.000 F800.000
G1 X96.415 Y52.896 Z18.000 F800.000
G1 X96.415 Y55.586 Z18.000 F800.000
G1 X77.586 Y74.415 Z18.000 F800.000
G1 X80.276 Y74.415 Z18.000 F800.000
G1 X96.415 Y58.276 Z18.000 F800.000
G1 X96.415 Y60.966 Z18.000 F800.000
G1 X82.966 Y74.415 Z18.000 F800.000
G1 X85.656 Y74.415 Z18.000 F800.000
G1 X96.415 Y63.656 Z18.000 F800.000
G1 X96.415 Y66.345 Z18.000 F800.000
G1 X88.345 Y74.415 Z18.000 F800.000
G1 X91.035 Y74.415 Z18.000 F800.000
G1 X96.415 Y69.035 Z18.000 F800.000
G1 X96.415 Y71.725 Z18.000 F800.000
G1 X93.725 Y74.415 Z18.000 F800.000
G1 X96.415 Y74.415 Z18.000 F800.000
G1 X94.683 Y74.415 Z17.000 F800.000
G1 X96.415 Y74.415 Z16.000 F800.000
G1 X93.725 Y74.415 Z16.000 F800.000
G1 X96.415 Y71.725 Z16.000 F800.000
G1 X96.415 Y69.035 Z16.000 F800.000
G1 X91.035 Y74.415 Z16.000 F800.000
G1 X88.345 Y74.415 Z16.000 F800.000
G1 X96.415 Y66.345 Z16.000 F800.000
G1 X96.415 Y63.656 Z16.000 F800.000
G1 X85.656 Y74.415 Z16.000 F800.000
G1 X82.966 Y74.415 Z16.000 F800.000
G1 X96.415 Y60.966 Z16.000 F800.000
G1 X96.415 Y58.276 Z16.000 F800.000
G1 X80.276 Y74.415 Z16.000 F800.000
G1 X77.586 Y74.415 Z16.000 F800.000
G1 X96.415 Y55.586 Z16.000 F800.000
G1 X96.415 Y52.896 Z16.000 F800.000
G1 X74.896 Y74.415 Z16.000 F800.000
G1 X72.206 Y74.415 Z16.000 F800.000
G1 X96.415 Y50.206 Z16.000 F800.000
G1 X96.415 Y47.517 Z16.000 F800.000
G1 X69.517 Y74.415 Z16.000 F800.000
G1 X66.827 Y74.415 Z16.000 F800.000
G1 X96.415 Y44.827 Z16.000 F800.000
G1 X96.415 Y42.137 Z16.000 F800.000
G1 X64.137 Y74.415 Z16.000 F800.000
G1 X61.447 Y74.415 Z16.000 F800.000
G1 X96.415 Y39.447 Z16.000 F800.000
G1 X96.415 Y36.757 Z16.000 F800.000
G1 X58.757 Y74.415 Z16.000 F800.000
G1 X56.067 Y74.415 Z16.000 F800.000
G1 X96.415 Y34.067 Z16.000 F800.000
G1 X96.415 Y31.378 Z16.000 F800.000
G1 X53.378 Y74.415 Z16.000 F800.000
G1 X50.688 Y74.415 Z16.000 F800.000
G1 X96.415 Y28.688 Z16.000 F800.000
G1 X96.415 Y25.998 Z16.000 F800.000
G1 X47.998 Y74.415 Z16.000 F800.000
G1 X45.308 Y74.415 Z16.000 F800.000
G1 X96.415 Y23.308 Z16.000 F800.000
G1 X96.415 Y20.618 Z16.000 F800.000
G1 X42.618 Y74.415 Z16.000 F800.000
G1 X39.928 Y74.415 Z16.000 F800.000
G1 X96.415 Y17.928 Z16.000 F800.000
G1 X96.415 Y15.239 Z16.000 F800.000
G1 X37.239 Y74.415 Z16.000 F800.000
G1 X34.549 Y74.415 Z16.000 F800.000
G1 X95.379 Y13.585 Z16.000 F800.000
G1 X92.689 Y13.585 Z16.000 F800.000
G1 X31.859 Y74.415 Z16.000 F800.000
G1 X29.169 Y74.415 Z16.000 F800.000
G1 X89.999 Y13.585 Z16.000 F800.000
G1 X87.309 Y13.585 Z16.000 F800.000
G1 X26.479 Y74.415 Z16.000 F800.000
G1 X23.789 Y74.415 Z16.000 F800.000
G1 X84.619 Y13.585 Z16.000 F800.000
G1 X81.930 Y13.585 Z16.000 F800.000
G1 X21.100 Y74.415 Z16.000 F800.000
G1 X18.410 Y74.415 Z16.000 F800.000
G1 X79.240 Y13.585 Z16.000 F800.000
G1 X76.550 Y13.585 Z16.000 F800.000
G1 X15.720 Y74.415 Z16.000 F800.000
G1 X13.585 Y74.415 Z16.000 F800.000
G1 X13.585 Y73.860 Z16.000 F800.000
G1 X73.860 Y13.585 Z16.000 F800.000
G1 X71.170 Y13.585 Z16.000 F800.000
G1 X13.585 Y71.170 Z16.000 F800.000
G1 X13.585 Y68.480 Z16.000 F800.000
G1 X68.480 Y13.585 Z16.000 F800.000
G1 X65.791 Y13.585 Z16.000 F800.000
G1 X13.585 Y65.791 Z16.000 F800.000
G1 X13.585 Y63.101 Z16.000 F800.000
G1 X63.101 Y13.585 Z16.000 F800.000
G1 X60.411 Y13.585 Z16.000 F800.000
G1 X13.585 Y60.411 Z16.000 F800.000
G1 X13.585 Y57.721 Z16.000 F800.000
G1 X57.721 Y13.585 Z16.000 F800.000
G1 X55.031 Y13.585 Z16.000 F800.000
G1 X13.585 Y55.031 Z16.000 F800.000
G1 X13.585 Y52.341 Z16.000 F800.000
G1 X52.341 Y13.585 Z16.000 F800.000
G1 X49.652 Y13.585 Z16.000 F800.000
G1 X13.585 Y49.652 Z16.000 F800.000
G1 X13.585 Y46.962 Z16.000 F800.000
G1 X46.962 Y13.585 Z16.000 F800.000
G1 X44.272 Y13.585 Z16.000 F800.000
G1 X13.585 Y44.272 Z16.000 F800.000
G1 X13.585 Y41.582 Z16.000 F800.000
G1 X41.582 Y13.585 Z16.000 F800.000
G1 X38.892 Y13.585 Z16.000 F800.000
G1 X13.585 Y38.892 Z16.000 F800.000
G1 X13.585 Y36.202 Z16.000 F800.000
G1 X36.202 Y13.585 Z16.000 F800.000
G1 X33.513 Y13.585 Z16.000 F800.000
G1 X13.585 Y33.513 Z16.000 F800.000
G1 X13.585 Y30.823 Z16.000 F800.000
G1 X30.823 Y13.585 Z16.000 F800.000
G1 X28.133 Y13.585 Z16.000 F800.000
G1 X13.585 Y28.133 Z16.000 F800.000
G1 X13.585 Y25.443 Z16.000 F800.000
G1 X25.443 Y13.585 Z16.000 F800.000
G1 X22.753 Y13.585 Z16.000 F800.000
G1 X13.585 Y22.753 Z16.000 F800.000
G1 X13.585 Y20.063 Z16.000 F800.000
G1 X20.063 Y13.585 Z16.000 F800.000
G1 X17.374 Y13.585 Z16.000 F800.000
G1 X13.585 Y17.374 Z16.000 F800.000
G1 X13.585 Y14.684 Z16.000 F800.000
G1 X13.585 Y13.585 Z16.000 F800.000
G1 X14.684 Y13.585 Z16.000 F800.000
G1 X13.585 Y14.684 Z16.000 F800.000
G1 X14.684 Y13.585 Z15.103 F800.000
G1 X14.506 Y13.585 Z15.000 F800.000
G1 X14.684 Y13.585 Z14.897 F800.000
G1 X13.585 Y14.684 Z14.000 F800.000
G1 X14.684 Y13.585 Z14.000 F800.000
G1 X13.585 Y13.585 Z14.000 F800.000
G1 X13.585 Y14.684 Z14.000 F800.000
G1 X13.585 Y17.374 Z14.000 F800.000
G1 X17.374 Y13.585 Z14.000 F800.000
G1 X20.063 Y13.585 Z14.000 F800.000
G1 X13.585 Y20.063 Z14.000 F800.000
G1 X13.585 Y22.753 Z14.000 F800.000
G1 X22.753 Y13.585 Z14.000 F800.000
G1 X25.443 Y13.585 Z14.000 F800.000
G1 X13.585 Y25.443 Z14.000 F800.000
G1 X13.585 Y28.133 Z14.000 F800.000
G1 X28.133 Y13.585 Z14.000 F800.000
G1 X30.823 Y13.585 Z14.000 F800.000
G1 X13.585 Y30.823 Z14.000 F800.000
G1 X13.585 Y33.513 Z14.000 F800.000
G1 X33.513 Y13.585 Z14.000 F800.000
G1 X36.202 Y13.585 Z14.000 F800.000
G1 X13.585 Y36.202 Z14.000 F800.000
G1 X13.585 Y38.892 Z14.000 F800.000
G1 X38.892 Y13.585 Z14.000 F800.000
G1 X41.582 Y13.585 Z14.000 F800.000
G1 X13.585 Y41.582 Z14.000 F800.000
G1 X13.585 Y44.272 Z14.000 F800.000
G1 X44.272 Y13.585 Z14.000 F800.000
G1 X46.962 Y13.585 Z14.000 F800.000
G1 X13.585 Y46.962 Z14.000 F800.000
G1 X13.585 Y49.652 Z14.000 F800.000
G1 X49.652 Y13.585 Z14.000 F800.000
G1 X52.341 Y13.585 Z14.000 F800.000
G1 X13.585 Y52.341 Z14.000 F800.000
G1 X13.585 Y55.031 Z14.000 F800.000
G1 X55.031 Y13.585 Z14.000 F800.000
G1 X57.721 Y13.585 Z14.000 F800.000
G1 X13.585 Y57.721 Z14.000 F800.000
G1 X13.585 Y60.411 Z14.000 F800.000
G1 X60.411 Y13.585 Z14.000 F800.000
G1 X63.101 Y13.585 Z14.000 F800.000
G1 X13.585 Y63.101 Z14.000 F800.000
G1 X13.585 Y65.791 Z14.000 F800.000
G1 X65.791 Y13.585 Z14.000 F800.000
G1 X68.480 Y13.585 Z14.000 F800.000
G1 X13.585 Y68.480 Z14.000 F800.000
G1 X13.585 Y71.170 Z14.000 F800.000
G1 X71.170 Y13.585 Z14.000 F800.000
G1 X73.860 Y13.585 Z14.000 F800.000
G1 X13.585 Y73.860 Z14.000 F800.000
G1 X13.585 Y74.415 Z14.000 F800.000
G1 X15.720 Y74.415 Z14.000 F800.000
G1 X76.550 Y13.585 Z14.000 F800.000
G1 X79.240 Y13.585 Z14.000 F800.000
G1 X18.410 Y74.415 Z14.000 F800.000
G1 X21.100 Y74.415 Z14.000 F800.000
G1 X81.930 Y13.585 Z14.000 F800.000
G1 X84.619 Y13.585 Z14.000 F800.000
G1 X23.789 Y74.415 Z14.000 F800.000
G1 X26.479 Y74.415 Z14.000 F800.000
G1 X87.309 Y13.585 Z14.000 F800.000
G1 X89.999 Y13.585 Z14.000 F800.000
G1 X29.169 Y74.415 Z14.000 F800.000
G1 X31.859 Y74.415 Z14.000 F800.000
G1 X92.689 Y13.585 Z14.000 F800.000
G1 X95.379 Y13.585 Z14.000 F800.000
G1 X34.549 Y74.415 Z14.000 F800.000
G1 X37.239 Y74.415 Z14.000 F800.000
G1 X96.415 Y15.239 Z14.000 F800.000
G1 X96.415 Y17.928 Z14.000 F800.000
G1 X39.928 Y74.415 Z14.000 F800.000
G1 X42.618 Y74.415 Z14.000 F800.000
G1 X96.415 Y20.618 Z14.000 F800.000
G1 X96.415 Y23.308 Z14.000 F800.000
G1 X45.308 Y74.415 Z14.000 F800.000
G1 X47.998 Y74.415 Z14.000 F800.000
G1 X96.415 Y25.998 Z14.000 F800.000
G1 X96.415 Y28.688 Z14.000 F800.000
G1 X50.688 Y74.415 Z14.000 F800.000
G1 X53.378 Y74.415 Z14.000 F800.000
G1 X96.415 Y31.378 Z14.000 F800.000
G1 X96.415 Y34.067 Z14.000 F800.000
G1 X56.067 Y74.415 Z14.000 F800.000
G1 X58.757 Y74.415 Z14.000 F800.000
G1 X96.415 Y36.757 Z14.000 F800.000
G1 X96.415 Y39.447 Z14.000 F800.000
G1 X61.447 Y74.415 Z14.000 F800.000
G1 X64.137 Y74.415 Z14.000 F800.000
G1 X96.415 Y42.137 Z14.000 F800.000
G1 X96.415 Y44.827 Z14.000 F800.000
G1 X66.827 Y74.415 Z14.000 F800.000
G1 X69.517 Y74.415 Z14.000 F800.000
G1 X96.415 Y47.517 Z14.000 F800.000
G1 X96.415 Y50.206 Z14.000 F800.000
G1 X72.206 Y74.415 Z14.000 F800.000
G1 X74.896 Y74.415 Z14.000 F800.000
G1 X96.415 Y52.896 Z14.000 F800.000
G1 X96.415 Y55.586 Z14.000 F800.000
G1 X77.586 Y74.415 Z14.000 F800.000
G1 X80.276 Y74.415 Z14.000 F800.000
G1 X96.415 Y58.276 Z14.000 F800.000
G1 X96.415 Y60.966 Z14.000 F800.000
G1 X82.966 Y74.415 Z14.000 F800.000
G1 X85.656 Y74.415 Z14.000 F800.000
G1 X96.415 Y63.656 Z14.000 F800.000
G1 X96.415 Y66.345 Z14.000 F800.000
G1 X88.345 Y74.415 Z14.000 F800.000
G1 X91.035 Y74.415 Z14.000 F800.000
G1 X96.415 Y69.035 Z14.000 F800.000
G1 X96.415 Y71.725 Z14.000 F800.000
G1 X93.725 Y74.415 Z14.000 F800.000
G1 X96.415 Y74.415 Z14.000 F800.000
G1 X94.683 Y74.415 Z13.000 F800.000
G1 X96.415 Y74.415 Z12.000 F800.000
G1 X93.725 Y74.415 Z12.000 F800.000
G1 X96.415 Y71.725 Z12.000 F800.000
G1 X96.415 Y69.035 Z12.000 F800.000
G1 X91.035 Y74.415 Z12.000 F800.000
G1 X88.345 Y74.415 Z12.000 F800.000
G1 X96.415 Y66.345 Z12.000 F800.000
G1 X96.415 Y63.656 Z12.000 F800.000
G1 X85.656 Y74.415 Z12.000 F800.000
G1 X82.966 Y74.415 Z12.000 F800.000
G1 X96.415 Y60.966 Z12.000 F800.000
G1 X96.415 Y58.276 Z12.000 F800.000
G1 X80.276 Y74.415 Z12.000 F800.000
G1 X77.586 Y74.415 Z12.000 F800.000
G1 X96.415 Y55.586 Z12.000 F800.000
G1 X96.415 Y52.896 Z12.000 F800.000
G1 X74.896 Y74.415 Z12.000 F800.000
G1 X72.206 Y74.415 Z12.000 F800.000
G1 X96.415 Y50.206 Z12.000 F800.000
G1 X96.415 Y47.517 Z12.000 F800.000
G1 X69.517 Y74.415 Z12.000 F800.000
G1 X66.827 Y74.415 Z12.000 F800.000
G1 X96.415 Y44.827 Z12.000 F800.000
G1 X96.415 Y42.137 Z12.000 F800.000
G1 X64.137 Y74.415 Z12.000 F800.000
G1 X61.447 Y74.415 Z12.000 F800.000
G1 X96.415 Y39.447 Z12.000 F800.000
G1 X96.415 Y36.757 Z12.000 F800.000
G1 X58.757 Y74.415 Z12.000 F800.000
G1 X56.067 Y74.415 Z12.000 F800.000
G1 X96.415 Y34.067 Z12.000 F800.000
G1 X96.415 Y31.378 Z12.000 F800.000
G1 X53.378 Y74.415 Z12.000 F800.000
G1 X50.688 Y74.415 Z12.000 F800.000
G1 X96.415 Y28.688 Z12.000 F800.000
G1 X96.415 Y25.998 Z12.000 F800.000
G1 X47.998 Y74.415 Z12.000 F800.000
G1 X45.308 Y74.415 Z12.000 F800.000
G1 X96.415 Y23.308 Z12.000 F800.000
G1 X96.415 Y20.618 Z12.000 F800.000
G1 X42.618 Y74.415 Z12.000 F800.000
G1 X39.928 Y74.415 Z12.000 F800.000
G1 X96.415 Y17.928 Z12.000 F800.000
G1 X96.415 Y15.239 Z12.000 F800.000
G1 X37.239 Y74.415 Z12.000 F800.000
G1 X34.549 Y74.415 Z12.000 F800.000
G1 X95.379 Y13.585 Z12.000 F800.000
G1 X92.689 Y13.585 Z12.000 F800.000
G1 X31.859 Y74.415 Z12.000 F800.000
G1 X29.169 Y74.415 Z12.000 F800.000
G1 X89.999 Y13.585 Z12.000 F800.000
G1 X87.309 Y13.585 Z12.000 F800.000
G1 X26.479 Y74.415 Z12.000 F800.000
G1 X23.789 Y74.415 Z12.000 F800.000
G1 X84.619 Y13.585 Z12.000 F800.000
G1 X81.930 Y13.585 Z12.000 F800.000
G1 X21.100 Y74.415 Z12.000 F800.000
G1 X18.410 Y74.415 Z12.000 F800.000
G1 X79.240 Y13.585 Z12.000 F800.000
G1 X76.550 Y13.585 Z12.000 F800.000
G1 X15.720 Y74.415 Z12.000 F800.000
G1 X13.585 Y74.415 Z12.000 F800.000
G1 X13.585 Y73.860 Z12.000 F800.000
G1 X73.860 Y13.585 Z12.000 F800.000
G1 X71.170 Y13.585 Z12.000 F800.000
G1 X13.585 Y71.170 Z12.000 F800.000
G1 X13.585 Y68.480 Z12.000 F800.000
G1 X68.480 Y13.585 Z12.000 F800.000
G1 X65.791 Y13.585 Z12.000 F800.000
G1 X13.585 Y65.791 Z12.000 F800.000
G1 X13.585 Y63.101 Z12.000 F800.000
G1 X63.101 Y13.585 Z12.000 F800.000
G1 X60.411 Y13.585 Z12.000 F800.000
G1 X13.585 Y60.411 Z12.000 F800.000
G1 X13.585 Y57.721 Z12.000 F800.000
G1 X57.721 Y13.585 Z12.000 F800.000
G1 X55.031 Y13.585 Z12.000 F800.000
G1 X13.585 Y55.031 Z12.000 F800.000
G1 X13.585 Y52.341 Z12.000 F800.000
G1 X52.341 Y13.585 Z12.000 F800.000
G1 X49.652 Y13.585 Z12.000 F800.000
G1 X13.585 Y49.652 Z12.000 F800.000
G1 X13.585 Y46.962 Z12.000 F800.000
G1 X46.962 Y13.585 Z12.000 F800.000
G1 X44.272 Y13.585 Z12.000 F800.000
G1 X13.585 Y44.272 Z12.000 F800.000
G1 X13.585 Y41.582 Z12.000 F800.000
G1 X41.582 Y13.585 Z12.000 F800.000
G1 X38.892 Y13.585 Z12.000 F800.000
G1 X13.585 Y38.892 Z12.000 F800.000
G1 X13.585 Y36.202 Z12.000 F800.000
G1 X36.202 Y13.585 Z12.000 F800.000
G1 X33.513 Y13.585 Z12.000 F800.000
G1 X13.585 Y33.513 Z12.000 F800.000
G1 X13.585 Y30.823 Z12.000 F800.000
G1 X30.823 Y13.585 Z12.000 F800.000
G1 X28.133 Y13.585 Z12.000 F800.000
G1 X13.585 Y28.133 Z12.000 F800.000
G1 X13.585 Y25.443 Z12.000 F800.000
G1 X25.443 Y13.585 Z12.000 F800.000
G1 X22.753 Y13.585 Z12.000 F800.000
G1 X13.585 Y22.753 Z12.000 F800.000
G1 X13.585 Y20.063 Z12.000 F800.000
G1 X20.063 Y13.585 Z12.000 F800.000
G1 X17.374 Y13.585 Z12.000 F800.000
G1 X13.585 Y17.374 Z12.000 F800.000
G1 X13.585 Y14.684 Z12.000 F800.000
G1 X13.585 Y13.585 Z12.000 F800.000
G1 X14.684 Y13.585 Z12.000 F800.000
G1 X13.585 Y14.684 Z12.000 F800.000
G1 X14.684 Y13.585 Z11.103 F800.000
G1 X14.506 Y13.585 Z11.000 F800.000
G1 X14.684 Y13.585 Z10.897 F800.000
G1 X13.585 Y14.684 Z10.000 F800.000
G1 X14.684 Y13.585 Z10.000 F800.000
G1 X13.585 Y13.585 Z10.000 F800.000
G1 X13.585 Y14.684 Z10.000 F800.000
G1 X13.585 Y17.374 Z10.000 F800.000
G1 X17.374 Y13.585 Z10.000 F800.000
G1 X20.063 Y13.585 Z10.000 F800.000
G1 X13.585 Y20.063 Z10.000 F800.000
G1 X13.585 Y22.753 Z10.000 F800.000
G1 X22.753 Y13.585 Z10.000 F800.000
G1 X25.443 Y13.585 Z10.000 F800.000
G1 X13.585 Y25.443 Z10.000 F800.000
G1 X13.585 Y28.133 Z10.000 F800.000
G1 X28.133 Y13.585 Z10.000 F800.000
G1 X30.823 Y13.585 Z10.000 F800.000
G1 X13.585 Y30.823 Z10.000 F800.000
G1 X13.585 Y33.513 Z10.000 F800.000
G1 X33.513 Y13.585 Z10.000 F800.000
G1 X36.202 Y13.585 Z10.000 F800.000
G1 X13.585 Y36.202 Z10.000 F800.000
G1 X13.585 Y38.892 Z10.000 F800.000
G1 X38.892 Y13.585 Z10.000 F800.000
G1 X41.582 Y13.585 Z10.000 F800.000
G1 X13.585 Y41.582 Z10.000 F800.000
G1 X13.585 Y44.272 Z10.000 F800.000
G1 X44.272 Y13.585 Z10.000 F800.000
G1 X46.962 Y13.585 Z10.000 F800.000
G1 X13.585 Y46.962 Z10.000 F800.000
G1 X13.585 Y49.652 Z10.000 F800.000
G1 X49.652 Y13.585 Z10.000 F800.000
G1 X52.341 Y13.585 Z10.000 F800.000
G1 X13.585 Y52.341 Z10.000 F800.000
G1 X13.585 Y55.031 Z10.000 F800.000
G1 X55.031 Y13.585 Z10.000 F800.000
G1 X57.721 Y13.585 Z10.000 F800.000
G1 X13.585 Y57.721 Z10.000 F800.000
G1 X13.585 Y60.411 Z10.000 F800.000
G1 X60.411 Y13.585 Z10.000 F800.000
G1 X63.101 Y13.585 Z10.000 F800.000
G1 X13.585 Y63.101 Z10.000 F800.000
G1 X13.585 Y65.791 Z10.000 F800.000
G1 X65.791 Y13.585 Z10.000 F800.000
G1 X68.480 Y13.585 Z10.000 F800.000
G1 X13.585 Y68.480 Z10.000 F800.000
G1 X13.585 Y71.170 Z10.000 F800.000
G1 X71.170 Y13.585 Z10.000 F800.000
G1 X73.860 Y13.585 Z10.000 F800.000
G1 X13.585 Y73.860 Z10.000 F800.000
G1 X13.585 Y74.415 Z10.000 F800.000
G1 X15.720 Y74.415 Z10.000 F800.000
G1 X76.550 Y13.585 Z10.000 F800.000
G1 X79.240 Y13.585 Z10.000 F800.000
G1 X18.410 Y74.415 Z10.000 F800.000
G1 X21.100 Y74.415 Z10.000 F800.000
G1 X81.930 Y13.585 Z10.000 F800.000
G1 X84.619 Y13.585 Z10.000 F800.000
G1 X23.789 Y74.415 Z10.000 F800.000
G1 X26.479 Y74.415 Z10.000 F800.000
G1 X87.309 Y13.585 Z10.000 F800.000
G1 X89.999 Y13.585 Z10.000 F800.000
G1 X29.169 Y74.415 Z10.000 F800.000
G1 X31.859 Y74.415 Z10.000 F800.000
G1 X92.689 Y13.585 Z10.000 F800.000
G1 X95.379 Y13.585 Z10.000 F800.000
G1 X34.549 Y74.415 Z10.000 F800.000
G1 X37.239 Y74.415 Z10.000 F800.000
G1 X96.415 Y15.239 Z10.000 F800.000
G1 X96.415 Y17.928 Z10.000 F800.000
G1 X39.928 Y74.415 Z10.000 F800.000
G1 X42.618 Y74.415 Z10.000 F800.000
G1 X96.415 Y20.618 Z10.000 F800.000
G1 X96.415 Y23.308 Z10.000 F800.000
G1 X45.308 Y74.415 Z10.000 F800.000
G1 X47.998 Y74.415 Z10.000 F800.000
G1 X96.415 Y25.998 Z10.000 F800.000
G1 X96.415 Y28.688 Z10.000 F800.000
G1 X50.688 Y74.415 Z10.000 F800.000
G1 X53.378 Y74.415 Z10.000 F800.000
G1 X96.415 Y31.378 Z10.000 F800.000
G1 X96.415 Y34.067 Z10.000 F800.000
G1 X56.067 Y74.415 Z10.000 F800.000
G1 X58.757 Y74.415 Z10.000 F800.000
G1 X96.415 Y36.757 Z10.000 F800.000
G1 X96.415 Y39.447 Z10.000 F800.000
G1 X61.447 Y74.415 Z10.000 F800.000
G1 X64.137 Y74.415 Z10.000 F800.000
G1 X96.415 Y42.137 Z10.000 F800.000
G1 X96.415 Y44.827 Z10.000 F800.000
G1 X66.827 Y74.415 Z10.000 F800.000
G1 X69.517 Y74.415 Z10.000 F800.000
G1 X96.415 Y47.517 Z10.000 F800.000
G1 X96.415 Y50.206 Z10.000 F800.000
G1 X72.206 Y74.415 Z10.000 F800.000
G1 X74.896 Y74.415 Z10.000 F800.000
G1 X96.415 Y52.896 Z10.000 F800.000
G1 X96.415 Y55.586 Z10.000 F800.000
G1 X77.586 Y74.415 Z10.000 F800.000
G1 X80.276 Y74.415 Z10.000 F800.000
G1 X96.415 Y58.276 Z10.000 F800.000
G1 X96.415 Y60.966 Z10.000 F800.000
G1 X82.966 Y74.415 Z10.000 F800.000
G1 X85.656 Y74.415 Z10.000 F800.000
G1 X96.415 Y63.656 Z10.000 F800.000
G1 X96.415 Y66.345 Z10.000 F800.000
G1 X88.345 Y74.415 Z10.000 F800.000
G1 X91.035 Y74.415 Z10.000 F800.000
G1 X96.415 Y69.035 Z10.000 F800.000
G1 X96.415 Y71.725 Z10.000 F800.000
G1 X93.725 Y74.415 Z10.000 F800.000
G1 X96.415 Y74.415 Z10.000 F800.000
G1 X94.683 Y74.415 Z9.000 F800.000
G1 X96.415 Y74.415 Z8.000 F800.000
G1 X93.725 Y74.415 Z8.000 F800.000
G1 X96.415 Y71.725 Z8.000 F800.000
G1 X96.415 Y69.035 Z8.000 F800.000
G1 X91.035 Y74.415 Z8.000 F800.000
G1 X88.345 Y74.415 Z8.000 F800.000
G1 X96.415 Y66.345 Z8.000 F800.000
G1 X96.415 Y63.656 Z8.000 F800.000
G1 X85.656 Y74.415 Z8.000 F800.000
G1 X82.966 Y74.415 Z8.000 F800.000
G1 X96.415 Y60.966 Z8.000 F800.000
G1 X96.415 Y58.276 Z8.000 F800.000
G1 X80.276 Y74.415 Z8.000 F800.000
G1 X77.586 Y74.415 Z8.000 F800.000
G1 X96.415 Y55.586 Z8.000 F800.000
G1 X96.415 Y52.896 Z8.000 F800.000
G1 X74.896 Y74.415 Z8.000 F800.000
G1 X72.206 Y74.415 Z8.000 F800.000
G1 X96.415 Y50.206 Z8.000 F800.000
G1 X96.415 Y47.517 Z8.000 F800.000
G1 X69.517 Y74.415 Z8.000 F800.000
G1 X66.827 Y74.415 Z8.000 F800.000
G1 X96.415 Y44.827 Z8.000 F800.000
G1 X96.415 Y42.137 Z8.000 F800.000
G1 X64.137 Y74.415 Z8.000 F800.000
G1 X61.447 Y74.415 Z8.000 F800.000
G1 X96.415 Y39.447 Z8.000 F800.000
G1 X96.415 Y36.757 Z8.000 F800.000
G1 X58.757 Y74.415 Z8.000 F800.000
G1 X56.067 Y74.415 Z8.000 F800.000
G1 X96.415 Y34.067 Z8.000 F800.000
G1 X96.415 Y31.378 Z8.000 F800.000
G1 X53.378 Y74.415 Z8.000 F800.000
G1 X50.688 Y74.415 Z8.000 F800.000
G1 X96.415 Y28.688 Z8.000 F800.000
G1 X96.415 Y25.998 Z8.000 F800.000
G1 X47.998 Y74.415 Z8.000 F800.000
G1 X45.308 Y74.415 Z8.000 F800.000
G1 X96.415 Y23.308 Z8.000 F800.000
G1 X96.415 Y20.618 Z8.000 F800.000
G1 X42.618 Y74.415 Z8.000 F800.000
G1 X39.928 Y74.415 Z8.000 F800.000
G1 X96.415 Y17.928 Z8.000 F800.000
G1 X96.415 Y15.239 Z8.000 F800.000
G1 X37.239 Y74.415 Z8.000 F800.000
G1 X34.549 Y74.415 Z8.000 F800.000
G1 X95.379 Y13.585 Z8.000 F800.000
G1 X92.689 Y13.585 Z8.000 F800.000
G1 X31.859 Y74.415 Z8.000 F800.000
G1 X29.169 Y74.415 Z8.000 F800.000
G1 X89.999 Y13.585 Z8.000 F800.000
G1 X87.309 Y13.585 Z8.000 F800.000
G1 X26.479 Y74.415 Z8.000 F800.000
G1 X23.789 Y74.415 Z8.000 F800.000
G1 X84.619 Y13.585 Z8.000 F800.000
G1 X81.930 Y13.585 Z8.000 F800.000
G1 X21.100 Y74.415 Z8.000 F800.000
G1 X18.410 Y74.415 Z8.000 F800.000
G1 X79.240 Y13.585 Z8.000 F800.000
G1 X76.550 Y13.585 Z8.000 F800.000
G1 X15.720 Y74.415 Z8.000 F800.000
G1 X13.585 Y74.415 Z8.000 F800.000
G1 X13.585 Y73.860 Z8.000 F800.000
G1 X73.860 Y13.585 Z8.000 F800.000
G1 X71.170 Y13.585 Z8.000 F800.000
G1 X13.585 Y71.170 Z8.000 F800.000
G1 X13.585 Y68.480 Z8.000 F800.000
G1 X68.480 Y13.585 Z8.000 F800.000
G1 X65.791 Y13.585 Z8.000 F800.000
G1 X13.585 Y65.791 Z8.000 F800.000
G1 X13.585 Y63.101 Z8.000 F800.000
G1 X63.101 Y13.585 Z8.000 F800.000
G1 X60.411 Y13.585 Z8.000 F800.000
G1 X13.585 Y60.411 Z8.000 F800.000
G1 X13.585 Y57.721 Z8.000 F800.000
G1 X57.721 Y13.585 Z8.000 F800.000
G1 X55.031 Y13.585 Z8.000 F800.000
G1 X13.585 Y55.031 Z8.000 F800.000
G1 X13.585 Y52.341 Z8.000 F800.000
G1 X52.341 Y13.585 Z8.000 F800.000
G1 X49.652 Y13.585 Z8.000 F800.000
G1 X13.585 Y49.652 Z8.000 F800.000
G1 X13.585 Y46.962 Z8.000 F800.000
G1 X46.962 Y13.585 Z8.000 F800.000
G1 X44.272 Y13.585 Z8.000 F800.000
G1 X13.585 Y44.272 Z8.000 F800.000
G1 X13.585 Y41.582 Z8.000 F800.000
G1 X41.582 Y13.585 Z8.000 F800.000
G1 X38.892 Y13.585 Z8.000 F800.000
G1 X13.585 Y38.892 Z8.000 F800.000
G1 X13.585 Y36.202 Z8.000 F800.000
G1 X36.202 Y13.585 Z8.000 F800.000
G1 X33.513 Y13.585 Z8.000 F800.000
G1 X13.585 Y33.513 Z8.000 F800.000
G1 X13.585 Y30.823 Z8.000 F800.000
G1 X30.823 Y13.585 Z8.000 F800.000
G1 X28.133 Y13.585 Z8.000 F800.000
G1 X13.585 Y28.133 Z8.000 F800.000
G1 X13.585 Y25.443 Z8.000 F800.000
G1 X25.443 Y13.585 Z8.000 F800.000
G1 X22.753 Y13.585 Z8.000 F800.000
G1 X13.585 Y22.753 Z8.000 F800.000
G1 X13.585 Y20.063 Z8.000 F800.000
G1 X20.063 Y13.585 Z8.000 F800.000
G1 X17.374 Y13.585 Z8.000 F800.000
G1 X13.585 Y17.374 Z8.000 F800.000
G1 X13.585 Y14.684 Z8.000 F800.000
G1 X13.585 Y13.585 Z8.000 F800.000
G1 X14.684 Y13.585 Z8.000 F800.000
G1 X13.585 Y14.684 Z8.000 F800.000
G1 X14.197 Y14.071 Z7.500 F800.000
G1 X13.585 Y14.684 Z7.000 F800.000
G1 X14.684 Y13.585 Z7.000 F800.000
G1 X13.585 Y13.585 Z7.000 F800.000
G1 X13.585 Y14.684 Z7.000 F800.000
G1 X13.585 Y17.374 Z7.000 F800.000
G1 X17.374 Y13.585 Z7.000 F800.000
G1 X20.063 Y13.585 Z7.000 F800.000
G1 X13.585 Y20.063 Z7.000 F800.000
G1 X13.585 Y22.753 Z7.000 F800.000
G1 X22.753 Y13.585 Z7.000 F800.000
G1 X25.443 Y13.585 Z7.000 F800.000
G1 X13.585 Y25.443 Z7.000 F800.000
G1 X13.585 Y28.133 Z7.000 F800.000
G1 X28.133 Y13.585 Z7.000 F800.000
G1 X30.823 Y13.585 Z7.000 F800.000
G1 X13.585 Y30.823 Z7.000 F800.000
G1 X13.585 Y33.513 Z7.000 F800.000
G1 X33.513 Y13.585 Z7.000 F800.000
G1 X36.202 Y13.585 Z7.000 F800.000
G1 X13.585 Y36.202 Z7.000 F800.000
G1 X13.585 Y38.892 Z7.000 F800.000
G1 X38.892 Y13.585 Z7.000 F800.000
G1 X41.582 Y13.585 Z7.000 F800.000
G1 X13.585 Y41.582 Z7.000 F800.000
G1 X13.585 Y44.272 Z7.000 F800.000
G1 X44.272 Y13.585 Z7.000 F800.000
G1 X46.962 Y13.585 Z7.000 F800.000
G1 X13.585 Y46.962 Z7.000 F800.000
G1 X13.585 Y49.652 Z7.000 F800.000
G1 X49.652 Y13.585 Z7.000 F800.000
G1 X52.341 Y13.585 Z7.000 F800.000
G1 X13.585 Y52.341 Z7.000 F800.000
G1 X13.585 Y55.031 Z7.000 F800.000
G1 X55.031 Y13.585 Z7.000 F800.000
G1 X57.721 Y13.585 Z7.000 F800.000
G1 X13.585 Y57.721 Z7.000 F800.000
G1 X13.585 Y60.411 Z7.000 F800.000
G1 X60.411 Y13.585 Z7.000 F800.000
G1 X63.101 Y13.585 Z7.000 F800.000
G1 X13.585 Y63.101 Z7.000 F800.000
G1 X13.585 Y65.791 Z7.000 F800.000
G1 X65.791 Y13.585 Z7.000 F800.000
G1 X68.480 Y13.585 Z7.000 F800.000
G1 X13.585 Y68.480 Z7.000 F800.000
G1 X13.585 Y71.170 Z7.000 F800.000
G1 X71.170 Y13.585 Z7.000 F800.000
G1 X73.860 Y13.585 Z7.000 F800.000
G1 X13.585 Y73.860 Z7.000 F800.000
G1 X13.585 Y74.415 Z7.000 F800.000
G1 X15.720 Y74.415 Z7.000 F800.000
G1 X76.550 Y13.585 Z7.000 F800.000
G1 X79.240 Y13.585 Z7.000 F800.000
G1 X18.410 Y74.415 Z7.000 F800.000
G1 X21.100 Y74.415 Z7.000 F800.000
G1 X81.930 Y13.585 Z7.000 F800.000
G1 X84.619 Y13.585 Z7.000 F800.000
G1 X23.789 Y74.415 Z7.000 F800.000
G1 X26.479 Y74.415 Z7.000 F800.000
G1 X87.309 Y13.585 Z7.000 F800.000
G1 X89.999 Y13.585 Z7.000 F800.000
G1 X29.169 Y74.415 Z7.000 F800.000
G1 X31.859 Y74.415 Z7.000 F800.000
G1 X92.689 Y13.585 Z7.000 F800.000
G1 X95.379 Y13.585 Z7.000 F800.000
G1 X34.549 Y74.415 Z7.000 F800.000
G1 X37.239 Y74.415 Z7.000 F800.000
G1 X96.415 Y15.239 Z7.000 F800.000
G1 X96.415 Y17.928 Z7.000 F800.000
G1 X39.928 Y74.415 Z7.000 F800.000
G1 X42.618 Y74.415 Z7.000 F800.000
G1 X96.415 Y20.618 Z7.000 F800.000
G1 X96.415 Y23.308 Z7.000 F800.000
G1 X45.308 Y74.415 Z7.000 F800.000
G1 X47.998 Y74.415 Z7.000 F800.000
G1 X96.415 Y25.998 Z7.000 F800.000
G1 X96.415 Y28.688 Z7.000 F800.000
G1 X50.688 Y74.415 Z7.000 F800.000
G1 X53.378 Y74.415 Z7.000 F800.000
G1 X96.415 Y31.378 Z7.000 F800.000
G1 X96.415 Y34.067 Z7.000 F800.000
G1 X56.067 Y74.415 Z7.000 F800.000
G1 X58.757 Y74.415 Z7.000 F800.000
G1 X96.415 Y36.757 Z7.000 F800.000
G1 X96.415 Y39.447 Z7.000 F800.000
G1 X61.447 Y74.415 Z7.000 F800.000
G1 X64.137 Y74.415 Z7.000 F800.000
G1 X96.415 Y42.137 Z7.000 F800.000
G1 X96.415 Y44.827 Z7.000 F800.000
G1 X66.827 Y74.415 Z7.000 F800.000
G1 X69.517 Y74.415 Z7.000 F800.000
G1 X96.415 Y47.517 Z7.000 F800.000
G1 X96.415 Y50.206 Z7.000 F800.000
G1 X72.206 Y74.415 Z7.000 F800.000
G1 X74.896 Y74.415 Z7.000 F800.000
G1 X96.415 Y52.896 Z7.000 F800.000
G1 X96.415 Y55.586 Z7.000 F800.000
G1 X77.586 Y74.415 Z7.000 F800.000
G1 X80.276 Y74.415 Z7.000 F800.000
G1 X96.415 Y58.276 Z7.000 F800.000
G1 X96.415 Y60.966 Z7.000 F800.000
G1 X82.966 Y74.415 Z7.000 F800.000
G1 X85.656 Y74.415 Z7.000 F800.000
G1 X96.415 Y63.656 Z7.000 F800.000
G1 X96.415 Y66.345 Z7.000 F800.000
G1 X88.345 Y74.415 Z7.000 F800.000
G1 X91.035 Y74.415 Z7.000 F800.000
G1 X96.415 Y69.035 Z7.000 F800.000
G1 X96.415 Y71.725 Z7.000 F800.000
G1 X93.725 Y74.415 Z7.000 F800.000
G1 X96.415 Y74.415 Z7.000 F800.000
G0 X96.415 Y74.415 Z27.000
(Finish operation: RampEntryDressup001)
(Begin operation: Profile)
(Path: Profile)
(Profile)
(Compensated Tool Path. Diameter: 3.17)
G0 Z27.000
G0 X98.293 Y76.293
G0 Z25.000
G1 X98.293 Y76.293 Z22.000 F800.000
G2 X98.415 Y76.000 Z22.000 I-0.293 J-0.293 K0.000 F800.000
G1 X98.415 Y12.000 Z22.000 F800.000
G2 X98.000 Y11.585 Z22.000 I-0.415 J0.000 K0.000 F800.000
G1 X12.000 Y11.585 Z22.000 F800.000
G2 X11.585 Y12.000 Z22.000 I0.000 J0.415 K0.000 F800.000
G1 X11.585 Y76.000 Z22.000 F800.000
G2 X12.000 Y76.415 Z22.000 I0.415 J-0.000 K0.000 F800.000
G1 X98.000 Y76.415 Z22.000 F800.000
G2 X98.293 Y76.293 Z22.000 I-0.000 J-0.415 K0.000 F800.000
G0 Z27.000
G0 Z27.000
(Finish operation: Profile)
(Begin operation: Profile001)
(Path: Profile001)
(Profile001)
(Compensated Tool Path. Diameter: 3.17)
G0 Z27.000
G0 X230.293 Y77.543
G0 Z25.000
G1 X230.293 Y77.543 Z20.000 F800.000
G2 X230.415 Y77.250 Z20.000 I-0.293 J-0.293 K0.000 F800.000
G1 X230.415 Y62.250 Z20.000 F800.000
G2 X230.000 Y61.835 Z20.000 I-0.415 J0.000 K0.000 F800.000
G1 X110.000 Y61.835 Z20.000 F800.000
G2 X109.585 Y62.250 Z20.000 I0.000 J0.415 K0.000 F800.000
G1 X109.585 Y77.250 Z20.000 F800.000
G2 X110.000 Y77.665 Z20.000 I0.415 J-0.000 K0.000 F800.000
G1 X230.000 Y77.665 Z20.000 F800.000
G2 X230.293 Y77.543 Z20.000 I-0.000 J-0.415 K0.000 F800.000
G0 Z27.000
G0 X230.000 Y51.915 Z27.000
G0 X230.000 Y51.915 Z25.000
G1 X230.000 Y51.915 Z20.000 F800.000
G2 X230.415 Y51.500 Z20.000 I-0.000 J-0.415 K0.000 F800.000
G1 X230.415 Y36.500 Z20.000 F800.000
G2 X230.000 Y36.085 Z20.000 I-0.415 J0.000 K0.000 F800.000
G1 X110.000 Y36.085 Z20.000 F800.000
G2 X109.585 Y36.500 Z20.000 I0.000 J0.415 K0.000 F800.000
G1 X109.585 Y51.500 Z20.000 F800.000
G2 X110.000 Y51.915 Z20.000 I0.415 J-0.000 K0.000 F800.000
G1 X230.000 Y51.915 Z20.000 F800.000
G0 Z27.000
G0 Y26.165 Z27.000
G0 Y26.165 Z25.000
G1 X230.000 Y26.165 Z20.000 F800.000
G2 X230.415 Y25.750 Z20.000 I-0.000 J-0.415 K0.000 F800.000
G1 X230.415 Y10.750 Z20.000 F800.000
G2 X230.000 Y10.335 Z20.000 I-0.415 J0.000 K0.000 F800.000
G1 X110.000 Y10.335 Z20.000 F800.000
G2 X109.585 Y10.750 Z20.000 I0.000 J0.415 K0.000 F800.000
G1 X109.585 Y25.750 Z20.000 F800.000
G2 X110.000 Y26.165 Z20.000 I0.415 J-0.000 K0.000 F800.000
G1 X230.000 Y26.165 Z20.000 F800.000
G1 X230.000 Y26.165 Z18.000 F800.000
G2 X230.415 Y25.750 Z18.000 I-0.000 J-0.415 K0.000 F800.000
G1 X230.415 Y10.750 Z18.000 F800.000
G2 X230.000 Y10.335 Z18.000 I-0.415 J0.000 K0.000 F800.000
G1 X110.000 Y10.335 Z18.000 F800.000
G2 X109.585 Y10.750 Z18.000 I0.000 J0.415 K0.000 F800.000
G1 X109.585 Y25.750 Z18.000 F800.000
G2 X110.000 Y26.165 Z18.000 I0.415 J-0.000 K0.000 F800.000
G1 X230.000 Y26.165 Z18.000 F800.000
G0 Z27.000
G0 Y36.085 Z27.000
G0 Y36.085 Z25.000
G1 X230.000 Y36.085 Z18.000 F800.000
G1 X110.000 Y36.085 Z18.000 F800.000
G2 X109.585 Y36.500 Z18.000 I0.000 J0.415 K0.000 F800.000
G1 X109.585 Y51.500 Z18.000 F800.000
G2 X110.000 Y51.915 Z18.000 I0.415 J-0.000 K0.000 F800.000
G1 X230.000 Y51.915 Z18.000 F800.000
G2 X230.415 Y51.500 Z18.000 I-0.000 J-0.415 K0.000 F800.000
G1 X230.415 Y36.500 Z18.000 F800.000
G2 X230.000 Y36.085 Z18.000 I-0.415 J0.000 K0.000 F800.000
G0 Z27.000
G0 Y61.835 Z27.000
G0 Y61.835 Z25.000
G1 X230.000 Y61.835 Z18.000 F800.000
G1 X110.000 Y61.835 Z18.000 F800.000
G2 X109.585 Y62.250 Z18.000 I0.000 J0.415 K0.000 F800.000
G1 X109.585 Y77.250 Z18.000 F800.000
G2 X110.000 Y77.665 Z18.000 I0.415 J-0.000 K0.000 F800.000
G1 X230.000 Y77.665 Z18.000 F800.000
G2 X230.415 Y77.250 Z18.000 I-0.000 J-0.415 K0.000 F800.000
G1 X230.415 Y62.250 Z18.000 F800.000
G2 X230.000 Y61.835 Z18.000 I-0.415 J0.000 K0.000 F800.000
G1 X230.000 Y61.835 Z16.000 F800.000
G1 X110.000 Y61.835 Z16.000 F800.000
G2 X109.585 Y62.250 Z16.000 I0.000 J0.415 K0.000 F800.000
G1 X109.585 Y77.250 Z16.000 F800.000
G2 X110.000 Y77.665 Z16.000 I0.415 J-0.000 K0.000 F800.000
G1 X230.000 Y77.665 Z16.000 F800.000
G2 X230.415 Y77.250 Z16.000 I-0.000 J-0.415 K0.000 F800.000
G1 X230.415 Y62.250 Z16.000 F800.000
G2 X230.000 Y61.835 Z16.000 I-0.415 J0.000 K0.000 F800.000
G0 Z27.000
G0 Y51.915 Z27.000
G0 Y51.915 Z25.000
G1 X230.000 Y51.915 Z16.000 F800.000
G2 X230.415 Y51.500 Z16.000 I-0.000 J-0.415 K0.000 F800.000
G1 X230.415 Y36.500 Z16.000 F800.000
G2 X230.000 Y36.085 Z16.000 I-0.415 J0.000 K0.000 F800.000
G1 X110.000 Y36.085 Z16.000 F800.000
G2 X109.585 Y36.500 Z16.000 I0.000 J0.415 K0.000 F800.000
G1 X109.585 Y51.500 Z16.000 F800.000
G2 X110.000 Y51.915 Z16.000 I0.415 J-0.000 K0.000 F800.000
G1 X230.000 Y51.915 Z16.000 F800.000
G0 Z27.000
G0 Y26.165 Z27.000
G0 Y26.165 Z25.000
G1 X230.000 Y26.165 Z16.000 F800.000
G2 X230.415 Y25.750 Z16.000 I-0.000 J-0.415 K0.000 F800.000
G1 X230.415 Y10.750 Z16.000 F800.000
G2 X230.000 Y10.335 Z16.000 I-0.415 J0.000 K0.000 F800.000
G1 X110.000 Y10.335 Z16.000 F800.000
G2 X109.585 Y10.750 Z16.000 I0.000 J0.415 K0.000 F800.000
G1 X109.585 Y25.750 Z16.000 F800.000
G2 X110.000 Y26.165 Z16.000 I0.415 J-0.000 K0.000 F800.000
G1 X230.000 Y26.165 Z16.000 F800.000
G1 X230.000 Y26.165 Z14.000 F800.000
G2 X230.415 Y25.750 Z14.000 I-0.000 J-0.415 K0.000 F800.000
G1 X230.415 Y10.750 Z14.000 F800.000
G2 X230.000 Y10.335 Z14.000 I-0.415 J0.000 K0.000 F800.000
G1 X110.000 Y10.335 Z14.000 F800.000
G2 X109.585 Y10.750 Z14.000 I0.000 J0.415 K0.000 F800.000
G1 X109.585 Y25.750 Z14.000 F800.000
G2 X110.000 Y26.165 Z14.000 I0.415 J-0.000 K0.000 F800.000
G1 X230.000 Y26.165 Z14.000 F800.000
G0 Z27.000
G0 Y36.085 Z27.000
G0 Y36.085 Z25.000
G1 X230.000 Y36.085 Z14.000 F800.000
G1 X110.000 Y36.085 Z14.000 F800.000
G2 X109.585 Y36.500 Z14.000 I0.000 J0.415 K0.000 F800.000
G1 X109.585 Y51.500 Z14.000 F800.000
G2 X110.000 Y51.915 Z14.000 I0.415 J-0.000 K0.000 F800.000
G1 X230.000 Y51.915 Z14.000 F800.000
G2 X230.415 Y51.500 Z14.000 I-0.000 J-0.415 K0.000 F800.000
G1 X230.415 Y36.500 Z14.000 F800.000
G2 X230.000 Y36.085 Z14.000 I-0.415 J0.000 K0.000 F800.000
G0 Z27.000
G0 Y61.835 Z27.000
G0 Y61.835 Z25.000
G1 X230.000 Y61.835 Z14.000 F800.000
G1 X110.000 Y61.835 Z14.000 F800.000
G2 X109.585 Y62.250 Z14.000 I0.000 J0.415 K0.000 F800.000
G1 X109.585 Y77.250 Z14.000 F800.000
G2 X110.000 Y77.665 Z14.000 I0.415 J-0.000 K0.000 F800.000
G1 X230.000 Y77.665 Z14.000 F800.000
G2 X230.415 Y77.250 Z14.000 I-0.000 J-0.415 K0.000 F800.000
G1 X230.415 Y62.250 Z14.000 F800.000
G2 X230.000 Y61.835 Z14.000 I-0.415 J0.000 K0.000 F800.000
G0 Z27.000
G0 Z27.000
(Finish operation: Profile001)
(Begin postamble)
M5
G17 G90
M2
