(Exported by FreeCAD)
(Post Processor: grbl_post)
(Output Time:2024-12-11 15:14:00.640299)
(Begin preamble)
G17 G90
G21
(Begin operation: Fixture)
(Path: Fixture)
G54
(Finish operation: Fixture)
(Begin operation: endmill_compression_3175_spe001)
(Path: endmill_compression_3175_spe001)
(endmill_compression_3175_spe001)
(Begin toolchange)
( M6 T2 )
M3 S18000
(Finish operation: endmill_compression_3175_spe001)
(Begin operation: Pocket_Shape)
(Path: Pocket_Shape)
(Pocket_Shape)
G0 Z23.000
G0 X-3.170 Y6.415
G0 Z21.000
G1 X-3.170 Y6.415 Z16.000 F800.000
G1 X-6.415 Y6.415 Z16.000 F800.000
G1 X-6.415 Y3.170 Z16.000 F800.000
G1 X-3.170 Y6.415 Z16.000 F800.000
G1 X1.313 Y6.415 Z16.000 F800.000
G1 X-6.415 Y-1.313 Z16.000 F800.000
G1 X-6.415 Y-5.796 Z16.000 F800.000
G1 X5.796 Y6.415 Z16.000 F800.000
G1 X6.415 Y6.415 Z16.000 F800.000
G1 X6.415 Y2.551 Z16.000 F800.000
G1 X-2.551 Y-6.415 Z16.000 F800.000
G1 X1.932 Y-6.415 Z16.000 F800.000
G1 X6.415 Y-1.932 Z16.000 F800.000
G1 X6.415 Y-6.415 Z16.000 F800.000
G1 X6.415 Y-6.415 Z14.000 F800.000
G1 X6.415 Y-1.932 Z14.000 F800.000
G1 X1.932 Y-6.415 Z14.000 F800.000
G1 X-2.551 Y-6.415 Z14.000 F800.000
G1 X6.415 Y2.551 Z14.000 F800.000
G1 X6.415 Y6.415 Z14.000 F800.000
G1 X5.796 Y6.415 Z14.000 F800.000
G1 X-6.415 Y-5.796 Z14.000 F800.000
G1 X-6.415 Y-1.313 Z14.000 F800.000
G1 X1.313 Y6.415 Z14.000 F800.000
G1 X-3.170 Y6.415 Z14.000 F800.000
G1 X-6.415 Y3.170 Z14.000 F800.000
G1 X-6.415 Y6.415 Z14.000 F800.000
G1 X-3.170 Y6.415 Z14.000 F800.000
G1 X-3.170 Y6.415 Z12.000 F800.000
G1 X-6.415 Y6.415 Z12.000 F800.000
G1 X-6.415 Y3.170 Z12.000 F800.000
G1 X-3.170 Y6.415 Z12.000 F800.000
G1 X1.313 Y6.415 Z12.000 F800.000
G1 X-6.415 Y-1.313 Z12.000 F800.000
G1 X-6.415 Y-5.796 Z12.000 F800.000
G1 X5.796 Y6.415 Z12.000 F800.000
G1 X6.415 Y6.415 Z12.000 F800.000
G1 X6.415 Y2.551 Z12.000 F800.000
G1 X-2.551 Y-6.415 Z12.000 F800.000
G1 X1.932 Y-6.415 Z12.000 F800.000
G1 X6.415 Y-1.932 Z12.000 F800.000
G1 X6.415 Y-6.415 Z12.000 F800.000
G0 Z23.000
G0 Z23.000
(Finish operation: Pocket_Shape)
(Begin postamble)
M5
G17 G90
M2
