(Exported by FreeCAD)
(Post Processor: grbl_post)
(Output Time:2024-11-11 12:32:34.953117)
(Begin preamble)
G17 G90
G21
(Begin operation: Fixture)
(Path: Fixture)
G54
(Finish operation: Fixture)
(Begin operation: vbit_90_spe001)
(Path: vbit_90_spe001)
(vbit_90_spe001)
(Begin toolchange)
( M6 T2 )
M3 S18000
(Finish operation: vbit_90_spe001)
(Begin operation: Vcarve)
(Path: Vcarve)
(starting)
G0 Z3.000
G0 X10.000 Y10.000 Z3.000
G1 X10.000 Y10.000 Z0.000 F300.000
G1 X11.500 Y11.500 Z-1.500 F300.000
G1 X10.000 Y13.000 Z-0.000 F300.000
G0 Z3.000
G0 X11.500 Y11.500 Z3.000
G1 X11.500 Y11.500 Z-1.500 F300.000
G1 X488.500 Y11.500 Z-1.500 F300.000
G1 X490.000 Y10.000 Z-0.000 F300.000
G0 Z3.000
G0 X488.500 Y11.500 Z3.000
G1 X488.500 Y11.500 Z-1.500 F300.000
G1 X490.000 Y13.000 Z-0.000 F300.000
G0 Z5.000
(Finish operation: Vcarve)
(Begin operation: Vcarve001)
(Path: Vcarve001)
(starting)
G0 Z3.000
G0 X10.000 Y80.000 Z3.000
G1 X10.000 Y80.000 Z0.000 F300.000
G1 X11.500 Y81.500 Z-1.500 F300.000
G1 X10.000 Y83.000 Z-0.000 F300.000
G0 Z3.000
G0 X11.500 Y81.500 Z3.000
G1 X11.500 Y81.500 Z-1.500 F300.000
G1 X488.500 Y81.500 Z-1.500 F300.000
G1 X490.000 Y80.000 Z-0.000 F300.000
G0 Z3.000
G0 X488.500 Y81.500 Z3.000
G1 X488.500 Y81.500 Z-1.500 F300.000
G1 X490.000 Y83.000 Z-0.000 F300.000
G0 Z5.000
(Finish operation: Vcarve001)
(Begin operation: Vcarve002)
(Path: Vcarve002)
(starting)
G0 Z3.000
G0 X10.000 Y150.000 Z3.000
G1 X10.000 Y150.000 Z0.000 F300.000
G1 X11.500 Y151.500 Z-1.500 F300.000
G1 X10.000 Y153.000 Z-0.000 F300.000
G0 Z3.000
G0 X11.500 Y151.500 Z3.000
G1 X11.500 Y151.500 Z-1.500 F300.000
G1 X488.500 Y151.500 Z-1.500 F300.000
G1 X490.000 Y150.000 Z-0.000 F300.000
G0 Z3.000
G0 X488.500 Y151.500 Z3.000
G1 X488.500 Y151.500 Z-1.500 F300.000
G1 X490.000 Y153.000 Z-0.000 F300.000
G0 Z5.000
(Finish operation: Vcarve002)
(Begin operation: Vcarve003)
(Path: Vcarve003)
(starting)
G0 Z3.000
G0 X10.000 Y220.000 Z3.000
G1 X10.000 Y220.000 Z0.000 F300.000
G1 X11.500 Y221.500 Z-1.000 F300.000
G1 X10.000 Y223.000 Z-0.000 F300.000
G0 Z3.000
G0 X11.500 Y221.500 Z3.000
G1 X11.500 Y221.500 Z-1.000 F300.000
G1 X488.500 Y221.500 Z-1.000 F300.000
G1 X490.000 Y220.000 Z-0.000 F300.000
G0 Z3.000
G0 X488.500 Y221.500 Z3.000
G1 X488.500 Y221.500 Z-1.000 F300.000
G1 X490.000 Y223.000 Z-0.000 F300.000
G0 Z5.000
(Finish operation: Vcarve003)
(Begin operation: Vcarve004)
(Path: Vcarve004)
(starting)
G0 Z3.000
G0 X10.000 Y290.000 Z3.000
G1 X10.000 Y290.000 Z0.000 F300.000
G1 X11.500 Y291.500 Z-1.500 F300.000
G1 X10.000 Y293.000 Z-0.000 F300.000
G0 Z3.000
G0 X11.500 Y291.500 Z3.000
G1 X11.500 Y291.500 Z-1.500 F300.000
G1 X488.500 Y291.500 Z-1.500 F300.000
G1 X490.000 Y290.000 Z-0.000 F300.000
G0 Z3.000
G0 X488.500 Y291.500 Z3.000
G1 X488.500 Y291.500 Z-1.500 F300.000
G1 X490.000 Y293.000 Z-0.000 F300.000
G0 Z5.000
(Finish operation: Vcarve004)
(Begin operation: Vcarve005)
(Path: Vcarve005)
(starting)
G0 Z3.000
G0 X10.000 Y360.000 Z3.000
G1 X10.000 Y360.000 Z0.000 F300.000
G1 X11.500 Y361.500 Z-1.500 F300.000
G1 X10.000 Y363.000 Z-0.000 F300.000
G0 Z3.000
G0 X11.500 Y361.500 Z3.000
G1 X11.500 Y361.500 Z-1.500 F300.000
G1 X488.500 Y361.500 Z-1.500 F300.000
G1 X490.000 Y360.000 Z-0.000 F300.000
G0 Z3.000
G0 X488.500 Y361.500 Z3.000
G1 X488.500 Y361.500 Z-1.500 F300.000
G1 X490.000 Y363.000 Z-0.000 F300.000
G0 Z5.000
(Finish operation: Vcarve005)
(Begin operation: Vcarve006)
(Path: Vcarve006)
(starting)
G0 Z3.000
G0 X10.000 Y430.000 Z3.000
G1 X10.000 Y430.000 Z0.000 F300.000
G1 X11.500 Y431.500 Z-1.000 F300.000
G1 X10.000 Y433.000 Z-0.000 F300.000
G0 Z3.000
G0 X11.500 Y431.500 Z3.000
G1 X11.500 Y431.500 Z-1.000 F300.000
G1 X488.500 Y431.500 Z-1.000 F300.000
G1 X490.000 Y430.000 Z-0.000 F300.000
G0 Z3.000
G0 X488.500 Y431.500 Z3.000
G1 X488.500 Y431.500 Z-1.000 F300.000
G1 X490.000 Y433.000 Z-0.000 F300.000
G0 Z5.000
(Finish operation: Vcarve006)
(Begin postamble)
M5
G17 G90
M2
