(Exported by FreeCAD)
(Post Processor: grbl_post)
(Output Time:2024-11-12 14:35:03.031594)
(Begin preamble)
G17 G90
G21
(Begin operation: Fixture)
(Path: Fixture)
G54
(Finish operation: Fixture)
(Begin operation: vbit_30_spe001)
(Path: vbit_30_spe001)
(vbit_30_spe001)
(Begin toolchange)
( M6 T4 )
M3 S1800
(Finish operation: vbit_30_spe001)
(Begin operation: Vcarve013)
(Path: Vcarve013)
(starting)
G0 Z3.000
G0 X58.299 Y36.656 Z3.000
G1 X58.299 Y36.656 Z-0.001 F300.000
G1 X59.754 Y34.834 Z-4.000 F300.000
G1 X59.825 Y34.745 Z-4.000 F300.000
G1 X61.220 Y32.927 Z-4.000 F300.000
G1 X61.365 Y32.734 Z-4.000 F300.000
G1 X61.361 Y32.717 Z-4.000 F300.000
G1 X61.229 Y32.277 Z-4.000 F300.000
G1 X60.961 Y31.439 Z-4.000 F300.000
G1 X60.945 Y31.389 Z-4.000 F300.000
G1 X60.903 Y31.271 Z-4.000 F300.000
G1 X60.628 Y30.525 Z-4.000 F300.000
G1 X60.450 Y30.069 Z-4.000 F300.000
G1 X60.379 Y29.892 Z-4.000 F300.000
G1 X60.289 Y29.679 Z-4.000 F300.000
G1 X59.922 Y28.852 Z-4.000 F300.000
G1 X59.880 Y28.764 Z-4.000 F300.000
G1 X59.789 Y28.576 Z-4.000 F300.000
G1 X59.524 Y28.047 Z-4.000 F300.000
G1 X59.245 Y27.522 Z-4.000 F300.000
G1 X59.139 Y27.328 Z-4.000 F300.000
G1 X59.100 Y27.258 Z-4.000 F300.000
G1 X58.641 Y26.486 Z-4.000 F300.000
G1 X58.554 Y26.347 Z-4.000 F300.000
G1 X58.427 Y26.149 Z-4.000 F300.000
G1 X58.150 Y25.734 Z-4.000 F300.000
G1 X57.804 Y25.239 Z-4.000 F300.000
G1 X57.679 Y25.065 Z-4.000 F300.000
G1 X57.627 Y24.994 Z-4.000 F300.000
G1 X57.069 Y24.274 Z-4.000 F300.000
G1 X57.060 Y24.262 Z-4.000 F300.000
G1 X56.920 Y24.094 Z-4.000 F300.000
G1 X56.477 Y23.577 Z-4.000 F300.000
G1 X56.269 Y23.345 Z-4.000 F300.000
G1 X56.117 Y23.180 Z-4.000 F300.000
G1 X55.725 Y22.769 Z-4.000 F300.000
G1 X55.436 Y22.482 Z-4.000 F300.000
G1 X55.271 Y22.322 Z-4.000 F300.000
G1 X54.952 Y22.025 Z-4.000 F300.000
G1 X54.560 Y21.679 Z-4.000 F300.000
G1 X54.382 Y21.527 Z-4.000 F300.000
G1 X54.149 Y21.333 Z-4.000 F300.000
G1 X53.640 Y20.935 Z-4.000 F300.000
G1 X53.451 Y20.793 Z-4.000 F300.000
G1 X53.312 Y20.691 Z-4.000 F300.000
G1 X52.677 Y20.254 Z-4.000 F300.000
G1 X52.479 Y20.123 Z-4.000 F300.000
G1 X52.440 Y20.098 Z-4.000 F300.000
G1 X51.674 Y19.638 Z-4.000 F300.000
G1 X51.532 Y19.555 Z-4.000 F300.000
G1 X51.469 Y19.521 Z-4.000 F300.000
G1 X50.634 Y19.086 Z-4.000 F300.000
G1 X50.587 Y19.062 Z-4.000 F300.000
G1 X50.423 Y18.987 Z-4.000 F300.000
G1 X49.601 Y18.620 Z-4.000 F300.000
G1 X49.558 Y18.602 Z-4.000 F300.000
G1 X49.346 Y18.518 Z-4.000 F300.000
G1 X48.576 Y18.228 Z-4.000 F300.000
G1 X48.449 Y18.184 Z-4.000 F300.000
G1 X48.239 Y18.115 Z-4.000 F300.000
G1 X47.507 Y17.887 Z-4.000 F300.000
G1 X47.310 Y17.831 Z-4.000 F300.000
G1 X47.104 Y17.776 Z-4.000 F300.000
G1 X46.394 Y17.598 Z-4.000 F300.000
G1 X46.144 Y17.541 Z-4.000 F300.000
G1 X45.943 Y17.500 Z-4.000 F300.000
G1 X45.238 Y17.362 Z-4.000 F300.000
G1 X44.952 Y17.314 Z-4.000 F300.000
G1 X44.761 Y17.285 Z-4.000 F300.000
G1 X44.038 Y17.182 Z-4.000 F300.000
G1 X43.737 Y17.147 Z-4.000 F300.000
G1 X43.548 Y17.128 Z-4.000 F300.000
G1 X42.794 Y17.059 Z-4.000 F300.000
G1 X42.490 Y17.038 Z-4.000 F300.000
G1 X42.313 Y17.029 Z-4.000 F300.000
G1 X41.505 Y16.994 Z-4.000 F300.000
G1 X41.222 Y16.988 Z-4.000 F300.000
G1 X41.064 Y16.986 Z-4.000 F300.000
G1 X40.170 Y16.987 Z-4.000 F300.000
G1 X39.879 Y16.992 Z-4.000 F300.000
G1 X39.724 Y16.998 Z-4.000 F300.000
G1 X39.032 Y17.026 Z-4.000 F300.000
G1 X38.574 Y17.055 Z-4.000 F300.000
G1 X38.405 Y17.068 Z-4.000 F300.000
G1 X37.926 Y17.108 Z-4.000 F300.000
G1 X37.293 Y17.176 Z-4.000 F300.000
G1 X37.117 Y17.197 Z-4.000 F300.000
G1 X36.851 Y17.232 Z-4.000 F300.000
G1 X36.041 Y17.356 Z-4.000 F300.000
G1 X35.853 Y17.388 Z-4.000 F300.000
G1 X35.805 Y17.396 Z-4.000 F300.000
G1 X34.813 Y17.597 Z-4.000 F300.000
G1 X34.793 Y17.602 Z-4.000 F300.000
G1 X34.623 Y17.643 Z-4.000 F300.000
G1 X33.810 Y17.849 Z-4.000 F300.000
G1 X33.620 Y17.902 Z-4.000 F300.000
G1 X33.415 Y17.964 Z-4.000 F300.000
G1 X32.855 Y18.138 Z-4.000 F300.000
G1 X32.448 Y18.275 Z-4.000 F300.000
G1 X32.246 Y18.347 Z-4.000 F300.000
G1 X31.928 Y18.464 Z-4.000 F300.000
G1 X31.316 Y18.707 Z-4.000 F300.000
G1 X31.105 Y18.796 Z-4.000 F300.000
G1 X31.026 Y18.829 Z-4.000 F300.000
G1 X30.210 Y19.207 Z-4.000 F300.000
G1 X30.152 Y19.235 Z-4.000 F300.000
G1 X30.001 Y19.313 Z-4.000 F300.000
G1 X29.304 Y19.683 Z-4.000 F300.000
G1 X29.143 Y19.774 Z-4.000 F300.000
G1 X28.935 Y19.896 Z-4.000 F300.000
G1 X28.477 Y20.173 Z-4.000 F300.000
G1 X28.112 Y20.407 Z-4.000 F300.000
G1 X27.914 Y20.539 Z-4.000 F300.000
G1 X27.675 Y20.702 Z-4.000 F300.000
G1 X27.126 Y21.099 Z-4.000 F300.000
G1 X26.925 Y21.250 Z-4.000 F300.000
G1 X26.895 Y21.273 Z-4.000 F300.000
G1 X26.171 Y21.860 Z-4.000 F300.000
G1 X26.135 Y21.891 Z-4.000 F300.000
G1 X25.991 Y22.018 Z-4.000 F300.000
G1 X25.394 Y22.560 Z-4.000 F300.000
G1 X25.271 Y22.676 Z-4.000 F300.000
G1 X25.097 Y22.847 Z-4.000 F300.000
G1 X24.943 Y23.001 Z-4.000 F300.000
G1 X24.496 Y23.467 Z-4.000 F300.000
G1 X24.412 Y23.557 Z-4.000 F300.000
G1 X24.254 Y23.733 Z-4.000 F300.000
G1 X24.067 Y23.946 Z-4.000 F300.000
G1 X23.650 Y24.439 Z-4.000 F300.000
G1 X23.605 Y24.494 Z-4.000 F300.000
G1 X23.470 Y24.665 Z-4.000 F300.000
G1 X23.250 Y24.949 Z-4.000 F300.000
G1 X22.862 Y25.469 Z-4.000 F300.000
G1 X22.861 Y25.470 Z-4.000 F300.000
G1 X22.755 Y25.622 Z-4.000 F300.000
G1 X22.489 Y26.006 Z-4.000 F300.000
G1 X22.187 Y26.461 Z-4.000 F300.000
G1 X22.128 Y26.553 Z-4.000 F300.000
G1 X22.086 Y26.622 Z-4.000 F300.000
G1 X21.781 Y27.121 Z-4.000 F300.000
G1 X21.561 Y27.496 Z-4.000 F300.000
G1 X21.469 Y27.658 Z-4.000 F300.000
G1 X21.444 Y27.701 Z-4.000 F300.000
G1 X21.123 Y28.299 Z-4.000 F300.000
G1 X20.986 Y28.565 Z-4.000 F300.000
G1 X20.903 Y28.730 Z-4.000 F300.000
G1 X20.813 Y28.913 Z-4.000 F300.000
G1 X20.518 Y29.541 Z-4.000 F300.000
G1 X20.459 Y29.670 Z-4.000 F300.000
G1 X20.388 Y29.834 Z-4.000 F300.000
G1 X20.235 Y30.192 Z-4.000 F300.000
G1 X19.984 Y30.805 Z-4.000 F300.000
G1 X19.963 Y30.858 Z-4.000 F300.000
G1 X19.921 Y30.970 Z-4.000 F300.000
G1 X19.710 Y31.541 Z-4.000 F300.000
G1 X19.558 Y31.972 Z-4.000 F300.000
G1 X19.503 Y32.135 Z-4.000 F300.000
G1 X19.466 Y32.244 Z-4.000 F300.000
G1 X19.238 Y32.969 Z-4.000 F300.000
G1 X19.178 Y33.169 Z-4.000 F300.000
G1 X19.134 Y33.324 Z-4.000 F300.000
G1 X19.025 Y33.711 Z-4.000 F300.000
G1 X18.846 Y34.388 Z-4.000 F300.000
G1 X18.826 Y34.469 Z-4.000 F300.000
G1 X18.807 Y34.547 Z-4.000 F300.000
G1 X18.644 Y35.251 Z-4.000 F300.000
G1 X18.559 Y35.643 Z-4.000 F300.000
G1 X18.529 Y35.790 Z-4.000 F300.000
G1 X18.476 Y36.052 Z-4.000 F300.000
G1 X18.323 Y36.872 Z-4.000 F300.000
G1 X18.315 Y36.915 Z-4.000 F300.000
G1 X18.291 Y37.064 Z-4.000 F300.000
G1 X18.189 Y37.714 Z-4.000 F300.000
G1 X18.115 Y38.221 Z-4.000 F300.000
G1 X18.097 Y38.358 Z-4.000 F300.000
G1 X18.069 Y38.574 Z-4.000 F300.000
G1 X17.969 Y39.432 Z-4.000 F300.000
G1 X17.957 Y39.544 Z-4.000 F300.000
G1 X17.945 Y39.680 Z-4.000 F300.000
G1 X17.842 Y40.897 Z-4.000 F300.000
G1 X17.833 Y41.027 Z-4.000 F300.000
G1 X17.815 Y41.272 Z-4.000 F300.000
G1 X17.766 Y42.276 Z-4.000 F300.000
G1 X17.761 Y42.401 Z-4.000 F300.000
G1 X17.735 Y43.170 Z-4.000 F300.000
G1 X17.726 Y43.679 Z-4.000 F300.000
G1 X17.726 Y43.795 Z-4.000 F300.000
G1 X17.723 Y45.146 Z-4.000 F300.000
G1 X17.726 Y45.350 Z-4.000 F300.000
G1 X17.729 Y45.466 Z-4.000 F300.000
G1 X17.763 Y46.620 Z-4.000 F300.000
G1 X17.779 Y46.971 Z-4.000 F300.000
G1 X17.786 Y47.095 Z-4.000 F300.000
G1 X17.845 Y48.052 Z-4.000 F300.000
G1 X17.885 Y48.549 Z-4.000 F300.000
G1 X17.897 Y48.684 Z-4.000 F300.000
G1 X17.970 Y49.443 Z-4.000 F300.000
G1 X18.044 Y50.086 Z-4.000 F300.000
G1 X18.062 Y50.224 Z-4.000 F300.000
G1 X18.137 Y50.791 Z-4.000 F300.000
G1 X18.257 Y51.575 Z-4.000 F300.000
G1 X18.281 Y51.724 Z-4.000 F300.000
G1 X18.345 Y52.099 Z-4.000 F300.000
G1 X18.523 Y53.023 Z-4.000 F300.000
G1 X18.556 Y53.181 Z-4.000 F300.000
G1 X18.595 Y53.368 Z-4.000 F300.000
G1 X18.844 Y54.427 Z-4.000 F300.000
G1 X18.886 Y54.593 Z-4.000 F300.000
G1 X18.886 Y54.597 Z-4.000 F300.000
G1 X19.220 Y55.786 Z-4.000 F300.000
G1 X19.221 Y55.789 Z-4.000 F300.000
G1 X19.275 Y55.958 Z-4.000 F300.000
G1 X19.600 Y56.944 Z-4.000 F300.000
G1 X19.655 Y57.098 Z-4.000 F300.000
G1 X19.720 Y57.276 Z-4.000 F300.000
G1 X20.022 Y58.067 Z-4.000 F300.000
G1 X20.144 Y58.364 Z-4.000 F300.000
G1 X20.223 Y58.550 Z-4.000 F300.000
G1 X20.488 Y59.156 Z-4.000 F300.000
G1 X20.688 Y59.585 Z-4.000 F300.000
G1 X20.780 Y59.774 Z-4.000 F300.000
G1 X20.998 Y60.210 Z-4.000 F300.000
G1 X21.287 Y60.756 Z-4.000 F300.000
G1 X21.392 Y60.946 Z-4.000 F300.000
G1 X21.555 Y61.234 Z-4.000 F300.000
G1 X21.940 Y61.878 Z-4.000 F300.000
G1 X22.060 Y62.072 Z-4.000 F300.000
G1 X22.160 Y62.229 Z-4.000 F300.000
G1 X22.647 Y62.952 Z-4.000 F300.000
G1 X22.780 Y63.142 Z-4.000 F300.000
G1 X22.815 Y63.192 Z-4.000 F300.000
G1 X23.405 Y63.973 Z-4.000 F300.000
G1 X23.537 Y64.142 Z-4.000 F300.000
G1 X23.555 Y64.164 Z-4.000 F300.000
G1 X23.931 Y64.614 Z-4.000 F300.000
G1 X24.216 Y64.946 Z-4.000 F300.000
G1 X24.337 Y65.083 Z-4.000 F300.000
G1 X24.361 Y65.109 Z-4.000 F300.000
G1 X24.752 Y65.527 Z-4.000 F300.000
G1 X25.055 Y65.841 Z-4.000 F300.000
G1 X25.178 Y65.966 Z-4.000 F300.000
G1 X25.195 Y65.983 Z-4.000 F300.000
G1 X25.613 Y66.384 Z-4.000 F300.000
G1 X25.917 Y66.667 Z-4.000 F300.000
G1 X26.050 Y66.787 Z-4.000 F300.000
G1 X26.071 Y66.805 Z-4.000 F300.000
G1 X26.502 Y67.174 Z-4.000 F300.000
G1 X26.820 Y67.438 Z-4.000 F300.000
G1 X26.956 Y67.549 Z-4.000 F300.000
G1 X26.981 Y67.568 Z-4.000 F300.000
G1 X27.425 Y67.906 Z-4.000 F300.000
G1 X27.758 Y68.151 Z-4.000 F300.000
G1 X27.897 Y68.252 Z-4.000 F300.000
G1 X27.927 Y68.272 Z-4.000 F300.000
G1 X28.381 Y68.578 Z-4.000 F300.000
G1 X28.729 Y68.805 Z-4.000 F300.000
G1 X28.876 Y68.899 Z-4.000 F300.000
G1 X28.911 Y68.919 Z-4.000 F300.000
G1 X29.380 Y69.198 Z-4.000 F300.000
G1 X29.739 Y69.403 Z-4.000 F300.000
G1 X29.892 Y69.488 Z-4.000 F300.000
G1 X29.924 Y69.505 Z-4.000 F300.000
G1 X30.419 Y69.760 Z-4.000 F300.000
G1 X30.778 Y69.939 Z-4.000 F300.000
G1 X30.951 Y70.022 Z-4.000 F300.000
G1 X30.969 Y70.030 Z-4.000 F300.000
G1 X31.498 Y70.265 Z-4.000 F300.000
G1 X31.849 Y70.415 Z-4.000 F300.000
G1 X32.036 Y70.492 Z-4.000 F300.000
G1 X32.057 Y70.500 Z-4.000 F300.000
G1 X32.629 Y70.716 Z-4.000 F300.000
G1 X32.940 Y70.829 Z-4.000 F300.000
G1 X33.133 Y70.896 Z-4.000 F300.000
G1 X33.210 Y70.921 Z-4.000 F300.000
G1 X33.806 Y71.109 Z-4.000 F300.000
G1 X34.062 Y71.186 Z-4.000 F300.000
G1 X34.252 Y71.240 Z-4.000 F300.000
G1 X34.391 Y71.278 Z-4.000 F300.000
G1 X35.206 Y71.481 Z-4.000 F300.000
G1 X35.393 Y71.525 Z-4.000 F300.000
G1 X35.669 Y71.586 Z-4.000 F300.000
G1 X36.372 Y71.722 Z-4.000 F300.000
G1 X36.553 Y71.755 Z-4.000 F300.000
G1 X36.976 Y71.825 Z-4.000 F300.000
G1 X37.556 Y71.907 Z-4.000 F300.000
G1 X37.729 Y71.929 Z-4.000 F300.000
G1 X38.338 Y71.999 Z-4.000 F300.000
G1 X38.757 Y72.038 Z-4.000 F300.000
G1 X38.926 Y72.052 Z-4.000 F300.000
G1 X39.752 Y72.108 Z-4.000 F300.000
G1 X39.980 Y72.118 Z-4.000 F300.000
G1 X40.142 Y72.124 Z-4.000 F300.000
G1 X41.222 Y72.147 Z-4.000 F300.000
G1 X41.228 Y72.148 Z-4.000 F300.000
G1 X41.356 Y72.147 Z-4.000 F300.000
G1 X42.239 Y72.132 Z-4.000 F300.000
G1 X42.343 Y72.130 Z-4.000 F300.000
G1 X42.484 Y72.125 Z-4.000 F300.000
G1 X43.202 Y72.091 Z-4.000 F300.000
G1 X43.316 Y72.085 Z-4.000 F300.000
G1 X43.704 Y72.059 Z-4.000 F300.000
G1 X44.150 Y72.022 Z-4.000 F300.000
G1 X44.270 Y72.011 Z-4.000 F300.000
G1 X44.875 Y71.950 Z-4.000 F300.000
G1 X45.080 Y71.925 Z-4.000 F300.000
G1 X45.207 Y71.909 Z-4.000 F300.000
G1 X45.991 Y71.800 Z-4.000 F300.000
G1 X46.002 Y71.799 Z-4.000 F300.000
G1 X46.128 Y71.777 Z-4.000 F300.000
G1 X46.888 Y71.640 Z-4.000 F300.000
G1 X47.025 Y71.615 Z-4.000 F300.000
G1 X47.082 Y71.603 Z-4.000 F300.000
G1 X47.759 Y71.452 Z-4.000 F300.000
G1 X47.904 Y71.419 Z-4.000 F300.000
G1 X48.112 Y71.368 Z-4.000 F300.000
G1 X48.615 Y71.232 Z-4.000 F300.000
G1 X48.772 Y71.189 Z-4.000 F300.000
G1 X49.099 Y71.092 Z-4.000 F300.000
G1 X49.459 Y70.977 Z-4.000 F300.000
G1 X49.613 Y70.927 Z-4.000 F300.000
G1 X50.039 Y70.780 Z-4.000 F300.000
G1 X50.276 Y70.692 Z-4.000 F300.000
G1 X50.440 Y70.629 Z-4.000 F300.000
G1 X50.934 Y70.431 Z-4.000 F300.000
G1 X51.080 Y70.368 Z-4.000 F300.000
G1 X51.247 Y70.295 Z-4.000 F300.000
G1 X51.785 Y70.047 Z-4.000 F300.000
G1 X51.862 Y70.009 Z-4.000 F300.000
G1 X52.025 Y69.927 Z-4.000 F300.000
G1 X52.593 Y69.628 Z-4.000 F300.000
G1 X52.616 Y69.616 Z-4.000 F300.000
G1 X52.785 Y69.519 Z-4.000 F300.000
G1 X53.353 Y69.181 Z-4.000 F300.000
G1 X53.361 Y69.177 Z-4.000 F300.000
G1 X53.523 Y69.071 Z-4.000 F300.000
G1 X54.065 Y68.706 Z-4.000 F300.000
G1 X54.090 Y68.690 Z-4.000 F300.000
G1 X54.227 Y68.590 Z-4.000 F300.000
G1 X54.745 Y68.197 Z-4.000 F300.000
G1 X54.784 Y68.169 Z-4.000 F300.000
G1 X54.890 Y68.082 Z-4.000 F300.000
G1 X55.383 Y67.665 Z-4.000 F300.000
G1 X55.443 Y67.616 Z-4.000 F300.000
G1 X55.500 Y67.563 Z-4.000 F300.000
G1 X55.972 Y67.124 Z-4.000 F300.000
G1 X56.087 Y67.016 Z-4.000 F300.000
G1 X56.092 Y67.011 Z-4.000 F300.000
G1 X56.541 Y66.553 Z-4.000 F300.000
G1 X56.654 Y66.437 Z-4.000 F300.000
G1 X56.716 Y66.370 Z-4.000 F300.000
G1 X57.085 Y65.962 Z-4.000 F300.000
G1 X57.194 Y65.841 Z-4.000 F300.000
G1 X57.314 Y65.702 Z-4.000 F300.000
G1 X57.608 Y65.349 Z-4.000 F300.000
G1 X57.710 Y65.225 Z-4.000 F300.000
G1 X57.866 Y65.029 Z-4.000 F300.000
G1 X58.106 Y64.715 Z-4.000 F300.000
G1 X58.204 Y64.586 Z-4.000 F300.000
G1 X58.374 Y64.352 Z-4.000 F300.000
G1 X58.580 Y64.058 Z-4.000 F300.000
G1 X58.671 Y63.927 Z-4.000 F300.000
G1 X58.841 Y63.672 Z-4.000 F300.000
G1 X59.028 Y63.380 Z-4.000 F300.000
G1 X59.113 Y63.244 Z-4.000 F300.000
G1 X59.266 Y62.992 Z-4.000 F300.000
G1 X59.448 Y62.678 Z-4.000 F300.000
G1 X59.528 Y62.538 Z-4.000 F300.000
G1 X59.655 Y62.307 Z-4.000 F300.000
G1 X59.841 Y61.952 Z-4.000 F300.000
G1 X59.913 Y61.813 Z-4.000 F300.000
G1 X60.008 Y61.621 Z-4.000 F300.000
G1 X60.202 Y61.207 Z-4.000 F300.000
G1 X60.264 Y61.073 Z-4.000 F300.000
G1 X60.325 Y60.934 Z-4.000 F300.000
G1 X60.529 Y60.446 Z-4.000 F300.000
G1 X60.585 Y60.309 Z-4.000 F300.000
G1 X60.612 Y60.239 Z-4.000 F300.000
G1 X60.637 Y60.173 Z-4.000 F300.000
G1 X60.091 Y59.390 Z-4.000 F300.000
G1 X59.979 Y59.232 Z-4.000 F300.000
G1 X59.278 Y58.266 Z-4.000 F300.000
G1 X59.206 Y58.169 Z-4.000 F300.000
G1 X58.492 Y57.221 Z-3.624 F300.000
G1 X58.460 Y57.179 Z-3.464 F300.000
G1 X57.735 Y56.250 Z0.000 F300.000
G0 Z3.000
G0 X60.637 Y60.173 Z3.000
G1 X60.637 Y60.173 Z-4.000 F300.000
G1 X61.322 Y59.695 Z-4.000 F300.000
G1 X62.100 Y59.126 Z-4.000 F300.000
G1 X62.905 Y58.504 Z-4.000 F300.000
G1 X63.747 Y57.823 Z-4.000 F300.000
G1 X64.626 Y57.074 Z-3.078 F300.000
G1 X65.550 Y56.250 Z-0.002 F300.000
G0 Z3.000
G0 X78.784 Y70.671 Z3.000
G1 X78.784 Y70.671 Z-4.000 F300.000
G1 X82.410 Y74.296 Z-0.003 F300.000
G0 Z3.000
G0 X75.159 Y74.296 Z3.000
G1 X75.159 Y74.296 Z-0.003 F300.000
G1 X75.188 Y74.267 Z-0.112 F300.000
G1 X75.217 Y74.238 Z-0.220 F300.000
G1 X75.274 Y74.181 Z-0.432 F300.000
G1 X75.390 Y74.065 Z-0.865 F300.000
G1 X75.622 Y73.833 Z-1.731 F300.000
G1 X76.085 Y73.370 Z-3.459 F300.000
G1 X77.012 Y72.443 Z-4.000 F300.000
G1 X78.784 Y70.671 Z-4.000 F300.000
G1 X78.784 Y70.590 Z-4.000 F300.000
G1 X78.784 Y66.884 Z-4.000 F300.000
G1 X78.784 Y59.472 Z-4.000 F300.000
G1 X78.784 Y44.648 Z-4.000 F300.000
G1 X78.784 Y18.625 Z-4.000 F300.000
G0 Z3.000
G0 X75.159 Y15.000 Z3.000
G1 X75.159 Y15.000 Z-0.002 F300.000
G1 X78.784 Y18.625 Z-4.000 F300.000
G1 X82.410 Y15.000 Z-0.002 F300.000
G0 Z3.000
G0 X93.348 Y15.000 Z3.000
G1 X93.348 Y15.000 Z-0.002 F300.000
G1 X97.034 Y18.686 Z-4.000 F300.000
G1 X100.720 Y15.000 Z-0.002 F300.000
G0 Z3.000
G0 X97.034 Y18.686 Z3.000
G1 X97.034 Y18.686 Z-4.000 F300.000
G1 X97.034 Y54.454 Z-4.000 F300.000
G1 X93.348 Y58.140 Z-0.002 F300.000
G0 Z3.000
G0 X97.034 Y54.454 Z3.000
G1 X97.034 Y54.454 Z-4.000 F300.000
G1 X100.720 Y58.140 Z-0.002 F300.000
G0 Z3.000
G0 X107.549 Y58.140 Z3.000
G1 X107.549 Y58.140 Z-0.002 F300.000
G1 X110.385 Y55.304 Z-4.000 F300.000
G1 X107.549 Y52.468 Z-0.003 F300.000
G0 Z3.000
G0 X110.385 Y55.304 Z3.000
G1 X110.385 Y55.304 Z-4.000 F300.000
G1 X113.552 Y55.304 Z-4.000 F300.000
G1 X117.137 Y55.304 Z-4.000 F300.000
G1 X117.137 Y52.468 Z-4.000 F300.000
G1 X117.137 Y18.585 Z-4.000 F300.000
G0 Z3.000
G0 X120.722 Y15.000 Z3.000
G1 X120.722 Y15.000 Z0.000 F300.000
G1 X117.137 Y18.585 Z-4.000 F300.000
G1 X113.552 Y15.000 Z0.000 F300.000
G0 Z3.000
G0 X136.411 Y15.000 Z3.000
G1 X136.411 Y15.000 Z-0.001 F300.000
G1 X139.996 Y18.585 Z-4.000 F300.000
G1 X143.581 Y15.000 Z-0.003 F300.000
G0 Z3.000
G0 X139.996 Y18.585 Z3.000
G1 X139.996 Y18.585 Z-4.000 F300.000
G1 X139.996 Y52.468 Z-4.000 F300.000
G1 X139.996 Y55.304 Z-4.000 F300.000
G1 X136.411 Y55.304 Z-4.000 F300.000
G1 X133.245 Y55.304 Z-4.000 F300.000
G0 Z3.000
G0 X130.409 Y58.140 Z3.000
G1 X130.409 Y58.140 Z-0.002 F300.000
G1 X133.245 Y55.304 Z-4.000 F300.000
G1 X130.409 Y52.468 Z-0.003 F300.000
G0 Z3.000
G0 X127.973 Y52.468 Z3.000
G1 X127.973 Y52.468 Z-0.003 F300.000
G1 X125.137 Y55.304 Z-4.000 F300.000
G1 X120.802 Y55.304 Z-4.000 F300.000
G1 X120.722 Y55.305 Z-4.000 F300.000
G1 X117.177 Y55.355 Z-4.000 F300.000
G1 X117.177 Y58.140 Z-4.000 F300.000
G1 X117.178 Y58.165 Z-4.000 F300.000
G1 X117.183 Y59.788 Z-4.000 F300.000
G1 X117.183 Y59.837 Z-4.000 F300.000
G1 X117.198 Y61.300 Z-4.000 F300.000
G1 X117.199 Y61.365 Z-4.000 F300.000
G1 X117.224 Y62.667 Z-4.000 F300.000
G1 X117.226 Y62.754 Z-4.000 F300.000
G1 X117.262 Y63.897 Z-4.000 F300.000
G1 X117.266 Y64.006 Z-4.000 F300.000
G1 X117.298 Y64.711 Z-4.000 F300.000
G1 X117.318 Y64.988 Z-4.000 F300.000
G1 X117.333 Y65.150 Z-4.000 F300.000
G1 X117.375 Y65.600 Z-4.000 F300.000
G1 X117.418 Y65.971 Z-4.000 F300.000
G1 X117.450 Y66.204 Z-4.000 F300.000
G1 X117.482 Y66.423 Z-4.000 F300.000
G1 X117.559 Y66.865 Z-4.000 F300.000
G1 X117.613 Y67.144 Z-4.000 F300.000
G1 X117.636 Y67.234 Z-4.000 F300.000
G1 X117.764 Y67.737 Z-4.000 F300.000
G1 X117.770 Y67.759 Z-4.000 F300.000
G1 X117.841 Y67.987 Z-4.000 F300.000
G1 X117.919 Y68.213 Z-4.000 F300.000
G1 X117.937 Y68.263 Z-4.000 F300.000
G1 X118.000 Y68.419 Z-4.000 F300.000
G1 X118.100 Y68.652 Z-4.000 F300.000
G1 X118.179 Y68.807 Z-4.000 F300.000
G1 X118.246 Y68.934 Z-4.000 F300.000
G1 X118.286 Y69.000 Z-4.000 F300.000
G1 X118.367 Y69.134 Z-4.000 F300.000
G1 X118.472 Y69.279 Z-4.000 F300.000
G1 X118.528 Y69.348 Z-4.000 F300.000
G1 X118.620 Y69.460 Z-4.000 F300.000
G1 X118.670 Y69.516 Z-4.000 F300.000
G1 X118.786 Y69.643 Z-4.000 F300.000
G1 X118.977 Y69.824 Z-4.000 F300.000
G1 X118.980 Y69.828 Z-4.000 F300.000
G1 X119.151 Y69.973 Z-4.000 F300.000
G1 X119.201 Y70.015 Z-4.000 F300.000
G1 X119.464 Y70.211 Z-4.000 F300.000
G1 X119.466 Y70.212 Z-4.000 F300.000
G1 X119.657 Y70.338 Z-4.000 F300.000
G1 X119.773 Y70.413 Z-4.000 F300.000
G1 X119.988 Y70.535 Z-4.000 F300.000
G1 X120.132 Y70.613 Z-4.000 F300.000
G1 X120.200 Y70.647 Z-4.000 F300.000
G1 X120.492 Y70.787 Z-4.000 F300.000
G1 X120.543 Y70.810 Z-4.000 F300.000
G1 X120.722 Y70.885 Z-4.000 F300.000
G1 X121.007 Y70.998 Z-4.000 F300.000
G1 X121.008 Y70.998 Z-4.000 F300.000
G1 X121.256 Y71.082 Z-4.000 F300.000
G1 X121.524 Y71.168 Z-4.000 F300.000
G1 X121.618 Y71.193 Z-4.000 F300.000
G1 X122.098 Y71.315 Z-4.000 F300.000
G1 X122.168 Y71.331 Z-4.000 F300.000
G1 X122.583 Y71.415 Z-4.000 F300.000
G1 X122.728 Y71.439 Z-4.000 F300.000
G1 X123.208 Y71.510 Z-4.000 F300.000
G1 X123.407 Y71.537 Z-4.000 F300.000
G1 X123.534 Y71.549 Z-4.000 F300.000
G1 X124.135 Y71.597 Z-4.000 F300.000
G1 X124.239 Y71.604 Z-4.000 F300.000
G1 X124.500 Y71.615 Z-4.000 F300.000
G1 X124.612 Y71.618 Z-4.000 F300.000
G1 X125.307 Y70.946 Z-4.000 F300.000
G1 X125.396 Y70.859 Z-4.000 F300.000
G1 X125.853 Y70.401 Z-4.000 F300.000
G1 X126.340 Y69.914 Z-4.000 F300.000
G1 X126.631 Y69.623 Z-4.000 F300.000
G1 X127.001 Y69.253 Z-3.629 F300.000
G1 X127.448 Y68.806 Z-1.961 F300.000
G1 X127.973 Y68.281 Z-0.002 F300.000
G0 Z3.000
G0 X124.612 Y71.618 Z3.000
G1 X124.612 Y71.618 Z-4.000 F300.000
G1 X124.911 Y71.922 Z-4.000 F300.000
G1 X125.532 Y72.533 Z-4.000 F300.000
G1 X126.213 Y73.184 Z-4.000 F300.000
G1 X127.973 Y74.812 Z-0.002 F300.000
G0 Z3.000
G0 X127.973 Y58.140 Z3.000
G1 X127.973 Y58.140 Z-0.002 F300.000
G1 X125.137 Y55.304 Z-4.000 F300.000
G0 Z3.000
G0 X117.177 Y55.355 Z3.000
G1 X117.177 Y55.355 Z-4.000 F300.000
G1 X117.137 Y55.304 Z-4.000 F300.000
G0 Z3.000
G0 X100.720 Y66.046 Z3.000
G1 X100.720 Y66.046 Z-0.003 F300.000
G1 X97.034 Y69.732 Z-4.000 F300.000
G1 X93.348 Y66.046 Z-0.003 F300.000
G0 Z3.000
G0 X97.034 Y69.732 Z3.000
G1 X97.034 Y69.732 Z-4.000 F300.000
G1 X97.034 Y70.610 Z-4.000 F300.000
G1 X93.348 Y74.296 Z-0.002 F300.000
G0 Z3.000
G0 X97.034 Y70.610 Z3.000
G1 X97.034 Y70.610 Z-4.000 F300.000
G1 X100.720 Y74.296 Z-0.003 F300.000
G0 Z3.000
G0 X139.996 Y55.304 Z3.000
G1 X139.996 Y55.304 Z-4.000 F300.000
G1 X140.036 Y55.355 Z-4.000 F300.000
G0 Z3.000
G0 X147.996 Y55.304 Z3.000
G1 X147.996 Y55.304 Z-4.000 F300.000
G1 X150.832 Y58.140 Z-0.002 F300.000
G0 Z3.000
G0 X150.832 Y52.468 Z3.000
G1 X150.832 Y52.468 Z-0.003 F300.000
G1 X147.996 Y55.304 Z-4.000 F300.000
G1 X143.662 Y55.304 Z-4.000 F300.000
G1 X143.581 Y55.305 Z-4.000 F300.000
G1 X140.036 Y55.355 Z-4.000 F300.000
G1 X140.036 Y58.140 Z-4.000 F300.000
G1 X140.037 Y58.162 Z-4.000 F300.000
G1 X140.042 Y59.785 Z-4.000 F300.000
G1 X140.042 Y59.837 Z-4.000 F300.000
G1 X140.057 Y61.300 Z-4.000 F300.000
G1 X140.058 Y61.365 Z-4.000 F300.000
G1 X140.083 Y62.667 Z-4.000 F300.000
G1 X140.086 Y62.754 Z-4.000 F300.000
G1 X140.121 Y63.897 Z-4.000 F300.000
G1 X140.125 Y64.010 Z-4.000 F300.000
G1 X140.157 Y64.710 Z-4.000 F300.000
G1 X140.178 Y64.992 Z-4.000 F300.000
G1 X140.192 Y65.146 Z-4.000 F300.000
G1 X140.235 Y65.600 Z-4.000 F300.000
G1 X140.277 Y65.967 Z-4.000 F300.000
G1 X140.309 Y66.204 Z-4.000 F300.000
G1 X140.341 Y66.425 Z-4.000 F300.000
G1 X140.418 Y66.865 Z-4.000 F300.000
G1 X140.473 Y67.144 Z-4.000 F300.000
G1 X140.495 Y67.234 Z-4.000 F300.000
G1 X140.623 Y67.737 Z-4.000 F300.000
G1 X140.629 Y67.759 Z-4.000 F300.000
G1 X140.700 Y67.987 Z-4.000 F300.000
G1 X140.778 Y68.213 Z-4.000 F300.000
G1 X140.796 Y68.263 Z-4.000 F300.000
G1 X140.859 Y68.419 Z-4.000 F300.000
G1 X140.959 Y68.652 Z-4.000 F300.000
G1 X141.039 Y68.807 Z-4.000 F300.000
G1 X141.105 Y68.934 Z-4.000 F300.000
G1 X141.145 Y69.000 Z-4.000 F300.000
G1 X141.225 Y69.131 Z-4.000 F300.000
G1 X141.331 Y69.279 Z-4.000 F300.000
G1 X141.396 Y69.359 Z-4.000 F300.000
G1 X141.481 Y69.462 Z-4.000 F300.000
G1 X141.539 Y69.527 Z-4.000 F300.000
G1 X141.645 Y69.643 Z-4.000 F300.000
G1 X141.836 Y69.824 Z-4.000 F300.000
G1 X141.840 Y69.828 Z-4.000 F300.000
G1 X142.011 Y69.973 Z-4.000 F300.000
G1 X142.060 Y70.015 Z-4.000 F300.000
G1 X142.324 Y70.211 Z-4.000 F300.000
G1 X142.324 Y70.211 Z-4.000 F300.000
G1 X142.517 Y70.338 Z-4.000 F300.000
G1 X142.633 Y70.413 Z-4.000 F300.000
G1 X142.848 Y70.535 Z-4.000 F300.000
G1 X142.992 Y70.613 Z-4.000 F300.000
G1 X143.060 Y70.647 Z-4.000 F300.000
G1 X143.345 Y70.785 Z-4.000 F300.000
G1 X143.402 Y70.810 Z-4.000 F300.000
G1 X143.575 Y70.882 Z-4.000 F300.000
G1 X143.866 Y70.997 Z-4.000 F300.000
G1 X143.873 Y71.000 Z-4.000 F300.000
G1 X144.121 Y71.084 Z-4.000 F300.000
G1 X144.383 Y71.168 Z-4.000 F300.000
G1 X144.478 Y71.193 Z-4.000 F300.000
G1 X144.958 Y71.315 Z-4.000 F300.000
G1 X145.028 Y71.331 Z-4.000 F300.000
G1 X145.443 Y71.415 Z-4.000 F300.000
G1 X145.588 Y71.439 Z-4.000 F300.000
G1 X146.068 Y71.510 Z-4.000 F300.000
G1 X146.267 Y71.537 Z-4.000 F300.000
G1 X146.394 Y71.549 Z-4.000 F300.000
G1 X146.995 Y71.597 Z-4.000 F300.000
G1 X147.097 Y71.604 Z-4.000 F300.000
G1 X147.359 Y71.615 Z-4.000 F300.000
G1 X147.471 Y71.618 Z-4.000 F300.000
G1 X148.166 Y70.946 Z-4.000 F300.000
G1 X148.255 Y70.859 Z-4.000 F300.000
G1 X148.712 Y70.401 Z-4.000 F300.000
G1 X149.199 Y69.914 Z-4.000 F300.000
G1 X149.491 Y69.622 Z-4.000 F300.000
G1 X149.860 Y69.253 Z-3.630 F300.000
G1 X150.307 Y68.806 Z-1.962 F300.000
G1 X150.832 Y68.281 Z-0.003 F300.000
G0 Z3.000
G0 X147.471 Y71.618 Z3.000
G1 X147.471 Y71.618 Z-4.000 F300.000
G1 X147.771 Y71.923 Z-4.000 F300.000
G1 X148.392 Y72.534 Z-4.000 F300.000
G1 X149.073 Y73.185 Z-4.000 F300.000
G1 X150.832 Y74.812 Z-0.002 F300.000
G0 Z3.000
G0 X66.114 Y36.656 Z3.000
G1 X66.114 Y36.656 Z-0.002 F300.000
G1 X64.969 Y35.650 Z-3.756 F300.000
G1 X63.878 Y34.725 Z-4.000 F300.000
G1 X62.838 Y33.876 Z-4.000 F300.000
G1 X61.844 Y33.095 Z-4.000 F300.000
G1 X61.365 Y32.734 Z-4.000 F300.000
G0 Z5.000
(Finish operation: Vcarve013)
(Begin operation: Vcarve014)
(Path: Vcarve014)
(starting)
G0 Z3.000
G0 X176.954 Y59.843 Z3.000
G1 X176.954 Y59.843 Z-0.003 F300.000
G1 X177.614 Y59.016 Z-3.088 F300.000
G1 X177.647 Y58.975 Z-3.241 F300.000
G1 X178.282 Y58.148 Z-4.000 F300.000
G1 X178.346 Y58.064 Z-4.000 F300.000
G1 X178.343 Y58.054 Z-4.000 F300.000
G1 X178.163 Y57.472 Z-4.000 F300.000
G1 X178.156 Y57.450 Z-4.000 F300.000
G1 X178.137 Y57.398 Z-4.000 F300.000
G1 X177.930 Y56.852 Z-4.000 F300.000
G1 X177.897 Y56.767 Z-4.000 F300.000
G1 X177.851 Y56.656 Z-4.000 F300.000
G1 X177.691 Y56.297 Z-4.000 F300.000
G1 X177.671 Y56.253 Z-4.000 F300.000
G1 X177.632 Y56.173 Z-4.000 F300.000
G1 X177.510 Y55.930 Z-4.000 F300.000
G1 X177.386 Y55.694 Z-4.000 F300.000
G1 X177.336 Y55.603 Z-4.000 F300.000
G1 X177.318 Y55.572 Z-4.000 F300.000
G1 X177.109 Y55.221 Z-4.000 F300.000
G1 X177.069 Y55.157 Z-4.000 F300.000
G1 X177.013 Y55.070 Z-4.000 F300.000
G1 X176.885 Y54.877 Z-4.000 F300.000
G1 X176.731 Y54.656 Z-4.000 F300.000
G1 X176.672 Y54.574 Z-4.000 F300.000
G1 X176.659 Y54.556 Z-4.000 F300.000
G1 X176.386 Y54.211 Z-4.000 F300.000
G1 X176.324 Y54.135 Z-4.000 F300.000
G1 X176.115 Y53.886 Z-4.000 F300.000
G1 X176.031 Y53.792 Z-4.000 F300.000
G1 X175.960 Y53.716 Z-4.000 F300.000
G1 X175.784 Y53.531 Z-4.000 F300.000
G1 X175.651 Y53.399 Z-4.000 F300.000
G1 X175.579 Y53.330 Z-4.000 F300.000
G1 X175.433 Y53.193 Z-4.000 F300.000
G1 X175.257 Y53.037 Z-4.000 F300.000
G1 X175.174 Y52.967 Z-4.000 F300.000
G1 X175.067 Y52.878 Z-4.000 F300.000
G1 X174.836 Y52.698 Z-4.000 F300.000
G1 X174.748 Y52.631 Z-4.000 F300.000
G1 X174.687 Y52.586 Z-4.000 F300.000
G1 X174.397 Y52.387 Z-4.000 F300.000
G1 X174.309 Y52.329 Z-4.000 F300.000
G1 X174.291 Y52.317 Z-4.000 F300.000
G1 X173.943 Y52.108 Z-4.000 F300.000
G1 X173.878 Y52.070 Z-4.000 F300.000
G1 X173.850 Y52.056 Z-4.000 F300.000
G1 X173.471 Y51.857 Z-4.000 F300.000
G1 X173.448 Y51.846 Z-4.000 F300.000
G1 X173.372 Y51.811 Z-4.000 F300.000
G1 X173.000 Y51.645 Z-4.000 F300.000
G1 X172.979 Y51.636 Z-4.000 F300.000
G1 X172.883 Y51.599 Z-4.000 F300.000
G1 X172.534 Y51.467 Z-4.000 F300.000
G1 X172.475 Y51.447 Z-4.000 F300.000
G1 X172.383 Y51.417 Z-4.000 F300.000
G1 X172.049 Y51.312 Z-4.000 F300.000
G1 X171.961 Y51.287 Z-4.000 F300.000
G1 X171.865 Y51.262 Z-4.000 F300.000
G1 X171.543 Y51.180 Z-4.000 F300.000
G1 X171.430 Y51.155 Z-4.000 F300.000
G1 X171.338 Y51.136 Z-4.000 F300.000
G1 X171.018 Y51.074 Z-4.000 F300.000
G1 X170.887 Y51.052 Z-4.000 F300.000
G1 X170.799 Y51.038 Z-4.000 F300.000
G1 X170.471 Y50.992 Z-4.000 F300.000
G1 X170.333 Y50.976 Z-4.000 F300.000
G1 X170.249 Y50.967 Z-4.000 F300.000
G1 X169.906 Y50.936 Z-4.000 F300.000
G1 X169.769 Y50.926 Z-4.000 F300.000
G1 X169.688 Y50.922 Z-4.000 F300.000
G1 X169.320 Y50.906 Z-4.000 F300.000
G1 X169.193 Y50.903 Z-4.000 F300.000
G1 X169.121 Y50.903 Z-4.000 F300.000
G1 X168.712 Y50.902 Z-4.000 F300.000
G1 X168.582 Y50.905 Z-4.000 F300.000
G1 X168.511 Y50.908 Z-4.000 F300.000
G1 X168.198 Y50.920 Z-4.000 F300.000
G1 X167.988 Y50.934 Z-4.000 F300.000
G1 X167.911 Y50.940 Z-4.000 F300.000
G1 X167.694 Y50.958 Z-4.000 F300.000
G1 X167.407 Y50.988 Z-4.000 F300.000
G1 X167.323 Y50.999 Z-4.000 F300.000
G1 X167.203 Y51.014 Z-4.000 F300.000
G1 X166.833 Y51.071 Z-4.000 F300.000
G1 X166.755 Y51.085 Z-4.000 F300.000
G1 X166.730 Y51.089 Z-4.000 F300.000
G1 X166.282 Y51.179 Z-4.000 F300.000
G1 X166.270 Y51.182 Z-4.000 F300.000
G1 X166.191 Y51.202 Z-4.000 F300.000
G1 X165.823 Y51.295 Z-4.000 F300.000
G1 X165.734 Y51.320 Z-4.000 F300.000
G1 X165.642 Y51.348 Z-4.000 F300.000
G1 X165.388 Y51.426 Z-4.000 F300.000
G1 X165.203 Y51.489 Z-4.000 F300.000
G1 X165.110 Y51.522 Z-4.000 F300.000
G1 X164.967 Y51.575 Z-4.000 F300.000
G1 X164.687 Y51.686 Z-4.000 F300.000
G1 X164.594 Y51.725 Z-4.000 F300.000
G1 X164.557 Y51.741 Z-4.000 F300.000
G1 X164.188 Y51.911 Z-4.000 F300.000
G1 X164.160 Y51.925 Z-4.000 F300.000
G1 X164.093 Y51.960 Z-4.000 F300.000
G1 X163.773 Y52.129 Z-4.000 F300.000
G1 X163.702 Y52.169 Z-4.000 F300.000
G1 X163.606 Y52.226 Z-4.000 F300.000
G1 X163.399 Y52.351 Z-4.000 F300.000
G1 X163.231 Y52.459 Z-4.000 F300.000
G1 X163.144 Y52.517 Z-4.000 F300.000
G1 X163.035 Y52.591 Z-4.000 F300.000
G1 X162.785 Y52.772 Z-4.000 F300.000
G1 X162.694 Y52.841 Z-4.000 F300.000
G1 X162.680 Y52.851 Z-4.000 F300.000
G1 X162.351 Y53.118 Z-4.000 F300.000
G1 X162.334 Y53.132 Z-4.000 F300.000
G1 X162.267 Y53.191 Z-4.000 F300.000
G1 X162.008 Y53.427 Z-4.000 F300.000
G1 X161.941 Y53.491 Z-4.000 F300.000
G1 X161.864 Y53.567 Z-4.000 F300.000
G1 X161.589 Y53.849 Z-4.000 F300.000
G1 X161.553 Y53.889 Z-4.000 F300.000
G1 X161.481 Y53.970 Z-4.000 F300.000
G1 X161.205 Y54.291 Z-4.000 F300.000
G1 X161.184 Y54.316 Z-4.000 F300.000
G1 X161.125 Y54.393 Z-4.000 F300.000
G1 X160.846 Y54.758 Z-4.000 F300.000
G1 X160.847 Y54.759 Z-4.000 F300.000
G1 X160.798 Y54.829 Z-4.000 F300.000
G1 X160.539 Y55.210 Z-4.000 F300.000
G1 X160.512 Y55.253 Z-4.000 F300.000
G1 X160.493 Y55.285 Z-4.000 F300.000
G1 X160.254 Y55.683 Z-4.000 F300.000
G1 X160.215 Y55.751 Z-4.000 F300.000
G1 X160.202 Y55.773 Z-4.000 F300.000
G1 X159.996 Y56.163 Z-4.000 F300.000
G1 X159.957 Y56.242 Z-4.000 F300.000
G1 X159.915 Y56.324 Z-4.000 F300.000
G1 X159.755 Y56.670 Z-4.000 F300.000
G1 X159.724 Y56.743 Z-4.000 F300.000
G1 X159.652 Y56.905 Z-4.000 F300.000
G1 X159.540 Y57.184 Z-4.000 F300.000
G1 X159.512 Y57.259 Z-4.000 F300.000
G1 X159.413 Y57.519 Z-4.000 F300.000
G1 X159.346 Y57.715 Z-4.000 F300.000
G1 X159.321 Y57.790 Z-4.000 F300.000
G1 X159.199 Y58.168 Z-4.000 F300.000
G1 X159.172 Y58.259 Z-4.000 F300.000
G1 X159.153 Y58.331 Z-4.000 F300.000
G1 X159.021 Y58.814 Z-4.000 F300.000
G1 X159.012 Y58.851 Z-4.000 F300.000
G1 X159.004 Y58.884 Z-4.000 F300.000
G1 X158.892 Y59.382 Z-4.000 F300.000
G1 X158.871 Y59.482 Z-4.000 F300.000
G1 X158.854 Y59.569 Z-4.000 F300.000
G1 X158.724 Y60.324 Z-4.000 F300.000
G1 X158.695 Y60.520 Z-4.000 F300.000
G1 X158.679 Y60.649 Z-4.000 F300.000
G1 X158.625 Y61.116 Z-4.000 F300.000
G1 X158.567 Y61.741 Z-4.000 F300.000
G1 X158.559 Y61.858 Z-4.000 F300.000
G1 X158.553 Y61.941 Z-4.000 F300.000
G1 X158.517 Y62.805 Z-4.000 F300.000
G1 X158.512 Y63.007 Z-4.000 F300.000
G1 X158.512 Y63.115 Z-4.000 F300.000
G1 X158.514 Y63.702 Z-4.000 F300.000
G1 X158.530 Y64.371 Z-4.000 F300.000
G1 X158.535 Y64.506 Z-4.000 F300.000
G1 X158.539 Y64.587 Z-4.000 F300.000
G1 X158.566 Y65.025 Z-4.000 F300.000
G1 X158.583 Y65.247 Z-4.000 F300.000
G1 X158.590 Y65.309 Z-4.000 F300.000
G1 X158.622 Y65.657 Z-4.000 F300.000
G1 X158.656 Y65.947 Z-4.000 F300.000
G1 X158.664 Y66.011 Z-4.000 F300.000
G1 X158.698 Y66.268 Z-4.000 F300.000
G1 X158.753 Y66.625 Z-4.000 F300.000
G1 X158.764 Y66.693 Z-4.000 F300.000
G1 X158.793 Y66.863 Z-4.000 F300.000
G1 X158.874 Y67.283 Z-4.000 F300.000
G1 X158.889 Y67.354 Z-4.000 F300.000
G1 X158.906 Y67.440 Z-4.000 F300.000
G1 X159.019 Y67.921 Z-4.000 F300.000
G1 X159.039 Y67.996 Z-4.000 F300.000
G1 X159.038 Y67.997 Z-4.000 F300.000
G1 X159.190 Y68.538 Z-4.000 F300.000
G1 X159.191 Y68.540 Z-4.000 F300.000
G1 X159.216 Y68.618 Z-4.000 F300.000
G1 X159.364 Y69.066 Z-4.000 F300.000
G1 X159.389 Y69.137 Z-4.000 F300.000
G1 X159.418 Y69.216 Z-4.000 F300.000
G1 X159.555 Y69.576 Z-4.000 F300.000
G1 X159.610 Y69.710 Z-4.000 F300.000
G1 X159.647 Y69.796 Z-4.000 F300.000
G1 X159.767 Y70.071 Z-4.000 F300.000
G1 X159.859 Y70.267 Z-4.000 F300.000
G1 X159.899 Y70.349 Z-4.000 F300.000
G1 X159.999 Y70.550 Z-4.000 F300.000
G1 X160.129 Y70.796 Z-4.000 F300.000
G1 X160.178 Y70.885 Z-4.000 F300.000
G1 X160.252 Y71.015 Z-4.000 F300.000
G1 X160.428 Y71.309 Z-4.000 F300.000
G1 X160.482 Y71.396 Z-4.000 F300.000
G1 X160.528 Y71.469 Z-4.000 F300.000
G1 X160.749 Y71.796 Z-4.000 F300.000
G1 X160.809 Y71.882 Z-4.000 F300.000
G1 X160.825 Y71.905 Z-4.000 F300.000
G1 X161.092 Y72.259 Z-4.000 F300.000
G1 X161.145 Y72.327 Z-4.000 F300.000
G1 X161.160 Y72.345 Z-4.000 F300.000
G1 X161.461 Y72.701 Z-4.000 F300.000
G1 X161.516 Y72.763 Z-4.000 F300.000
G1 X161.531 Y72.779 Z-4.000 F300.000
G1 X161.846 Y73.112 Z-4.000 F300.000
G1 X161.899 Y73.166 Z-4.000 F300.000
G1 X161.905 Y73.171 Z-4.000 F300.000
G1 X162.233 Y73.482 Z-4.000 F300.000
G1 X162.296 Y73.539 Z-4.000 F300.000
G1 X162.306 Y73.548 Z-4.000 F300.000
G1 X162.647 Y73.836 Z-4.000 F300.000
G1 X162.707 Y73.885 Z-4.000 F300.000
G1 X162.717 Y73.893 Z-4.000 F300.000
G1 X163.070 Y74.157 Z-4.000 F300.000
G1 X163.136 Y74.206 Z-4.000 F300.000
G1 X163.150 Y74.215 Z-4.000 F300.000
G1 X163.515 Y74.458 Z-4.000 F300.000
G1 X163.579 Y74.498 Z-4.000 F300.000
G1 X163.596 Y74.508 Z-4.000 F300.000
G1 X163.972 Y74.728 Z-4.000 F300.000
G1 X164.041 Y74.767 Z-4.000 F300.000
G1 X164.057 Y74.775 Z-4.000 F300.000
G1 X164.445 Y74.971 Z-4.000 F300.000
G1 X164.524 Y75.010 Z-4.000 F300.000
G1 X164.529 Y75.012 Z-4.000 F300.000
G1 X164.929 Y75.187 Z-4.000 F300.000
G1 X165.018 Y75.224 Z-4.000 F300.000
G1 X165.026 Y75.227 Z-4.000 F300.000
G1 X165.430 Y75.376 Z-4.000 F300.000
G1 X165.516 Y75.407 Z-4.000 F300.000
G1 X165.550 Y75.418 Z-4.000 F300.000
G1 X165.939 Y75.538 Z-4.000 F300.000
G1 X166.022 Y75.563 Z-4.000 F300.000
G1 X166.096 Y75.583 Z-4.000 F300.000
G1 X166.456 Y75.672 Z-4.000 F300.000
G1 X166.541 Y75.693 Z-4.000 F300.000
G1 X166.667 Y75.720 Z-4.000 F300.000
G1 X166.986 Y75.782 Z-4.000 F300.000
G1 X167.069 Y75.798 Z-4.000 F300.000
G1 X167.262 Y75.829 Z-4.000 F300.000
G1 X167.526 Y75.866 Z-4.000 F300.000
G1 X167.606 Y75.877 Z-4.000 F300.000
G1 X167.881 Y75.909 Z-4.000 F300.000
G1 X168.072 Y75.926 Z-4.000 F300.000
G1 X168.147 Y75.933 Z-4.000 F300.000
G1 X168.524 Y75.958 Z-4.000 F300.000
G1 X168.626 Y75.962 Z-4.000 F300.000
G1 X168.700 Y75.965 Z-4.000 F300.000
G1 X169.191 Y75.976 Z-4.000 F300.000
G1 X169.194 Y75.976 Z-4.000 F300.000
G1 X169.275 Y75.975 Z-4.000 F300.000
G1 X169.764 Y75.964 Z-4.000 F300.000
G1 X170.067 Y75.951 Z-4.000 F300.000
G1 X170.171 Y75.946 Z-4.000 F300.000
G1 X170.320 Y75.934 Z-4.000 F300.000
G1 X170.852 Y75.885 Z-4.000 F300.000
G1 X170.917 Y75.878 Z-4.000 F300.000
G1 X171.034 Y75.863 Z-4.000 F300.000
G1 X171.363 Y75.814 Z-4.000 F300.000
G1 X171.736 Y75.751 Z-4.000 F300.000
G1 X171.855 Y75.729 Z-4.000 F300.000
G1 X171.862 Y75.727 Z-4.000 F300.000
G1 X172.323 Y75.619 Z-4.000 F300.000
G1 X172.520 Y75.568 Z-4.000 F300.000
G1 X172.658 Y75.530 Z-4.000 F300.000
G1 X172.772 Y75.494 Z-4.000 F300.000
G1 X173.199 Y75.353 Z-4.000 F300.000
G1 X173.271 Y75.327 Z-4.000 F300.000
G1 X173.417 Y75.271 Z-4.000 F300.000
G1 X173.605 Y75.193 Z-4.000 F300.000
G1 X173.988 Y75.023 Z-4.000 F300.000
G1 X173.994 Y75.021 Z-4.000 F300.000
G1 X174.142 Y74.946 Z-4.000 F300.000
G1 X174.359 Y74.828 Z-4.000 F300.000
G1 X174.668 Y74.650 Z-4.000 F300.000
G1 X174.710 Y74.626 Z-4.000 F300.000
G1 X174.822 Y74.551 Z-4.000 F300.000
G1 X175.039 Y74.401 Z-4.000 F300.000
G1 X175.304 Y74.206 Z-4.000 F300.000
G1 X175.356 Y74.168 Z-4.000 F300.000
G1 X175.430 Y74.106 Z-4.000 F300.000
G1 X175.654 Y73.913 Z-4.000 F300.000
G1 X175.869 Y73.718 Z-4.000 F300.000
G1 X175.937 Y73.655 Z-4.000 F300.000
G1 X175.975 Y73.615 Z-4.000 F300.000
G1 X176.375 Y73.190 Z-4.000 F300.000
G1 X176.475 Y73.081 Z-4.000 F300.000
G1 X176.504 Y73.046 Z-4.000 F300.000
G1 X176.841 Y72.625 Z-4.000 F300.000
G1 X176.931 Y72.509 Z-4.000 F300.000
G1 X176.986 Y72.432 Z-4.000 F300.000
G1 X177.263 Y72.019 Z-4.000 F300.000
G1 X177.340 Y71.899 Z-4.000 F300.000
G1 X177.392 Y71.814 Z-4.000 F300.000
G1 X177.634 Y71.375 Z-4.000 F300.000
G1 X177.702 Y71.246 Z-4.000 F300.000
G1 X177.738 Y71.172 Z-4.000 F300.000
G1 X177.874 Y70.875 Z-4.000 F300.000
G1 X177.955 Y70.686 Z-4.000 F300.000
G1 X178.005 Y70.565 Z-4.000 F300.000
G1 X178.005 Y70.563 Z-4.000 F300.000
G1 X178.016 Y70.534 Z-4.000 F300.000
G1 X177.416 Y69.690 Z-3.507 F300.000
G1 X177.350 Y69.601 Z-3.176 F300.000
G1 X176.697 Y68.750 Z-0.000 F300.000
G0 Z3.000
G0 X178.016 Y70.534 Z3.000
G1 X178.016 Y70.534 Z-4.000 F300.000
G1 X178.326 Y70.317 Z-4.000 F300.000
G1 X178.682 Y70.057 Z-4.000 F300.000
G1 X179.049 Y69.774 Z-3.823 F300.000
G1 X179.430 Y69.465 Z-2.669 F300.000
G1 X179.830 Y69.125 Z-1.400 F300.000
G1 X180.250 Y68.750 Z-0.001 F300.000
G0 Z3.000
G0 X186.265 Y75.305 Z3.000
G1 X186.265 Y75.305 Z-4.000 F300.000
G1 X187.913 Y76.953 Z-0.001 F300.000
G0 Z3.000
G0 X184.617 Y76.953 Z3.000
G1 X184.617 Y76.953 Z-0.001 F300.000
G1 X186.265 Y75.305 Z-4.000 F300.000
G1 X186.265 Y51.648 Z-4.000 F300.000
G0 Z3.000
G0 X184.617 Y50.000 Z3.000
G1 X184.617 Y50.000 Z-0.003 F300.000
G1 X186.265 Y51.648 Z-4.000 F300.000
G1 X187.913 Y50.000 Z-0.003 F300.000
G0 Z3.000
G0 X192.885 Y50.000 Z3.000
G1 X192.885 Y50.000 Z-0.003 F300.000
G1 X194.560 Y51.675 Z-4.000 F300.000
G1 X196.236 Y50.000 Z-0.002 F300.000
G0 Z3.000
G0 X194.560 Y51.675 Z3.000
G1 X194.560 Y51.675 Z-4.000 F300.000
G1 X194.560 Y67.934 Z-4.000 F300.000
G1 X192.885 Y69.609 Z-0.003 F300.000
G0 Z3.000
G0 X194.560 Y67.934 Z3.000
G1 X194.560 Y67.934 Z-4.000 F300.000
G1 X196.236 Y69.609 Z-0.001 F300.000
G0 Z3.000
G0 X199.340 Y69.609 Z3.000
G1 X199.340 Y69.609 Z-0.001 F300.000
G1 X200.629 Y68.320 Z-4.000 F300.000
G1 X199.340 Y67.031 Z-0.001 F300.000
G0 Z3.000
G0 X200.629 Y68.320 Z3.000
G1 X200.629 Y68.320 Z-4.000 F300.000
G1 X202.069 Y68.320 Z-4.000 F300.000
G1 X203.698 Y68.320 Z-4.000 F300.000
G1 X203.698 Y67.031 Z-4.000 F300.000
G1 X203.698 Y51.629 Z-4.000 F300.000
G0 Z3.000
G0 X205.328 Y50.000 Z3.000
G1 X205.328 Y50.000 Z0.000 F300.000
G1 X203.698 Y51.629 Z-4.000 F300.000
G1 X202.069 Y50.000 Z-0.000 F300.000
G0 Z3.000
G0 X210.115 Y58.046 Z3.000
G1 X210.115 Y58.046 Z-0.003 F300.000
G1 X210.980 Y57.213 Z-3.114 F300.000
G1 X211.752 Y56.524 Z-4.000 F300.000
G1 X212.025 Y56.299 Z-4.000 F300.000
G1 X212.280 Y56.603 Z-4.000 F300.000
G1 X212.337 Y56.670 Z-4.000 F300.000
G1 X212.914 Y57.332 Z-2.667 F300.000
G1 X212.939 Y57.360 Z-2.561 F300.000
G1 X213.558 Y58.046 Z-0.003 F300.000
G0 Z3.000
G0 X212.025 Y56.299 Z3.000
G1 X212.025 Y56.299 Z-4.000 F300.000
G1 X212.078 Y56.021 Z-4.000 F300.000
G1 X212.095 Y55.940 Z-4.000 F300.000
G1 X212.108 Y55.875 Z-4.000 F300.000
G1 X212.216 Y55.457 Z-4.000 F300.000
G1 X212.242 Y55.366 Z-4.000 F300.000
G1 X212.282 Y55.225 Z-4.000 F300.000
G1 X212.382 Y54.928 Z-4.000 F300.000
G1 X212.420 Y54.822 Z-4.000 F300.000
G1 X212.501 Y54.604 Z-4.000 F300.000
G1 X212.576 Y54.429 Z-4.000 F300.000
G1 X212.630 Y54.310 Z-4.000 F300.000
G1 X212.772 Y54.009 Z-4.000 F300.000
G1 X212.798 Y53.960 Z-4.000 F300.000
G1 X212.873 Y53.827 Z-4.000 F300.000
G1 X213.053 Y53.519 Z-4.000 F300.000
G1 X213.102 Y53.441 Z-4.000 F300.000
G1 X213.123 Y53.411 Z-4.000 F300.000
G1 X213.297 Y53.164 Z-4.000 F300.000
G1 X213.374 Y53.062 Z-4.000 F300.000
G1 X213.501 Y52.895 Z-4.000 F300.000
G1 X213.559 Y52.826 Z-4.000 F300.000
G1 X213.639 Y52.735 Z-4.000 F300.000
G1 X213.690 Y52.677 Z-4.000 F300.000
G1 X213.842 Y52.519 Z-4.000 F300.000
G1 X213.898 Y52.463 Z-4.000 F300.000
G1 X213.938 Y52.426 Z-4.000 F300.000
G1 X214.121 Y52.262 Z-4.000 F300.000
G1 X214.160 Y52.229 Z-4.000 F300.000
G1 X214.254 Y52.154 Z-4.000 F300.000
G1 X214.357 Y52.073 Z-4.000 F300.000
G1 X214.493 Y51.975 Z-4.000 F300.000
G1 X214.597 Y51.903 Z-4.000 F300.000
G1 X214.613 Y51.892 Z-4.000 F300.000
G1 X214.853 Y51.743 Z-4.000 F300.000
G1 X214.891 Y51.721 Z-4.000 F300.000
G1 X214.957 Y51.685 Z-4.000 F300.000
G1 X215.187 Y51.561 Z-4.000 F300.000
G1 X215.229 Y51.541 Z-4.000 F300.000
G1 X215.332 Y51.494 Z-4.000 F300.000
G1 X215.506 Y51.415 Z-4.000 F300.000
G1 X215.619 Y51.368 Z-4.000 F300.000
G1 X215.714 Y51.331 Z-4.000 F300.000
G1 X215.850 Y51.279 Z-4.000 F300.000
G1 X216.017 Y51.221 Z-4.000 F300.000
G1 X216.113 Y51.190 Z-4.000 F300.000
G1 X216.219 Y51.156 Z-4.000 F300.000
G1 X216.430 Y51.097 Z-4.000 F300.000
G1 X216.562 Y51.063 Z-4.000 F300.000
G1 X216.613 Y51.050 Z-4.000 F300.000
G1 X217.033 Y50.962 Z-4.000 F300.000
G1 X217.243 Y50.923 Z-4.000 F300.000
G1 X217.400 Y50.898 Z-4.000 F300.000
G1 X217.478 Y50.887 Z-4.000 F300.000
G1 X217.948 Y50.834 Z-4.000 F300.000
G1 X218.143 Y50.816 Z-4.000 F300.000
G1 X218.276 Y50.807 Z-4.000 F300.000
G1 X218.442 Y50.799 Z-4.000 F300.000
G1 X218.947 Y50.784 Z-4.000 F300.000
G1 X219.082 Y50.784 Z-4.000 F300.000
G1 X219.194 Y50.786 Z-4.000 F300.000
G1 X219.828 Y50.807 Z-4.000 F300.000
G1 X219.936 Y50.813 Z-4.000 F300.000
G1 X219.973 Y50.815 Z-4.000 F300.000
G1 X220.431 Y50.860 Z-4.000 F300.000
G1 X220.539 Y50.873 Z-4.000 F300.000
G1 X220.659 Y50.890 Z-4.000 F300.000
G1 X220.883 Y50.925 Z-4.000 F300.000
G1 X221.230 Y50.987 Z-4.000 F300.000
G1 X221.316 Y51.004 Z-4.000 F300.000
G1 X221.357 Y51.014 Z-4.000 F300.000
G1 X221.727 Y51.105 Z-4.000 F300.000
G1 X221.899 Y51.152 Z-4.000 F300.000
G1 X222.034 Y51.191 Z-4.000 F300.000
G1 X222.119 Y51.219 Z-4.000 F300.000
G1 X222.490 Y51.348 Z-4.000 F300.000
G1 X222.547 Y51.369 Z-4.000 F300.000
G1 X222.689 Y51.426 Z-4.000 F300.000
G1 X222.842 Y51.493 Z-4.000 F300.000
G1 X223.173 Y51.645 Z-4.000 F300.000
G1 X223.178 Y51.648 Z-4.000 F300.000
G1 X223.315 Y51.721 Z-4.000 F300.000
G1 X223.493 Y51.820 Z-4.000 F300.000
G1 X223.769 Y51.985 Z-4.000 F300.000
G1 X223.793 Y51.999 Z-4.000 F300.000
G1 X223.907 Y52.077 Z-4.000 F300.000
G1 X224.074 Y52.195 Z-4.000 F300.000
G1 X224.329 Y52.387 Z-4.000 F300.000
G1 X224.342 Y52.397 Z-4.000 F300.000
G1 X224.454 Y52.491 Z-4.000 F300.000
G1 X224.594 Y52.616 Z-4.000 F300.000
G1 X224.833 Y52.840 Z-4.000 F300.000
G1 X224.840 Y52.846 Z-4.000 F300.000
G1 X224.952 Y52.963 Z-4.000 F300.000
G1 X225.071 Y53.094 Z-4.000 F300.000
G1 X225.283 Y53.339 Z-4.000 F300.000
G1 X225.288 Y53.344 Z-4.000 F300.000
G1 X225.396 Y53.484 Z-4.000 F300.000
G1 X225.484 Y53.605 Z-4.000 F300.000
G1 X225.669 Y53.872 Z-4.000 F300.000
G1 X225.679 Y53.888 Z-4.000 F300.000
G1 X225.778 Y54.049 Z-4.000 F300.000
G1 X225.832 Y54.143 Z-4.000 F300.000
G1 X225.982 Y54.421 Z-4.000 F300.000
G1 X226.011 Y54.478 Z-4.000 F300.000
G1 X226.092 Y54.649 Z-4.000 F300.000
G1 X226.117 Y54.708 Z-4.000 F300.000
G1 X226.237 Y55.003 Z-4.000 F300.000
G1 X226.275 Y55.106 Z-4.000 F300.000
G1 X226.338 Y55.286 Z-4.000 F300.000
G1 X226.345 Y55.310 Z-4.000 F300.000
G1 X226.434 Y55.624 Z-4.000 F300.000
G1 X226.471 Y55.769 Z-4.000 F300.000
G1 X226.512 Y55.948 Z-4.000 F300.000
G1 X226.512 Y55.949 Z-4.000 F300.000
G1 X226.571 Y56.286 Z-4.000 F300.000
G1 X226.597 Y56.459 Z-4.000 F300.000
G1 X226.618 Y56.624 Z-4.000 F300.000
G1 X226.619 Y56.636 Z-4.000 F300.000
G1 X226.646 Y56.980 Z-4.000 F300.000
G1 X226.654 Y57.160 Z-4.000 F300.000
G1 X226.658 Y57.312 Z-4.000 F300.000
G1 X226.658 Y57.770 Z-4.000 F300.000
G1 X226.651 Y57.964 Z-4.000 F300.000
G1 X226.642 Y58.123 Z-4.000 F300.000
G1 X226.634 Y58.218 Z-4.000 F300.000
G1 X226.585 Y58.645 Z-4.000 F300.000
G1 X226.573 Y58.726 Z-4.000 F300.000
G1 X226.542 Y58.905 Z-4.000 F300.000
G1 X226.514 Y59.039 Z-4.000 F300.000
G1 X226.423 Y59.411 Z-4.000 F300.000
G1 X226.411 Y59.455 Z-4.000 F300.000
G1 X226.347 Y59.658 Z-4.000 F300.000
G1 X226.312 Y59.758 Z-4.000 F300.000
G1 X226.182 Y60.084 Z-4.000 F300.000
G1 X226.152 Y60.150 Z-4.000 F300.000
G1 X226.050 Y60.360 Z-4.000 F300.000
G1 X226.031 Y60.395 Z-4.000 F300.000
G1 X225.856 Y60.692 Z-4.000 F300.000
G1 X225.791 Y60.794 Z-4.000 F300.000
G1 X225.663 Y60.980 Z-4.000 F300.000
G1 X225.649 Y60.998 Z-4.000 F300.000
G1 X225.449 Y61.240 Z-4.000 F300.000
G1 X225.331 Y61.371 Z-4.000 F300.000
G1 X225.224 Y61.486 Z-4.000 F300.000
G1 X225.153 Y61.549 Z-4.000 F300.000
G1 X224.968 Y61.710 Z-4.000 F300.000
G1 X224.781 Y61.860 Z-4.000 F300.000
G1 X224.694 Y61.928 Z-4.000 F300.000
G1 X224.586 Y61.999 Z-4.000 F300.000
G1 X224.384 Y62.124 Z-4.000 F300.000
G1 X224.163 Y62.249 Z-4.000 F300.000
G1 X224.042 Y62.315 Z-4.000 F300.000
G1 X223.996 Y62.336 Z-4.000 F300.000
G1 X223.611 Y62.505 Z-4.000 F300.000
G1 X223.534 Y62.541 Z-4.000 F300.000
G1 X223.408 Y62.601 Z-4.000 F300.000
G1 X222.956 Y62.869 Z-4.000 F300.000
G1 X222.847 Y62.946 Z-4.000 F300.000
G1 X222.403 Y63.329 Z-4.000 F300.000
G1 X222.290 Y63.441 Z-4.000 F300.000
G1 X222.182 Y63.556 Z-4.000 F300.000
G1 X221.912 Y63.544 Z-4.000 F300.000
G1 X221.784 Y63.541 Z-4.000 F300.000
G1 X221.721 Y63.540 Z-4.000 F300.000
G1 X221.591 Y63.538 Z-4.000 F300.000
G1 X221.409 Y63.529 Z-4.000 F300.000
G1 X221.306 Y63.527 Z-4.000 F300.000
G1 X220.969 Y63.522 Z-4.000 F300.000
G1 X220.919 Y63.522 Z-4.000 F300.000
G1 X220.865 Y63.520 Z-4.000 F300.000
G1 X220.825 Y63.519 Z-4.000 F300.000
G1 X220.426 Y63.512 Z-4.000 F300.000
G1 X220.348 Y63.513 Z-4.000 F300.000
G1 X220.217 Y63.514 Z-4.000 F300.000
G1 X220.134 Y63.514 Z-4.000 F300.000
G1 X219.932 Y63.510 Z-4.000 F300.000
G1 X219.831 Y63.510 Z-4.000 F300.000
G1 X219.454 Y63.516 Z-4.000 F300.000
G1 X219.381 Y63.517 Z-4.000 F300.000
G1 X218.945 Y63.512 Z-4.000 F300.000
G1 X218.828 Y63.514 Z-4.000 F300.000
G1 X218.685 Y63.518 Z-4.000 F300.000
G0 Z3.000
G0 X217.275 Y62.109 Z3.000
G1 X217.275 Y62.109 Z-0.002 F300.000
G1 X217.961 Y62.795 Z-2.559 F300.000
G1 X218.630 Y63.464 Z-4.000 F300.000
G1 X218.663 Y63.497 Z-4.000 F300.000
G1 X218.685 Y63.518 Z-4.000 F300.000
G1 X218.101 Y64.127 Z-3.081 F300.000
G1 X218.026 Y64.209 Z-2.805 F300.000
G1 X217.275 Y65.078 Z-0.002 F300.000
G0 Z3.000
G0 X214.034 Y67.656 Z3.000
G1 X214.034 Y67.656 Z-0.001 F300.000
G1 X213.492 Y68.231 Z-2.145 F300.000
G1 X213.468 Y68.257 Z-2.245 F300.000
G1 X212.957 Y68.822 Z-4.000 F300.000
G1 X212.899 Y68.889 Z-4.000 F300.000
G1 X212.542 Y69.301 Z-4.000 F300.000
G1 X212.105 Y68.920 Z-4.000 F300.000
G1 X211.471 Y68.334 Z-2.531 F300.000
G1 X210.775 Y67.656 Z-0.001 F300.000
G0 Z3.000
G0 X208.624 Y67.031 Z3.000
G1 X208.624 Y67.031 Z-0.001 F300.000
G1 X207.335 Y68.320 Z-4.000 F300.000
G1 X205.364 Y68.320 Z-4.000 F300.000
G1 X205.328 Y68.321 Z-4.000 F300.000
G1 X203.716 Y68.343 Z-4.000 F300.000
G1 X203.716 Y69.609 Z-4.000 F300.000
G1 X203.717 Y69.631 Z-4.000 F300.000
G1 X203.726 Y71.033 Z-4.000 F300.000
G1 X203.727 Y71.093 Z-4.000 F300.000
G1 X203.755 Y72.203 Z-4.000 F300.000
G1 X203.759 Y72.307 Z-4.000 F300.000
G1 X203.775 Y72.595 Z-4.000 F300.000
G1 X203.808 Y72.999 Z-4.000 F300.000
G1 X203.822 Y73.127 Z-4.000 F300.000
G1 X203.841 Y73.276 Z-4.000 F300.000
G1 X203.856 Y73.375 Z-4.000 F300.000
G1 X203.891 Y73.577 Z-4.000 F300.000
G1 X203.915 Y73.702 Z-4.000 F300.000
G1 X203.924 Y73.739 Z-4.000 F300.000
G1 X203.982 Y73.967 Z-4.000 F300.000
G1 X203.986 Y73.980 Z-4.000 F300.000
G1 X204.022 Y74.096 Z-4.000 F300.000
G1 X204.062 Y74.210 Z-4.000 F300.000
G1 X204.092 Y74.279 Z-4.000 F300.000
G1 X204.139 Y74.388 Z-4.000 F300.000
G1 X204.176 Y74.462 Z-4.000 F300.000
G1 X204.203 Y74.514 Z-4.000 F300.000
G1 X204.258 Y74.606 Z-4.000 F300.000
G1 X204.305 Y74.671 Z-4.000 F300.000
G1 X204.371 Y74.752 Z-4.000 F300.000
G1 X204.393 Y74.776 Z-4.000 F300.000
G1 X204.451 Y74.837 Z-4.000 F300.000
G1 X204.514 Y74.898 Z-4.000 F300.000
G1 X204.536 Y74.918 Z-4.000 F300.000
G1 X204.759 Y75.096 Z-4.000 F300.000
G1 X204.835 Y75.143 Z-4.000 F300.000
G1 X205.018 Y75.253 Z-4.000 F300.000
G1 X205.062 Y75.278 Z-4.000 F300.000
G1 X205.295 Y75.384 Z-4.000 F300.000
G1 X205.460 Y75.451 Z-4.000 F300.000
G1 X205.512 Y75.469 Z-4.000 F300.000
G1 X205.737 Y75.539 Z-4.000 F300.000
G1 X205.957 Y75.597 Z-4.000 F300.000
G1 X205.986 Y75.604 Z-4.000 F300.000
G1 X206.175 Y75.640 Z-4.000 F300.000
G1 X206.459 Y75.685 Z-4.000 F300.000
G1 X206.550 Y75.699 Z-4.000 F300.000
G1 X206.608 Y75.703 Z-4.000 F300.000
G1 X206.928 Y75.725 Z-4.000 F300.000
G1 X207.044 Y75.732 Z-4.000 F300.000
G1 X207.098 Y75.733 Z-4.000 F300.000
G1 X207.411 Y75.430 Z-4.000 F300.000
G1 X207.453 Y75.390 Z-4.000 F300.000
G1 X207.882 Y74.960 Z-2.770 F300.000
G1 X208.014 Y74.828 Z-2.277 F300.000
G1 X208.182 Y74.660 Z-1.651 F300.000
G1 X208.385 Y74.457 Z-0.893 F300.000
G1 X208.624 Y74.218 Z-0.001 F300.000
G0 Z3.000
G0 X207.098 Y75.733 Z3.000
G1 X207.098 Y75.733 Z-4.000 F300.000
G1 X207.234 Y75.875 Z-4.000 F300.000
G1 X207.830 Y76.453 Z-2.963 F300.000
G1 X208.624 Y77.187 Z-0.002 F300.000
G0 Z3.000
G0 X208.624 Y69.609 Z3.000
G1 X208.624 Y69.609 Z-0.001 F300.000
G1 X207.335 Y68.320 Z-4.000 F300.000
G0 Z3.000
G0 X203.716 Y68.343 Z3.000
G1 X203.716 Y68.343 Z-4.000 F300.000
G1 X203.698 Y68.320 Z-4.000 F300.000
G0 Z3.000
G0 X212.542 Y69.301 Z3.000
G1 X212.542 Y69.301 Z-4.000 F300.000
G1 X212.560 Y69.425 Z-4.000 F300.000
G1 X212.563 Y69.440 Z-4.000 F300.000
G1 X212.575 Y69.506 Z-4.000 F300.000
G1 X212.665 Y69.950 Z-4.000 F300.000
G1 X212.669 Y69.971 Z-4.000 F300.000
G1 X212.686 Y70.040 Z-4.000 F300.000
G1 X212.796 Y70.453 Z-4.000 F300.000
G1 X212.801 Y70.470 Z-4.000 F300.000
G1 X212.830 Y70.558 Z-4.000 F300.000
G1 X212.959 Y70.939 Z-4.000 F300.000
G1 X212.959 Y70.939 Z-4.000 F300.000
G1 X213.005 Y71.053 Z-4.000 F300.000
G1 X213.144 Y71.381 Z-4.000 F300.000
G1 X213.154 Y71.401 Z-4.000 F300.000
G1 X213.211 Y71.518 Z-4.000 F300.000
G1 X213.365 Y71.813 Z-4.000 F300.000
G1 X213.377 Y71.835 Z-4.000 F300.000
G1 X213.446 Y71.952 Z-4.000 F300.000
G1 X213.577 Y72.166 Z-4.000 F300.000
G1 X213.610 Y72.217 Z-4.000 F300.000
G1 X213.678 Y72.315 Z-4.000 F300.000
G1 X213.798 Y72.484 Z-4.000 F300.000
G1 X213.860 Y72.564 Z-4.000 F300.000
G1 X213.937 Y72.659 Z-4.000 F300.000
G1 X214.032 Y72.774 Z-4.000 F300.000
G1 X214.136 Y72.889 Z-4.000 F300.000
G1 X214.218 Y72.978 Z-4.000 F300.000
G1 X214.282 Y73.042 Z-4.000 F300.000
G1 X214.434 Y73.188 Z-4.000 F300.000
G1 X214.526 Y73.273 Z-4.000 F300.000
G1 X214.547 Y73.292 Z-4.000 F300.000
G1 X214.759 Y73.465 Z-4.000 F300.000
G1 X214.828 Y73.521 Z-4.000 F300.000
G1 X214.859 Y73.543 Z-4.000 F300.000
G1 X215.110 Y73.717 Z-4.000 F300.000
G1 X215.129 Y73.731 Z-4.000 F300.000
G1 X215.213 Y73.782 Z-4.000 F300.000
G1 X215.454 Y73.924 Z-4.000 F300.000
G1 X215.478 Y73.937 Z-4.000 F300.000
G1 X215.577 Y73.989 Z-4.000 F300.000
G1 X215.800 Y74.100 Z-4.000 F300.000
G1 X215.859 Y74.126 Z-4.000 F300.000
G1 X215.964 Y74.172 Z-4.000 F300.000
G1 X216.174 Y74.258 Z-4.000 F300.000
G1 X216.261 Y74.291 Z-4.000 F300.000
G1 X216.354 Y74.324 Z-4.000 F300.000
G1 X216.576 Y74.399 Z-4.000 F300.000
G1 X216.666 Y74.426 Z-4.000 F300.000
G1 X216.766 Y74.454 Z-4.000 F300.000
G1 X217.006 Y74.518 Z-4.000 F300.000
G1 X217.093 Y74.539 Z-4.000 F300.000
G1 X217.182 Y74.558 Z-4.000 F300.000
G1 X217.468 Y74.616 Z-4.000 F300.000
G1 X217.525 Y74.626 Z-4.000 F300.000
G1 X217.648 Y74.645 Z-4.000 F300.000
G1 X217.959 Y74.686 Z-4.000 F300.000
G1 X218.378 Y74.731 Z-4.000 F300.000
G1 X218.481 Y74.740 Z-4.000 F300.000
G1 X218.524 Y74.742 Z-4.000 F300.000
G1 X219.030 Y74.758 Z-4.000 F300.000
G1 X219.318 Y74.760 Z-4.000 F300.000
G1 X219.436 Y74.759 Z-4.000 F300.000
G1 X219.891 Y74.744 Z-4.000 F300.000
G1 X219.918 Y74.743 Z-4.000 F300.000
G1 X220.003 Y74.736 Z-4.000 F300.000
G1 X220.444 Y74.690 Z-4.000 F300.000
G1 X220.562 Y74.676 Z-4.000 F300.000
G1 X220.735 Y74.651 Z-4.000 F300.000
G1 X220.990 Y74.605 Z-4.000 F300.000
G1 X221.114 Y74.581 Z-4.000 F300.000
G1 X221.482 Y74.499 Z-4.000 F300.000
G1 X221.533 Y74.485 Z-4.000 F300.000
G1 X221.659 Y74.450 Z-4.000 F300.000
G1 X222.065 Y74.324 Z-4.000 F300.000
G1 X222.155 Y74.296 Z-4.000 F300.000
G1 X222.189 Y74.282 Z-4.000 F300.000
G1 X222.584 Y74.122 Z-4.000 F300.000
G1 X222.707 Y74.069 Z-4.000 F300.000
G1 X222.752 Y74.048 Z-4.000 F300.000
G1 X223.090 Y73.875 Z-4.000 F300.000
G1 X223.213 Y73.809 Z-4.000 F300.000
G1 X223.281 Y73.770 Z-4.000 F300.000
G1 X223.582 Y73.579 Z-4.000 F300.000
G1 X223.716 Y73.489 Z-4.000 F300.000
G1 X223.748 Y73.466 Z-4.000 F300.000
G1 X224.055 Y73.224 Z-4.000 F300.000
G1 X224.178 Y73.123 Z-4.000 F300.000
G1 X224.213 Y73.089 Z-4.000 F300.000
G1 X224.341 Y72.964 Z-4.000 F300.000
G1 X224.508 Y72.792 Z-4.000 F300.000
G1 X224.513 Y72.788 Z-4.000 F300.000
G1 X224.645 Y72.634 Z-4.000 F300.000
G1 X224.665 Y72.608 Z-4.000 F300.000
G1 X224.807 Y72.420 Z-4.000 F300.000
G1 X224.891 Y72.301 Z-4.000 F300.000
G1 X224.943 Y72.227 Z-4.000 F300.000
G1 X225.012 Y72.113 Z-4.000 F300.000
G1 X225.061 Y72.026 Z-4.000 F300.000
G1 X225.174 Y71.815 Z-4.000 F300.000
G1 X225.207 Y71.748 Z-4.000 F300.000
G1 X225.280 Y71.593 Z-4.000 F300.000
G1 X225.295 Y71.556 Z-4.000 F300.000
G1 X225.371 Y71.359 Z-4.000 F300.000
G1 X225.441 Y71.162 Z-4.000 F300.000
G1 X225.451 Y71.134 Z-4.000 F300.000
G1 X225.497 Y70.967 Z-4.000 F300.000
G1 X225.596 Y70.567 Z-4.000 F300.000
G1 X225.600 Y70.544 Z-4.000 F300.000
G1 X225.632 Y70.357 Z-4.000 F300.000
G1 X225.687 Y69.961 Z-4.000 F300.000
G1 X225.692 Y69.907 Z-4.000 F300.000
G1 X225.704 Y69.740 Z-4.000 F300.000
G1 X225.723 Y69.283 Z-4.000 F300.000
G1 X225.723 Y69.263 Z-4.000 F300.000
G1 X225.721 Y69.098 Z-4.000 F300.000
G1 X225.709 Y68.821 Z-4.000 F300.000
G1 X225.680 Y68.463 Z-4.000 F300.000
G1 X225.674 Y68.389 Z-4.000 F300.000
G1 X225.654 Y68.268 Z-4.000 F300.000
G1 X225.605 Y67.993 Z-4.000 F300.000
G1 X225.536 Y67.686 Z-4.000 F300.000
G1 X225.523 Y67.628 Z-4.000 F300.000
G1 X225.475 Y67.477 Z-4.000 F300.000
G1 X225.411 Y67.293 Z-4.000 F300.000
G1 X225.285 Y66.976 Z-4.000 F300.000
G1 X225.274 Y66.953 Z-4.000 F300.000
G1 X225.198 Y66.798 Z-4.000 F300.000
G1 X225.135 Y66.677 Z-4.000 F300.000
G1 X225.066 Y66.560 Z-4.000 F300.000
G1 X225.001 Y66.455 Z-4.000 F300.000
G1 X224.963 Y66.395 Z-4.000 F300.000
G1 X224.847 Y66.235 Z-4.000 F300.000
G1 X224.779 Y66.145 Z-4.000 F300.000
G1 X224.698 Y66.042 Z-4.000 F300.000
G1 X224.609 Y65.942 Z-4.000 F300.000
G1 X224.529 Y65.855 Z-4.000 F300.000
G1 X224.388 Y65.709 Z-4.000 F300.000
G1 X224.343 Y65.667 Z-4.000 F300.000
G1 X224.258 Y65.592 Z-4.000 F300.000
G1 X224.057 Y65.420 Z-4.000 F300.000
G1 X224.013 Y65.384 Z-4.000 F300.000
G1 X223.969 Y65.353 Z-4.000 F300.000
G1 X223.750 Y65.199 Z-4.000 F300.000
G1 X223.629 Y65.119 Z-4.000 F300.000
G1 X223.507 Y65.043 Z-4.000 F300.000
G1 X223.187 Y64.809 Z-4.000 F300.000
G1 X223.051 Y64.690 Z-4.000 F300.000
G1 X222.841 Y64.488 Z-4.000 F300.000
G1 X222.648 Y64.258 Z-4.000 F300.000
G1 X222.547 Y64.124 Z-4.000 F300.000
G1 X222.325 Y63.794 Z-4.000 F300.000
G1 X222.243 Y63.659 Z-4.000 F300.000
G1 X222.182 Y63.555 Z-4.000 F300.000
G0 Z3.000
G0 X196.236 Y73.203 Z3.000
G1 X196.236 Y73.203 Z-0.001 F300.000
G1 X194.560 Y74.879 Z-4.000 F300.000
G1 X192.885 Y73.203 Z-0.001 F300.000
G0 Z3.000
G0 X194.560 Y74.879 Z3.000
G1 X194.560 Y74.879 Z-4.000 F300.000
G1 X194.560 Y75.278 Z-4.000 F300.000
G1 X192.885 Y76.953 Z-0.003 F300.000
G0 Z3.000
G0 X194.560 Y75.278 Z3.000
G1 X194.560 Y75.278 Z-4.000 F300.000
G1 X196.236 Y76.953 Z-0.001 F300.000
G0 Z3.000
G0 X180.506 Y59.843 Z3.000
G1 X180.506 Y59.843 Z-0.002 F300.000
G1 X179.490 Y58.966 Z-3.274 F300.000
G1 X178.566 Y58.226 Z-4.000 F300.000
G1 X178.346 Y58.063 Z-4.000 F300.000
G0 Z5.000
(Finish operation: Vcarve014)
(Begin operation: Vcarve015)
(Path: Vcarve015)
(starting)
G0 Z3.000
G0 X176.954 Y24.843 Z3.000
G1 X176.954 Y24.843 Z-0.003 F300.000
G1 X177.614 Y24.016 Z-3.000 F300.000
G1 X177.647 Y23.976 Z-3.000 F300.000
G1 X178.282 Y23.148 Z-3.000 F300.000
G1 X178.346 Y23.064 Z-3.000 F300.000
G1 X178.343 Y23.054 Z-3.000 F300.000
G1 X178.163 Y22.472 Z-3.000 F300.000
G1 X178.156 Y22.450 Z-3.000 F300.000
G1 X178.137 Y22.398 Z-3.000 F300.000
G1 X177.930 Y21.852 Z-3.000 F300.000
G1 X177.897 Y21.767 Z-3.000 F300.000
G1 X177.851 Y21.656 Z-3.000 F300.000
G1 X177.691 Y21.297 Z-3.000 F300.000
G1 X177.671 Y21.253 Z-3.000 F300.000
G1 X177.632 Y21.173 Z-3.000 F300.000
G1 X177.510 Y20.930 Z-3.000 F300.000
G1 X177.386 Y20.694 Z-3.000 F300.000
G1 X177.336 Y20.603 Z-3.000 F300.000
G1 X177.318 Y20.572 Z-3.000 F300.000
G1 X177.109 Y20.221 Z-3.000 F300.000
G1 X177.069 Y20.157 Z-3.000 F300.000
G1 X177.013 Y20.070 Z-3.000 F300.000
G1 X176.885 Y19.877 Z-3.000 F300.000
G1 X176.731 Y19.656 Z-3.000 F300.000
G1 X176.672 Y19.574 Z-3.000 F300.000
G1 X176.659 Y19.556 Z-3.000 F300.000
G1 X176.386 Y19.211 Z-3.000 F300.000
G1 X176.324 Y19.135 Z-3.000 F300.000
G1 X176.115 Y18.886 Z-3.000 F300.000
G1 X176.031 Y18.792 Z-3.000 F300.000
G1 X175.960 Y18.716 Z-3.000 F300.000
G1 X175.784 Y18.531 Z-3.000 F300.000
G1 X175.651 Y18.399 Z-3.000 F300.000
G1 X175.579 Y18.330 Z-3.000 F300.000
G1 X175.433 Y18.193 Z-3.000 F300.000
G1 X175.257 Y18.037 Z-3.000 F300.000
G1 X175.174 Y17.967 Z-3.000 F300.000
G1 X175.067 Y17.878 Z-3.000 F300.000
G1 X174.836 Y17.698 Z-3.000 F300.000
G1 X174.748 Y17.631 Z-3.000 F300.000
G1 X174.687 Y17.586 Z-3.000 F300.000
G1 X174.397 Y17.387 Z-3.000 F300.000
G1 X174.309 Y17.329 Z-3.000 F300.000
G1 X174.291 Y17.317 Z-3.000 F300.000
G1 X173.943 Y17.108 Z-3.000 F300.000
G1 X173.878 Y17.070 Z-3.000 F300.000
G1 X173.850 Y17.056 Z-3.000 F300.000
G1 X173.471 Y16.857 Z-3.000 F300.000
G1 X173.448 Y16.846 Z-3.000 F300.000
G1 X173.372 Y16.811 Z-3.000 F300.000
G1 X173.000 Y16.645 Z-3.000 F300.000
G1 X172.979 Y16.636 Z-3.000 F300.000
G1 X172.883 Y16.599 Z-3.000 F300.000
G1 X172.534 Y16.467 Z-3.000 F300.000
G1 X172.475 Y16.447 Z-3.000 F300.000
G1 X172.383 Y16.417 Z-3.000 F300.000
G1 X172.049 Y16.312 Z-3.000 F300.000
G1 X171.961 Y16.287 Z-3.000 F300.000
G1 X171.865 Y16.262 Z-3.000 F300.000
G1 X171.543 Y16.180 Z-3.000 F300.000
G1 X171.430 Y16.155 Z-3.000 F300.000
G1 X171.338 Y16.136 Z-3.000 F300.000
G1 X171.018 Y16.074 Z-3.000 F300.000
G1 X170.887 Y16.052 Z-3.000 F300.000
G1 X170.799 Y16.038 Z-3.000 F300.000
G1 X170.471 Y15.992 Z-3.000 F300.000
G1 X170.333 Y15.976 Z-3.000 F300.000
G1 X170.249 Y15.967 Z-3.000 F300.000
G1 X169.906 Y15.936 Z-3.000 F300.000
G1 X169.769 Y15.926 Z-3.000 F300.000
G1 X169.688 Y15.922 Z-3.000 F300.000
G1 X169.320 Y15.906 Z-3.000 F300.000
G1 X169.193 Y15.903 Z-3.000 F300.000
G1 X169.121 Y15.903 Z-3.000 F300.000
G1 X168.712 Y15.902 Z-3.000 F300.000
G1 X168.582 Y15.905 Z-3.000 F300.000
G1 X168.511 Y15.908 Z-3.000 F300.000
G1 X168.198 Y15.920 Z-3.000 F300.000
G1 X167.988 Y15.934 Z-3.000 F300.000
G1 X167.911 Y15.940 Z-3.000 F300.000
G1 X167.694 Y15.958 Z-3.000 F300.000
G1 X167.407 Y15.988 Z-3.000 F300.000
G1 X167.323 Y15.999 Z-3.000 F300.000
G1 X167.203 Y16.014 Z-3.000 F300.000
G1 X166.833 Y16.071 Z-3.000 F300.000
G1 X166.755 Y16.085 Z-3.000 F300.000
G1 X166.730 Y16.089 Z-3.000 F300.000
G1 X166.282 Y16.179 Z-3.000 F300.000
G1 X166.270 Y16.182 Z-3.000 F300.000
G1 X166.191 Y16.202 Z-3.000 F300.000
G1 X165.823 Y16.295 Z-3.000 F300.000
G1 X165.734 Y16.320 Z-3.000 F300.000
G1 X165.642 Y16.348 Z-3.000 F300.000
G1 X165.388 Y16.426 Z-3.000 F300.000
G1 X165.203 Y16.489 Z-3.000 F300.000
G1 X165.110 Y16.522 Z-3.000 F300.000
G1 X164.967 Y16.575 Z-3.000 F300.000
G1 X164.687 Y16.686 Z-3.000 F300.000
G1 X164.594 Y16.725 Z-3.000 F300.000
G1 X164.557 Y16.741 Z-3.000 F300.000
G1 X164.188 Y16.911 Z-3.000 F300.000
G1 X164.160 Y16.925 Z-3.000 F300.000
G1 X164.093 Y16.960 Z-3.000 F300.000
G1 X163.773 Y17.129 Z-3.000 F300.000
G1 X163.702 Y17.169 Z-3.000 F300.000
G1 X163.606 Y17.226 Z-3.000 F300.000
G1 X163.399 Y17.351 Z-3.000 F300.000
G1 X163.231 Y17.459 Z-3.000 F300.000
G1 X163.144 Y17.517 Z-3.000 F300.000
G1 X163.035 Y17.591 Z-3.000 F300.000
G1 X162.785 Y17.772 Z-3.000 F300.000
G1 X162.694 Y17.841 Z-3.000 F300.000
G1 X162.680 Y17.851 Z-3.000 F300.000
G1 X162.351 Y18.118 Z-3.000 F300.000
G1 X162.334 Y18.132 Z-3.000 F300.000
G1 X162.267 Y18.191 Z-3.000 F300.000
G1 X162.008 Y18.427 Z-3.000 F300.000
G1 X161.941 Y18.491 Z-3.000 F300.000
G1 X161.864 Y18.567 Z-3.000 F300.000
G1 X161.589 Y18.849 Z-3.000 F300.000
G1 X161.553 Y18.889 Z-3.000 F300.000
G1 X161.481 Y18.970 Z-3.000 F300.000
G1 X161.205 Y19.291 Z-3.000 F300.000
G1 X161.184 Y19.316 Z-3.000 F300.000
G1 X161.125 Y19.393 Z-3.000 F300.000
G1 X160.846 Y19.758 Z-3.000 F300.000
G1 X160.847 Y19.759 Z-3.000 F300.000
G1 X160.798 Y19.829 Z-3.000 F300.000
G1 X160.539 Y20.210 Z-3.000 F300.000
G1 X160.512 Y20.253 Z-3.000 F300.000
G1 X160.493 Y20.285 Z-3.000 F300.000
G1 X160.254 Y20.683 Z-3.000 F300.000
G1 X160.215 Y20.751 Z-3.000 F300.000
G1 X160.202 Y20.773 Z-3.000 F300.000
G1 X159.996 Y21.163 Z-3.000 F300.000
G1 X159.957 Y21.242 Z-3.000 F300.000
G1 X159.915 Y21.324 Z-3.000 F300.000
G1 X159.755 Y21.670 Z-3.000 F300.000
G1 X159.724 Y21.743 Z-3.000 F300.000
G1 X159.652 Y21.905 Z-3.000 F300.000
G1 X159.540 Y22.184 Z-3.000 F300.000
G1 X159.512 Y22.259 Z-3.000 F300.000
G1 X159.413 Y22.519 Z-3.000 F300.000
G1 X159.346 Y22.715 Z-3.000 F300.000
G1 X159.321 Y22.790 Z-3.000 F300.000
G1 X159.199 Y23.168 Z-3.000 F300.000
G1 X159.172 Y23.259 Z-3.000 F300.000
G1 X159.153 Y23.331 Z-3.000 F300.000
G1 X159.021 Y23.814 Z-3.000 F300.000
G1 X159.012 Y23.851 Z-3.000 F300.000
G1 X159.004 Y23.884 Z-3.000 F300.000
G1 X158.892 Y24.382 Z-3.000 F300.000
G1 X158.871 Y24.482 Z-3.000 F300.000
G1 X158.854 Y24.569 Z-3.000 F300.000
G1 X158.724 Y25.324 Z-3.000 F300.000
G1 X158.695 Y25.520 Z-3.000 F300.000
G1 X158.679 Y25.649 Z-3.000 F300.000
G1 X158.625 Y26.116 Z-3.000 F300.000
G1 X158.567 Y26.741 Z-3.000 F300.000
G1 X158.559 Y26.858 Z-3.000 F300.000
G1 X158.553 Y26.941 Z-3.000 F300.000
G1 X158.517 Y27.805 Z-3.000 F300.000
G1 X158.512 Y28.007 Z-3.000 F300.000
G1 X158.512 Y28.115 Z-3.000 F300.000
G1 X158.514 Y28.702 Z-3.000 F300.000
G1 X158.530 Y29.371 Z-3.000 F300.000
G1 X158.535 Y29.506 Z-3.000 F300.000
G1 X158.539 Y29.587 Z-3.000 F300.000
G1 X158.566 Y30.025 Z-3.000 F300.000
G1 X158.583 Y30.247 Z-3.000 F300.000
G1 X158.590 Y30.309 Z-3.000 F300.000
G1 X158.622 Y30.657 Z-3.000 F300.000
G1 X158.656 Y30.947 Z-3.000 F300.000
G1 X158.664 Y31.011 Z-3.000 F300.000
G1 X158.698 Y31.268 Z-3.000 F300.000
G1 X158.753 Y31.625 Z-3.000 F300.000
G1 X158.764 Y31.693 Z-3.000 F300.000
G1 X158.793 Y31.863 Z-3.000 F300.000
G1 X158.874 Y32.283 Z-3.000 F300.000
G1 X158.889 Y32.354 Z-3.000 F300.000
G1 X158.906 Y32.440 Z-3.000 F300.000
G1 X159.019 Y32.921 Z-3.000 F300.000
G1 X159.039 Y32.996 Z-3.000 F300.000
G1 X159.038 Y32.997 Z-3.000 F300.000
G1 X159.190 Y33.538 Z-3.000 F300.000
G1 X159.191 Y33.540 Z-3.000 F300.000
G1 X159.216 Y33.618 Z-3.000 F300.000
G1 X159.364 Y34.066 Z-3.000 F300.000
G1 X159.389 Y34.137 Z-3.000 F300.000
G1 X159.418 Y34.216 Z-3.000 F300.000
G1 X159.555 Y34.576 Z-3.000 F300.000
G1 X159.610 Y34.710 Z-3.000 F300.000
G1 X159.647 Y34.796 Z-3.000 F300.000
G1 X159.767 Y35.071 Z-3.000 F300.000
G1 X159.859 Y35.267 Z-3.000 F300.000
G1 X159.899 Y35.349 Z-3.000 F300.000
G1 X159.999 Y35.550 Z-3.000 F300.000
G1 X160.129 Y35.796 Z-3.000 F300.000
G1 X160.178 Y35.885 Z-3.000 F300.000
G1 X160.252 Y36.015 Z-3.000 F300.000
G1 X160.428 Y36.309 Z-3.000 F300.000
G1 X160.482 Y36.396 Z-3.000 F300.000
G1 X160.528 Y36.469 Z-3.000 F300.000
G1 X160.749 Y36.796 Z-3.000 F300.000
G1 X160.809 Y36.882 Z-3.000 F300.000
G1 X160.825 Y36.905 Z-3.000 F300.000
G1 X161.092 Y37.259 Z-3.000 F300.000
G1 X161.145 Y37.327 Z-3.000 F300.000
G1 X161.160 Y37.345 Z-3.000 F300.000
G1 X161.461 Y37.701 Z-3.000 F300.000
G1 X161.516 Y37.763 Z-3.000 F300.000
G1 X161.531 Y37.779 Z-3.000 F300.000
G1 X161.846 Y38.112 Z-3.000 F300.000
G1 X161.899 Y38.166 Z-3.000 F300.000
G1 X161.905 Y38.171 Z-3.000 F300.000
G1 X162.233 Y38.482 Z-3.000 F300.000
G1 X162.296 Y38.539 Z-3.000 F300.000
G1 X162.306 Y38.548 Z-3.000 F300.000
G1 X162.647 Y38.836 Z-3.000 F300.000
G1 X162.707 Y38.885 Z-3.000 F300.000
G1 X162.717 Y38.893 Z-3.000 F300.000
G1 X163.070 Y39.157 Z-3.000 F300.000
G1 X163.136 Y39.206 Z-3.000 F300.000
G1 X163.150 Y39.215 Z-3.000 F300.000
G1 X163.515 Y39.458 Z-3.000 F300.000
G1 X163.579 Y39.498 Z-3.000 F300.000
G1 X163.596 Y39.508 Z-3.000 F300.000
G1 X163.972 Y39.728 Z-3.000 F300.000
G1 X164.041 Y39.767 Z-3.000 F300.000
G1 X164.057 Y39.775 Z-3.000 F300.000
G1 X164.445 Y39.971 Z-3.000 F300.000
G1 X164.524 Y40.010 Z-3.000 F300.000
G1 X164.529 Y40.012 Z-3.000 F300.000
G1 X164.929 Y40.187 Z-3.000 F300.000
G1 X165.018 Y40.224 Z-3.000 F300.000
G1 X165.026 Y40.227 Z-3.000 F300.000
G1 X165.430 Y40.376 Z-3.000 F300.000
G1 X165.516 Y40.407 Z-3.000 F300.000
G1 X165.550 Y40.418 Z-3.000 F300.000
G1 X165.939 Y40.538 Z-3.000 F300.000
G1 X166.022 Y40.563 Z-3.000 F300.000
G1 X166.096 Y40.583 Z-3.000 F300.000
G1 X166.456 Y40.672 Z-3.000 F300.000
G1 X166.541 Y40.693 Z-3.000 F300.000
G1 X166.667 Y40.720 Z-3.000 F300.000
G1 X166.986 Y40.782 Z-3.000 F300.000
G1 X167.069 Y40.798 Z-3.000 F300.000
G1 X167.262 Y40.829 Z-3.000 F300.000
G1 X167.526 Y40.866 Z-3.000 F300.000
G1 X167.606 Y40.877 Z-3.000 F300.000
G1 X167.881 Y40.909 Z-3.000 F300.000
G1 X168.072 Y40.926 Z-3.000 F300.000
G1 X168.147 Y40.933 Z-3.000 F300.000
G1 X168.524 Y40.958 Z-3.000 F300.000
G1 X168.626 Y40.962 Z-3.000 F300.000
G1 X168.700 Y40.965 Z-3.000 F300.000
G1 X169.191 Y40.976 Z-3.000 F300.000
G1 X169.194 Y40.976 Z-3.000 F300.000
G1 X169.275 Y40.975 Z-3.000 F300.000
G1 X169.764 Y40.964 Z-3.000 F300.000
G1 X170.067 Y40.951 Z-3.000 F300.000
G1 X170.171 Y40.946 Z-3.000 F300.000
G1 X170.320 Y40.934 Z-3.000 F300.000
G1 X170.852 Y40.885 Z-3.000 F300.000
G1 X170.917 Y40.878 Z-3.000 F300.000
G1 X171.034 Y40.863 Z-3.000 F300.000
G1 X171.363 Y40.814 Z-3.000 F300.000
G1 X171.736 Y40.751 Z-3.000 F300.000
G1 X171.855 Y40.729 Z-3.000 F300.000
G1 X171.862 Y40.727 Z-3.000 F300.000
G1 X172.323 Y40.619 Z-3.000 F300.000
G1 X172.520 Y40.568 Z-3.000 F300.000
G1 X172.658 Y40.530 Z-3.000 F300.000
G1 X172.772 Y40.494 Z-3.000 F300.000
G1 X173.199 Y40.353 Z-3.000 F300.000
G1 X173.271 Y40.327 Z-3.000 F300.000
G1 X173.417 Y40.271 Z-3.000 F300.000
G1 X173.605 Y40.193 Z-3.000 F300.000
G1 X173.988 Y40.023 Z-3.000 F300.000
G1 X173.994 Y40.021 Z-3.000 F300.000
G1 X174.142 Y39.946 Z-3.000 F300.000
G1 X174.359 Y39.828 Z-3.000 F300.000
G1 X174.668 Y39.650 Z-3.000 F300.000
G1 X174.710 Y39.626 Z-3.000 F300.000
G1 X174.822 Y39.551 Z-3.000 F300.000
G1 X175.039 Y39.401 Z-3.000 F300.000
G1 X175.304 Y39.206 Z-3.000 F300.000
G1 X175.356 Y39.168 Z-3.000 F300.000
G1 X175.430 Y39.106 Z-3.000 F300.000
G1 X175.654 Y38.913 Z-3.000 F300.000
G1 X175.869 Y38.718 Z-3.000 F300.000
G1 X175.937 Y38.655 Z-3.000 F300.000
G1 X175.975 Y38.615 Z-3.000 F300.000
G1 X176.375 Y38.190 Z-3.000 F300.000
G1 X176.475 Y38.081 Z-3.000 F300.000
G1 X176.504 Y38.046 Z-3.000 F300.000
G1 X176.841 Y37.625 Z-3.000 F300.000
G1 X176.931 Y37.509 Z-3.000 F300.000
G1 X176.986 Y37.432 Z-3.000 F300.000
G1 X177.263 Y37.019 Z-3.000 F300.000
G1 X177.340 Y36.899 Z-3.000 F300.000
G1 X177.392 Y36.814 Z-3.000 F300.000
G1 X177.634 Y36.375 Z-3.000 F300.000
G1 X177.702 Y36.246 Z-3.000 F300.000
G1 X177.738 Y36.172 Z-3.000 F300.000
G1 X177.874 Y35.875 Z-3.000 F300.000
G1 X177.955 Y35.686 Z-3.000 F300.000
G1 X178.005 Y35.565 Z-3.000 F300.000
G1 X178.005 Y35.563 Z-3.000 F300.000
G1 X178.016 Y35.534 Z-3.000 F300.000
G1 X177.416 Y34.690 Z-3.000 F300.000
G1 X177.350 Y34.601 Z-3.000 F300.000
G1 X176.697 Y33.750 Z-0.000 F300.000
G0 Z3.000
G0 X178.016 Y35.534 Z3.000
G1 X178.016 Y35.534 Z-3.000 F300.000
G1 X178.326 Y35.317 Z-3.000 F300.000
G1 X178.682 Y35.057 Z-3.000 F300.000
G1 X179.049 Y34.774 Z-3.000 F300.000
G1 X179.430 Y34.465 Z-2.669 F300.000
G1 X179.830 Y34.125 Z-1.400 F300.000
G1 X180.250 Y33.750 Z-0.001 F300.000
G0 Z3.000
G0 X186.265 Y40.305 Z3.000
G1 X186.265 Y40.305 Z-3.000 F300.000
G1 X187.913 Y41.953 Z-0.001 F300.000
G0 Z3.000
G0 X184.617 Y41.953 Z3.000
G1 X184.617 Y41.953 Z-0.001 F300.000
G1 X186.265 Y40.305 Z-3.000 F300.000
G1 X186.265 Y16.648 Z-3.000 F300.000
G0 Z3.000
G0 X184.617 Y15.000 Z3.000
G1 X184.617 Y15.000 Z-0.003 F300.000
G1 X186.265 Y16.648 Z-3.000 F300.000
G1 X187.913 Y15.000 Z-0.003 F300.000
G0 Z3.000
G0 X192.885 Y15.000 Z3.000
G1 X192.885 Y15.000 Z-0.003 F300.000
G1 X194.560 Y16.675 Z-3.000 F300.000
G1 X196.236 Y15.000 Z-0.002 F300.000
G0 Z3.000
G0 X194.560 Y16.675 Z3.000
G1 X194.560 Y16.675 Z-3.000 F300.000
G1 X194.560 Y32.934 Z-3.000 F300.000
G1 X192.885 Y34.609 Z-0.003 F300.000
G0 Z3.000
G0 X194.560 Y32.934 Z3.000
G1 X194.560 Y32.934 Z-3.000 F300.000
G1 X196.236 Y34.609 Z-0.001 F300.000
G0 Z3.000
G0 X199.340 Y34.609 Z3.000
G1 X199.340 Y34.609 Z-0.001 F300.000
G1 X200.629 Y33.320 Z-3.000 F300.000
G1 X199.340 Y32.031 Z-0.001 F300.000
G0 Z3.000
G0 X200.629 Y33.320 Z3.000
G1 X200.629 Y33.320 Z-3.000 F300.000
G1 X202.069 Y33.320 Z-3.000 F300.000
G1 X203.698 Y33.320 Z-3.000 F300.000
G1 X203.698 Y32.031 Z-3.000 F300.000
G1 X203.698 Y16.630 Z-3.000 F300.000
G0 Z3.000
G0 X205.328 Y15.000 Z3.000
G1 X205.328 Y15.000 Z0.000 F300.000
G1 X203.698 Y16.630 Z-3.000 F300.000
G1 X202.069 Y15.000 Z0.000 F300.000
G0 Z3.000
G0 X210.390 Y15.000 Z3.000
G1 X210.390 Y15.000 Z-0.002 F300.000
G1 X211.211 Y15.763 Z-2.844 F300.000
G1 X211.975 Y16.443 Z-3.000 F300.000
G1 X212.551 Y16.932 Z-3.000 F300.000
G1 X212.517 Y17.077 Z-3.000 F300.000
G1 X212.464 Y17.437 Z-3.000 F300.000
G1 X212.447 Y17.789 Z-3.000 F300.000
G1 X212.473 Y18.126 Z-3.000 F300.000
G1 X212.533 Y18.454 Z-3.000 F300.000
G1 X212.566 Y18.567 Z-3.000 F300.000
G1 X212.711 Y19.042 Z-3.000 F300.000
G1 X212.721 Y19.071 Z-3.000 F300.000
G1 X212.757 Y19.169 Z-3.000 F300.000
G1 X212.937 Y19.636 Z-3.000 F300.000
G1 X212.945 Y19.655 Z-3.000 F300.000
G1 X212.992 Y19.760 Z-3.000 F300.000
G1 X213.196 Y20.191 Z-3.000 F300.000
G1 X213.210 Y20.220 Z-3.000 F300.000
G1 X213.272 Y20.331 Z-3.000 F300.000
G1 X213.475 Y20.685 Z-3.000 F300.000
G1 X213.535 Y20.779 Z-3.000 F300.000
G1 X213.606 Y20.884 Z-3.000 F300.000
G1 X213.804 Y21.168 Z-3.000 F300.000
G1 X213.918 Y21.317 Z-3.000 F300.000
G1 X213.989 Y21.406 Z-3.000 F300.000
G1 X214.199 Y21.659 Z-3.000 F300.000
G1 X214.348 Y21.825 Z-3.000 F300.000
G1 X214.421 Y21.903 Z-3.000 F300.000
G1 X214.664 Y22.156 Z-3.000 F300.000
G1 X214.822 Y22.309 Z-3.000 F300.000
G1 X214.896 Y22.378 Z-3.000 F300.000
G1 X215.204 Y22.656 Z-3.000 F300.000
G1 X215.340 Y22.772 Z-3.000 F300.000
G1 X215.417 Y22.835 Z-3.000 F300.000
G1 X215.821 Y23.155 Z-3.000 F300.000
G1 X215.985 Y23.277 Z-3.000 F300.000
G1 X216.064 Y23.334 Z-3.000 F300.000
G1 X216.518 Y23.650 Z-3.000 F300.000
G1 X216.728 Y23.788 Z-3.000 F300.000
G1 X216.792 Y23.830 Z-3.000 F300.000
G1 X217.306 Y24.149 Z-3.000 F300.000
G1 X217.551 Y24.297 Z-3.000 F300.000
G1 X217.607 Y24.330 Z-3.000 F300.000
G1 X218.456 Y24.817 Z-3.000 F300.000
G1 X218.475 Y24.828 Z-3.000 F300.000
G1 X220.815 Y26.148 Z-3.000 F300.000
G1 X220.841 Y26.163 Z-3.000 F300.000
G1 X220.958 Y26.230 Z-3.000 F300.000
G1 X221.941 Y26.811 Z-3.000 F300.000
G1 X221.998 Y26.846 Z-3.000 F300.000
G1 X222.439 Y27.120 Z-3.000 F300.000
G1 X222.928 Y27.435 Z-3.000 F300.000
G1 X223.009 Y27.489 Z-3.000 F300.000
G1 X223.062 Y27.526 Z-3.000 F300.000
G1 X223.619 Y27.921 Z-3.000 F300.000
G1 X223.766 Y28.028 Z-3.000 F300.000
G1 X223.843 Y28.086 Z-3.000 F300.000
G1 X224.104 Y28.290 Z-3.000 F300.000
G1 X224.158 Y28.333 Z-3.000 F300.000
G1 X224.228 Y28.392 Z-3.000 F300.000
G1 X224.502 Y28.627 Z-3.000 F300.000
G1 X224.513 Y28.636 Z-3.000 F300.000
G1 X224.582 Y28.701 Z-3.000 F300.000
G1 X224.845 Y28.954 Z-3.000 F300.000
G1 X224.957 Y29.068 Z-3.000 F300.000
G1 X225.059 Y29.176 Z-3.000 F300.000
G1 X225.101 Y29.224 Z-3.000 F300.000
G1 X225.383 Y29.563 Z-3.000 F300.000
G1 X225.482 Y29.688 Z-3.000 F300.000
G1 X225.499 Y29.710 Z-3.000 F300.000
G1 X225.759 Y30.091 Z-3.000 F300.000
G1 X225.827 Y30.193 Z-3.000 F300.000
G1 X225.851 Y30.237 Z-3.000 F300.000
G1 X226.081 Y30.657 Z-3.000 F300.000
G1 X226.096 Y30.684 Z-3.000 F300.000
G1 X226.156 Y30.817 Z-3.000 F300.000
G1 X226.311 Y31.185 Z-3.000 F300.000
G1 X226.336 Y31.255 Z-3.000 F300.000
G1 X226.396 Y31.433 Z-3.000 F300.000
G1 X226.477 Y31.701 Z-3.000 F300.000
G1 X226.523 Y31.887 Z-3.000 F300.000
G1 X226.564 Y32.068 Z-3.000 F300.000
G1 X226.598 Y32.242 Z-3.000 F300.000
G1 X226.640 Y32.537 Z-3.000 F300.000
G1 X226.662 Y32.714 Z-3.000 F300.000
G1 X226.671 Y32.812 Z-3.000 F300.000
G1 X226.689 Y33.198 Z-3.000 F300.000
G1 X226.693 Y33.360 Z-3.000 F300.000
G1 X226.693 Y33.416 Z-3.000 F300.000
G1 X226.672 Y33.919 Z-3.000 F300.000
G1 X226.669 Y33.988 Z-3.000 F300.000
G1 X226.660 Y34.066 Z-3.000 F300.000
G1 X226.599 Y34.541 Z-3.000 F300.000
G1 X226.589 Y34.594 Z-3.000 F300.000
G1 X226.558 Y34.755 Z-3.000 F300.000
G1 X226.484 Y35.081 Z-3.000 F300.000
G1 X226.438 Y35.252 Z-3.000 F300.000
G1 X226.387 Y35.424 Z-3.000 F300.000
G1 X226.325 Y35.613 Z-3.000 F300.000
G1 X226.220 Y35.889 Z-3.000 F300.000
G1 X226.153 Y36.056 Z-3.000 F300.000
G1 X226.116 Y36.138 Z-3.000 F300.000
G1 X225.943 Y36.490 Z-3.000 F300.000
G1 X225.855 Y36.659 Z-3.000 F300.000
G1 X225.851 Y36.663 Z-3.000 F300.000
G1 X225.605 Y37.061 Z-3.000 F300.000
G1 X225.525 Y37.186 Z-3.000 F300.000
G1 X225.499 Y37.219 Z-3.000 F300.000
G1 X225.212 Y37.596 Z-3.000 F300.000
G1 X225.128 Y37.703 Z-3.000 F300.000
G1 X225.093 Y37.742 Z-3.000 F300.000
G1 X224.939 Y37.909 Z-3.000 F300.000
G1 X224.764 Y38.088 Z-3.000 F300.000
G1 X224.741 Y38.113 Z-3.000 F300.000
G1 X224.632 Y38.211 Z-3.000 F300.000
G1 X224.526 Y38.301 Z-3.000 F300.000
G1 X224.298 Y38.483 Z-3.000 F300.000
G1 X224.261 Y38.511 Z-3.000 F300.000
G1 X224.114 Y38.616 Z-3.000 F300.000
G1 X224.051 Y38.657 Z-3.000 F300.000
G1 X223.787 Y38.823 Z-3.000 F300.000
G1 X223.712 Y38.867 Z-3.000 F300.000
G1 X223.557 Y38.953 Z-3.000 F300.000
G1 X223.503 Y38.980 Z-3.000 F300.000
G1 X223.193 Y39.128 Z-3.000 F300.000
G1 X223.127 Y39.157 Z-3.000 F300.000
G1 X222.970 Y39.222 Z-3.000 F300.000
G1 X222.863 Y39.263 Z-3.000 F300.000
G1 X222.515 Y39.386 Z-3.000 F300.000
G1 X222.510 Y39.388 Z-3.000 F300.000
G1 X222.361 Y39.432 Z-3.000 F300.000
G1 X222.127 Y39.494 Z-3.000 F300.000
G1 X221.882 Y39.554 Z-3.000 F300.000
G1 X221.740 Y39.586 Z-3.000 F300.000
G1 X221.721 Y39.589 Z-3.000 F300.000
G1 X221.291 Y39.663 Z-3.000 F300.000
G1 X221.236 Y39.671 Z-3.000 F300.000
G1 X221.106 Y39.689 Z-3.000 F300.000
G1 X220.849 Y39.715 Z-3.000 F300.000
G1 X220.574 Y39.737 Z-3.000 F300.000
G1 X220.452 Y39.744 Z-3.000 F300.000
G1 X219.894 Y39.764 Z-3.000 F300.000
G1 X219.848 Y39.765 Z-3.000 F300.000
G1 X219.802 Y39.765 Z-3.000 F300.000
G1 X219.387 Y39.755 Z-3.000 F300.000
G1 X219.308 Y39.752 Z-3.000 F300.000
G1 X219.261 Y39.750 Z-3.000 F300.000
G1 X218.909 Y39.723 Z-3.000 F300.000
G1 X218.831 Y39.717 Z-3.000 F300.000
G1 X218.695 Y39.703 Z-3.000 F300.000
G1 X218.448 Y39.672 Z-3.000 F300.000
G1 X218.360 Y39.660 Z-3.000 F300.000
G1 X218.160 Y39.629 Z-3.000 F300.000
G1 X217.992 Y39.598 Z-3.000 F300.000
G1 X217.896 Y39.578 Z-3.000 F300.000
G1 X217.660 Y39.527 Z-3.000 F300.000
G1 X217.543 Y39.498 Z-3.000 F300.000
G1 X217.445 Y39.472 Z-3.000 F300.000
G1 X217.190 Y39.399 Z-3.000 F300.000
G1 X217.108 Y39.373 Z-3.000 F300.000
G1 X217.008 Y39.340 Z-3.000 F300.000
G1 X216.752 Y39.248 Z-3.000 F300.000
G1 X216.686 Y39.222 Z-3.000 F300.000
G1 X216.577 Y39.177 Z-3.000 F300.000
G1 X216.346 Y39.075 Z-3.000 F300.000
G1 X216.270 Y39.039 Z-3.000 F300.000
G1 X216.160 Y38.984 Z-3.000 F300.000
G1 X215.968 Y38.882 Z-3.000 F300.000
G1 X215.868 Y38.824 Z-3.000 F300.000
G1 X215.766 Y38.763 Z-3.000 F300.000
G1 X215.619 Y38.671 Z-3.000 F300.000
G1 X215.490 Y38.583 Z-3.000 F300.000
G1 X215.385 Y38.509 Z-3.000 F300.000
G1 X215.294 Y38.442 Z-3.000 F300.000
G1 X215.125 Y38.307 Z-3.000 F300.000
G1 X215.026 Y38.224 Z-3.000 F300.000
G1 X214.992 Y38.195 Z-3.000 F300.000
G1 X214.783 Y37.999 Z-3.000 F300.000
G1 X214.710 Y37.928 Z-3.000 F300.000
G1 X214.694 Y37.910 Z-3.000 F300.000
G1 X214.469 Y37.665 Z-3.000 F300.000
G1 X214.446 Y37.639 Z-3.000 F300.000
G1 X214.390 Y37.571 Z-3.000 F300.000
G1 X214.198 Y37.327 Z-3.000 F300.000
G1 X214.181 Y37.304 Z-3.000 F300.000
G1 X214.108 Y37.200 Z-3.000 F300.000
G1 X213.967 Y36.991 Z-3.000 F300.000
G1 X213.917 Y36.911 Z-3.000 F300.000
G1 X213.861 Y36.817 Z-3.000 F300.000
G1 X213.754 Y36.633 Z-3.000 F300.000
G1 X213.687 Y36.506 Z-3.000 F300.000
G1 X213.631 Y36.393 Z-3.000 F300.000
G1 X213.532 Y36.189 Z-3.000 F300.000
G1 X213.464 Y36.032 Z-3.000 F300.000
G1 X213.418 Y35.918 Z-3.000 F300.000
G1 X213.334 Y35.705 Z-3.000 F300.000
G1 X213.271 Y35.524 Z-3.000 F300.000
G1 X213.235 Y35.415 Z-3.000 F300.000
G1 X213.161 Y35.177 Z-3.000 F300.000
G1 X213.108 Y34.987 Z-3.000 F300.000
G1 X213.084 Y34.893 Z-3.000 F300.000
G1 X213.013 Y34.604 Z-3.000 F300.000
G1 X212.976 Y34.431 Z-3.000 F300.000
G1 X212.960 Y34.346 Z-3.000 F300.000
G1 X212.892 Y33.985 Z-3.000 F300.000
G1 X212.872 Y33.851 Z-3.000 F300.000
G1 X212.861 Y33.772 Z-3.000 F300.000
G1 X212.831 Y33.553 Z-3.000 F300.000
G1 X212.591 Y33.343 Z-3.000 F300.000
G1 X211.847 Y32.660 Z-2.932 F300.000
G1 X211.031 Y31.875 Z0.000 F300.000
G0 Z3.000
G0 X208.624 Y32.031 Z3.000
G1 X208.624 Y32.031 Z-0.001 F300.000
G1 X207.335 Y33.320 Z-3.000 F300.000
G1 X205.364 Y33.320 Z-3.000 F300.000
G1 X205.328 Y33.321 Z-3.000 F300.000
G1 X203.716 Y33.343 Z-3.000 F300.000
G1 X203.716 Y34.609 Z-3.000 F300.000
G1 X203.717 Y34.631 Z-3.000 F300.000
G1 X203.726 Y36.033 Z-3.000 F300.000
G1 X203.727 Y36.093 Z-3.000 F300.000
G1 X203.755 Y37.203 Z-3.000 F300.000
G1 X203.759 Y37.307 Z-3.000 F300.000
G1 X203.775 Y37.595 Z-3.000 F300.000
G1 X203.808 Y37.999 Z-3.000 F300.000
G1 X203.822 Y38.127 Z-3.000 F300.000
G1 X203.841 Y38.276 Z-3.000 F300.000
G1 X203.856 Y38.375 Z-3.000 F300.000
G1 X203.891 Y38.577 Z-3.000 F300.000
G1 X203.915 Y38.702 Z-3.000 F300.000
G1 X203.924 Y38.739 Z-3.000 F300.000
G1 X203.982 Y38.967 Z-3.000 F300.000
G1 X203.986 Y38.980 Z-3.000 F300.000
G1 X204.022 Y39.096 Z-3.000 F300.000
G1 X204.062 Y39.210 Z-3.000 F300.000
G1 X204.092 Y39.279 Z-3.000 F300.000
G1 X204.139 Y39.388 Z-3.000 F300.000
G1 X204.176 Y39.462 Z-3.000 F300.000
G1 X204.203 Y39.514 Z-3.000 F300.000
G1 X204.258 Y39.606 Z-3.000 F300.000
G1 X204.305 Y39.671 Z-3.000 F300.000
G1 X204.371 Y39.752 Z-3.000 F300.000
G1 X204.393 Y39.776 Z-3.000 F300.000
G1 X204.451 Y39.837 Z-3.000 F300.000
G1 X204.514 Y39.898 Z-3.000 F300.000
G1 X204.536 Y39.918 Z-3.000 F300.000
G1 X204.759 Y40.096 Z-3.000 F300.000
G1 X204.835 Y40.143 Z-3.000 F300.000
G1 X205.018 Y40.253 Z-3.000 F300.000
G1 X205.062 Y40.278 Z-3.000 F300.000
G1 X205.295 Y40.384 Z-3.000 F300.000
G1 X205.460 Y40.451 Z-3.000 F300.000
G1 X205.512 Y40.469 Z-3.000 F300.000
G1 X205.737 Y40.539 Z-3.000 F300.000
G1 X205.957 Y40.597 Z-3.000 F300.000
G1 X205.986 Y40.604 Z-3.000 F300.000
G1 X206.175 Y40.640 Z-3.000 F300.000
G1 X206.459 Y40.685 Z-3.000 F300.000
G1 X206.550 Y40.699 Z-3.000 F300.000
G1 X206.608 Y40.703 Z-3.000 F300.000
G1 X206.928 Y40.725 Z-3.000 F300.000
G1 X207.044 Y40.732 Z-3.000 F300.000
G1 X207.098 Y40.733 Z-3.000 F300.000
G1 X207.411 Y40.430 Z-3.000 F300.000
G1 X207.453 Y40.390 Z-3.000 F300.000
G1 X207.882 Y39.960 Z-2.770 F300.000
G1 X208.014 Y39.828 Z-2.277 F300.000
G1 X208.182 Y39.660 Z-1.651 F300.000
G1 X208.385 Y39.457 Z-0.893 F300.000
G1 X208.624 Y39.218 Z-0.001 F300.000
G0 Z3.000
G0 X207.098 Y40.733 Z3.000
G1 X207.098 Y40.733 Z-3.000 F300.000
G1 X207.234 Y40.875 Z-3.000 F300.000
G1 X207.830 Y41.453 Z-2.963 F300.000
G1 X208.624 Y42.187 Z-0.002 F300.000
G0 Z3.000
G0 X208.624 Y34.609 Z3.000
G1 X208.624 Y34.609 Z-0.001 F300.000
G1 X207.335 Y33.320 Z-3.000 F300.000
G0 Z3.000
G0 X203.716 Y33.343 Z3.000
G1 X203.716 Y33.343 Z-3.000 F300.000
G1 X203.698 Y33.320 Z-3.000 F300.000
G0 Z3.000
G0 X196.236 Y38.203 Z3.000
G1 X196.236 Y38.203 Z-0.001 F300.000
G1 X194.560 Y39.879 Z-3.000 F300.000
G1 X192.885 Y38.203 Z-0.001 F300.000
G0 Z3.000
G0 X194.560 Y39.879 Z3.000
G1 X194.560 Y39.879 Z-3.000 F300.000
G1 X194.560 Y40.278 Z-3.000 F300.000
G1 X192.885 Y41.953 Z-0.003 F300.000
G0 Z3.000
G0 X194.560 Y40.278 Z3.000
G1 X194.560 Y40.278 Z-3.000 F300.000
G1 X196.236 Y41.953 Z-0.001 F300.000
G0 Z3.000
G0 X212.831 Y33.553 Z3.000
G1 X212.831 Y33.553 Z-3.000 F300.000
G1 X213.144 Y33.198 Z-3.000 F300.000
G1 X213.199 Y33.138 Z-3.000 F300.000
G1 X213.763 Y32.524 Z-2.424 F300.000
G1 X213.786 Y32.499 Z-2.331 F300.000
G1 X214.382 Y31.875 Z-0.001 F300.000
G0 Z3.000
G0 X212.551 Y16.932 Z3.000
G1 X212.551 Y16.932 Z-3.000 F300.000
G1 X213.054 Y16.728 Z-3.000 F300.000
G1 X213.543 Y16.607 Z-3.000 F300.000
G1 X213.807 Y16.574 Z-3.000 F300.000
G1 X214.071 Y16.563 Z-3.000 F300.000
G1 X226.827 Y16.562 Z-3.000 F300.000
G1 X228.389 Y15.000 Z-0.003 F300.000
G0 Z3.000
G0 X226.827 Y16.562 Z3.000
G1 X226.827 Y16.562 Z-3.000 F300.000
G1 X228.389 Y18.125 Z0.000 F300.000
G0 Z3.000
G0 X180.506 Y24.843 Z3.000
G1 X180.506 Y24.843 Z-0.002 F300.000
G1 X179.490 Y23.966 Z-3.000 F300.000
G1 X178.566 Y23.226 Z-3.000 F300.000
G1 X178.346 Y23.063 Z-3.000 F300.000
G0 Z5.000
(Finish operation: Vcarve015)
(Begin operation: Vcarve016)
(Path: Vcarve016)
(starting)
G0 Z3.000
G0 X251.954 Y59.843 Z3.000
G1 X251.954 Y59.843 Z-0.003 F300.000
G1 X252.614 Y59.016 Z-2.000 F300.000
G1 X252.647 Y58.976 Z-2.000 F300.000
G1 X253.282 Y58.148 Z-2.000 F300.000
G1 X253.346 Y58.064 Z-2.000 F300.000
G1 X253.343 Y58.054 Z-2.000 F300.000
G1 X253.163 Y57.472 Z-2.000 F300.000
G1 X253.156 Y57.450 Z-2.000 F300.000
G1 X253.137 Y57.398 Z-2.000 F300.000
G1 X252.930 Y56.852 Z-2.000 F300.000
G1 X252.897 Y56.767 Z-2.000 F300.000
G1 X252.851 Y56.656 Z-2.000 F300.000
G1 X252.691 Y56.297 Z-2.000 F300.000
G1 X252.671 Y56.253 Z-2.000 F300.000
G1 X252.632 Y56.173 Z-2.000 F300.000
G1 X252.510 Y55.930 Z-2.000 F300.000
G1 X252.386 Y55.694 Z-2.000 F300.000
G1 X252.336 Y55.603 Z-2.000 F300.000
G1 X252.318 Y55.572 Z-2.000 F300.000
G1 X252.109 Y55.221 Z-2.000 F300.000
G1 X252.069 Y55.157 Z-2.000 F300.000
G1 X252.013 Y55.070 Z-2.000 F300.000
G1 X251.885 Y54.877 Z-2.000 F300.000
G1 X251.731 Y54.656 Z-2.000 F300.000
G1 X251.672 Y54.574 Z-2.000 F300.000
G1 X251.659 Y54.556 Z-2.000 F300.000
G1 X251.386 Y54.211 Z-2.000 F300.000
G1 X251.324 Y54.135 Z-2.000 F300.000
G1 X251.115 Y53.886 Z-2.000 F300.000
G1 X251.031 Y53.792 Z-2.000 F300.000
G1 X250.960 Y53.716 Z-2.000 F300.000
G1 X250.784 Y53.531 Z-2.000 F300.000
G1 X250.651 Y53.399 Z-2.000 F300.000
G1 X250.579 Y53.330 Z-2.000 F300.000
G1 X250.433 Y53.193 Z-2.000 F300.000
G1 X250.257 Y53.037 Z-2.000 F300.000
G1 X250.174 Y52.967 Z-2.000 F300.000
G1 X250.067 Y52.878 Z-2.000 F300.000
G1 X249.836 Y52.698 Z-2.000 F300.000
G1 X249.748 Y52.631 Z-2.000 F300.000
G1 X249.687 Y52.586 Z-2.000 F300.000
G1 X249.397 Y52.387 Z-2.000 F300.000
G1 X249.309 Y52.329 Z-2.000 F300.000
G1 X249.291 Y52.317 Z-2.000 F300.000
G1 X248.943 Y52.108 Z-2.000 F300.000
G1 X248.878 Y52.070 Z-2.000 F300.000
G1 X248.850 Y52.056 Z-2.000 F300.000
G1 X248.471 Y51.857 Z-2.000 F300.000
G1 X248.448 Y51.846 Z-2.000 F300.000
G1 X248.372 Y51.811 Z-2.000 F300.000
G1 X248.000 Y51.645 Z-2.000 F300.000
G1 X247.979 Y51.636 Z-2.000 F300.000
G1 X247.883 Y51.599 Z-2.000 F300.000
G1 X247.534 Y51.467 Z-2.000 F300.000
G1 X247.475 Y51.447 Z-2.000 F300.000
G1 X247.383 Y51.417 Z-2.000 F300.000
G1 X247.049 Y51.312 Z-2.000 F300.000
G1 X246.961 Y51.287 Z-2.000 F300.000
G1 X246.865 Y51.262 Z-2.000 F300.000
G1 X246.543 Y51.180 Z-2.000 F300.000
G1 X246.430 Y51.155 Z-2.000 F300.000
G1 X246.338 Y51.136 Z-2.000 F300.000
G1 X246.018 Y51.074 Z-2.000 F300.000
G1 X245.887 Y51.052 Z-2.000 F300.000
G1 X245.799 Y51.038 Z-2.000 F300.000
G1 X245.471 Y50.992 Z-2.000 F300.000
G1 X245.333 Y50.976 Z-2.000 F300.000
G1 X245.249 Y50.967 Z-2.000 F300.000
G1 X244.906 Y50.936 Z-2.000 F300.000
G1 X244.769 Y50.926 Z-2.000 F300.000
G1 X244.688 Y50.922 Z-2.000 F300.000
G1 X244.320 Y50.906 Z-2.000 F300.000
G1 X244.193 Y50.903 Z-2.000 F300.000
G1 X244.121 Y50.903 Z-2.000 F300.000
G1 X243.712 Y50.902 Z-2.000 F300.000
G1 X243.582 Y50.905 Z-2.000 F300.000
G1 X243.511 Y50.908 Z-2.000 F300.000
G1 X243.198 Y50.920 Z-2.000 F300.000
G1 X242.988 Y50.934 Z-2.000 F300.000
G1 X242.911 Y50.940 Z-2.000 F300.000
G1 X242.694 Y50.958 Z-2.000 F300.000
G1 X242.407 Y50.988 Z-2.000 F300.000
G1 X242.323 Y50.999 Z-2.000 F300.000
G1 X242.203 Y51.014 Z-2.000 F300.000
G1 X241.833 Y51.071 Z-2.000 F300.000
G1 X241.755 Y51.085 Z-2.000 F300.000
G1 X241.730 Y51.089 Z-2.000 F300.000
G1 X241.282 Y51.179 Z-2.000 F300.000
G1 X241.270 Y51.182 Z-2.000 F300.000
G1 X241.191 Y51.202 Z-2.000 F300.000
G1 X240.823 Y51.295 Z-2.000 F300.000
G1 X240.734 Y51.320 Z-2.000 F300.000
G1 X240.642 Y51.348 Z-2.000 F300.000
G1 X240.388 Y51.426 Z-2.000 F300.000
G1 X240.203 Y51.489 Z-2.000 F300.000
G1 X240.110 Y51.522 Z-2.000 F300.000
G1 X239.967 Y51.575 Z-2.000 F300.000
G1 X239.687 Y51.686 Z-2.000 F300.000
G1 X239.594 Y51.725 Z-2.000 F300.000
G1 X239.557 Y51.741 Z-2.000 F300.000
G1 X239.188 Y51.911 Z-2.000 F300.000
G1 X239.160 Y51.925 Z-2.000 F300.000
G1 X239.093 Y51.960 Z-2.000 F300.000
G1 X238.773 Y52.129 Z-2.000 F300.000
G1 X238.702 Y52.169 Z-2.000 F300.000
G1 X238.606 Y52.226 Z-2.000 F300.000
G1 X238.399 Y52.351 Z-2.000 F300.000
G1 X238.231 Y52.459 Z-2.000 F300.000
G1 X238.144 Y52.517 Z-2.000 F300.000
G1 X238.035 Y52.591 Z-2.000 F300.000
G1 X237.785 Y52.772 Z-2.000 F300.000
G1 X237.694 Y52.841 Z-2.000 F300.000
G1 X237.680 Y52.851 Z-2.000 F300.000
G1 X237.351 Y53.118 Z-2.000 F300.000
G1 X237.334 Y53.132 Z-2.000 F300.000
G1 X237.267 Y53.191 Z-2.000 F300.000
G1 X237.008 Y53.427 Z-2.000 F300.000
G1 X236.941 Y53.491 Z-2.000 F300.000
G1 X236.864 Y53.567 Z-2.000 F300.000
G1 X236.589 Y53.849 Z-2.000 F300.000
G1 X236.553 Y53.889 Z-2.000 F300.000
G1 X236.481 Y53.970 Z-2.000 F300.000
G1 X236.205 Y54.291 Z-2.000 F300.000
G1 X236.184 Y54.316 Z-2.000 F300.000
G1 X236.125 Y54.393 Z-2.000 F300.000
G1 X235.846 Y54.758 Z-2.000 F300.000
G1 X235.847 Y54.759 Z-2.000 F300.000
G1 X235.798 Y54.829 Z-2.000 F300.000
G1 X235.539 Y55.210 Z-2.000 F300.000
G1 X235.512 Y55.253 Z-2.000 F300.000
G1 X235.493 Y55.285 Z-2.000 F300.000
G1 X235.254 Y55.683 Z-2.000 F300.000
G1 X235.215 Y55.751 Z-2.000 F300.000
G1 X235.202 Y55.773 Z-2.000 F300.000
G1 X234.996 Y56.163 Z-2.000 F300.000
G1 X234.957 Y56.242 Z-2.000 F300.000
G1 X234.915 Y56.324 Z-2.000 F300.000
G1 X234.755 Y56.670 Z-2.000 F300.000
G1 X234.724 Y56.743 Z-2.000 F300.000
G1 X234.652 Y56.905 Z-2.000 F300.000
G1 X234.540 Y57.184 Z-2.000 F300.000
G1 X234.512 Y57.259 Z-2.000 F300.000
G1 X234.413 Y57.519 Z-2.000 F300.000
G1 X234.346 Y57.715 Z-2.000 F300.000
G1 X234.321 Y57.790 Z-2.000 F300.000
G1 X234.199 Y58.168 Z-2.000 F300.000
G1 X234.172 Y58.259 Z-2.000 F300.000
G1 X234.153 Y58.331 Z-2.000 F300.000
G1 X234.021 Y58.814 Z-2.000 F300.000
G1 X234.012 Y58.851 Z-2.000 F300.000
G1 X234.004 Y58.884 Z-2.000 F300.000
G1 X233.892 Y59.382 Z-2.000 F300.000
G1 X233.871 Y59.482 Z-2.000 F300.000
G1 X233.854 Y59.569 Z-2.000 F300.000
G1 X233.724 Y60.324 Z-2.000 F300.000
G1 X233.695 Y60.520 Z-2.000 F300.000
G1 X233.679 Y60.649 Z-2.000 F300.000
G1 X233.625 Y61.116 Z-2.000 F300.000
G1 X233.567 Y61.741 Z-2.000 F300.000
G1 X233.559 Y61.858 Z-2.000 F300.000
G1 X233.553 Y61.941 Z-2.000 F300.000
G1 X233.517 Y62.805 Z-2.000 F300.000
G1 X233.512 Y63.007 Z-2.000 F300.000
G1 X233.512 Y63.115 Z-2.000 F300.000
G1 X233.514 Y63.702 Z-2.000 F300.000
G1 X233.530 Y64.371 Z-2.000 F300.000
G1 X233.535 Y64.506 Z-2.000 F300.000
G1 X233.539 Y64.587 Z-2.000 F300.000
G1 X233.566 Y65.025 Z-2.000 F300.000
G1 X233.583 Y65.247 Z-2.000 F300.000
G1 X233.590 Y65.309 Z-2.000 F300.000
G1 X233.622 Y65.657 Z-2.000 F300.000
G1 X233.656 Y65.947 Z-2.000 F300.000
G1 X233.664 Y66.011 Z-2.000 F300.000
G1 X233.698 Y66.268 Z-2.000 F300.000
G1 X233.753 Y66.625 Z-2.000 F300.000
G1 X233.764 Y66.693 Z-2.000 F300.000
G1 X233.793 Y66.863 Z-2.000 F300.000
G1 X233.874 Y67.283 Z-2.000 F300.000
G1 X233.889 Y67.354 Z-2.000 F300.000
G1 X233.906 Y67.440 Z-2.000 F300.000
G1 X234.019 Y67.921 Z-2.000 F300.000
G1 X234.039 Y67.996 Z-2.000 F300.000
G1 X234.038 Y67.997 Z-2.000 F300.000
G1 X234.190 Y68.538 Z-2.000 F300.000
G1 X234.191 Y68.540 Z-2.000 F300.000
G1 X234.216 Y68.618 Z-2.000 F300.000
G1 X234.364 Y69.066 Z-2.000 F300.000
G1 X234.389 Y69.137 Z-2.000 F300.000
G1 X234.418 Y69.216 Z-2.000 F300.000
G1 X234.555 Y69.576 Z-2.000 F300.000
G1 X234.610 Y69.710 Z-2.000 F300.000
G1 X234.647 Y69.796 Z-2.000 F300.000
G1 X234.767 Y70.071 Z-2.000 F300.000
G1 X234.859 Y70.267 Z-2.000 F300.000
G1 X234.899 Y70.349 Z-2.000 F300.000
G1 X234.999 Y70.550 Z-2.000 F300.000
G1 X235.129 Y70.796 Z-2.000 F300.000
G1 X235.178 Y70.885 Z-2.000 F300.000
G1 X235.252 Y71.015 Z-2.000 F300.000
G1 X235.428 Y71.309 Z-2.000 F300.000
G1 X235.482 Y71.396 Z-2.000 F300.000
G1 X235.528 Y71.469 Z-2.000 F300.000
G1 X235.749 Y71.796 Z-2.000 F300.000
G1 X235.809 Y71.882 Z-2.000 F300.000
G1 X235.825 Y71.905 Z-2.000 F300.000
G1 X236.092 Y72.259 Z-2.000 F300.000
G1 X236.145 Y72.327 Z-2.000 F300.000
G1 X236.160 Y72.345 Z-2.000 F300.000
G1 X236.461 Y72.701 Z-2.000 F300.000
G1 X236.516 Y72.763 Z-2.000 F300.000
G1 X236.531 Y72.779 Z-2.000 F300.000
G1 X236.846 Y73.112 Z-2.000 F300.000
G1 X236.899 Y73.166 Z-2.000 F300.000
G1 X236.905 Y73.171 Z-2.000 F300.000
G1 X237.233 Y73.482 Z-2.000 F300.000
G1 X237.296 Y73.539 Z-2.000 F300.000
G1 X237.306 Y73.548 Z-2.000 F300.000
G1 X237.647 Y73.836 Z-2.000 F300.000
G1 X237.707 Y73.885 Z-2.000 F300.000
G1 X237.717 Y73.893 Z-2.000 F300.000
G1 X238.070 Y74.157 Z-2.000 F300.000
G1 X238.136 Y74.206 Z-2.000 F300.000
G1 X238.150 Y74.215 Z-2.000 F300.000
G1 X238.515 Y74.458 Z-2.000 F300.000
G1 X238.579 Y74.498 Z-2.000 F300.000
G1 X238.596 Y74.508 Z-2.000 F300.000
G1 X238.972 Y74.728 Z-2.000 F300.000
G1 X239.041 Y74.767 Z-2.000 F300.000
G1 X239.057 Y74.775 Z-2.000 F300.000
G1 X239.445 Y74.971 Z-2.000 F300.000
G1 X239.524 Y75.010 Z-2.000 F300.000
G1 X239.529 Y75.012 Z-2.000 F300.000
G1 X239.929 Y75.187 Z-2.000 F300.000
G1 X240.018 Y75.224 Z-2.000 F300.000
G1 X240.026 Y75.227 Z-2.000 F300.000
G1 X240.430 Y75.376 Z-2.000 F300.000
G1 X240.516 Y75.407 Z-2.000 F300.000
G1 X240.550 Y75.418 Z-2.000 F300.000
G1 X240.939 Y75.538 Z-2.000 F300.000
G1 X241.022 Y75.563 Z-2.000 F300.000
G1 X241.096 Y75.583 Z-2.000 F300.000
G1 X241.456 Y75.672 Z-2.000 F300.000
G1 X241.541 Y75.693 Z-2.000 F300.000
G1 X241.667 Y75.720 Z-2.000 F300.000
G1 X241.986 Y75.782 Z-2.000 F300.000
G1 X242.069 Y75.798 Z-2.000 F300.000
G1 X242.262 Y75.829 Z-2.000 F300.000
G1 X242.526 Y75.866 Z-2.000 F300.000
G1 X242.606 Y75.877 Z-2.000 F300.000
G1 X242.881 Y75.909 Z-2.000 F300.000
G1 X243.072 Y75.926 Z-2.000 F300.000
G1 X243.147 Y75.933 Z-2.000 F300.000
G1 X243.524 Y75.958 Z-2.000 F300.000
G1 X243.626 Y75.962 Z-2.000 F300.000
G1 X243.700 Y75.965 Z-2.000 F300.000
G1 X244.191 Y75.976 Z-2.000 F300.000
G1 X244.194 Y75.976 Z-2.000 F300.000
G1 X244.275 Y75.975 Z-2.000 F300.000
G1 X244.764 Y75.964 Z-2.000 F300.000
G1 X245.067 Y75.951 Z-2.000 F300.000
G1 X245.171 Y75.946 Z-2.000 F300.000
G1 X245.320 Y75.934 Z-2.000 F300.000
G1 X245.852 Y75.885 Z-2.000 F300.000
G1 X245.917 Y75.878 Z-2.000 F300.000
G1 X246.034 Y75.863 Z-2.000 F300.000
G1 X246.363 Y75.814 Z-2.000 F300.000
G1 X246.736 Y75.751 Z-2.000 F300.000
G1 X246.855 Y75.729 Z-2.000 F300.000
G1 X246.862 Y75.727 Z-2.000 F300.000
G1 X247.323 Y75.619 Z-2.000 F300.000
G1 X247.520 Y75.568 Z-2.000 F300.000
G1 X247.658 Y75.530 Z-2.000 F300.000
G1 X247.772 Y75.494 Z-2.000 F300.000
G1 X248.199 Y75.353 Z-2.000 F300.000
G1 X248.271 Y75.327 Z-2.000 F300.000
G1 X248.417 Y75.271 Z-2.000 F300.000
G1 X248.605 Y75.193 Z-2.000 F300.000
G1 X248.988 Y75.023 Z-2.000 F300.000
G1 X248.994 Y75.021 Z-2.000 F300.000
G1 X249.142 Y74.946 Z-2.000 F300.000
G1 X249.359 Y74.828 Z-2.000 F300.000
G1 X249.668 Y74.650 Z-2.000 F300.000
G1 X249.710 Y74.626 Z-2.000 F300.000
G1 X249.822 Y74.551 Z-2.000 F300.000
G1 X250.039 Y74.401 Z-2.000 F300.000
G1 X250.304 Y74.206 Z-2.000 F300.000
G1 X250.356 Y74.168 Z-2.000 F300.000
G1 X250.430 Y74.106 Z-2.000 F300.000
G1 X250.654 Y73.913 Z-2.000 F300.000
G1 X250.869 Y73.718 Z-2.000 F300.000
G1 X250.937 Y73.655 Z-2.000 F300.000
G1 X250.975 Y73.615 Z-2.000 F300.000
G1 X251.375 Y73.190 Z-2.000 F300.000
G1 X251.475 Y73.081 Z-2.000 F300.000
G1 X251.504 Y73.046 Z-2.000 F300.000
G1 X251.841 Y72.625 Z-2.000 F300.000
G1 X251.931 Y72.509 Z-2.000 F300.000
G1 X251.986 Y72.432 Z-2.000 F300.000
G1 X252.263 Y72.019 Z-2.000 F300.000
G1 X252.340 Y71.899 Z-2.000 F300.000
G1 X252.392 Y71.814 Z-2.000 F300.000
G1 X252.634 Y71.375 Z-2.000 F300.000
G1 X252.702 Y71.246 Z-2.000 F300.000
G1 X252.738 Y71.172 Z-2.000 F300.000
G1 X252.874 Y70.875 Z-2.000 F300.000
G1 X252.955 Y70.686 Z-2.000 F300.000
G1 X253.005 Y70.565 Z-2.000 F300.000
G1 X253.005 Y70.563 Z-2.000 F300.000
G1 X253.016 Y70.534 Z-2.000 F300.000
G1 X252.416 Y69.690 Z-2.000 F300.000
G1 X252.350 Y69.601 Z-2.000 F300.000
G1 X251.697 Y68.750 Z0.000 F300.000
G0 Z3.000
G0 X253.016 Y70.534 Z3.000
G1 X253.016 Y70.534 Z-2.000 F300.000
G1 X253.326 Y70.317 Z-2.000 F300.000
G1 X253.682 Y70.057 Z-2.000 F300.000
G1 X254.049 Y69.774 Z-2.000 F300.000
G1 X254.430 Y69.465 Z-2.000 F300.000
G1 X254.830 Y69.125 Z-1.400 F300.000
G1 X255.250 Y68.750 Z-0.001 F300.000
G0 Z3.000
G0 X261.265 Y75.305 Z3.000
G1 X261.265 Y75.305 Z-2.000 F300.000
G1 X262.913 Y76.953 Z-0.000 F300.000
G0 Z3.000
G0 X259.617 Y76.953 Z3.000
G1 X259.617 Y76.953 Z-0.001 F300.000
G1 X261.265 Y75.305 Z-2.000 F300.000
G1 X261.265 Y51.648 Z-2.000 F300.000
G0 Z3.000
G0 X259.617 Y50.000 Z3.000
G1 X259.617 Y50.000 Z-0.003 F300.000
G1 X261.265 Y51.648 Z-2.000 F300.000
G1 X262.913 Y50.000 Z-0.003 F300.000
G0 Z3.000
G0 X267.885 Y50.000 Z3.000
G1 X267.885 Y50.000 Z-0.003 F300.000
G1 X269.560 Y51.676 Z-2.000 F300.000
G1 X271.236 Y50.000 Z-0.002 F300.000
G0 Z3.000
G0 X269.560 Y51.676 Z3.000
G1 X269.560 Y51.676 Z-2.000 F300.000
G1 X269.560 Y67.933 Z-2.000 F300.000
G1 X267.885 Y69.609 Z-0.003 F300.000
G0 Z3.000
G0 X269.560 Y67.933 Z3.000
G1 X269.560 Y67.933 Z-2.000 F300.000
G1 X271.236 Y69.609 Z-0.001 F300.000
G0 Z3.000
G0 X274.340 Y69.609 Z3.000
G1 X274.340 Y69.609 Z-0.001 F300.000
G1 X275.629 Y68.320 Z-2.000 F300.000
G1 X274.340 Y67.031 Z-0.001 F300.000
G0 Z3.000
G0 X275.629 Y68.320 Z3.000
G1 X275.629 Y68.320 Z-2.000 F300.000
G1 X277.069 Y68.320 Z-2.000 F300.000
G1 X278.699 Y68.320 Z-2.000 F300.000
G1 X278.699 Y67.031 Z-2.000 F300.000
G1 X278.699 Y51.630 Z-2.000 F300.000
G0 Z3.000
G0 X280.328 Y50.000 Z3.000
G1 X280.328 Y50.000 Z0.000 F300.000
G1 X278.699 Y51.630 Z-2.000 F300.000
G1 X277.069 Y50.000 Z0.000 F300.000
G0 Z3.000
G0 X285.170 Y56.406 Z3.000
G1 X285.170 Y56.406 Z-0.003 F300.000
G1 X286.887 Y58.123 Z-2.000 F300.000
G1 X286.752 Y58.608 Z-2.000 F300.000
G1 X286.694 Y59.080 Z-2.000 F300.000
G1 X285.170 Y59.569 Z-0.003 F300.000
G0 Z3.000
G0 X286.694 Y59.079 Z3.000
G1 X286.694 Y59.079 Z-2.000 F300.000
G1 X286.853 Y59.526 Z-2.000 F300.000
G1 X287.119 Y59.991 Z-2.000 F300.000
G1 X295.555 Y71.829 Z-2.000 F300.000
G1 X295.837 Y72.162 Z-2.000 F300.000
G1 X296.180 Y72.454 Z-2.000 F300.000
G1 X296.592 Y72.708 Z-2.000 F300.000
G1 X297.082 Y72.923 Z-2.000 F300.000
G1 X297.680 Y73.100 Z-2.000 F300.000
G1 X298.126 Y74.489 Z-2.000 F300.000
G1 X297.182 Y76.328 Z-0.002 F300.000
G0 Z3.000
G0 X298.126 Y74.489 Z3.000
G1 X298.126 Y74.489 Z-2.000 F300.000
G1 X299.965 Y76.328 Z-0.000 F300.000
G0 Z3.000
G0 X297.681 Y73.100 Z3.000
G1 X297.681 Y73.100 Z-2.000 F300.000
G1 X297.960 Y72.567 Z-2.000 F300.000
G1 X298.150 Y72.050 Z-2.000 F300.000
G1 X298.258 Y71.547 Z-2.000 F300.000
G1 X298.290 Y71.079 Z-2.000 F300.000
G1 X298.289 Y59.218 Z-2.000 F300.000
G1 X298.289 Y57.844 Z-2.000 F300.000
G1 X296.669 Y57.813 Z-2.000 F300.000
G1 X296.614 Y57.813 Z-2.000 F300.000
G1 X288.210 Y57.812 Z-2.000 F300.000
G1 X287.758 Y57.849 Z-2.000 F300.000
G1 X287.303 Y57.959 Z-2.000 F300.000
G1 X287.095 Y58.034 Z-2.000 F300.000
G1 X286.887 Y58.124 Z-2.000 F300.000
G0 Z3.000
G0 X283.624 Y67.031 Z3.000
G1 X283.624 Y67.031 Z-0.001 F300.000
G1 X282.335 Y68.320 Z-2.000 F300.000
G1 X280.364 Y68.320 Z-2.000 F300.000
G1 X280.328 Y68.321 Z-2.000 F300.000
G1 X278.716 Y68.343 Z-2.000 F300.000
G1 X278.716 Y69.609 Z-2.000 F300.000
G1 X278.717 Y69.631 Z-2.000 F300.000
G1 X278.726 Y71.033 Z-2.000 F300.000
G1 X278.727 Y71.093 Z-2.000 F300.000
G1 X278.755 Y72.203 Z-2.000 F300.000
G1 X278.759 Y72.307 Z-2.000 F300.000
G1 X278.775 Y72.595 Z-2.000 F300.000
G1 X278.808 Y72.999 Z-2.000 F300.000
G1 X278.822 Y73.127 Z-2.000 F300.000
G1 X278.841 Y73.276 Z-2.000 F300.000
G1 X278.856 Y73.375 Z-2.000 F300.000
G1 X278.891 Y73.577 Z-2.000 F300.000
G1 X278.915 Y73.702 Z-2.000 F300.000
G1 X278.924 Y73.739 Z-2.000 F300.000
G1 X278.982 Y73.967 Z-2.000 F300.000
G1 X278.986 Y73.980 Z-2.000 F300.000
G1 X279.062 Y74.210 Z-2.000 F300.000
G1 X279.092 Y74.279 Z-2.000 F300.000
G1 X279.139 Y74.388 Z-2.000 F300.000
G1 X279.176 Y74.462 Z-2.000 F300.000
G1 X279.203 Y74.514 Z-2.000 F300.000
G1 X279.258 Y74.606 Z-2.000 F300.000
G1 X279.305 Y74.671 Z-2.000 F300.000
G1 X279.371 Y74.752 Z-2.000 F300.000
G1 X279.393 Y74.776 Z-2.000 F300.000
G1 X279.451 Y74.837 Z-2.000 F300.000
G1 X279.514 Y74.898 Z-2.000 F300.000
G1 X279.536 Y74.918 Z-2.000 F300.000
G1 X279.759 Y75.096 Z-2.000 F300.000
G1 X279.835 Y75.143 Z-2.000 F300.000
G1 X280.018 Y75.253 Z-2.000 F300.000
G1 X280.062 Y75.278 Z-2.000 F300.000
G1 X280.295 Y75.384 Z-2.000 F300.000
G1 X280.460 Y75.451 Z-2.000 F300.000
G1 X280.512 Y75.469 Z-2.000 F300.000
G1 X280.737 Y75.539 Z-2.000 F300.000
G1 X280.957 Y75.597 Z-2.000 F300.000
G1 X280.986 Y75.604 Z-2.000 F300.000
G1 X281.175 Y75.640 Z-2.000 F300.000
G1 X281.459 Y75.685 Z-2.000 F300.000
G1 X281.550 Y75.699 Z-2.000 F300.000
G1 X281.608 Y75.703 Z-2.000 F300.000
G1 X281.928 Y75.725 Z-2.000 F300.000
G1 X282.044 Y75.732 Z-2.000 F300.000
G1 X282.098 Y75.733 Z-2.000 F300.000
G1 X282.411 Y75.430 Z-2.000 F300.000
G1 X282.453 Y75.390 Z-2.000 F300.000
G1 X282.882 Y74.960 Z-2.000 F300.000
G1 X283.014 Y74.828 Z-2.000 F300.000
G1 X283.182 Y74.660 Z-1.651 F300.000
G1 X283.385 Y74.457 Z-0.893 F300.000
G1 X283.624 Y74.218 Z-0.001 F300.000
G0 Z3.000
G0 X282.098 Y75.733 Z3.000
G1 X282.098 Y75.733 Z-2.000 F300.000
G1 X282.234 Y75.875 Z-2.000 F300.000
G1 X282.830 Y76.453 Z-2.000 F300.000
G1 X283.624 Y77.187 Z-0.002 F300.000
G0 Z3.000
G0 X283.624 Y69.609 Z3.000
G1 X283.624 Y69.609 Z-0.001 F300.000
G1 X282.335 Y68.320 Z-2.000 F300.000
G0 Z3.000
G0 X278.716 Y68.343 Z3.000
G1 X278.716 Y68.343 Z-2.000 F300.000
G1 X278.699 Y68.320 Z-2.000 F300.000
G0 Z3.000
G0 X271.236 Y73.203 Z3.000
G1 X271.236 Y73.203 Z-0.001 F300.000
G1 X269.560 Y74.879 Z-2.000 F300.000
G1 X267.885 Y73.203 Z-0.000 F300.000
G0 Z3.000
G0 X269.560 Y74.879 Z3.000
G1 X269.560 Y74.879 Z-2.000 F300.000
G1 X269.560 Y75.278 Z-2.000 F300.000
G1 X267.885 Y76.953 Z-0.003 F300.000
G0 Z3.000
G0 X269.560 Y75.278 Z3.000
G1 X269.560 Y75.278 Z-2.000 F300.000
G1 X271.236 Y76.953 Z-0.000 F300.000
G0 Z3.000
G0 X255.506 Y59.843 Z3.000
G1 X255.506 Y59.843 Z-0.002 F300.000
G1 X254.490 Y58.966 Z-2.000 F300.000
G1 X253.566 Y58.226 Z-2.000 F300.000
G1 X253.346 Y58.063 Z-2.000 F300.000
G0 Z3.000
G0 X296.669 Y50.000 Z3.000
G1 X296.669 Y50.000 Z-0.003 F300.000
G1 X298.317 Y51.648 Z-2.000 F300.000
G1 X299.965 Y50.000 Z-0.003 F300.000
G0 Z3.000
G0 X298.317 Y51.648 Z3.000
G1 X298.317 Y51.648 Z-2.000 F300.000
G1 X298.317 Y56.406 Z-2.000 F300.000
G1 X298.317 Y57.812 Z-2.000 F300.000
G1 X299.965 Y57.812 Z-2.000 F300.000
G1 X302.423 Y57.812 Z-2.000 F300.000
G1 X303.829 Y56.406 Z-0.001 F300.000
G0 Z3.000
G0 X302.423 Y57.812 Z3.000
G1 X302.423 Y57.812 Z-2.000 F300.000
G1 X303.829 Y59.218 Z-0.003 F300.000
G0 Z3.000
G0 X298.317 Y57.812 Z3.000
G1 X298.317 Y57.812 Z-2.000 F300.000
G1 X298.289 Y57.844 Z-2.000 F300.000
G0 Z5.000
(Finish operation: Vcarve016)
(Begin operation: Vcarve017)
(Path: Vcarve017)
(starting)
G0 Z3.000
G0 X251.954 Y24.843 Z3.000
G1 X251.954 Y24.843 Z-0.003 F300.000
G1 X252.614 Y24.016 Z-1.000 F300.000
G1 X252.647 Y23.976 Z-1.000 F300.000
G1 X253.282 Y23.148 Z-1.000 F300.000
G1 X253.346 Y23.064 Z-1.000 F300.000
G1 X253.343 Y23.054 Z-1.000 F300.000
G1 X253.163 Y22.472 Z-1.000 F300.000
G1 X253.156 Y22.450 Z-1.000 F300.000
G1 X253.137 Y22.398 Z-1.000 F300.000
G1 X252.930 Y21.852 Z-1.000 F300.000
G1 X252.897 Y21.767 Z-1.000 F300.000
G1 X252.851 Y21.656 Z-1.000 F300.000
G1 X252.691 Y21.297 Z-1.000 F300.000
G1 X252.671 Y21.253 Z-1.000 F300.000
G1 X252.632 Y21.173 Z-1.000 F300.000
G1 X252.510 Y20.930 Z-1.000 F300.000
G1 X252.386 Y20.694 Z-1.000 F300.000
G1 X252.336 Y20.603 Z-1.000 F300.000
G1 X252.318 Y20.572 Z-1.000 F300.000
G1 X252.109 Y20.221 Z-1.000 F300.000
G1 X252.069 Y20.157 Z-1.000 F300.000
G1 X252.013 Y20.070 Z-1.000 F300.000
G1 X251.885 Y19.877 Z-1.000 F300.000
G1 X251.731 Y19.656 Z-1.000 F300.000
G1 X251.672 Y19.574 Z-1.000 F300.000
G1 X251.659 Y19.556 Z-1.000 F300.000
G1 X251.386 Y19.211 Z-1.000 F300.000
G1 X251.324 Y19.135 Z-1.000 F300.000
G1 X251.115 Y18.886 Z-1.000 F300.000
G1 X251.031 Y18.792 Z-1.000 F300.000
G1 X250.960 Y18.716 Z-1.000 F300.000
G1 X250.784 Y18.531 Z-1.000 F300.000
G1 X250.651 Y18.399 Z-1.000 F300.000
G1 X250.579 Y18.330 Z-1.000 F300.000
G1 X250.433 Y18.193 Z-1.000 F300.000
G1 X250.257 Y18.037 Z-1.000 F300.000
G1 X250.174 Y17.967 Z-1.000 F300.000
G1 X250.067 Y17.878 Z-1.000 F300.000
G1 X249.836 Y17.698 Z-1.000 F300.000
G1 X249.748 Y17.631 Z-1.000 F300.000
G1 X249.687 Y17.586 Z-1.000 F300.000
G1 X249.397 Y17.387 Z-1.000 F300.000
G1 X249.309 Y17.329 Z-1.000 F300.000
G1 X249.291 Y17.317 Z-1.000 F300.000
G1 X248.943 Y17.108 Z-1.000 F300.000
G1 X248.878 Y17.070 Z-1.000 F300.000
G1 X248.850 Y17.056 Z-1.000 F300.000
G1 X248.471 Y16.857 Z-1.000 F300.000
G1 X248.448 Y16.846 Z-1.000 F300.000
G1 X248.372 Y16.811 Z-1.000 F300.000
G1 X248.000 Y16.645 Z-1.000 F300.000
G1 X247.979 Y16.636 Z-1.000 F300.000
G1 X247.883 Y16.599 Z-1.000 F300.000
G1 X247.534 Y16.467 Z-1.000 F300.000
