(Exported by FreeCAD)
(Post Processor: grbl_post)
(Output Time:2024-12-25 14:45:30.074123)
(Begin preamble)
G17 G90
G21
(Begin operation: Fixture)
(Path: Fixture)
G54
(Finish operation: Fixture)
(Begin operation: endmill_compression_3175_spe003)
(Path: endmill_compression_3175_spe003)
(endmill_compression_3175_spe003)
(Begin toolchange)
( M6 T2 )
M3 S18000
(Finish operation: endmill_compression_3175_spe003)
(Begin operation: Pocket_Shape002)
(Path: Pocket_Shape002)
(Pocket_Shape002)
G0 Z11.000
G0 X9.665 Y116.915
G0 Z9.000
G1 X9.665 Y116.915 Z4.000 F800.000
G1 X7.835 Y116.915 Z4.000 F800.000
G1 X7.835 Y116.503 Z4.000 F800.000
G1 X9.665 Y114.673 Z4.000 F800.000
G1 X9.665 Y112.432 Z4.000 F800.000
G1 X7.835 Y114.262 Z4.000 F800.000
G1 X7.835 Y112.020 Z4.000 F800.000
G1 X9.665 Y110.190 Z4.000 F800.000
G1 X9.665 Y107.949 Z4.000 F800.000
G1 X7.835 Y109.779 Z4.000 F800.000
G1 X7.835 Y107.537 Z4.000 F800.000
G1 X9.665 Y105.707 Z4.000 F800.000
G1 X9.665 Y103.466 Z4.000 F800.000
G1 X7.835 Y105.296 Z4.000 F800.000
G1 X7.835 Y103.054 Z4.000 F800.000
G1 X9.665 Y101.224 Z4.000 F800.000
G1 X9.665 Y98.983 Z4.000 F800.000
G1 X7.835 Y100.813 Z4.000 F800.000
G1 X7.835 Y98.571 Z4.000 F800.000
G1 X9.665 Y96.741 Z4.000 F800.000
G1 X9.665 Y94.500 Z4.000 F800.000
G1 X7.835 Y96.330 Z4.000 F800.000
G1 X7.835 Y94.088 Z4.000 F800.000
G1 X9.665 Y92.258 Z4.000 F800.000
G1 X9.665 Y90.017 Z4.000 F800.000
G1 X7.835 Y91.847 Z4.000 F800.000
G1 X7.835 Y89.605 Z4.000 F800.000
G1 X9.665 Y87.775 Z4.000 F800.000
G1 X9.665 Y85.534 Z4.000 F800.000
G1 X7.835 Y87.364 Z4.000 F800.000
G1 X7.835 Y85.122 Z4.000 F800.000
G1 X9.665 Y83.292 Z4.000 F800.000
G1 X9.665 Y81.051 Z4.000 F800.000
G1 X7.835 Y82.881 Z4.000 F800.000
G1 X7.835 Y80.639 Z4.000 F800.000
G1 X9.665 Y78.809 Z4.000 F800.000
G1 X9.665 Y76.567 Z4.000 F800.000
G1 X7.835 Y78.397 Z4.000 F800.000
G1 X7.835 Y76.156 Z4.000 F800.000
G1 X9.665 Y74.326 Z4.000 F800.000
G1 X9.665 Y72.084 Z4.000 F800.000
G1 X7.835 Y73.914 Z4.000 F800.000
G1 X7.835 Y71.673 Z4.000 F800.000
G1 X9.665 Y69.843 Z4.000 F800.000
G1 X9.665 Y67.601 Z4.000 F800.000
G1 X7.835 Y69.431 Z4.000 F800.000
G1 X7.835 Y67.190 Z4.000 F800.000
G1 X9.665 Y65.360 Z4.000 F800.000
G1 X9.665 Y63.118 Z4.000 F800.000
G1 X7.835 Y64.948 Z4.000 F800.000
G1 X7.835 Y62.707 Z4.000 F800.000
G1 X9.665 Y60.877 Z4.000 F800.000
G1 X9.665 Y58.635 Z4.000 F800.000
G1 X7.835 Y60.465 Z4.000 F800.000
G1 X7.835 Y58.224 Z4.000 F800.000
G1 X9.665 Y56.394 Z4.000 F800.000
G1 X9.665 Y54.152 Z4.000 F800.000
G1 X7.835 Y55.982 Z4.000 F800.000
G1 X7.835 Y53.741 Z4.000 F800.000
G1 X9.665 Y51.911 Z4.000 F800.000
G1 X9.665 Y49.669 Z4.000 F800.000
G1 X7.835 Y51.499 Z4.000 F800.000
G1 X7.835 Y49.258 Z4.000 F800.000
G1 X9.665 Y47.428 Z4.000 F800.000
G1 X9.665 Y45.186 Z4.000 F800.000
G1 X7.835 Y47.016 Z4.000 F800.000
G1 X7.835 Y44.775 Z4.000 F800.000
G1 X9.665 Y42.945 Z4.000 F800.000
G1 X9.665 Y40.703 Z4.000 F800.000
G1 X7.835 Y42.533 Z4.000 F800.000
G1 X7.835 Y40.292 Z4.000 F800.000
G1 X9.665 Y38.462 Z4.000 F800.000
G1 X9.665 Y36.220 Z4.000 F800.000
G1 X7.835 Y38.050 Z4.000 F800.000
G1 X7.835 Y35.808 Z4.000 F800.000
G1 X9.665 Y33.978 Z4.000 F800.000
G1 X9.665 Y31.737 Z4.000 F800.000
G1 X7.835 Y33.567 Z4.000 F800.000
G1 X7.835 Y31.325 Z4.000 F800.000
G1 X9.665 Y29.495 Z4.000 F800.000
G1 X9.665 Y27.254 Z4.000 F800.000
G1 X7.835 Y29.084 Z4.000 F800.000
G1 X7.835 Y26.842 Z4.000 F800.000
G1 X9.665 Y25.012 Z4.000 F800.000
G1 X9.665 Y22.771 Z4.000 F800.000
G1 X7.835 Y24.601 Z4.000 F800.000
G1 X7.835 Y22.359 Z4.000 F800.000
G1 X9.665 Y20.529 Z4.000 F800.000
G1 X9.665 Y18.288 Z4.000 F800.000
G1 X7.835 Y20.118 Z4.000 F800.000
G1 X7.835 Y17.876 Z4.000 F800.000
G1 X9.665 Y16.046 Z4.000 F800.000
G1 X9.665 Y13.805 Z4.000 F800.000
G1 X7.835 Y15.635 Z4.000 F800.000
G1 X7.835 Y13.393 Z4.000 F800.000
G1 X9.665 Y11.563 Z4.000 F800.000
G1 X9.665 Y9.322 Z4.000 F800.000
G1 X7.835 Y11.152 Z4.000 F800.000
G1 X7.835 Y8.910 Z4.000 F800.000
G1 X9.665 Y7.080 Z4.000 F800.000
G1 X9.665 Y4.839 Z4.000 F800.000
G1 X7.835 Y6.669 Z4.000 F800.000
G1 X7.835 Y4.427 Z4.000 F800.000
G1 X9.665 Y2.597 Z4.000 F800.000
G1 X9.665 Y1.585 Z4.000 F800.000
G1 X8.436 Y1.585 Z4.000 F800.000
G1 X7.835 Y1.585 Z4.000 F800.000
G1 X7.835 Y2.186 Z4.000 F800.000
G1 X8.436 Y1.585 Z4.000 F800.000
G1 X8.436 Y1.585 Z2.000 F800.000
G1 X7.835 Y2.186 Z2.000 F800.000
G1 X7.835 Y1.585 Z2.000 F800.000
G1 X8.436 Y1.585 Z2.000 F800.000
G1 X9.665 Y1.585 Z2.000 F800.000
G1 X9.665 Y2.597 Z2.000 F800.000
G1 X7.835 Y4.427 Z2.000 F800.000
G1 X7.835 Y6.669 Z2.000 F800.000
G1 X9.665 Y4.839 Z2.000 F800.000
G1 X9.665 Y7.080 Z2.000 F800.000
G1 X7.835 Y8.910 Z2.000 F800.000
G1 X7.835 Y11.152 Z2.000 F800.000
G1 X9.665 Y9.322 Z2.000 F800.000
G1 X9.665 Y11.563 Z2.000 F800.000
G1 X7.835 Y13.393 Z2.000 F800.000
G1 X7.835 Y15.635 Z2.000 F800.000
G1 X9.665 Y13.805 Z2.000 F800.000
G1 X9.665 Y16.046 Z2.000 F800.000
G1 X7.835 Y17.876 Z2.000 F800.000
G1 X7.835 Y20.118 Z2.000 F800.000
G1 X9.665 Y18.288 Z2.000 F800.000
G1 X9.665 Y20.529 Z2.000 F800.000
G1 X7.835 Y22.359 Z2.000 F800.000
G1 X7.835 Y24.601 Z2.000 F800.000
G1 X9.665 Y22.771 Z2.000 F800.000
G1 X9.665 Y25.012 Z2.000 F800.000
G1 X7.835 Y26.842 Z2.000 F800.000
G1 X7.835 Y29.084 Z2.000 F800.000
G1 X9.665 Y27.254 Z2.000 F800.000
G1 X9.665 Y29.495 Z2.000 F800.000
G1 X7.835 Y31.325 Z2.000 F800.000
G1 X7.835 Y33.567 Z2.000 F800.000
G1 X9.665 Y31.737 Z2.000 F800.000
G1 X9.665 Y33.978 Z2.000 F800.000
G1 X7.835 Y35.808 Z2.000 F800.000
G1 X7.835 Y38.050 Z2.000 F800.000
G1 X9.665 Y36.220 Z2.000 F800.000
G1 X9.665 Y38.462 Z2.000 F800.000
G1 X7.835 Y40.292 Z2.000 F800.000
G1 X7.835 Y42.533 Z2.000 F800.000
G1 X9.665 Y40.703 Z2.000 F800.000
G1 X9.665 Y42.945 Z2.000 F800.000
G1 X7.835 Y44.775 Z2.000 F800.000
G1 X7.835 Y47.016 Z2.000 F800.000
G1 X9.665 Y45.186 Z2.000 F800.000
G1 X9.665 Y47.428 Z2.000 F800.000
G1 X7.835 Y49.258 Z2.000 F800.000
G1 X7.835 Y51.499 Z2.000 F800.000
G1 X9.665 Y49.669 Z2.000 F800.000
G1 X9.665 Y51.911 Z2.000 F800.000
G1 X7.835 Y53.741 Z2.000 F800.000
G1 X7.835 Y55.982 Z2.000 F800.000
G1 X9.665 Y54.152 Z2.000 F800.000
G1 X9.665 Y56.394 Z2.000 F800.000
G1 X7.835 Y58.224 Z2.000 F800.000
G1 X7.835 Y60.465 Z2.000 F800.000
G1 X9.665 Y58.635 Z2.000 F800.000
G1 X9.665 Y60.877 Z2.000 F800.000
G1 X7.835 Y62.707 Z2.000 F800.000
G1 X7.835 Y64.948 Z2.000 F800.000
G1 X9.665 Y63.118 Z2.000 F800.000
G1 X9.665 Y65.360 Z2.000 F800.000
G1 X7.835 Y67.190 Z2.000 F800.000
G1 X7.835 Y69.431 Z2.000 F800.000
G1 X9.665 Y67.601 Z2.000 F800.000
G1 X9.665 Y69.843 Z2.000 F800.000
G1 X7.835 Y71.673 Z2.000 F800.000
G1 X7.835 Y73.914 Z2.000 F800.000
G1 X9.665 Y72.084 Z2.000 F800.000
G1 X9.665 Y74.326 Z2.000 F800.000
G1 X7.835 Y76.156 Z2.000 F800.000
G1 X7.835 Y78.397 Z2.000 F800.000
G1 X9.665 Y76.567 Z2.000 F800.000
G1 X9.665 Y78.809 Z2.000 F800.000
G1 X7.835 Y80.639 Z2.000 F800.000
G1 X7.835 Y82.881 Z2.000 F800.000
G1 X9.665 Y81.051 Z2.000 F800.000
G1 X9.665 Y83.292 Z2.000 F800.000
G1 X7.835 Y85.122 Z2.000 F800.000
G1 X7.835 Y87.364 Z2.000 F800.000
G1 X9.665 Y85.534 Z2.000 F800.000
G1 X9.665 Y87.775 Z2.000 F800.000
G1 X7.835 Y89.605 Z2.000 F800.000
G1 X7.835 Y91.847 Z2.000 F800.000
G1 X9.665 Y90.017 Z2.000 F800.000
G1 X9.665 Y92.258 Z2.000 F800.000
G1 X7.835 Y94.088 Z2.000 F800.000
G1 X7.835 Y96.330 Z2.000 F800.000
G1 X9.665 Y94.500 Z2.000 F800.000
G1 X9.665 Y96.741 Z2.000 F800.000
G1 X7.835 Y98.571 Z2.000 F800.000
G1 X7.835 Y100.813 Z2.000 F800.000
G1 X9.665 Y98.983 Z2.000 F800.000
G1 X9.665 Y101.224 Z2.000 F800.000
G1 X7.835 Y103.054 Z2.000 F800.000
G1 X7.835 Y105.296 Z2.000 F800.000
G1 X9.665 Y103.466 Z2.000 F800.000
G1 X9.665 Y105.707 Z2.000 F800.000
G1 X7.835 Y107.537 Z2.000 F800.000
G1 X7.835 Y109.779 Z2.000 F800.000
G1 X9.665 Y107.949 Z2.000 F800.000
G1 X9.665 Y110.190 Z2.000 F800.000
G1 X7.835 Y112.020 Z2.000 F800.000
G1 X7.835 Y114.262 Z2.000 F800.000
G1 X9.665 Y112.432 Z2.000 F800.000
G1 X9.665 Y114.673 Z2.000 F800.000
G1 X7.835 Y116.503 Z2.000 F800.000
G1 X7.835 Y116.915 Z2.000 F800.000
G1 X9.665 Y116.915 Z2.000 F800.000
G0 Z11.000
G0 Z11.000
G0 X9.665 Y116.915
G0 X26.665
G0 X26.665 Z9.000
G1 X26.665 Y116.915 Z4.000 F800.000
G1 X24.835 Y116.915 Z4.000 F800.000
G1 X24.835 Y116.503 Z4.000 F800.000
G1 X26.665 Y114.673 Z4.000 F800.000
G1 X26.665 Y112.432 Z4.000 F800.000
G1 X24.835 Y114.262 Z4.000 F800.000
G1 X24.835 Y112.020 Z4.000 F800.000
G1 X26.665 Y110.190 Z4.000 F800.000
G1 X26.665 Y107.949 Z4.000 F800.000
G1 X24.835 Y109.779 Z4.000 F800.000
G1 X24.835 Y107.537 Z4.000 F800.000
G1 X26.665 Y105.707 Z4.000 F800.000
G1 X26.665 Y103.466 Z4.000 F800.000
G1 X24.835 Y105.296 Z4.000 F800.000
G1 X24.835 Y103.054 Z4.000 F800.000
G1 X26.665 Y101.224 Z4.000 F800.000
G1 X26.665 Y98.983 Z4.000 F800.000
G1 X24.835 Y100.813 Z4.000 F800.000
G1 X24.835 Y98.571 Z4.000 F800.000
G1 X26.665 Y96.741 Z4.000 F800.000
G1 X26.665 Y94.500 Z4.000 F800.000
G1 X24.835 Y96.330 Z4.000 F800.000
G1 X24.835 Y94.088 Z4.000 F800.000
G1 X26.665 Y92.258 Z4.000 F800.000
G1 X26.665 Y90.017 Z4.000 F800.000
G1 X24.835 Y91.847 Z4.000 F800.000
G1 X24.835 Y89.605 Z4.000 F800.000
G1 X26.665 Y87.775 Z4.000 F800.000
G1 X26.665 Y85.534 Z4.000 F800.000
G1 X24.835 Y87.364 Z4.000 F800.000
G1 X24.835 Y85.122 Z4.000 F800.000
G1 X26.665 Y83.292 Z4.000 F800.000
G1 X26.665 Y81.051 Z4.000 F800.000
G1 X24.835 Y82.881 Z4.000 F800.000
G1 X24.835 Y80.639 Z4.000 F800.000
G1 X26.665 Y78.809 Z4.000 F800.000
G1 X26.665 Y76.567 Z4.000 F800.000
G1 X24.835 Y78.397 Z4.000 F800.000
G1 X24.835 Y76.156 Z4.000 F800.000
G1 X26.665 Y74.326 Z4.000 F800.000
G1 X26.665 Y72.084 Z4.000 F800.000
G1 X24.835 Y73.914 Z4.000 F800.000
G1 X24.835 Y71.673 Z4.000 F800.000
G1 X26.665 Y69.843 Z4.000 F800.000
G1 X26.665 Y67.601 Z4.000 F800.000
G1 X24.835 Y69.431 Z4.000 F800.000
G1 X24.835 Y67.190 Z4.000 F800.000
G1 X26.665 Y65.360 Z4.000 F800.000
G1 X26.665 Y63.118 Z4.000 F800.000
G1 X24.835 Y64.948 Z4.000 F800.000
G1 X24.835 Y62.707 Z4.000 F800.000
G1 X26.665 Y60.877 Z4.000 F800.000
G1 X26.665 Y58.635 Z4.000 F800.000
G1 X24.835 Y60.465 Z4.000 F800.000
G1 X24.835 Y58.224 Z4.000 F800.000
G1 X26.665 Y56.394 Z4.000 F800.000
G1 X26.665 Y54.152 Z4.000 F800.000
G1 X24.835 Y55.982 Z4.000 F800.000
G1 X24.835 Y53.741 Z4.000 F800.000
G1 X26.665 Y51.911 Z4.000 F800.000
G1 X26.665 Y49.669 Z4.000 F800.000
G1 X24.835 Y51.499 Z4.000 F800.000
G1 X24.835 Y49.258 Z4.000 F800.000
G1 X26.665 Y47.428 Z4.000 F800.000
G1 X26.665 Y45.186 Z4.000 F800.000
G1 X24.835 Y47.016 Z4.000 F800.000
G1 X24.835 Y44.775 Z4.000 F800.000
G1 X26.665 Y42.945 Z4.000 F800.000
G1 X26.665 Y40.703 Z4.000 F800.000
G1 X24.835 Y42.533 Z4.000 F800.000
G1 X24.835 Y40.292 Z4.000 F800.000
G1 X26.665 Y38.462 Z4.000 F800.000
G1 X26.665 Y36.220 Z4.000 F800.000
G1 X24.835 Y38.050 Z4.000 F800.000
G1 X24.835 Y35.808 Z4.000 F800.000
G1 X26.665 Y33.978 Z4.000 F800.000
G1 X26.665 Y31.737 Z4.000 F800.000
G1 X24.835 Y33.567 Z4.000 F800.000
G1 X24.835 Y31.325 Z4.000 F800.000
G1 X26.665 Y29.495 Z4.000 F800.000
G1 X26.665 Y27.254 Z4.000 F800.000
G1 X24.835 Y29.084 Z4.000 F800.000
G1 X24.835 Y26.842 Z4.000 F800.000
G1 X26.665 Y25.012 Z4.000 F800.000
G1 X26.665 Y22.771 Z4.000 F800.000
G1 X24.835 Y24.601 Z4.000 F800.000
G1 X24.835 Y22.359 Z4.000 F800.000
G1 X26.665 Y20.529 Z4.000 F800.000
G1 X26.665 Y18.288 Z4.000 F800.000
G1 X24.835 Y20.118 Z4.000 F800.000
G1 X24.835 Y17.876 Z4.000 F800.000
G1 X26.665 Y16.046 Z4.000 F800.000
G1 X26.665 Y13.805 Z4.000 F800.000
G1 X24.835 Y15.635 Z4.000 F800.000
G1 X24.835 Y13.393 Z4.000 F800.000
G1 X26.665 Y11.563 Z4.000 F800.000
G1 X26.665 Y9.322 Z4.000 F800.000
G1 X24.835 Y11.152 Z4.000 F800.000
G1 X24.835 Y8.910 Z4.000 F800.000
G1 X26.665 Y7.080 Z4.000 F800.000
G1 X26.665 Y4.839 Z4.000 F800.000
G1 X24.835 Y6.669 Z4.000 F800.000
G1 X24.835 Y4.427 Z4.000 F800.000
G1 X26.665 Y2.597 Z4.000 F800.000
G1 X26.665 Y1.585 Z4.000 F800.000
G1 X25.436 Y1.585 Z4.000 F800.000
G1 X24.835 Y1.585 Z4.000 F800.000
G1 X24.835 Y2.186 Z4.000 F800.000
G1 X25.436 Y1.585 Z4.000 F800.000
G1 X25.436 Y1.585 Z2.000 F800.000
G1 X24.835 Y2.186 Z2.000 F800.000
G1 X24.835 Y1.585 Z2.000 F800.000
G1 X25.436 Y1.585 Z2.000 F800.000
G1 X26.665 Y1.585 Z2.000 F800.000
G1 X26.665 Y2.597 Z2.000 F800.000
G1 X24.835 Y4.427 Z2.000 F800.000
G1 X24.835 Y6.669 Z2.000 F800.000
G1 X26.665 Y4.839 Z2.000 F800.000
G1 X26.665 Y7.080 Z2.000 F800.000
G1 X24.835 Y8.910 Z2.000 F800.000
G1 X24.835 Y11.152 Z2.000 F800.000
G1 X26.665 Y9.322 Z2.000 F800.000
G1 X26.665 Y11.563 Z2.000 F800.000
G1 X24.835 Y13.393 Z2.000 F800.000
G1 X24.835 Y15.635 Z2.000 F800.000
G1 X26.665 Y13.805 Z2.000 F800.000
G1 X26.665 Y16.046 Z2.000 F800.000
G1 X24.835 Y17.876 Z2.000 F800.000
G1 X24.835 Y20.118 Z2.000 F800.000
G1 X26.665 Y18.288 Z2.000 F800.000
G1 X26.665 Y20.529 Z2.000 F800.000
G1 X24.835 Y22.359 Z2.000 F800.000
G1 X24.835 Y24.601 Z2.000 F800.000
G1 X26.665 Y22.771 Z2.000 F800.000
G1 X26.665 Y25.012 Z2.000 F800.000
G1 X24.835 Y26.842 Z2.000 F800.000
G1 X24.835 Y29.084 Z2.000 F800.000
G1 X26.665 Y27.254 Z2.000 F800.000
G1 X26.665 Y29.495 Z2.000 F800.000
G1 X24.835 Y31.325 Z2.000 F800.000
G1 X24.835 Y33.567 Z2.000 F800.000
G1 X26.665 Y31.737 Z2.000 F800.000
G1 X26.665 Y33.978 Z2.000 F800.000
G1 X24.835 Y35.808 Z2.000 F800.000
G1 X24.835 Y38.050 Z2.000 F800.000
G1 X26.665 Y36.220 Z2.000 F800.000
G1 X26.665 Y38.462 Z2.000 F800.000
G1 X24.835 Y40.292 Z2.000 F800.000
G1 X24.835 Y42.533 Z2.000 F800.000
G1 X26.665 Y40.703 Z2.000 F800.000
G1 X26.665 Y42.945 Z2.000 F800.000
G1 X24.835 Y44.775 Z2.000 F800.000
G1 X24.835 Y47.016 Z2.000 F800.000
G1 X26.665 Y45.186 Z2.000 F800.000
G1 X26.665 Y47.428 Z2.000 F800.000
G1 X24.835 Y49.258 Z2.000 F800.000
G1 X24.835 Y51.499 Z2.000 F800.000
G1 X26.665 Y49.669 Z2.000 F800.000
G1 X26.665 Y51.911 Z2.000 F800.000
G1 X24.835 Y53.741 Z2.000 F800.000
G1 X24.835 Y55.982 Z2.000 F800.000
G1 X26.665 Y54.152 Z2.000 F800.000
G1 X26.665 Y56.394 Z2.000 F800.000
G1 X24.835 Y58.224 Z2.000 F800.000
G1 X24.835 Y60.465 Z2.000 F800.000
G1 X26.665 Y58.635 Z2.000 F800.000
G1 X26.665 Y60.877 Z2.000 F800.000
G1 X24.835 Y62.707 Z2.000 F800.000
G1 X24.835 Y64.948 Z2.000 F800.000
G1 X26.665 Y63.118 Z2.000 F800.000
G1 X26.665 Y65.360 Z2.000 F800.000
G1 X24.835 Y67.190 Z2.000 F800.000
G1 X24.835 Y69.431 Z2.000 F800.000
G1 X26.665 Y67.601 Z2.000 F800.000
G1 X26.665 Y69.843 Z2.000 F800.000
G1 X24.835 Y71.673 Z2.000 F800.000
G1 X24.835 Y73.914 Z2.000 F800.000
G1 X26.665 Y72.084 Z2.000 F800.000
G1 X26.665 Y74.326 Z2.000 F800.000
G1 X24.835 Y76.156 Z2.000 F800.000
G1 X24.835 Y78.397 Z2.000 F800.000
G1 X26.665 Y76.567 Z2.000 F800.000
G1 X26.665 Y78.809 Z2.000 F800.000
G1 X24.835 Y80.639 Z2.000 F800.000
G1 X24.835 Y82.881 Z2.000 F800.000
G1 X26.665 Y81.051 Z2.000 F800.000
G1 X26.665 Y83.292 Z2.000 F800.000
G1 X24.835 Y85.122 Z2.000 F800.000
G1 X24.835 Y87.364 Z2.000 F800.000
G1 X26.665 Y85.534 Z2.000 F800.000
G1 X26.665 Y87.775 Z2.000 F800.000
G1 X24.835 Y89.605 Z2.000 F800.000
G1 X24.835 Y91.847 Z2.000 F800.000
G1 X26.665 Y90.017 Z2.000 F800.000
G1 X26.665 Y92.258 Z2.000 F800.000
G1 X24.835 Y94.088 Z2.000 F800.000
G1 X24.835 Y96.330 Z2.000 F800.000
G1 X26.665 Y94.500 Z2.000 F800.000
G1 X26.665 Y96.741 Z2.000 F800.000
G1 X24.835 Y98.571 Z2.000 F800.000
G1 X24.835 Y100.813 Z2.000 F800.000
G1 X26.665 Y98.983 Z2.000 F800.000
G1 X26.665 Y101.224 Z2.000 F800.000
G1 X24.835 Y103.054 Z2.000 F800.000
G1 X24.835 Y105.296 Z2.000 F800.000
G1 X26.665 Y103.466 Z2.000 F800.000
G1 X26.665 Y105.707 Z2.000 F800.000
G1 X24.835 Y107.537 Z2.000 F800.000
G1 X24.835 Y109.779 Z2.000 F800.000
G1 X26.665 Y107.949 Z2.000 F800.000
G1 X26.665 Y110.190 Z2.000 F800.000
G1 X24.835 Y112.020 Z2.000 F800.000
G1 X24.835 Y114.262 Z2.000 F800.000
G1 X26.665 Y112.432 Z2.000 F800.000
G1 X26.665 Y114.673 Z2.000 F800.000
G1 X24.835 Y116.503 Z2.000 F800.000
G1 X24.835 Y116.915 Z2.000 F800.000
G1 X26.665 Y116.915 Z2.000 F800.000
G0 Z11.000
G0 Z11.000
(Finish operation: Pocket_Shape002)
(Begin operation: DressupTag)
(Path: DressupTag)
G0 Z11.000
G0 X35.621 Y130.621 Z11.000
G0 X35.621 Y130.621 Z9.000
G1 X35.621 Y130.621 Z4.000 F800.000
G2 X36.085 Y129.500 Z4.000 I-1.121 J-1.121 K0.000 F800.000
G1 X36.085 Y0.000 Z4.000 F800.000
G2 X34.500 Y-1.585 Z4.000 I-1.585 J0.000 K0.000 F800.000
G1 X23.250 Y-1.585 Z4.000 F800.000
G2 X21.665 Y-0.000 Z4.000 I0.000 J1.585 K0.000 F800.000
G1 X21.665 Y116.915 Z4.000 F800.000
G1 X12.835 Y116.915 Z4.000 F800.000
G1 X12.835 Y0.000 Z4.000 F800.000
G2 X11.250 Y-1.585 Z4.000 I-1.585 J0.000 K0.000 F800.000
G1 X0.000 Y-1.585 Z4.000 F800.000
G2 X-1.585 Y-0.000 Z4.000 I0.000 J1.585 K0.000 F800.000
G1 X-1.585 Y129.500 Z4.000 F800.000
G2 X0.000 Y131.085 Z4.000 I1.585 J-0.000 K0.000 F800.000
G1 X34.500 Y131.085 Z4.000 F800.000
G2 X35.621 Y130.621 Z4.000 I-0.000 J-1.585 K0.000 F800.000
G1 X35.621 Y130.621 Z2.000 F800.000
G2 X36.085 Y129.500 Z2.000 I-1.121 J-1.121 K0.000 F800.000
G1 X36.085 Y0.000 Z2.000 F800.000
G2 X34.500 Y-1.585 Z2.000 I-1.585 J0.000 K0.000 F800.000
G1 X23.250 Y-1.585 Z2.000 F800.000
G2 X21.665 Y-0.000 Z2.000 I0.000 J1.585 K0.000 F800.000
G1 X21.665 Y116.915 Z2.000 F800.000
G1 X12.835 Y116.915 Z2.000 F800.000
G1 X12.835 Y0.000 Z2.000 F800.000
G2 X11.250 Y-1.585 Z2.000 I-1.585 J0.000 K0.000 F800.000
G1 X0.000 Y-1.585 Z2.000 F800.000
G2 X-1.585 Y-0.000 Z2.000 I0.000 J1.585 K0.000 F800.000
G1 X-1.585 Y129.500 Z2.000 F800.000
G2 X0.000 Y131.085 Z2.000 I1.585 J-0.000 K0.000 F800.000
G1 X34.500 Y131.085 Z2.000 F800.000
G2 X35.621 Y130.621 Z2.000 I-0.000 J-1.585 K0.000 F800.000
G1 X35.621 Y130.621 Z0.000 F800.000
G2 X36.085 Y129.500 Z0.000 I-1.121 J-1.121 K0.000 F800.000
G1 X36.085 Y0.000 Z0.000 F800.000
G2 X34.500 Y-1.585 Z0.000 I-1.585 J0.000 K0.000 F800.000
G1 X23.250 Y-1.585 Z0.000 F800.000
G2 X21.665 Y-0.000 Z0.000 I0.000 J1.585 K0.000 F800.000
G1 X21.665 Y116.915 Z0.000 F800.000
G1 X12.835 Y116.915 Z0.000 F800.000
G1 X12.835 Y0.000 Z0.000 F800.000
G2 X11.250 Y-1.585 Z0.000 I-1.585 J0.000 K0.000 F800.000
G1 X0.000 Y-1.585 Z0.000 F800.000
G2 X-1.585 Y-0.000 Z0.000 I0.000 J1.585 K0.000 F800.000
G1 X-1.585 Y129.500 Z0.000 F800.000
G2 X0.000 Y131.085 Z0.000 I1.585 J-0.000 K0.000 F800.000
G1 X34.500 Y131.085 Z0.000 F800.000
G2 X35.621 Y130.621 Z0.000 I-0.000 J-1.585 K0.000 F800.000
G0 X35.621 Y130.621 Z11.000
(Finish operation: DressupTag)
(Begin postamble)
M5
G17 G90
M2
