(Exported by FreeCAD)
(Post Processor: grbl_post)
(Output Time:2025-01-14 11:15:56.142208)
(Begin preamble)
G17 G90
G21
(Begin operation: Fixture)
(Path: Fixture)
G54
(Finish operation: Fixture)
(Begin operation: endmill_compression_3175_spe003)
(Path: endmill_compression_3175_spe003)
(endmill_compression_3175_spe003)
(Begin toolchange)
( M6 T2 )
M3 S18000
(Finish operation: endmill_compression_3175_spe003)
(Begin operation: Rough_pocket)
(Path: Rough_pocket)
(Rough_pocket)
G0 Z11.000
G0 X9.665 Y116.915
G0 Z9.000
G1 X9.665 Y116.915 Z4.500 F800.000
G1 X7.835 Y116.915 Z4.500 F800.000
G1 X7.835 Y115.159 Z4.500 F800.000
G1 X9.665 Y113.329 Z4.500 F800.000
G1 X9.665 Y109.742 Z4.500 F800.000
G1 X7.835 Y111.572 Z4.500 F800.000
G1 X7.835 Y107.986 Z4.500 F800.000
G1 X9.665 Y106.156 Z4.500 F800.000
G1 X9.665 Y102.569 Z4.500 F800.000
G1 X7.835 Y104.399 Z4.500 F800.000
G1 X7.835 Y100.813 Z4.500 F800.000
G1 X9.665 Y98.983 Z4.500 F800.000
G1 X9.665 Y95.396 Z4.500 F800.000
G1 X7.835 Y97.226 Z4.500 F800.000
G1 X7.835 Y93.640 Z4.500 F800.000
G1 X9.665 Y91.810 Z4.500 F800.000
G1 X9.665 Y88.223 Z4.500 F800.000
G1 X7.835 Y90.053 Z4.500 F800.000
G1 X7.835 Y86.467 Z4.500 F800.000
G1 X9.665 Y84.637 Z4.500 F800.000
G1 X9.665 Y81.051 Z4.500 F800.000
G1 X7.835 Y82.881 Z4.500 F800.000
G1 X7.835 Y79.294 Z4.500 F800.000
G1 X9.665 Y77.464 Z4.500 F800.000
G1 X9.665 Y73.878 Z4.500 F800.000
G1 X7.835 Y75.708 Z4.500 F800.000
G1 X7.835 Y72.121 Z4.500 F800.000
G1 X9.665 Y70.291 Z4.500 F800.000
G1 X9.665 Y66.705 Z4.500 F800.000
G1 X7.835 Y68.535 Z4.500 F800.000
G1 X7.835 Y64.948 Z4.500 F800.000
G1 X9.665 Y63.118 Z4.500 F800.000
G1 X9.665 Y59.532 Z4.500 F800.000
G1 X7.835 Y61.362 Z4.500 F800.000
G1 X7.835 Y57.775 Z4.500 F800.000
G1 X9.665 Y55.945 Z4.500 F800.000
G1 X9.665 Y52.359 Z4.500 F800.000
G1 X7.835 Y54.189 Z4.500 F800.000
G1 X7.835 Y50.603 Z4.500 F800.000
G1 X9.665 Y48.773 Z4.500 F800.000
G1 X9.665 Y45.186 Z4.500 F800.000
G1 X7.835 Y47.016 Z4.500 F800.000
G1 X7.835 Y43.430 Z4.500 F800.000
G1 X9.665 Y41.600 Z4.500 F800.000
G1 X9.665 Y38.013 Z4.500 F800.000
G1 X7.835 Y39.843 Z4.500 F800.000
G1 X7.835 Y36.257 Z4.500 F800.000
G1 X9.665 Y34.427 Z4.500 F800.000
G1 X9.665 Y30.840 Z4.500 F800.000
G1 X7.835 Y32.670 Z4.500 F800.000
G1 X7.835 Y29.084 Z4.500 F800.000
G1 X9.665 Y27.254 Z4.500 F800.000
G1 X9.665 Y23.667 Z4.500 F800.000
G1 X7.835 Y25.497 Z4.500 F800.000
G1 X7.835 Y21.911 Z4.500 F800.000
G1 X9.665 Y20.081 Z4.500 F800.000
G1 X9.665 Y16.495 Z4.500 F800.000
G1 X7.835 Y18.325 Z4.500 F800.000
G1 X7.835 Y14.738 Z4.500 F800.000
G1 X9.665 Y12.908 Z4.500 F800.000
G1 X9.665 Y9.322 Z4.500 F800.000
G1 X7.835 Y11.152 Z4.500 F800.000
G1 X7.835 Y7.565 Z4.500 F800.000
G1 X9.665 Y5.735 Z4.500 F800.000
G1 X9.665 Y2.149 Z4.500 F800.000
G1 X9.665 Y1.585 Z4.500 F800.000
G1 X7.835 Y1.585 Z4.500 F800.000
G1 X7.835 Y3.979 Z4.500 F800.000
G1 X9.665 Y2.149 Z4.500 F800.000
G1 X9.665 Y2.149 Z3.000 F800.000
G1 X7.835 Y3.979 Z3.000 F800.000
G1 X7.835 Y1.585 Z3.000 F800.000
G1 X9.665 Y1.585 Z3.000 F800.000
G1 X9.665 Y2.149 Z3.000 F800.000
G1 X9.665 Y5.735 Z3.000 F800.000
G1 X7.835 Y7.565 Z3.000 F800.000
G1 X7.835 Y11.152 Z3.000 F800.000
G1 X9.665 Y9.322 Z3.000 F800.000
G1 X9.665 Y12.908 Z3.000 F800.000
G1 X7.835 Y14.738 Z3.000 F800.000
G1 X7.835 Y18.325 Z3.000 F800.000
G1 X9.665 Y16.495 Z3.000 F800.000
G1 X9.665 Y20.081 Z3.000 F800.000
G1 X7.835 Y21.911 Z3.000 F800.000
G1 X7.835 Y25.497 Z3.000 F800.000
G1 X9.665 Y23.667 Z3.000 F800.000
G1 X9.665 Y27.254 Z3.000 F800.000
G1 X7.835 Y29.084 Z3.000 F800.000
G1 X7.835 Y32.670 Z3.000 F800.000
G1 X9.665 Y30.840 Z3.000 F800.000
G1 X9.665 Y34.427 Z3.000 F800.000
G1 X7.835 Y36.257 Z3.000 F800.000
G1 X7.835 Y39.843 Z3.000 F800.000
G1 X9.665 Y38.013 Z3.000 F800.000
G1 X9.665 Y41.600 Z3.000 F800.000
G1 X7.835 Y43.430 Z3.000 F800.000
G1 X7.835 Y47.016 Z3.000 F800.000
G1 X9.665 Y45.186 Z3.000 F800.000
G1 X9.665 Y48.773 Z3.000 F800.000
G1 X7.835 Y50.603 Z3.000 F800.000
G1 X7.835 Y54.189 Z3.000 F800.000
G1 X9.665 Y52.359 Z3.000 F800.000
G1 X9.665 Y55.945 Z3.000 F800.000
G1 X7.835 Y57.775 Z3.000 F800.000
G1 X7.835 Y61.362 Z3.000 F800.000
G1 X9.665 Y59.532 Z3.000 F800.000
G1 X9.665 Y63.118 Z3.000 F800.000
G1 X7.835 Y64.948 Z3.000 F800.000
G1 X7.835 Y68.535 Z3.000 F800.000
G1 X9.665 Y66.705 Z3.000 F800.000
G1 X9.665 Y70.291 Z3.000 F800.000
G1 X7.835 Y72.121 Z3.000 F800.000
G1 X7.835 Y75.708 Z3.000 F800.000
G1 X9.665 Y73.878 Z3.000 F800.000
G1 X9.665 Y77.464 Z3.000 F800.000
G1 X7.835 Y79.294 Z3.000 F800.000
G1 X7.835 Y82.881 Z3.000 F800.000
G1 X9.665 Y81.051 Z3.000 F800.000
G1 X9.665 Y84.637 Z3.000 F800.000
G1 X7.835 Y86.467 Z3.000 F800.000
G1 X7.835 Y90.053 Z3.000 F800.000
G1 X9.665 Y88.223 Z3.000 F800.000
G1 X9.665 Y91.810 Z3.000 F800.000
G1 X7.835 Y93.640 Z3.000 F800.000
G1 X7.835 Y97.226 Z3.000 F800.000
G1 X9.665 Y95.396 Z3.000 F800.000
G1 X9.665 Y98.983 Z3.000 F800.000
G1 X7.835 Y100.813 Z3.000 F800.000
G1 X7.835 Y104.399 Z3.000 F800.000
G1 X9.665 Y102.569 Z3.000 F800.000
G1 X9.665 Y106.156 Z3.000 F800.000
G1 X7.835 Y107.986 Z3.000 F800.000
G1 X7.835 Y111.572 Z3.000 F800.000
G1 X9.665 Y109.742 Z3.000 F800.000
G1 X9.665 Y113.329 Z3.000 F800.000
G1 X7.835 Y115.159 Z3.000 F800.000
G1 X7.835 Y116.915 Z3.000 F800.000
G1 X9.665 Y116.915 Z3.000 F800.000
G1 X9.665 Y116.915 Z2.000 F800.000
G1 X7.835 Y116.915 Z2.000 F800.000
G1 X7.835 Y115.159 Z2.000 F800.000
G1 X9.665 Y113.329 Z2.000 F800.000
G1 X9.665 Y109.742 Z2.000 F800.000
G1 X7.835 Y111.572 Z2.000 F800.000
G1 X7.835 Y107.986 Z2.000 F800.000
G1 X9.665 Y106.156 Z2.000 F800.000
G1 X9.665 Y102.569 Z2.000 F800.000
G1 X7.835 Y104.399 Z2.000 F800.000
G1 X7.835 Y100.813 Z2.000 F800.000
G1 X9.665 Y98.983 Z2.000 F800.000
G1 X9.665 Y95.396 Z2.000 F800.000
G1 X7.835 Y97.226 Z2.000 F800.000
G1 X7.835 Y93.640 Z2.000 F800.000
G1 X9.665 Y91.810 Z2.000 F800.000
G1 X9.665 Y88.223 Z2.000 F800.000
G1 X7.835 Y90.053 Z2.000 F800.000
G1 X7.835 Y86.467 Z2.000 F800.000
G1 X9.665 Y84.637 Z2.000 F800.000
G1 X9.665 Y81.051 Z2.000 F800.000
G1 X7.835 Y82.881 Z2.000 F800.000
G1 X7.835 Y79.294 Z2.000 F800.000
G1 X9.665 Y77.464 Z2.000 F800.000
G1 X9.665 Y73.878 Z2.000 F800.000
G1 X7.835 Y75.708 Z2.000 F800.000
G1 X7.835 Y72.121 Z2.000 F800.000
G1 X9.665 Y70.291 Z2.000 F800.000
G1 X9.665 Y66.705 Z2.000 F800.000
G1 X7.835 Y68.535 Z2.000 F800.000
G1 X7.835 Y64.948 Z2.000 F800.000
G1 X9.665 Y63.118 Z2.000 F800.000
G1 X9.665 Y59.532 Z2.000 F800.000
G1 X7.835 Y61.362 Z2.000 F800.000
G1 X7.835 Y57.775 Z2.000 F800.000
G1 X9.665 Y55.945 Z2.000 F800.000
G1 X9.665 Y52.359 Z2.000 F800.000
G1 X7.835 Y54.189 Z2.000 F800.000
G1 X7.835 Y50.603 Z2.000 F800.000
G1 X9.665 Y48.773 Z2.000 F800.000
G1 X9.665 Y45.186 Z2.000 F800.000
G1 X7.835 Y47.016 Z2.000 F800.000
G1 X7.835 Y43.430 Z2.000 F800.000
G1 X9.665 Y41.600 Z2.000 F800.000
G1 X9.665 Y38.013 Z2.000 F800.000
G1 X7.835 Y39.843 Z2.000 F800.000
G1 X7.835 Y36.257 Z2.000 F800.000
G1 X9.665 Y34.427 Z2.000 F800.000
G1 X9.665 Y30.840 Z2.000 F800.000
G1 X7.835 Y32.670 Z2.000 F800.000
G1 X7.835 Y29.084 Z2.000 F800.000
G1 X9.665 Y27.254 Z2.000 F800.000
G1 X9.665 Y23.667 Z2.000 F800.000
G1 X7.835 Y25.497 Z2.000 F800.000
G1 X7.835 Y21.911 Z2.000 F800.000
G1 X9.665 Y20.081 Z2.000 F800.000
G1 X9.665 Y16.495 Z2.000 F800.000
G1 X7.835 Y18.325 Z2.000 F800.000
G1 X7.835 Y14.738 Z2.000 F800.000
G1 X9.665 Y12.908 Z2.000 F800.000
G1 X9.665 Y9.322 Z2.000 F800.000
G1 X7.835 Y11.152 Z2.000 F800.000
G1 X7.835 Y7.565 Z2.000 F800.000
G1 X9.665 Y5.735 Z2.000 F800.000
G1 X9.665 Y2.149 Z2.000 F800.000
G1 X9.665 Y1.585 Z2.000 F800.000
G1 X7.835 Y1.585 Z2.000 F800.000
G1 X7.835 Y3.979 Z2.000 F800.000
G1 X9.665 Y2.149 Z2.000 F800.000
G0 Z11.000
G0 Z11.000
G0 X9.665 Y2.149
G0 X26.665
G0 X26.665 Z9.000
G1 X26.665 Y2.149 Z4.500 F800.000
G1 X24.835 Y3.979 Z4.500 F800.000
G1 X24.835 Y1.585 Z4.500 F800.000
G1 X26.665 Y1.585 Z4.500 F800.000
G1 X26.665 Y2.149 Z4.500 F800.000
G1 X26.665 Y5.735 Z4.500 F800.000
G1 X24.835 Y7.565 Z4.500 F800.000
G1 X24.835 Y11.152 Z4.500 F800.000
G1 X26.665 Y9.322 Z4.500 F800.000
G1 X26.665 Y12.908 Z4.500 F800.000
G1 X24.835 Y14.738 Z4.500 F800.000
G1 X24.835 Y18.325 Z4.500 F800.000
G1 X26.665 Y16.495 Z4.500 F800.000
G1 X26.665 Y20.081 Z4.500 F800.000
G1 X24.835 Y21.911 Z4.500 F800.000
G1 X24.835 Y25.497 Z4.500 F800.000
G1 X26.665 Y23.667 Z4.500 F800.000
G1 X26.665 Y27.254 Z4.500 F800.000
G1 X24.835 Y29.084 Z4.500 F800.000
G1 X24.835 Y32.670 Z4.500 F800.000
G1 X26.665 Y30.840 Z4.500 F800.000
G1 X26.665 Y34.427 Z4.500 F800.000
G1 X24.835 Y36.257 Z4.500 F800.000
G1 X24.835 Y39.843 Z4.500 F800.000
G1 X26.665 Y38.013 Z4.500 F800.000
G1 X26.665 Y41.600 Z4.500 F800.000
G1 X24.835 Y43.430 Z4.500 F800.000
G1 X24.835 Y47.016 Z4.500 F800.000
G1 X26.665 Y45.186 Z4.500 F800.000
G1 X26.665 Y48.773 Z4.500 F800.000
G1 X24.835 Y50.603 Z4.500 F800.000
G1 X24.835 Y54.189 Z4.500 F800.000
G1 X26.665 Y52.359 Z4.500 F800.000
G1 X26.665 Y55.945 Z4.500 F800.000
G1 X24.835 Y57.775 Z4.500 F800.000
G1 X24.835 Y61.362 Z4.500 F800.000
G1 X26.665 Y59.532 Z4.500 F800.000
G1 X26.665 Y63.118 Z4.500 F800.000
G1 X24.835 Y64.948 Z4.500 F800.000
G1 X24.835 Y68.535 Z4.500 F800.000
G1 X26.665 Y66.705 Z4.500 F800.000
G1 X26.665 Y70.291 Z4.500 F800.000
G1 X24.835 Y72.121 Z4.500 F800.000
G1 X24.835 Y75.708 Z4.500 F800.000
G1 X26.665 Y73.878 Z4.500 F800.000
G1 X26.665 Y77.464 Z4.500 F800.000
G1 X24.835 Y79.294 Z4.500 F800.000
G1 X24.835 Y82.881 Z4.500 F800.000
G1 X26.665 Y81.051 Z4.500 F800.000
G1 X26.665 Y84.637 Z4.500 F800.000
G1 X24.835 Y86.467 Z4.500 F800.000
G1 X24.835 Y90.053 Z4.500 F800.000
G1 X26.665 Y88.223 Z4.500 F800.000
G1 X26.665 Y91.810 Z4.500 F800.000
G1 X24.835 Y93.640 Z4.500 F800.000
G1 X24.835 Y97.226 Z4.500 F800.000
G1 X26.665 Y95.396 Z4.500 F800.000
G1 X26.665 Y98.983 Z4.500 F800.000
G1 X24.835 Y100.813 Z4.500 F800.000
G1 X24.835 Y104.399 Z4.500 F800.000
G1 X26.665 Y102.569 Z4.500 F800.000
G1 X26.665 Y106.156 Z4.500 F800.000
G1 X24.835 Y107.986 Z4.500 F800.000
G1 X24.835 Y111.572 Z4.500 F800.000
G1 X26.665 Y109.742 Z4.500 F800.000
G1 X26.665 Y113.329 Z4.500 F800.000
G1 X24.835 Y115.159 Z4.500 F800.000
G1 X24.835 Y116.915 Z4.500 F800.000
G1 X26.665 Y116.915 Z4.500 F800.000
G1 X26.665 Y116.915 Z3.000 F800.000
G1 X24.835 Y116.915 Z3.000 F800.000
G1 X24.835 Y115.159 Z3.000 F800.000
G1 X26.665 Y113.329 Z3.000 F800.000
G1 X26.665 Y109.742 Z3.000 F800.000
G1 X24.835 Y111.572 Z3.000 F800.000
G1 X24.835 Y107.986 Z3.000 F800.000
G1 X26.665 Y106.156 Z3.000 F800.000
G1 X26.665 Y102.569 Z3.000 F800.000
G1 X24.835 Y104.399 Z3.000 F800.000
G1 X24.835 Y100.813 Z3.000 F800.000
G1 X26.665 Y98.983 Z3.000 F800.000
G1 X26.665 Y95.396 Z3.000 F800.000
G1 X24.835 Y97.226 Z3.000 F800.000
G1 X24.835 Y93.640 Z3.000 F800.000
G1 X26.665 Y91.810 Z3.000 F800.000
G1 X26.665 Y88.223 Z3.000 F800.000
G1 X24.835 Y90.053 Z3.000 F800.000
G1 X24.835 Y86.467 Z3.000 F800.000
G1 X26.665 Y84.637 Z3.000 F800.000
G1 X26.665 Y81.051 Z3.000 F800.000
G1 X24.835 Y82.881 Z3.000 F800.000
G1 X24.835 Y79.294 Z3.000 F800.000
G1 X26.665 Y77.464 Z3.000 F800.000
G1 X26.665 Y73.878 Z3.000 F800.000
G1 X24.835 Y75.708 Z3.000 F800.000
G1 X24.835 Y72.121 Z3.000 F800.000
G1 X26.665 Y70.291 Z3.000 F800.000
G1 X26.665 Y66.705 Z3.000 F800.000
G1 X24.835 Y68.535 Z3.000 F800.000
G1 X24.835 Y64.948 Z3.000 F800.000
G1 X26.665 Y63.118 Z3.000 F800.000
G1 X26.665 Y59.532 Z3.000 F800.000
G1 X24.835 Y61.362 Z3.000 F800.000
G1 X24.835 Y57.775 Z3.000 F800.000
G1 X26.665 Y55.945 Z3.000 F800.000
G1 X26.665 Y52.359 Z3.000 F800.000
G1 X24.835 Y54.189 Z3.000 F800.000
G1 X24.835 Y50.603 Z3.000 F800.000
G1 X26.665 Y48.773 Z3.000 F800.000
G1 X26.665 Y45.186 Z3.000 F800.000
G1 X24.835 Y47.016 Z3.000 F800.000
G1 X24.835 Y43.430 Z3.000 F800.000
G1 X26.665 Y41.600 Z3.000 F800.000
G1 X26.665 Y38.013 Z3.000 F800.000
G1 X24.835 Y39.843 Z3.000 F800.000
G1 X24.835 Y36.257 Z3.000 F800.000
G1 X26.665 Y34.427 Z3.000 F800.000
G1 X26.665 Y30.840 Z3.000 F800.000
G1 X24.835 Y32.670 Z3.000 F800.000
G1 X24.835 Y29.084 Z3.000 F800.000
G1 X26.665 Y27.254 Z3.000 F800.000
G1 X26.665 Y23.667 Z3.000 F800.000
G1 X24.835 Y25.497 Z3.000 F800.000
G1 X24.835 Y21.911 Z3.000 F800.000
G1 X26.665 Y20.081 Z3.000 F800.000
G1 X26.665 Y16.495 Z3.000 F800.000
G1 X24.835 Y18.325 Z3.000 F800.000
G1 X24.835 Y14.738 Z3.000 F800.000
G1 X26.665 Y12.908 Z3.000 F800.000
G1 X26.665 Y9.322 Z3.000 F800.000
G1 X24.835 Y11.152 Z3.000 F800.000
G1 X24.835 Y7.565 Z3.000 F800.000
G1 X26.665 Y5.735 Z3.000 F800.000
G1 X26.665 Y2.149 Z3.000 F800.000
G1 X26.665 Y1.585 Z3.000 F800.000
G1 X24.835 Y1.585 Z3.000 F800.000
G1 X24.835 Y3.979 Z3.000 F800.000
G1 X26.665 Y2.149 Z3.000 F800.000
G1 X26.665 Y2.149 Z2.000 F800.000
G1 X24.835 Y3.979 Z2.000 F800.000
G1 X24.835 Y1.585 Z2.000 F800.000
G1 X26.665 Y1.585 Z2.000 F800.000
G1 X26.665 Y2.149 Z2.000 F800.000
G1 X26.665 Y5.735 Z2.000 F800.000
G1 X24.835 Y7.565 Z2.000 F800.000
G1 X24.835 Y11.152 Z2.000 F800.000
G1 X26.665 Y9.322 Z2.000 F800.000
G1 X26.665 Y12.908 Z2.000 F800.000
G1 X24.835 Y14.738 Z2.000 F800.000
G1 X24.835 Y18.325 Z2.000 F800.000
G1 X26.665 Y16.495 Z2.000 F800.000
G1 X26.665 Y20.081 Z2.000 F800.000
G1 X24.835 Y21.911 Z2.000 F800.000
G1 X24.835 Y25.497 Z2.000 F800.000
G1 X26.665 Y23.667 Z2.000 F800.000
G1 X26.665 Y27.254 Z2.000 F800.000
G1 X24.835 Y29.084 Z2.000 F800.000
G1 X24.835 Y32.670 Z2.000 F800.000
G1 X26.665 Y30.840 Z2.000 F800.000
G1 X26.665 Y34.427 Z2.000 F800.000
G1 X24.835 Y36.257 Z2.000 F800.000
G1 X24.835 Y39.843 Z2.000 F800.000
G1 X26.665 Y38.013 Z2.000 F800.000
G1 X26.665 Y41.600 Z2.000 F800.000
G1 X24.835 Y43.430 Z2.000 F800.000
G1 X24.835 Y47.016 Z2.000 F800.000
G1 X26.665 Y45.186 Z2.000 F800.000
G1 X26.665 Y48.773 Z2.000 F800.000
G1 X24.835 Y50.603 Z2.000 F800.000
G1 X24.835 Y54.189 Z2.000 F800.000
G1 X26.665 Y52.359 Z2.000 F800.000
G1 X26.665 Y55.945 Z2.000 F800.000
G1 X24.835 Y57.775 Z2.000 F800.000
G1 X24.835 Y61.362 Z2.000 F800.000
G1 X26.665 Y59.532 Z2.000 F800.000
G1 X26.665 Y63.118 Z2.000 F800.000
G1 X24.835 Y64.948 Z2.000 F800.000
G1 X24.835 Y68.535 Z2.000 F800.000
G1 X26.665 Y66.705 Z2.000 F800.000
G1 X26.665 Y70.291 Z2.000 F800.000
G1 X24.835 Y72.121 Z2.000 F800.000
G1 X24.835 Y75.708 Z2.000 F800.000
G1 X26.665 Y73.878 Z2.000 F800.000
G1 X26.665 Y77.464 Z2.000 F800.000
G1 X24.835 Y79.294 Z2.000 F800.000
G1 X24.835 Y82.881 Z2.000 F800.000
G1 X26.665 Y81.051 Z2.000 F800.000
G1 X26.665 Y84.637 Z2.000 F800.000
G1 X24.835 Y86.467 Z2.000 F800.000
G1 X24.835 Y90.053 Z2.000 F800.000
G1 X26.665 Y88.223 Z2.000 F800.000
G1 X26.665 Y91.810 Z2.000 F800.000
G1 X24.835 Y93.640 Z2.000 F800.000
G1 X24.835 Y97.226 Z2.000 F800.000
G1 X26.665 Y95.396 Z2.000 F800.000
G1 X26.665 Y98.983 Z2.000 F800.000
G1 X24.835 Y100.813 Z2.000 F800.000
G1 X24.835 Y104.399 Z2.000 F800.000
G1 X26.665 Y102.569 Z2.000 F800.000
G1 X26.665 Y106.156 Z2.000 F800.000
G1 X24.835 Y107.986 Z2.000 F800.000
G1 X24.835 Y111.572 Z2.000 F800.000
G1 X26.665 Y109.742 Z2.000 F800.000
G1 X26.665 Y113.329 Z2.000 F800.000
G1 X24.835 Y115.159 Z2.000 F800.000
G1 X24.835 Y116.915 Z2.000 F800.000
G1 X26.665 Y116.915 Z2.000 F800.000
G0 Z11.000
G0 Z11.000
(Finish operation: Rough_pocket)
(Begin operation: Fine_pocket)
(Path: Fine_pocket)
(Fine_pocket)
G0 Z11.000
G0 X9.665 Y116.915
G0 Z9.000
G1 X9.665 Y116.915 Z2.000 F800.000
G1 X9.665 Y1.585 Z2.000 F800.000
G1 X7.835 Y1.585 Z2.000 F800.000
G1 X7.835 Y116.915 Z2.000 F800.000
G1 X9.665 Y116.915 Z2.000 F800.000
G1 X9.665 Y116.915 Z2.000 F800.000
G1 X8.768 Y116.915 Z2.000 F800.000
G1 X9.665 Y116.018 Z2.000 F800.000
G1 X9.665 Y115.122 Z2.000 F800.000
G1 X7.872 Y116.915 Z2.000 F800.000
G1 X7.835 Y116.915 Z2.000 F800.000
G1 X7.835 Y116.055 Z2.000 F800.000
G1 X9.665 Y114.225 Z2.000 F800.000
G1 X9.665 Y113.329 Z2.000 F800.000
G1 X7.835 Y115.159 Z2.000 F800.000
G1 X7.835 Y114.262 Z2.000 F800.000
G1 X9.665 Y112.432 Z2.000 F800.000
G1 X9.665 Y111.535 Z2.000 F800.000
G1 X7.835 Y113.365 Z2.000 F800.000
G1 X7.835 Y112.469 Z2.000 F800.000
G1 X9.665 Y110.639 Z2.000 F800.000
G1 X9.665 Y109.742 Z2.000 F800.000
G1 X7.835 Y111.572 Z2.000 F800.000
G1 X7.835 Y110.675 Z2.000 F800.000
G1 X9.665 Y108.845 Z2.000 F800.000
G1 X9.665 Y107.949 Z2.000 F800.000
G1 X7.835 Y109.779 Z2.000 F800.000
G1 X7.835 Y108.882 Z2.000 F800.000
G1 X9.665 Y107.052 Z2.000 F800.000
G1 X9.665 Y106.156 Z2.000 F800.000
G1 X7.835 Y107.986 Z2.000 F800.000
G1 X7.835 Y107.089 Z2.000 F800.000
G1 X9.665 Y105.259 Z2.000 F800.000
G1 X9.665 Y104.362 Z2.000 F800.000
G1 X7.835 Y106.192 Z2.000 F800.000
G1 X7.835 Y105.296 Z2.000 F800.000
G1 X9.665 Y103.466 Z2.000 F800.000
G1 X9.665 Y102.569 Z2.000 F800.000
G1 X7.835 Y104.399 Z2.000 F800.000
G1 X7.835 Y103.503 Z2.000 F800.000
G1 X9.665 Y101.673 Z2.000 F800.000
G1 X9.665 Y100.776 Z2.000 F800.000
G1 X7.835 Y102.606 Z2.000 F800.000
G1 X7.835 Y101.709 Z2.000 F800.000
G1 X9.665 Y99.879 Z2.000 F800.000
G1 X9.665 Y98.983 Z2.000 F800.000
G1 X7.835 Y100.813 Z2.000 F800.000
G1 X7.835 Y99.916 Z2.000 F800.000
G1 X9.665 Y98.086 Z2.000 F800.000
G1 X9.665 Y97.190 Z2.000 F800.000
G1 X7.835 Y99.020 Z2.000 F800.000
G1 X7.835 Y98.123 Z2.000 F800.000
G1 X9.665 Y96.293 Z2.000 F800.000
G1 X9.665 Y95.396 Z2.000 F800.000
G1 X7.835 Y97.226 Z2.000 F800.000
G1 X7.835 Y96.330 Z2.000 F800.000
G1 X9.665 Y94.500 Z2.000 F800.000
G1 X9.665 Y93.603 Z2.000 F800.000
G1 X7.835 Y95.433 Z2.000 F800.000
G1 X7.835 Y94.536 Z2.000 F800.000
G1 X9.665 Y92.706 Z2.000 F800.000
G1 X9.665 Y91.810 Z2.000 F800.000
G1 X7.835 Y93.640 Z2.000 F800.000
G1 X7.835 Y92.743 Z2.000 F800.000
G1 X9.665 Y90.913 Z2.000 F800.000
G1 X9.665 Y90.017 Z2.000 F800.000
G1 X7.835 Y91.847 Z2.000 F800.000
G1 X7.835 Y90.950 Z2.000 F800.000
G1 X9.665 Y89.120 Z2.000 F800.000
G1 X9.665 Y88.223 Z2.000 F800.000
G1 X7.835 Y90.053 Z2.000 F800.000
G1 X7.835 Y89.157 Z2.000 F800.000
G1 X9.665 Y87.327 Z2.000 F800.000
G1 X9.665 Y86.430 Z2.000 F800.000
G1 X7.835 Y88.260 Z2.000 F800.000
G1 X7.835 Y87.364 Z2.000 F800.000
G1 X9.665 Y85.534 Z2.000 F800.000
G1 X9.665 Y84.637 Z2.000 F800.000
G1 X7.835 Y86.467 Z2.000 F800.000
G1 X7.835 Y85.570 Z2.000 F800.000
G1 X9.665 Y83.740 Z2.000 F800.000
G1 X9.665 Y82.844 Z2.000 F800.000
G1 X7.835 Y84.674 Z2.000 F800.000
G1 X7.835 Y83.777 Z2.000 F800.000
G1 X9.665 Y81.947 Z2.000 F800.000
G1 X9.665 Y81.051 Z2.000 F800.000
G1 X7.835 Y82.881 Z2.000 F800.000
G1 X7.835 Y81.984 Z2.000 F800.000
G1 X9.665 Y80.154 Z2.000 F800.000
G1 X9.665 Y79.257 Z2.000 F800.000
G1 X7.835 Y81.087 Z2.000 F800.000
G1 X7.835 Y80.191 Z2.000 F800.000
G1 X9.665 Y78.361 Z2.000 F800.000
G1 X9.665 Y77.464 Z2.000 F800.000
G1 X7.835 Y79.294 Z2.000 F800.000
G1 X7.835 Y78.397 Z2.000 F800.000
G1 X9.665 Y76.567 Z2.000 F800.000
G1 X9.665 Y75.671 Z2.000 F800.000
G1 X7.835 Y77.501 Z2.000 F800.000
G1 X7.835 Y76.604 Z2.000 F800.000
G1 X9.665 Y74.774 Z2.000 F800.000
G1 X9.665 Y73.878 Z2.000 F800.000
G1 X7.835 Y75.708 Z2.000 F800.000
G1 X7.835 Y74.811 Z2.000 F800.000
G1 X9.665 Y72.981 Z2.000 F800.000
G1 X9.665 Y72.084 Z2.000 F800.000
G1 X7.835 Y73.914 Z2.000 F800.000
G1 X7.835 Y73.018 Z2.000 F800.000
G1 X9.665 Y71.188 Z2.000 F800.000
G1 X9.665 Y70.291 Z2.000 F800.000
G1 X7.835 Y72.121 Z2.000 F800.000
G1 X7.835 Y71.225 Z2.000 F800.000
G1 X9.665 Y69.395 Z2.000 F800.000
G1 X9.665 Y68.498 Z2.000 F800.000
G1 X7.835 Y70.328 Z2.000 F800.000
G1 X7.835 Y69.431 Z2.000 F800.000
G1 X9.665 Y67.601 Z2.000 F800.000
G1 X9.665 Y66.705 Z2.000 F800.000
G1 X7.835 Y68.535 Z2.000 F800.000
G1 X7.835 Y67.638 Z2.000 F800.000
G1 X9.665 Y65.808 Z2.000 F800.000
G1 X9.665 Y64.912 Z2.000 F800.000
G1 X7.835 Y66.742 Z2.000 F800.000
G1 X7.835 Y65.845 Z2.000 F800.000
G1 X9.665 Y64.015 Z2.000 F800.000
G1 X9.665 Y63.118 Z2.000 F800.000
G1 X7.835 Y64.948 Z2.000 F800.000
G1 X7.835 Y64.052 Z2.000 F800.000
G1 X9.665 Y62.222 Z2.000 F800.000
G1 X9.665 Y61.325 Z2.000 F800.000
G1 X7.835 Y63.155 Z2.000 F800.000
G1 X7.835 Y62.258 Z2.000 F800.000
G1 X9.665 Y60.428 Z2.000 F800.000
G1 X9.665 Y59.532 Z2.000 F800.000
G1 X7.835 Y61.362 Z2.000 F800.000
G1 X7.835 Y60.465 Z2.000 F800.000
G1 X9.665 Y58.635 Z2.000 F800.000
G1 X9.665 Y57.739 Z2.000 F800.000
G1 X7.835 Y59.569 Z2.000 F800.000
G1 X7.835 Y58.672 Z2.000 F800.000
G1 X9.665 Y56.842 Z2.000 F800.000
G1 X9.665 Y55.945 Z2.000 F800.000
G1 X7.835 Y57.775 Z2.000 F800.000
G1 X7.835 Y56.879 Z2.000 F800.000
G1 X9.665 Y55.049 Z2.000 F800.000
G1 X9.665 Y54.152 Z2.000 F800.000
G1 X7.835 Y55.982 Z2.000 F800.000
G1 X7.835 Y55.086 Z2.000 F800.000
G1 X9.665 Y53.256 Z2.000 F800.000
G1 X9.665 Y52.359 Z2.000 F800.000
G1 X7.835 Y54.189 Z2.000 F800.000
G1 X7.835 Y53.292 Z2.000 F800.000
G1 X9.665 Y51.462 Z2.000 F800.000
G1 X9.665 Y50.566 Z2.000 F800.000
G1 X7.835 Y52.396 Z2.000 F800.000
G1 X7.835 Y51.499 Z2.000 F800.000
G1 X9.665 Y49.669 Z2.000 F800.000
G1 X9.665 Y48.773 Z2.000 F800.000
G1 X7.835 Y50.603 Z2.000 F800.000
G1 X7.835 Y49.706 Z2.000 F800.000
G1 X9.665 Y47.876 Z2.000 F800.000
G1 X9.665 Y46.979 Z2.000 F800.000
G1 X7.835 Y48.809 Z2.000 F800.000
G1 X7.835 Y47.913 Z2.000 F800.000
G1 X9.665 Y46.083 Z2.000 F800.000
G1 X9.665 Y45.186 Z2.000 F800.000
G1 X7.835 Y47.016 Z2.000 F800.000
G1 X7.835 Y46.119 Z2.000 F800.000
G1 X9.665 Y44.289 Z2.000 F800.000
G1 X9.665 Y43.393 Z2.000 F800.000
G1 X7.835 Y45.223 Z2.000 F800.000
G1 X7.835 Y44.326 Z2.000 F800.000
G1 X9.665 Y42.496 Z2.000 F800.000
G1 X9.665 Y41.600 Z2.000 F800.000
G1 X7.835 Y43.430 Z2.000 F800.000
G1 X7.835 Y42.533 Z2.000 F800.000
G1 X9.665 Y40.703 Z2.000 F800.000
G1 X9.665 Y39.806 Z2.000 F800.000
G1 X7.835 Y41.636 Z2.000 F800.000
G1 X7.835 Y40.740 Z2.000 F800.000
G1 X9.665 Y38.910 Z2.000 F800.000
G1 X9.665 Y38.013 Z2.000 F800.000
G1 X7.835 Y39.843 Z2.000 F800.000
G1 X7.835 Y38.947 Z2.000 F800.000
G1 X9.665 Y37.117 Z2.000 F800.000
G1 X9.665 Y36.220 Z2.000 F800.000
G1 X7.835 Y38.050 Z2.000 F800.000
G1 X7.835 Y37.153 Z2.000 F800.000
G1 X9.665 Y35.323 Z2.000 F800.000
G1 X9.665 Y34.427 Z2.000 F800.000
G1 X7.835 Y36.257 Z2.000 F800.000
G1 X7.835 Y35.360 Z2.000 F800.000
G1 X9.665 Y33.530 Z2.000 F800.000
G1 X9.665 Y32.634 Z2.000 F800.000
G1 X7.835 Y34.464 Z2.000 F800.000
G1 X7.835 Y33.567 Z2.000 F800.000
G1 X9.665 Y31.737 Z2.000 F800.000
G1 X9.665 Y30.840 Z2.000 F800.000
G1 X7.835 Y32.670 Z2.000 F800.000
G1 X7.835 Y31.774 Z2.000 F800.000
G1 X9.665 Y29.944 Z2.000 F800.000
G1 X9.665 Y29.047 Z2.000 F800.000
G1 X7.835 Y30.877 Z2.000 F800.000
G1 X7.835 Y29.980 Z2.000 F800.000
G1 X9.665 Y28.150 Z2.000 F800.000
G1 X9.665 Y27.254 Z2.000 F800.000
G1 X7.835 Y29.084 Z2.000 F800.000
G1 X7.835 Y28.187 Z2.000 F800.000
G1 X9.665 Y26.357 Z2.000 F800.000
G1 X9.665 Y25.461 Z2.000 F800.000
G1 X7.835 Y27.291 Z2.000 F800.000
G1 X7.835 Y26.394 Z2.000 F800.000
G1 X9.665 Y24.564 Z2.000 F800.000
G1 X9.665 Y23.667 Z2.000 F800.000
G1 X7.835 Y25.497 Z2.000 F800.000
G1 X7.835 Y24.601 Z2.000 F800.000
G1 X9.665 Y22.771 Z2.000 F800.000
G1 X9.665 Y21.874 Z2.000 F800.000
G1 X7.835 Y23.704 Z2.000 F800.000
G1 X7.835 Y22.808 Z2.000 F800.000
G1 X9.665 Y20.978 Z2.000 F800.000
G1 X9.665 Y20.081 Z2.000 F800.000
G1 X7.835 Y21.911 Z2.000 F800.000
G1 X7.835 Y21.014 Z2.000 F800.000
G1 X9.665 Y19.184 Z2.000 F800.000
G1 X9.665 Y18.288 Z2.000 F800.000
G1 X7.835 Y20.118 Z2.000 F800.000
G1 X7.835 Y19.221 Z2.000 F800.000
G1 X9.665 Y17.391 Z2.000 F800.000
G1 X9.665 Y16.495 Z2.000 F800.000
G1 X7.835 Y18.325 Z2.000 F800.000
G1 X7.835 Y17.428 Z2.000 F800.000
G1 X9.665 Y15.598 Z2.000 F800.000
G1 X9.665 Y14.701 Z2.000 F800.000
G1 X7.835 Y16.531 Z2.000 F800.000
G1 X7.835 Y15.635 Z2.000 F800.000
G1 X9.665 Y13.805 Z2.000 F800.000
G1 X9.665 Y12.908 Z2.000 F800.000
G1 X7.835 Y14.738 Z2.000 F800.000
G1 X7.835 Y13.841 Z2.000 F800.000
G1 X9.665 Y12.011 Z2.000 F800.000
G1 X9.665 Y11.115 Z2.000 F800.000
G1 X7.835 Y12.945 Z2.000 F800.000
G1 X7.835 Y12.048 Z2.000 F800.000
G1 X9.665 Y10.218 Z2.000 F800.000
G1 X9.665 Y9.322 Z2.000 F800.000
G1 X7.835 Y11.152 Z2.000 F800.000
G1 X7.835 Y10.255 Z2.000 F800.000
G1 X9.665 Y8.425 Z2.000 F800.000
G1 X9.665 Y7.528 Z2.000 F800.000
G1 X7.835 Y9.358 Z2.000 F800.000
G1 X7.835 Y8.462 Z2.000 F800.000
G1 X9.665 Y6.632 Z2.000 F800.000
G1 X9.665 Y5.735 Z2.000 F800.000
G1 X7.835 Y7.565 Z2.000 F800.000
G1 X7.835 Y6.669 Z2.000 F800.000
G1 X9.665 Y4.839 Z2.000 F800.000
G1 X9.665 Y3.942 Z2.000 F800.000
G1 X7.835 Y5.772 Z2.000 F800.000
G1 X7.835 Y4.875 Z2.000 F800.000
G1 X9.665 Y3.045 Z2.000 F800.000
G1 X9.665 Y2.149 Z2.000 F800.000
G1 X7.835 Y3.979 Z2.000 F800.000
G1 X7.835 Y3.082 Z2.000 F800.000
G1 X9.332 Y1.585 Z2.000 F800.000
G1 X8.436 Y1.585 Z2.000 F800.000
G1 X7.835 Y1.585 Z2.000 F800.000
G1 X7.835 Y2.186 Z2.000 F800.000
G1 X8.436 Y1.585 Z2.000 F800.000
G0 Z11.000
G0 Z11.000
G0 X8.436 Y1.585
G0 X24.835
G0 X24.835 Z9.000
G1 X24.835 Y1.585 Z2.000 F800.000
G1 X24.835 Y116.915 Z2.000 F800.000
G1 X26.665 Y116.915 Z2.000 F800.000
G1 X26.665 Y1.585 Z2.000 F800.000
G1 X24.835 Y1.585 Z2.000 F800.000
G0 Z11.000
G0 X25.436 Z11.000
G0 X25.436 Z9.000
G1 X25.436 Y1.585 Z2.000 F800.000
G1 X24.835 Y2.186 Z2.000 F800.000
G1 X24.835 Y1.585 Z2.000 F800.000
G1 X25.436 Y1.585 Z2.000 F800.000
G1 X26.332 Y1.585 Z2.000 F800.000
G1 X24.835 Y3.082 Z2.000 F800.000
G1 X24.835 Y3.979 Z2.000 F800.000
G1 X26.665 Y2.149 Z2.000 F800.000
G1 X26.665 Y3.045 Z2.000 F800.000
G1 X24.835 Y4.875 Z2.000 F800.000
G1 X24.835 Y5.772 Z2.000 F800.000
G1 X26.665 Y3.942 Z2.000 F800.000
G1 X26.665 Y4.839 Z2.000 F800.000
G1 X24.835 Y6.669 Z2.000 F800.000
G1 X24.835 Y7.565 Z2.000 F800.000
G1 X26.665 Y5.735 Z2.000 F800.000
G1 X26.665 Y6.632 Z2.000 F800.000
G1 X24.835 Y8.462 Z2.000 F800.000
G1 X24.835 Y9.358 Z2.000 F800.000
G1 X26.665 Y7.528 Z2.000 F800.000
G1 X26.665 Y8.425 Z2.000 F800.000
G1 X24.835 Y10.255 Z2.000 F800.000
G1 X24.835 Y11.152 Z2.000 F800.000
G1 X26.665 Y9.322 Z2.000 F800.000
G1 X26.665 Y10.218 Z2.000 F800.000
G1 X24.835 Y12.048 Z2.000 F800.000
G1 X24.835 Y12.945 Z2.000 F800.000
G1 X26.665 Y11.115 Z2.000 F800.000
G1 X26.665 Y12.011 Z2.000 F800.000
G1 X24.835 Y13.841 Z2.000 F800.000
G1 X24.835 Y14.738 Z2.000 F800.000
G1 X26.665 Y12.908 Z2.000 F800.000
G1 X26.665 Y13.805 Z2.000 F800.000
G1 X24.835 Y15.635 Z2.000 F800.000
G1 X24.835 Y16.531 Z2.000 F800.000
G1 X26.665 Y14.701 Z2.000 F800.000
G1 X26.665 Y15.598 Z2.000 F800.000
G1 X24.835 Y17.428 Z2.000 F800.000
G1 X24.835 Y18.325 Z2.000 F800.000
G1 X26.665 Y16.495 Z2.000 F800.000
G1 X26.665 Y17.391 Z2.000 F800.000
G1 X24.835 Y19.221 Z2.000 F800.000
G1 X24.835 Y20.118 Z2.000 F800.000
G1 X26.665 Y18.288 Z2.000 F800.000
G1 X26.665 Y19.184 Z2.000 F800.000
G1 X24.835 Y21.014 Z2.000 F800.000
G1 X24.835 Y21.911 Z2.000 F800.000
G1 X26.665 Y20.081 Z2.000 F800.000
G1 X26.665 Y20.978 Z2.000 F800.000
G1 X24.835 Y22.808 Z2.000 F800.000
G1 X24.835 Y23.704 Z2.000 F800.000
G1 X26.665 Y21.874 Z2.000 F800.000
G1 X26.665 Y22.771 Z2.000 F800.000
G1 X24.835 Y24.601 Z2.000 F800.000
G1 X24.835 Y25.497 Z2.000 F800.000
G1 X26.665 Y23.667 Z2.000 F800.000
G1 X26.665 Y24.564 Z2.000 F800.000
G1 X24.835 Y26.394 Z2.000 F800.000
G1 X24.835 Y27.291 Z2.000 F800.000
G1 X26.665 Y25.461 Z2.000 F800.000
G1 X26.665 Y26.357 Z2.000 F800.000
G1 X24.835 Y28.187 Z2.000 F800.000
G1 X24.835 Y29.084 Z2.000 F800.000
G1 X26.665 Y27.254 Z2.000 F800.000
G1 X26.665 Y28.150 Z2.000 F800.000
G1 X24.835 Y29.980 Z2.000 F800.000
G1 X24.835 Y30.877 Z2.000 F800.000
G1 X26.665 Y29.047 Z2.000 F800.000
G1 X26.665 Y29.944 Z2.000 F800.000
G1 X24.835 Y31.774 Z2.000 F800.000
G1 X24.835 Y32.670 Z2.000 F800.000
G1 X26.665 Y30.840 Z2.000 F800.000
G1 X26.665 Y31.737 Z2.000 F800.000
G1 X24.835 Y33.567 Z2.000 F800.000
G1 X24.835 Y34.464 Z2.000 F800.000
G1 X26.665 Y32.634 Z2.000 F800.000
G1 X26.665 Y33.530 Z2.000 F800.000
G1 X24.835 Y35.360 Z2.000 F800.000
G1 X24.835 Y36.257 Z2.000 F800.000
G1 X26.665 Y34.427 Z2.000 F800.000
G1 X26.665 Y35.323 Z2.000 F800.000
G1 X24.835 Y37.153 Z2.000 F800.000
G1 X24.835 Y38.050 Z2.000 F800.000
G1 X26.665 Y36.220 Z2.000 F800.000
G1 X26.665 Y37.117 Z2.000 F800.000
G1 X24.835 Y38.947 Z2.000 F800.000
G1 X24.835 Y39.843 Z2.000 F800.000
G1 X26.665 Y38.013 Z2.000 F800.000
G1 X26.665 Y38.910 Z2.000 F800.000
G1 X24.835 Y40.740 Z2.000 F800.000
G1 X24.835 Y41.636 Z2.000 F800.000
G1 X26.665 Y39.806 Z2.000 F800.000
G1 X26.665 Y40.703 Z2.000 F800.000
G1 X24.835 Y42.533 Z2.000 F800.000
G1 X24.835 Y43.430 Z2.000 F800.000
G1 X26.665 Y41.600 Z2.000 F800.000
G1 X26.665 Y42.496 Z2.000 F800.000
G1 X24.835 Y44.326 Z2.000 F800.000
G1 X24.835 Y45.223 Z2.000 F800.000
G1 X26.665 Y43.393 Z2.000 F800.000
G1 X26.665 Y44.289 Z2.000 F800.000
G1 X24.835 Y46.119 Z2.000 F800.000
G1 X24.835 Y47.016 Z2.000 F800.000
G1 X26.665 Y45.186 Z2.000 F800.000
G1 X26.665 Y46.083 Z2.000 F800.000
G1 X24.835 Y47.913 Z2.000 F800.000
G1 X24.835 Y48.809 Z2.000 F800.000
G1 X26.665 Y46.979 Z2.000 F800.000
G1 X26.665 Y47.876 Z2.000 F800.000
G1 X24.835 Y49.706 Z2.000 F800.000
G1 X24.835 Y50.603 Z2.000 F800.000
G1 X26.665 Y48.773 Z2.000 F800.000
G1 X26.665 Y49.669 Z2.000 F800.000
G1 X24.835 Y51.499 Z2.000 F800.000
G1 X24.835 Y52.396 Z2.000 F800.000
G1 X26.665 Y50.566 Z2.000 F800.000
G1 X26.665 Y51.462 Z2.000 F800.000
G1 X24.835 Y53.292 Z2.000 F800.000
G1 X24.835 Y54.189 Z2.000 F800.000
G1 X26.665 Y52.359 Z2.000 F800.000
G1 X26.665 Y53.256 Z2.000 F800.000
G1 X24.835 Y55.086 Z2.000 F800.000
G1 X24.835 Y55.982 Z2.000 F800.000
G1 X26.665 Y54.152 Z2.000 F800.000
G1 X26.665 Y55.049 Z2.000 F800.000
G1 X24.835 Y56.879 Z2.000 F800.000
G1 X24.835 Y57.775 Z2.000 F800.000
G1 X26.665 Y55.945 Z2.000 F800.000
G1 X26.665 Y56.842 Z2.000 F800.000
G1 X24.835 Y58.672 Z2.000 F800.000
G1 X24.835 Y59.569 Z2.000 F800.000
G1 X26.665 Y57.739 Z2.000 F800.000
G1 X26.665 Y58.635 Z2.000 F800.000
G1 X24.835 Y60.465 Z2.000 F800.000
G1 X24.835 Y61.362 Z2.000 F800.000
G1 X26.665 Y59.532 Z2.000 F800.000
G1 X26.665 Y60.428 Z2.000 F800.000
G1 X24.835 Y62.258 Z2.000 F800.000
G1 X24.835 Y63.155 Z2.000 F800.000
G1 X26.665 Y61.325 Z2.000 F800.000
G1 X26.665 Y62.222 Z2.000 F800.000
G1 X24.835 Y64.052 Z2.000 F800.000
G1 X24.835 Y64.948 Z2.000 F800.000
G1 X26.665 Y63.118 Z2.000 F800.000
G1 X26.665 Y64.015 Z2.000 F800.000
G1 X24.835 Y65.845 Z2.000 F800.000
G1 X24.835 Y66.742 Z2.000 F800.000
G1 X26.665 Y64.912 Z2.000 F800.000
G1 X26.665 Y65.808 Z2.000 F800.000
G1 X24.835 Y67.638 Z2.000 F800.000
G1 X24.835 Y68.535 Z2.000 F800.000
G1 X26.665 Y66.705 Z2.000 F800.000
G1 X26.665 Y67.601 Z2.000 F800.000
G1 X24.835 Y69.431 Z2.000 F800.000
G1 X24.835 Y70.328 Z2.000 F800.000
G1 X26.665 Y68.498 Z2.000 F800.000
G1 X26.665 Y69.395 Z2.000 F800.000
G1 X24.835 Y71.225 Z2.000 F800.000
G1 X24.835 Y72.121 Z2.000 F800.000
G1 X26.665 Y70.291 Z2.000 F800.000
G1 X26.665 Y71.188 Z2.000 F800.000
G1 X24.835 Y73.018 Z2.000 F800.000
G1 X24.835 Y73.914 Z2.000 F800.000
G1 X26.665 Y72.084 Z2.000 F800.000
G1 X26.665 Y72.981 Z2.000 F800.000
G1 X24.835 Y74.811 Z2.000 F800.000
G1 X24.835 Y75.708 Z2.000 F800.000
G1 X26.665 Y73.878 Z2.000 F800.000
G1 X26.665 Y74.774 Z2.000 F800.000
G1 X24.835 Y76.604 Z2.000 F800.000
G1 X24.835 Y77.501 Z2.000 F800.000
G1 X26.665 Y75.671 Z2.000 F800.000
G1 X26.665 Y76.567 Z2.000 F800.000
G1 X24.835 Y78.397 Z2.000 F800.000
G1 X24.835 Y79.294 Z2.000 F800.000
G1 X26.665 Y77.464 Z2.000 F800.000
G1 X26.665 Y78.361 Z2.000 F800.000
G1 X24.835 Y80.191 Z2.000 F800.000
G1 X24.835 Y81.087 Z2.000 F800.000
G1 X26.665 Y79.257 Z2.000 F800.000
G1 X26.665 Y80.154 Z2.000 F800.000
G1 X24.835 Y81.984 Z2.000 F800.000
G1 X24.835 Y82.881 Z2.000 F800.000
G1 X26.665 Y81.051 Z2.000 F800.000
G1 X26.665 Y81.947 Z2.000 F800.000
G1 X24.835 Y83.777 Z2.000 F800.000
G1 X24.835 Y84.674 Z2.000 F800.000
G1 X26.665 Y82.844 Z2.000 F800.000
G1 X26.665 Y83.740 Z2.000 F800.000
G1 X24.835 Y85.570 Z2.000 F800.000
G1 X24.835 Y86.467 Z2.000 F800.000
G1 X26.665 Y84.637 Z2.000 F800.000
G1 X26.665 Y85.534 Z2.000 F800.000
G1 X24.835 Y87.364 Z2.000 F800.000
G1 X24.835 Y88.260 Z2.000 F800.000
G1 X26.665 Y86.430 Z2.000 F800.000
G1 X26.665 Y87.327 Z2.000 F800.000
G1 X24.835 Y89.157 Z2.000 F800.000
G1 X24.835 Y90.053 Z2.000 F800.000
G1 X26.665 Y88.223 Z2.000 F800.000
G1 X26.665 Y89.120 Z2.000 F800.000
G1 X24.835 Y90.950 Z2.000 F800.000
G1 X24.835 Y91.847 Z2.000 F800.000
G1 X26.665 Y90.017 Z2.000 F800.000
G1 X26.665 Y90.913 Z2.000 F800.000
G1 X24.835 Y92.743 Z2.000 F800.000
G1 X24.835 Y93.640 Z2.000 F800.000
G1 X26.665 Y91.810 Z2.000 F800.000
G1 X26.665 Y92.706 Z2.000 F800.000
G1 X24.835 Y94.536 Z2.000 F800.000
G1 X24.835 Y95.433 Z2.000 F800.000
G1 X26.665 Y93.603 Z2.000 F800.000
G1 X26.665 Y94.500 Z2.000 F800.000
G1 X24.835 Y96.330 Z2.000 F800.000
G1 X24.835 Y97.226 Z2.000 F800.000
G1 X26.665 Y95.396 Z2.000 F800.000
G1 X26.665 Y96.293 Z2.000 F800.000
G1 X24.835 Y98.123 Z2.000 F800.000
G1 X24.835 Y99.020 Z2.000 F800.000
G1 X26.665 Y97.190 Z2.000 F800.000
G1 X26.665 Y98.086 Z2.000 F800.000
G1 X24.835 Y99.916 Z2.000 F800.000
G1 X24.835 Y100.813 Z2.000 F800.000
G1 X26.665 Y98.983 Z2.000 F800.000
G1 X26.665 Y99.879 Z2.000 F800.000
G1 X24.835 Y101.709 Z2.000 F800.000
G1 X24.835 Y102.606 Z2.000 F800.000
G1 X26.665 Y100.776 Z2.000 F800.000
G1 X26.665 Y101.673 Z2.000 F800.000
G1 X24.835 Y103.503 Z2.000 F800.000
G1 X24.835 Y104.399 Z2.000 F800.000
G1 X26.665 Y102.569 Z2.000 F800.000
G1 X26.665 Y103.466 Z2.000 F800.000
G1 X24.835 Y105.296 Z2.000 F800.000
G1 X24.835 Y106.192 Z2.000 F800.000
G1 X26.665 Y104.362 Z2.000 F800.000
G1 X26.665 Y105.259 Z2.000 F800.000
G1 X24.835 Y107.089 Z2.000 F800.000
G1 X24.835 Y107.986 Z2.000 F800.000
G1 X26.665 Y106.156 Z2.000 F800.000
G1 X26.665 Y107.052 Z2.000 F800.000
G1 X24.835 Y108.882 Z2.000 F800.000
G1 X24.835 Y109.779 Z2.000 F800.000
G1 X26.665 Y107.949 Z2.000 F800.000
G1 X26.665 Y108.845 Z2.000 F800.000
G1 X24.835 Y110.675 Z2.000 F800.000
G1 X24.835 Y111.572 Z2.000 F800.000
G1 X26.665 Y109.742 Z2.000 F800.000
G1 X26.665 Y110.639 Z2.000 F800.000
G1 X24.835 Y112.469 Z2.000 F800.000
G1 X24.835 Y113.365 Z2.000 F800.000
G1 X26.665 Y111.535 Z2.000 F800.000
G1 X26.665 Y112.432 Z2.000 F800.000
G1 X24.835 Y114.262 Z2.000 F800.000
G1 X24.835 Y115.159 Z2.000 F800.000
G1 X26.665 Y113.329 Z2.000 F800.000
G1 X26.665 Y114.225 Z2.000 F800.000
G1 X24.835 Y116.055 Z2.000 F800.000
G1 X24.835 Y116.915 Z2.000 F800.000
G1 X24.872 Y116.915 Z2.000 F800.000
G1 X26.665 Y115.122 Z2.000 F800.000
G1 X26.665 Y116.018 Z2.000 F800.000
G1 X25.768 Y116.915 Z2.000 F800.000
G1 X26.665 Y116.915 Z2.000 F800.000
G0 Z11.000
G0 Z11.000
(Finish operation: Fine_pocket)
(Begin operation: Clean_pocket_walls)
(Path: Clean_pocket_walls)
(Clean_pocket_walls)
(Compensated Tool Path. Diameter: 3.17)
G0 Z11.000
G0 X27.165 Y117.415
G0 Z9.000
G1 X27.165 Y117.415 Z4.500 F800.000
G1 X27.165 Y1.085 Z4.500 F800.000
G1 X24.335 Y1.085 Z4.500 F800.000
G1 X24.335 Y117.415 Z4.500 F800.000
G1 X27.165 Y117.415 Z4.500 F800.000
G0 Z11.000
G0 X10.165 Z11.000
G0 X10.165 Z9.000
G1 X10.165 Y117.415 Z4.500 F800.000
G1 X10.165 Y1.085 Z4.500 F800.000
G1 X7.335 Y1.085 Z4.500 F800.000
G1 X7.335 Y117.415 Z4.500 F800.000
G1 X10.165 Y117.415 Z4.500 F800.000
G1 X10.165 Y117.415 Z3.000 F800.000
G1 X10.165 Y1.085 Z3.000 F800.000
G1 X7.335 Y1.085 Z3.000 F800.000
G1 X7.335 Y117.415 Z3.000 F800.000
G1 X10.165 Y117.415 Z3.000 F800.000
G0 Z11.000
G0 X24.335 Z11.000
G0 X24.335 Z9.000
G1 X24.335 Y117.415 Z3.000 F800.000
G1 X27.165 Y117.415 Z3.000 F800.000
G1 X27.165 Y1.085 Z3.000 F800.000
G1 X24.335 Y1.085 Z3.000 F800.000
G1 X24.335 Y117.415 Z3.000 F800.000
G1 X24.335 Y117.415 Z2.000 F800.000
G1 X27.165 Y117.415 Z2.000 F800.000
G1 X27.165 Y1.085 Z2.000 F800.000
G1 X24.335 Y1.085 Z2.000 F800.000
G1 X24.335 Y117.415 Z2.000 F800.000
G0 Z11.000
G0 X10.165 Z11.000
G0 X10.165 Z9.000
G1 X10.165 Y117.415 Z2.000 F800.000
G1 X10.165 Y1.085 Z2.000 F800.000
G1 X7.335 Y1.085 Z2.000 F800.000
G1 X7.335 Y117.415 Z2.000 F800.000
G1 X10.165 Y117.415 Z2.000 F800.000
G0 Z11.000
G0 Z11.000
(Finish operation: Clean_pocket_walls)
(Begin operation: Cut_out)
(Path: Cut_out)
G0 Z11.000
G0 X35.621 Y130.621 Z11.000
G0 X35.621 Y130.621 Z9.000
G1 X35.621 Y130.621 Z4.500 F800.000
G2 X36.085 Y129.500 Z4.500 I-1.121 J-1.121 K0.000 F800.000
G1 X36.085 Y0.000 Z4.500 F800.000
G2 X34.500 Y-1.585 Z4.500 I-1.585 J0.000 K0.000 F800.000
G1 X23.250 Y-1.585 Z4.500 F800.000
G2 X21.665 Y-0.000 Z4.500 I0.000 J1.585 K0.000 F800.000
G1 X21.665 Y116.915 Z4.500 F800.000
G1 X12.835 Y116.915 Z4.500 F800.000
G1 X12.835 Y0.000 Z4.500 F800.000
G2 X11.250 Y-1.585 Z4.500 I-1.585 J0.000 K0.000 F800.000
G1 X0.000 Y-1.585 Z4.500 F800.000
G2 X-1.585 Y-0.000 Z4.500 I0.000 J1.585 K0.000 F800.000
G1 X-1.585 Y129.500 Z4.500 F800.000
G2 X0.000 Y131.085 Z4.500 I1.585 J-0.000 K0.000 F800.000
G1 X34.500 Y131.085 Z4.500 F800.000
G2 X35.621 Y130.621 Z4.500 I-0.000 J-1.585 K0.000 F800.000
G1 X35.621 Y130.621 Z3.000 F800.000
G2 X36.085 Y129.500 Z3.000 I-1.121 J-1.121 K0.000 F800.000
G1 X36.085 Y0.000 Z3.000 F800.000
G2 X34.500 Y-1.585 Z3.000 I-1.585 J0.000 K0.000 F800.000
G1 X23.250 Y-1.585 Z3.000 F800.000
G2 X21.665 Y-0.000 Z3.000 I0.000 J1.585 K0.000 F800.000
G1 X21.665 Y116.915 Z3.000 F800.000
G1 X12.835 Y116.915 Z3.000 F800.000
G1 X12.835 Y0.000 Z3.000 F800.000
G2 X11.250 Y-1.585 Z3.000 I-1.585 J0.000 K0.000 F800.000
G1 X0.000 Y-1.585 Z3.000 F800.000
G2 X-1.585 Y-0.000 Z3.000 I0.000 J1.585 K0.000 F800.000
G1 X-1.585 Y129.500 Z3.000 F800.000
G2 X0.000 Y131.085 Z3.000 I1.585 J-0.000 K0.000 F800.000
G1 X34.500 Y131.085 Z3.000 F800.000
G2 X35.621 Y130.621 Z3.000 I-0.000 J-1.585 K0.000 F800.000
G1 X35.621 Y130.621 Z1.500 F800.000
G2 X36.085 Y129.500 Z1.500 I-1.121 J-1.121 K0.000 F800.000
G1 X36.085 Y71.120 Z1.500 F800.000
G1 X36.085 Y69.620 Z3.000 F800.000
G1 X36.085 Y59.880 Z3.000 F800.000
G1 X36.085 Y58.380 Z1.500 F800.000
G1 X36.085 Y0.000 Z1.500 F800.000
G2 X34.500 Y-1.585 Z1.500 I-1.585 J0.000 K0.000 F800.000
G1 X23.250 Y-1.585 Z1.500 F800.000
G2 X21.665 Y-0.000 Z1.500 I0.000 J1.585 K0.000 F800.000
G1 X21.665 Y116.915 Z1.500 F800.000
G1 X12.835 Y116.915 Z1.500 F800.000
G1 X12.835 Y64.828 Z1.500 F800.000
G1 X12.835 Y63.327 Z3.000 F800.000
G1 X12.835 Y53.587 Z3.000 F800.000
G1 X12.835 Y52.087 Z1.500 F800.000
G1 X12.835 Y0.000 Z1.500 F800.000
G2 X11.250 Y-1.585 Z1.500 I-1.585 J0.000 K0.000 F800.000
G1 X0.000 Y-1.585 Z1.500 F800.000
G2 X-1.585 Y-0.000 Z1.500 I0.000 J1.585 K0.000 F800.000
G1 X-1.585 Y129.500 Z1.500 F800.000
G2 X0.000 Y131.085 Z1.500 I1.585 J-0.000 K0.000 F800.000
G1 X34.500 Y131.085 Z1.500 F800.000
G2 X35.621 Y130.621 Z1.500 I-0.000 J-1.585 K0.000 F800.000
G1 X35.621 Y130.621 Z0.000 F800.000
G2 X36.085 Y129.500 Z0.000 I-1.121 J-1.121 K0.000 F800.000
G1 X36.085 Y72.620 Z0.000 F800.000
G1 X36.085 Y69.620 Z3.000 F800.000
G1 X36.085 Y59.880 Z3.000 F800.000
G1 X36.085 Y56.880 Z0.000 F800.000
G1 X36.085 Y0.000 Z0.000 F800.000
G2 X34.500 Y-1.585 Z0.000 I-1.585 J0.000 K0.000 F800.000
G1 X23.250 Y-1.585 Z0.000 F800.000
G2 X21.665 Y-0.000 Z0.000 I0.000 J1.585 K0.000 F800.000
G1 X21.665 Y116.915 Z0.000 F800.000
G1 X12.835 Y116.915 Z0.000 F800.000
G1 X12.835 Y66.328 Z0.000 F800.000
G1 X12.835 Y63.327 Z3.000 F800.000
G1 X12.835 Y53.587 Z3.000 F800.000
G1 X12.835 Y50.587 Z0.000 F800.000
G1 X12.835 Y0.000 Z0.000 F800.000
G2 X11.250 Y-1.585 Z0.000 I-1.585 J0.000 K0.000 F800.000
G1 X0.000 Y-1.585 Z0.000 F800.000
G2 X-1.585 Y-0.000 Z0.000 I0.000 J1.585 K0.000 F800.000
G1 X-1.585 Y129.500 Z0.000 F800.000
G2 X0.000 Y131.085 Z0.000 I1.585 J-0.000 K0.000 F800.000
G1 X34.500 Y131.085 Z0.000 F800.000
G2 X35.621 Y130.621 Z0.000 I-0.000 J-1.585 K0.000 F800.000
G0 X35.621 Y130.621 Z11.000
(Finish operation: Cut_out)
(Begin postamble)
M5
G17 G90
M2
