(Exported by FreeCAD)
(Post Processor: grbl_post)
(Output Time:2024-12-12 14:34:25.959358)
(Begin preamble)
G17 G90
G21
(Begin operation: Fixture)
(Path: Fixture)
G54
(Finish operation: Fixture)
(Begin operation: endmill_compression_635_spe001)
(Path: endmill_compression_635_spe001)
(endmill_compression_635_spe001)
(Begin toolchange)
( M6 T2 )
M3 S18000
(Finish operation: endmill_compression_635_spe001)
(Begin operation: Pocket_Shape)
(Path: Pocket_Shape)
(Pocket_Shape)
G0 Z23.000
G0 X124.825 Y119.918
G0 Z21.000
G1 X124.825 Y119.918 Z11.650 F800.000
G1 X124.825 Y126.825 Z11.650 F800.000
G1 X124.175 Y126.825 Z11.650 F800.000
G1 X124.175 Y119.268 Z11.650 F800.000
G1 X124.825 Y119.918 Z11.650 F800.000
G1 X124.825 Y110.938 Z11.650 F800.000
G1 X124.175 Y110.288 Z11.650 F800.000
G1 X124.175 Y101.308 Z11.650 F800.000
G1 X124.825 Y101.958 Z11.650 F800.000
G1 X124.825 Y92.978 Z11.650 F800.000
G1 X124.175 Y92.328 Z11.650 F800.000
G1 X124.175 Y83.347 Z11.650 F800.000
G1 X124.825 Y83.997 Z11.650 F800.000
G1 X124.825 Y75.017 Z11.650 F800.000
G1 X124.175 Y74.367 Z11.650 F800.000
G1 X124.175 Y65.387 Z11.650 F800.000
G1 X124.825 Y66.037 Z11.650 F800.000
G1 X124.825 Y57.057 Z11.650 F800.000
G1 X124.175 Y56.407 Z11.650 F800.000
G1 X124.175 Y47.426 Z11.650 F800.000
G1 X124.825 Y48.076 Z11.650 F800.000
G1 X124.825 Y39.096 Z11.650 F800.000
G1 X124.175 Y38.446 Z11.650 F800.000
G1 X124.175 Y29.466 Z11.650 F800.000
G1 X124.825 Y30.116 Z11.650 F800.000
G1 X124.825 Y21.136 Z11.650 F800.000
G1 X124.175 Y20.486 Z11.650 F800.000
G1 X124.175 Y11.505 Z11.650 F800.000
G1 X124.825 Y12.155 Z11.650 F800.000
G1 X124.825 Y3.175 Z11.650 F800.000
G1 X124.825 Y3.175 Z10.000 F800.000
G1 X124.825 Y12.155 Z10.000 F800.000
G1 X124.175 Y11.505 Z10.000 F800.000
G1 X124.175 Y20.486 Z10.000 F800.000
G1 X124.825 Y21.136 Z10.000 F800.000
G1 X124.825 Y30.116 Z10.000 F800.000
G1 X124.175 Y29.466 Z10.000 F800.000
G1 X124.175 Y38.446 Z10.000 F800.000
G1 X124.825 Y39.096 Z10.000 F800.000
G1 X124.825 Y48.076 Z10.000 F800.000
G1 X124.175 Y47.426 Z10.000 F800.000
G1 X124.175 Y56.407 Z10.000 F800.000
G1 X124.825 Y57.057 Z10.000 F800.000
G1 X124.825 Y66.037 Z10.000 F800.000
G1 X124.175 Y65.387 Z10.000 F800.000
G1 X124.175 Y74.367 Z10.000 F800.000
G1 X124.825 Y75.017 Z10.000 F800.000
G1 X124.825 Y83.997 Z10.000 F800.000
G1 X124.175 Y83.347 Z10.000 F800.000
G1 X124.175 Y92.328 Z10.000 F800.000
G1 X124.825 Y92.978 Z10.000 F800.000
G1 X124.825 Y101.958 Z10.000 F800.000
G1 X124.175 Y101.308 Z10.000 F800.000
G1 X124.175 Y110.288 Z10.000 F800.000
G1 X124.825 Y110.938 Z10.000 F800.000
G1 X124.825 Y119.918 Z10.000 F800.000
G1 X124.175 Y119.268 Z10.000 F800.000
G1 X124.175 Y126.825 Z10.000 F800.000
G1 X124.825 Y126.825 Z10.000 F800.000
G1 X124.825 Y119.918 Z10.000 F800.000
G0 Z23.000
G0 Z23.000
G0 X124.825 Y119.918
G0 X272.825
G0 X272.825 Z21.000
G1 X272.825 Y119.918 Z11.650 F800.000
G1 X272.825 Y126.825 Z11.650 F800.000
G1 X272.175 Y126.825 Z11.650 F800.000
G1 X272.175 Y119.268 Z11.650 F800.000
G1 X272.825 Y119.918 Z11.650 F800.000
G1 X272.825 Y110.938 Z11.650 F800.000
G1 X272.175 Y110.288 Z11.650 F800.000
G1 X272.175 Y101.308 Z11.650 F800.000
G1 X272.825 Y101.958 Z11.650 F800.000
G1 X272.825 Y92.978 Z11.650 F800.000
G1 X272.175 Y92.328 Z11.650 F800.000
G1 X272.175 Y83.347 Z11.650 F800.000
G1 X272.825 Y83.997 Z11.650 F800.000
G1 X272.825 Y75.017 Z11.650 F800.000
G1 X272.175 Y74.367 Z11.650 F800.000
G1 X272.175 Y65.387 Z11.650 F800.000
G1 X272.825 Y66.037 Z11.650 F800.000
G1 X272.825 Y57.057 Z11.650 F800.000
G1 X272.175 Y56.407 Z11.650 F800.000
G1 X272.175 Y47.426 Z11.650 F800.000
G1 X272.825 Y48.076 Z11.650 F800.000
G1 X272.825 Y39.096 Z11.650 F800.000
G1 X272.175 Y38.446 Z11.650 F800.000
G1 X272.175 Y29.466 Z11.650 F800.000
G1 X272.825 Y30.116 Z11.650 F800.000
G1 X272.825 Y21.136 Z11.650 F800.000
G1 X272.175 Y20.486 Z11.650 F800.000
G1 X272.175 Y11.505 Z11.650 F800.000
G1 X272.825 Y12.155 Z11.650 F800.000
G1 X272.825 Y3.175 Z11.650 F800.000
G1 X272.825 Y3.175 Z10.000 F800.000
G1 X272.825 Y12.155 Z10.000 F800.000
G1 X272.175 Y11.505 Z10.000 F800.000
G1 X272.175 Y20.486 Z10.000 F800.000
G1 X272.825 Y21.136 Z10.000 F800.000
G1 X272.825 Y30.116 Z10.000 F800.000
G1 X272.175 Y29.466 Z10.000 F800.000
G1 X272.175 Y38.446 Z10.000 F800.000
G1 X272.825 Y39.096 Z10.000 F800.000
G1 X272.825 Y48.076 Z10.000 F800.000
G1 X272.175 Y47.426 Z10.000 F800.000
G1 X272.175 Y56.407 Z10.000 F800.000
G1 X272.825 Y57.057 Z10.000 F800.000
G1 X272.825 Y66.037 Z10.000 F800.000
G1 X272.175 Y65.387 Z10.000 F800.000
G1 X272.175 Y74.367 Z10.000 F800.000
G1 X272.825 Y75.017 Z10.000 F800.000
G1 X272.825 Y83.997 Z10.000 F800.000
G1 X272.175 Y83.347 Z10.000 F800.000
G1 X272.175 Y92.328 Z10.000 F800.000
G1 X272.825 Y92.978 Z10.000 F800.000
G1 X272.825 Y101.958 Z10.000 F800.000
G1 X272.175 Y101.308 Z10.000 F800.000
G1 X272.175 Y110.288 Z10.000 F800.000
G1 X272.825 Y110.938 Z10.000 F800.000
G1 X272.825 Y119.918 Z10.000 F800.000
G1 X272.175 Y119.268 Z10.000 F800.000
G1 X272.175 Y126.825 Z10.000 F800.000
G1 X272.825 Y126.825 Z10.000 F800.000
G1 X272.825 Y119.918 Z10.000 F800.000
G0 Z23.000
G0 Z23.000
G0 X272.825 Y119.918
G0 X424.825
G0 X424.825 Z21.000
G1 X424.825 Y119.918 Z11.650 F800.000
G1 X424.825 Y126.825 Z11.650 F800.000
G1 X424.175 Y126.825 Z11.650 F800.000
G1 X424.175 Y119.268 Z11.650 F800.000
G1 X424.825 Y119.918 Z11.650 F800.000
G1 X424.825 Y110.938 Z11.650 F800.000
G1 X424.175 Y110.288 Z11.650 F800.000
G1 X424.175 Y101.308 Z11.650 F800.000
G1 X424.825 Y101.958 Z11.650 F800.000
G1 X424.825 Y92.978 Z11.650 F800.000
G1 X424.175 Y92.328 Z11.650 F800.000
G1 X424.175 Y83.347 Z11.650 F800.000
G1 X424.825 Y83.997 Z11.650 F800.000
G1 X424.825 Y75.017 Z11.650 F800.000
G1 X424.175 Y74.367 Z11.650 F800.000
G1 X424.175 Y65.387 Z11.650 F800.000
G1 X424.825 Y66.037 Z11.650 F800.000
G1 X424.825 Y57.057 Z11.650 F800.000
G1 X424.175 Y56.407 Z11.650 F800.000
G1 X424.175 Y47.426 Z11.650 F800.000
G1 X424.825 Y48.076 Z11.650 F800.000
G1 X424.825 Y39.096 Z11.650 F800.000
G1 X424.175 Y38.446 Z11.650 F800.000
G1 X424.175 Y29.466 Z11.650 F800.000
G1 X424.825 Y30.116 Z11.650 F800.000
G1 X424.825 Y21.136 Z11.650 F800.000
G1 X424.175 Y20.486 Z11.650 F800.000
G1 X424.175 Y11.505 Z11.650 F800.000
G1 X424.825 Y12.155 Z11.650 F800.000
G1 X424.825 Y3.175 Z11.650 F800.000
G1 X424.825 Y3.175 Z10.000 F800.000
G1 X424.825 Y12.155 Z10.000 F800.000
G1 X424.175 Y11.505 Z10.000 F800.000
G1 X424.175 Y20.486 Z10.000 F800.000
G1 X424.825 Y21.136 Z10.000 F800.000
G1 X424.825 Y30.116 Z10.000 F800.000
G1 X424.175 Y29.466 Z10.000 F800.000
G1 X424.175 Y38.446 Z10.000 F800.000
G1 X424.825 Y39.096 Z10.000 F800.000
G1 X424.825 Y48.076 Z10.000 F800.000
G1 X424.175 Y47.426 Z10.000 F800.000
G1 X424.175 Y56.407 Z10.000 F800.000
G1 X424.825 Y57.057 Z10.000 F800.000
G1 X424.825 Y66.037 Z10.000 F800.000
G1 X424.175 Y65.387 Z10.000 F800.000
G1 X424.175 Y74.367 Z10.000 F800.000
G1 X424.825 Y75.017 Z10.000 F800.000
G1 X424.825 Y83.997 Z10.000 F800.000
G1 X424.175 Y83.347 Z10.000 F800.000
G1 X424.175 Y92.328 Z10.000 F800.000
G1 X424.825 Y92.978 Z10.000 F800.000
G1 X424.825 Y101.958 Z10.000 F800.000
G1 X424.175 Y101.308 Z10.000 F800.000
G1 X424.175 Y110.288 Z10.000 F800.000
G1 X424.825 Y110.938 Z10.000 F800.000
G1 X424.825 Y119.918 Z10.000 F800.000
G1 X424.175 Y119.268 Z10.000 F800.000
G1 X424.175 Y126.825 Z10.000 F800.000
G1 X424.825 Y126.825 Z10.000 F800.000
G1 X424.825 Y119.918 Z10.000 F800.000
G0 Z23.000
G0 Z23.000
(Finish operation: Pocket_Shape)
(Begin postamble)
M5
G17 G90
M2
