(Exported by FreeCAD)
(Post Processor: grbl_post)
(Output Time:2024-12-12 18:56:53.535447)
(Begin preamble)
G17 G90
G21
(Begin operation: Fixture)
(Path: Fixture)
G54
(Finish operation: Fixture)
(Begin operation: endmill_compression_3175_spe001)
(Path: endmill_compression_3175_spe001)
(endmill_compression_3175_spe001)
(Begin toolchange)
( M6 T2 )
M3 S18000
(Finish operation: endmill_compression_3175_spe001)
(Begin operation: Pocket_Shape001)
(Path: Pocket_Shape001)
(Pocket_Shape001)
G0 Z23.000
G0 X101.736 Y128.415
G0 Z21.000
G1 X101.736 Y128.415 Z15.500 F600.000
G1 X99.585 Y128.415 Z15.500 F600.000
G1 X99.585 Y126.264 Z15.500 F600.000
G1 X101.736 Y128.415 Z15.500 F600.000
G1 X104.915 Y128.415 Z15.500 F600.000
G1 X104.915 Y127.111 Z15.500 F600.000
G1 X99.585 Y121.781 Z15.500 F600.000
G1 X99.585 Y117.298 Z15.500 F600.000
G1 X104.915 Y122.628 Z15.500 F600.000
G1 X104.915 Y118.144 Z15.500 F600.000
G1 X99.585 Y112.814 Z15.500 F600.000
G1 X99.585 Y108.331 Z15.500 F600.000
G1 X104.915 Y113.661 Z15.500 F600.000
G1 X104.915 Y109.178 Z15.500 F600.000
G1 X99.585 Y103.848 Z15.500 F600.000
G1 X99.585 Y99.365 Z15.500 F600.000
G1 X104.915 Y104.695 Z15.500 F600.000
G1 X104.915 Y100.212 Z15.500 F600.000
G1 X99.585 Y94.882 Z15.500 F600.000
G1 X99.585 Y90.399 Z15.500 F600.000
G1 X104.915 Y95.729 Z15.500 F600.000
G1 X104.915 Y91.246 Z15.500 F600.000
G1 X99.585 Y85.916 Z15.500 F600.000
G1 X99.585 Y81.433 Z15.500 F600.000
G1 X104.915 Y86.763 Z15.500 F600.000
G1 X104.915 Y82.280 Z15.500 F600.000
G1 X99.585 Y76.950 Z15.500 F600.000
G1 X99.585 Y72.467 Z15.500 F600.000
G1 X104.915 Y77.797 Z15.500 F600.000
G1 X104.915 Y73.314 Z15.500 F600.000
G1 X99.585 Y67.984 Z15.500 F600.000
G1 X99.585 Y63.501 Z15.500 F600.000
G1 X104.915 Y68.831 Z15.500 F600.000
G1 X104.915 Y64.348 Z15.500 F600.000
G1 X99.585 Y59.018 Z15.500 F600.000
G1 X99.585 Y54.535 Z15.500 F600.000
G1 X104.915 Y59.865 Z15.500 F600.000
G1 X104.915 Y55.382 Z15.500 F600.000
G1 X99.585 Y50.052 Z15.500 F600.000
G1 X99.585 Y45.569 Z15.500 F600.000
G1 X104.915 Y50.899 Z15.500 F600.000
G1 X104.915 Y46.416 Z15.500 F600.000
G1 X99.585 Y41.086 Z15.500 F600.000
G1 X99.585 Y36.603 Z15.500 F600.000
G1 X104.915 Y41.933 Z15.500 F600.000
G1 X104.915 Y37.449 Z15.500 F600.000
G1 X99.585 Y32.119 Z15.500 F600.000
G1 X99.585 Y27.636 Z15.500 F600.000
G1 X104.915 Y32.966 Z15.500 F600.000
G1 X104.915 Y28.483 Z15.500 F600.000
G1 X99.585 Y23.153 Z15.500 F600.000
G1 X99.585 Y18.670 Z15.500 F600.000
G1 X104.915 Y24.000 Z15.500 F600.000
G1 X104.915 Y19.517 Z15.500 F600.000
G1 X99.585 Y14.187 Z15.500 F600.000
G1 X99.585 Y9.704 Z15.500 F600.000
G1 X104.915 Y15.034 Z15.500 F600.000
G1 X104.915 Y10.551 Z15.500 F600.000
G1 X99.585 Y5.221 Z15.500 F600.000
G1 X99.585 Y1.585 Z15.500 F600.000
G1 X100.432 Y1.585 Z15.500 F600.000
G1 X104.915 Y6.068 Z15.500 F600.000
G1 X104.915 Y1.585 Z15.500 F600.000
G1 X104.915 Y1.585 Z13.000 F600.000
G1 X104.915 Y6.068 Z13.000 F600.000
G1 X100.432 Y1.585 Z13.000 F600.000
G1 X99.585 Y1.585 Z13.000 F600.000
G1 X99.585 Y5.221 Z13.000 F600.000
G1 X104.915 Y10.551 Z13.000 F600.000
G1 X104.915 Y15.034 Z13.000 F600.000
G1 X99.585 Y9.704 Z13.000 F600.000
G1 X99.585 Y14.187 Z13.000 F600.000
G1 X104.915 Y19.517 Z13.000 F600.000
G1 X104.915 Y24.000 Z13.000 F600.000
G1 X99.585 Y18.670 Z13.000 F600.000
G1 X99.585 Y23.153 Z13.000 F600.000
G1 X104.915 Y28.483 Z13.000 F600.000
G1 X104.915 Y32.966 Z13.000 F600.000
G1 X99.585 Y27.636 Z13.000 F600.000
G1 X99.585 Y32.119 Z13.000 F600.000
G1 X104.915 Y37.449 Z13.000 F600.000
G1 X104.915 Y41.933 Z13.000 F600.000
G1 X99.585 Y36.603 Z13.000 F600.000
G1 X99.585 Y41.086 Z13.000 F600.000
G1 X104.915 Y46.416 Z13.000 F600.000
G1 X104.915 Y50.899 Z13.000 F600.000
G1 X99.585 Y45.569 Z13.000 F600.000
G1 X99.585 Y50.052 Z13.000 F600.000
G1 X104.915 Y55.382 Z13.000 F600.000
G1 X104.915 Y59.865 Z13.000 F600.000
G1 X99.585 Y54.535 Z13.000 F600.000
G1 X99.585 Y59.018 Z13.000 F600.000
G1 X104.915 Y64.348 Z13.000 F600.000
G1 X104.915 Y68.831 Z13.000 F600.000
G1 X99.585 Y63.501 Z13.000 F600.000
G1 X99.585 Y67.984 Z13.000 F600.000
G1 X104.915 Y73.314 Z13.000 F600.000
G1 X104.915 Y77.797 Z13.000 F600.000
G1 X99.585 Y72.467 Z13.000 F600.000
G1 X99.585 Y76.950 Z13.000 F600.000
G1 X104.915 Y82.280 Z13.000 F600.000
G1 X104.915 Y86.763 Z13.000 F600.000
G1 X99.585 Y81.433 Z13.000 F600.000
G1 X99.585 Y85.916 Z13.000 F600.000
G1 X104.915 Y91.246 Z13.000 F600.000
G1 X104.915 Y95.729 Z13.000 F600.000
G1 X99.585 Y90.399 Z13.000 F600.000
G1 X99.585 Y94.882 Z13.000 F600.000
G1 X104.915 Y100.212 Z13.000 F600.000
G1 X104.915 Y104.695 Z13.000 F600.000
G1 X99.585 Y99.365 Z13.000 F600.000
G1 X99.585 Y103.848 Z13.000 F600.000
G1 X104.915 Y109.178 Z13.000 F600.000
G1 X104.915 Y113.661 Z13.000 F600.000
G1 X99.585 Y108.331 Z13.000 F600.000
G1 X99.585 Y112.814 Z13.000 F600.000
G1 X104.915 Y118.144 Z13.000 F600.000
G1 X104.915 Y122.628 Z13.000 F600.000
G1 X99.585 Y117.298 Z13.000 F600.000
G1 X99.585 Y121.781 Z13.000 F600.000
G1 X104.915 Y127.111 Z13.000 F600.000
G1 X104.915 Y128.415 Z13.000 F600.000
G1 X101.736 Y128.415 Z13.000 F600.000
G1 X99.585 Y126.264 Z13.000 F600.000
G1 X99.585 Y128.415 Z13.000 F600.000
G1 X101.736 Y128.415 Z13.000 F600.000
G1 X101.736 Y128.415 Z10.500 F600.000
G1 X99.585 Y128.415 Z10.500 F600.000
G1 X99.585 Y126.264 Z10.500 F600.000
G1 X101.736 Y128.415 Z10.500 F600.000
G1 X104.915 Y128.415 Z10.500 F600.000
G1 X104.915 Y127.111 Z10.500 F600.000
G1 X99.585 Y121.781 Z10.500 F600.000
G1 X99.585 Y117.298 Z10.500 F600.000
G1 X104.915 Y122.628 Z10.500 F600.000
G1 X104.915 Y118.144 Z10.500 F600.000
G1 X99.585 Y112.814 Z10.500 F600.000
G1 X99.585 Y108.331 Z10.500 F600.000
G1 X104.915 Y113.661 Z10.500 F600.000
G1 X104.915 Y109.178 Z10.500 F600.000
G1 X99.585 Y103.848 Z10.500 F600.000
G1 X99.585 Y99.365 Z10.500 F600.000
G1 X104.915 Y104.695 Z10.500 F600.000
G1 X104.915 Y100.212 Z10.500 F600.000
G1 X99.585 Y94.882 Z10.500 F600.000
G1 X99.585 Y90.399 Z10.500 F600.000
G1 X104.915 Y95.729 Z10.500 F600.000
G1 X104.915 Y91.246 Z10.500 F600.000
G1 X99.585 Y85.916 Z10.500 F600.000
G1 X99.585 Y81.433 Z10.500 F600.000
G1 X104.915 Y86.763 Z10.500 F600.000
G1 X104.915 Y82.280 Z10.500 F600.000
G1 X99.585 Y76.950 Z10.500 F600.000
G1 X99.585 Y72.467 Z10.500 F600.000
G1 X104.915 Y77.797 Z10.500 F600.000
G1 X104.915 Y73.314 Z10.500 F600.000
G1 X99.585 Y67.984 Z10.500 F600.000
G1 X99.585 Y63.501 Z10.500 F600.000
G1 X104.915 Y68.831 Z10.500 F600.000
G1 X104.915 Y64.348 Z10.500 F600.000
G1 X99.585 Y59.018 Z10.500 F600.000
G1 X99.585 Y54.535 Z10.500 F600.000
G1 X104.915 Y59.865 Z10.500 F600.000
G1 X104.915 Y55.382 Z10.500 F600.000
G1 X99.585 Y50.052 Z10.500 F600.000
G1 X99.585 Y45.569 Z10.500 F600.000
G1 X104.915 Y50.899 Z10.500 F600.000
G1 X104.915 Y46.416 Z10.500 F600.000
G1 X99.585 Y41.086 Z10.500 F600.000
G1 X99.585 Y36.603 Z10.500 F600.000
G1 X104.915 Y41.933 Z10.500 F600.000
G1 X104.915 Y37.449 Z10.500 F600.000
G1 X99.585 Y32.119 Z10.500 F600.000
G1 X99.585 Y27.636 Z10.500 F600.000
G1 X104.915 Y32.966 Z10.500 F600.000
G1 X104.915 Y28.483 Z10.500 F600.000
G1 X99.585 Y23.153 Z10.500 F600.000
G1 X99.585 Y18.670 Z10.500 F600.000
G1 X104.915 Y24.000 Z10.500 F600.000
G1 X104.915 Y19.517 Z10.500 F600.000
G1 X99.585 Y14.187 Z10.500 F600.000
G1 X99.585 Y9.704 Z10.500 F600.000
G1 X104.915 Y15.034 Z10.500 F600.000
G1 X104.915 Y10.551 Z10.500 F600.000
G1 X99.585 Y5.221 Z10.500 F600.000
G1 X99.585 Y1.585 Z10.500 F600.000
G1 X100.432 Y1.585 Z10.500 F600.000
G1 X104.915 Y6.068 Z10.500 F600.000
G1 X104.915 Y1.585 Z10.500 F600.000
G1 X104.915 Y1.585 Z10.000 F600.000
G1 X104.915 Y6.068 Z10.000 F600.000
G1 X100.432 Y1.585 Z10.000 F600.000
G1 X99.585 Y1.585 Z10.000 F600.000
G1 X99.585 Y5.221 Z10.000 F600.000
G1 X104.915 Y10.551 Z10.000 F600.000
G1 X104.915 Y15.034 Z10.000 F600.000
G1 X99.585 Y9.704 Z10.000 F600.000
G1 X99.585 Y14.187 Z10.000 F600.000
G1 X104.915 Y19.517 Z10.000 F600.000
G1 X104.915 Y24.000 Z10.000 F600.000
G1 X99.585 Y18.670 Z10.000 F600.000
G1 X99.585 Y23.153 Z10.000 F600.000
G1 X104.915 Y28.483 Z10.000 F600.000
G1 X104.915 Y32.966 Z10.000 F600.000
G1 X99.585 Y27.636 Z10.000 F600.000
G1 X99.585 Y32.119 Z10.000 F600.000
G1 X104.915 Y37.449 Z10.000 F600.000
G1 X104.915 Y41.933 Z10.000 F600.000
G1 X99.585 Y36.603 Z10.000 F600.000
G1 X99.585 Y41.086 Z10.000 F600.000
G1 X104.915 Y46.416 Z10.000 F600.000
G1 X104.915 Y50.899 Z10.000 F600.000
G1 X99.585 Y45.569 Z10.000 F600.000
G1 X99.585 Y50.052 Z10.000 F600.000
G1 X104.915 Y55.382 Z10.000 F600.000
G1 X104.915 Y59.865 Z10.000 F600.000
G1 X99.585 Y54.535 Z10.000 F600.000
G1 X99.585 Y59.018 Z10.000 F600.000
G1 X104.915 Y64.348 Z10.000 F600.000
G1 X104.915 Y68.831 Z10.000 F600.000
G1 X99.585 Y63.501 Z10.000 F600.000
G1 X99.585 Y67.984 Z10.000 F600.000
G1 X104.915 Y73.314 Z10.000 F600.000
G1 X104.915 Y77.797 Z10.000 F600.000
G1 X99.585 Y72.467 Z10.000 F600.000
G1 X99.585 Y76.950 Z10.000 F600.000
G1 X104.915 Y82.280 Z10.000 F600.000
G1 X104.915 Y86.763 Z10.000 F600.000
G1 X99.585 Y81.433 Z10.000 F600.000
G1 X99.585 Y85.916 Z10.000 F600.000
G1 X104.915 Y91.246 Z10.000 F600.000
G1 X104.915 Y95.729 Z10.000 F600.000
G1 X99.585 Y90.399 Z10.000 F600.000
G1 X99.585 Y94.882 Z10.000 F600.000
G1 X104.915 Y100.212 Z10.000 F600.000
G1 X104.915 Y104.695 Z10.000 F600.000
G1 X99.585 Y99.365 Z10.000 F600.000
G1 X99.585 Y103.848 Z10.000 F600.000
G1 X104.915 Y109.178 Z10.000 F600.000
G1 X104.915 Y113.661 Z10.000 F600.000
G1 X99.585 Y108.331 Z10.000 F600.000
G1 X99.585 Y112.814 Z10.000 F600.000
G1 X104.915 Y118.144 Z10.000 F600.000
G1 X104.915 Y122.628 Z10.000 F600.000
G1 X99.585 Y117.298 Z10.000 F600.000
G1 X99.585 Y121.781 Z10.000 F600.000
G1 X104.915 Y127.111 Z10.000 F600.000
G1 X104.915 Y128.415 Z10.000 F600.000
G1 X101.736 Y128.415 Z10.000 F600.000
G1 X99.585 Y126.264 Z10.000 F600.000
G1 X99.585 Y128.415 Z10.000 F600.000
G1 X101.736 Y128.415 Z10.000 F600.000
G0 Z23.000
G0 Z23.000
G0 X101.736 Y128.415
G0 X261.736 Y128.415
G0 X261.736 Y128.415 Z21.000
G1 X261.736 Y128.415 Z15.500 F600.000
G1 X259.585 Y128.415 Z15.500 F600.000
G1 X259.585 Y126.264 Z15.500 F600.000
G1 X261.736 Y128.415 Z15.500 F600.000
G1 X264.915 Y128.415 Z15.500 F600.000
G1 X264.915 Y127.111 Z15.500 F600.000
G1 X259.585 Y121.781 Z15.500 F600.000
G1 X259.585 Y117.298 Z15.500 F600.000
G1 X264.915 Y122.628 Z15.500 F600.000
G1 X264.915 Y118.144 Z15.500 F600.000
G1 X259.585 Y112.814 Z15.500 F600.000
G1 X259.585 Y108.331 Z15.500 F600.000
G1 X264.915 Y113.661 Z15.500 F600.000
G1 X264.915 Y109.178 Z15.500 F600.000
G1 X259.585 Y103.848 Z15.500 F600.000
G1 X259.585 Y99.365 Z15.500 F600.000
G1 X264.915 Y104.695 Z15.500 F600.000
G1 X264.915 Y100.212 Z15.500 F600.000
G1 X259.585 Y94.882 Z15.500 F600.000
G1 X259.585 Y90.399 Z15.500 F600.000
G1 X264.915 Y95.729 Z15.500 F600.000
G1 X264.915 Y91.246 Z15.500 F600.000
G1 X259.585 Y85.916 Z15.500 F600.000
G1 X259.585 Y81.433 Z15.500 F600.000
G1 X264.915 Y86.763 Z15.500 F600.000
G1 X264.915 Y82.280 Z15.500 F600.000
G1 X259.585 Y76.950 Z15.500 F600.000
G1 X259.585 Y72.467 Z15.500 F600.000
G1 X264.915 Y77.797 Z15.500 F600.000
G1 X264.915 Y73.314 Z15.500 F600.000
G1 X259.585 Y67.984 Z15.500 F600.000
G1 X259.585 Y63.501 Z15.500 F600.000
G1 X264.915 Y68.831 Z15.500 F600.000
G1 X264.915 Y64.348 Z15.500 F600.000
G1 X259.585 Y59.018 Z15.500 F600.000
G1 X259.585 Y54.535 Z15.500 F600.000
G1 X264.915 Y59.865 Z15.500 F600.000
G1 X264.915 Y55.382 Z15.500 F600.000
G1 X259.585 Y50.052 Z15.500 F600.000
G1 X259.585 Y45.569 Z15.500 F600.000
G1 X264.915 Y50.899 Z15.500 F600.000
G1 X264.915 Y46.416 Z15.500 F600.000
G1 X259.585 Y41.086 Z15.500 F600.000
G1 X259.585 Y36.603 Z15.500 F600.000
G1 X264.915 Y41.933 Z15.500 F600.000
G1 X264.915 Y37.449 Z15.500 F600.000
G1 X259.585 Y32.119 Z15.500 F600.000
G1 X259.585 Y27.636 Z15.500 F600.000
G1 X264.915 Y32.966 Z15.500 F600.000
G1 X264.915 Y28.483 Z15.500 F600.000
G1 X259.585 Y23.153 Z15.500 F600.000
G1 X259.585 Y18.670 Z15.500 F600.000
G1 X264.915 Y24.000 Z15.500 F600.000
G1 X264.915 Y19.517 Z15.500 F600.000
G1 X259.585 Y14.187 Z15.500 F600.000
G1 X259.585 Y9.704 Z15.500 F600.000
G1 X264.915 Y15.034 Z15.500 F600.000
G1 X264.915 Y10.551 Z15.500 F600.000
G1 X259.585 Y5.221 Z15.500 F600.000
G1 X259.585 Y1.585 Z15.500 F600.000
G1 X260.432 Y1.585 Z15.500 F600.000
G1 X264.915 Y6.068 Z15.500 F600.000
G1 X264.915 Y1.585 Z15.500 F600.000
G1 X264.915 Y1.585 Z13.000 F600.000
G1 X264.915 Y6.068 Z13.000 F600.000
G1 X260.432 Y1.585 Z13.000 F600.000
G1 X259.585 Y1.585 Z13.000 F600.000
G1 X259.585 Y5.221 Z13.000 F600.000
G1 X264.915 Y10.551 Z13.000 F600.000
G1 X264.915 Y15.034 Z13.000 F600.000
G1 X259.585 Y9.704 Z13.000 F600.000
G1 X259.585 Y14.187 Z13.000 F600.000
G1 X264.915 Y19.517 Z13.000 F600.000
G1 X264.915 Y24.000 Z13.000 F600.000
G1 X259.585 Y18.670 Z13.000 F600.000
G1 X259.585 Y23.153 Z13.000 F600.000
G1 X264.915 Y28.483 Z13.000 F600.000
G1 X264.915 Y32.966 Z13.000 F600.000
G1 X259.585 Y27.636 Z13.000 F600.000
G1 X259.585 Y32.119 Z13.000 F600.000
G1 X264.915 Y37.449 Z13.000 F600.000
G1 X264.915 Y41.933 Z13.000 F600.000
G1 X259.585 Y36.603 Z13.000 F600.000
G1 X259.585 Y41.086 Z13.000 F600.000
G1 X264.915 Y46.416 Z13.000 F600.000
G1 X264.915 Y50.899 Z13.000 F600.000
G1 X259.585 Y45.569 Z13.000 F600.000
G1 X259.585 Y50.052 Z13.000 F600.000
G1 X264.915 Y55.382 Z13.000 F600.000
G1 X264.915 Y59.865 Z13.000 F600.000
G1 X259.585 Y54.535 Z13.000 F600.000
G1 X259.585 Y59.018 Z13.000 F600.000
G1 X264.915 Y64.348 Z13.000 F600.000
G1 X264.915 Y68.831 Z13.000 F600.000
G1 X259.585 Y63.501 Z13.000 F600.000
G1 X259.585 Y67.984 Z13.000 F600.000
G1 X264.915 Y73.314 Z13.000 F600.000
G1 X264.915 Y77.797 Z13.000 F600.000
G1 X259.585 Y72.467 Z13.000 F600.000
G1 X259.585 Y76.950 Z13.000 F600.000
G1 X264.915 Y82.280 Z13.000 F600.000
G1 X264.915 Y86.763 Z13.000 F600.000
G1 X259.585 Y81.433 Z13.000 F600.000
G1 X259.585 Y85.916 Z13.000 F600.000
G1 X264.915 Y91.246 Z13.000 F600.000
G1 X264.915 Y95.729 Z13.000 F600.000
G1 X259.585 Y90.399 Z13.000 F600.000
G1 X259.585 Y94.882 Z13.000 F600.000
G1 X264.915 Y100.212 Z13.000 F600.000
G1 X264.915 Y104.695 Z13.000 F600.000
G1 X259.585 Y99.365 Z13.000 F600.000
G1 X259.585 Y103.848 Z13.000 F600.000
G1 X264.915 Y109.178 Z13.000 F600.000
G1 X264.915 Y113.661 Z13.000 F600.000
G1 X259.585 Y108.331 Z13.000 F600.000
G1 X259.585 Y112.814 Z13.000 F600.000
G1 X264.915 Y118.144 Z13.000 F600.000
G1 X264.915 Y122.628 Z13.000 F600.000
G1 X259.585 Y117.298 Z13.000 F600.000
G1 X259.585 Y121.781 Z13.000 F600.000
G1 X264.915 Y127.111 Z13.000 F600.000
G1 X264.915 Y128.415 Z13.000 F600.000
G1 X261.736 Y128.415 Z13.000 F600.000
G1 X259.585 Y126.264 Z13.000 F600.000
G1 X259.585 Y128.415 Z13.000 F600.000
G1 X261.736 Y128.415 Z13.000 F600.000
G1 X261.736 Y128.415 Z10.500 F600.000
G1 X259.585 Y128.415 Z10.500 F600.000
G1 X259.585 Y126.264 Z10.500 F600.000
G1 X261.736 Y128.415 Z10.500 F600.000
G1 X264.915 Y128.415 Z10.500 F600.000
G1 X264.915 Y127.111 Z10.500 F600.000
G1 X259.585 Y121.781 Z10.500 F600.000
G1 X259.585 Y117.298 Z10.500 F600.000
G1 X264.915 Y122.628 Z10.500 F600.000
G1 X264.915 Y118.144 Z10.500 F600.000
G1 X259.585 Y112.814 Z10.500 F600.000
G1 X259.585 Y108.331 Z10.500 F600.000
G1 X264.915 Y113.661 Z10.500 F600.000
G1 X264.915 Y109.178 Z10.500 F600.000
G1 X259.585 Y103.848 Z10.500 F600.000
G1 X259.585 Y99.365 Z10.500 F600.000
G1 X264.915 Y104.695 Z10.500 F600.000
G1 X264.915 Y100.212 Z10.500 F600.000
G1 X259.585 Y94.882 Z10.500 F600.000
G1 X259.585 Y90.399 Z10.500 F600.000
G1 X264.915 Y95.729 Z10.500 F600.000
G1 X264.915 Y91.246 Z10.500 F600.000
G1 X259.585 Y85.916 Z10.500 F600.000
G1 X259.585 Y81.433 Z10.500 F600.000
G1 X264.915 Y86.763 Z10.500 F600.000
G1 X264.915 Y82.280 Z10.500 F600.000
G1 X259.585 Y76.950 Z10.500 F600.000
G1 X259.585 Y72.467 Z10.500 F600.000
G1 X264.915 Y77.797 Z10.500 F600.000
G1 X264.915 Y73.314 Z10.500 F600.000
G1 X259.585 Y67.984 Z10.500 F600.000
G1 X259.585 Y63.501 Z10.500 F600.000
G1 X264.915 Y68.831 Z10.500 F600.000
G1 X264.915 Y64.348 Z10.500 F600.000
G1 X259.585 Y59.018 Z10.500 F600.000
G1 X259.585 Y54.535 Z10.500 F600.000
G1 X264.915 Y59.865 Z10.500 F600.000
G1 X264.915 Y55.382 Z10.500 F600.000
G1 X259.585 Y50.052 Z10.500 F600.000
G1 X259.585 Y45.569 Z10.500 F600.000
G1 X264.915 Y50.899 Z10.500 F600.000
G1 X264.915 Y46.416 Z10.500 F600.000
G1 X259.585 Y41.086 Z10.500 F600.000
G1 X259.585 Y36.603 Z10.500 F600.000
G1 X264.915 Y41.933 Z10.500 F600.000
G1 X264.915 Y37.449 Z10.500 F600.000
G1 X259.585 Y32.119 Z10.500 F600.000
G1 X259.585 Y27.636 Z10.500 F600.000
G1 X264.915 Y32.966 Z10.500 F600.000
G1 X264.915 Y28.483 Z10.500 F600.000
G1 X259.585 Y23.153 Z10.500 F600.000
G1 X259.585 Y18.670 Z10.500 F600.000
G1 X264.915 Y24.000 Z10.500 F600.000
G1 X264.915 Y19.517 Z10.500 F600.000
G1 X259.585 Y14.187 Z10.500 F600.000
G1 X259.585 Y9.704 Z10.500 F600.000
G1 X264.915 Y15.034 Z10.500 F600.000
G1 X264.915 Y10.551 Z10.500 F600.000
G1 X259.585 Y5.221 Z10.500 F600.000
G1 X259.585 Y1.585 Z10.500 F600.000
G1 X260.432 Y1.585 Z10.500 F600.000
G1 X264.915 Y6.068 Z10.500 F600.000
G1 X264.915 Y1.585 Z10.500 F600.000
G1 X264.915 Y1.585 Z10.000 F600.000
G1 X264.915 Y6.068 Z10.000 F600.000
G1 X260.432 Y1.585 Z10.000 F600.000
G1 X259.585 Y1.585 Z10.000 F600.000
G1 X259.585 Y5.221 Z10.000 F600.000
G1 X264.915 Y10.551 Z10.000 F600.000
G1 X264.915 Y15.034 Z10.000 F600.000
G1 X259.585 Y9.704 Z10.000 F600.000
G1 X259.585 Y14.187 Z10.000 F600.000
G1 X264.915 Y19.517 Z10.000 F600.000
G1 X264.915 Y24.000 Z10.000 F600.000
G1 X259.585 Y18.670 Z10.000 F600.000
G1 X259.585 Y23.153 Z10.000 F600.000
G1 X264.915 Y28.483 Z10.000 F600.000
G1 X264.915 Y32.966 Z10.000 F600.000
G1 X259.585 Y27.636 Z10.000 F600.000
G1 X259.585 Y32.119 Z10.000 F600.000
G1 X264.915 Y37.449 Z10.000 F600.000
G1 X264.915 Y41.933 Z10.000 F600.000
G1 X259.585 Y36.603 Z10.000 F600.000
G1 X259.585 Y41.086 Z10.000 F600.000
G1 X264.915 Y46.416 Z10.000 F600.000
G1 X264.915 Y50.899 Z10.000 F600.000
G1 X259.585 Y45.569 Z10.000 F600.000
G1 X259.585 Y50.052 Z10.000 F600.000
G1 X264.915 Y55.382 Z10.000 F600.000
G1 X264.915 Y59.865 Z10.000 F600.000
G1 X259.585 Y54.535 Z10.000 F600.000
G1 X259.585 Y59.018 Z10.000 F600.000
G1 X264.915 Y64.348 Z10.000 F600.000
G1 X264.915 Y68.831 Z10.000 F600.000
G1 X259.585 Y63.501 Z10.000 F600.000
G1 X259.585 Y67.984 Z10.000 F600.000
G1 X264.915 Y73.314 Z10.000 F600.000
G1 X264.915 Y77.797 Z10.000 F600.000
G1 X259.585 Y72.467 Z10.000 F600.000
G1 X259.585 Y76.950 Z10.000 F600.000
G1 X264.915 Y82.280 Z10.000 F600.000
G1 X264.915 Y86.763 Z10.000 F600.000
G1 X259.585 Y81.433 Z10.000 F600.000
G1 X259.585 Y85.916 Z10.000 F600.000
G1 X264.915 Y91.246 Z10.000 F600.000
G1 X264.915 Y95.729 Z10.000 F600.000
G1 X259.585 Y90.399 Z10.000 F600.000
G1 X259.585 Y94.882 Z10.000 F600.000
G1 X264.915 Y100.212 Z10.000 F600.000
G1 X264.915 Y104.695 Z10.000 F600.000
G1 X259.585 Y99.365 Z10.000 F600.000
G1 X259.585 Y103.848 Z10.000 F600.000
G1 X264.915 Y109.178 Z10.000 F600.000
G1 X264.915 Y113.661 Z10.000 F600.000
G1 X259.585 Y108.331 Z10.000 F600.000
G1 X259.585 Y112.814 Z10.000 F600.000
G1 X264.915 Y118.144 Z10.000 F600.000
G1 X264.915 Y122.628 Z10.000 F600.000
G1 X259.585 Y117.298 Z10.000 F600.000
G1 X259.585 Y121.781 Z10.000 F600.000
G1 X264.915 Y127.111 Z10.000 F600.000
G1 X264.915 Y128.415 Z10.000 F600.000
G1 X261.736 Y128.415 Z10.000 F600.000
G1 X259.585 Y126.264 Z10.000 F600.000
G1 X259.585 Y128.415 Z10.000 F600.000
G1 X261.736 Y128.415 Z10.000 F600.000
G0 Z23.000
G0 Z23.000
(Finish operation: Pocket_Shape001)
(Begin operation: Profile)
(Path: Profile)
(Profile)
(Compensated Tool Path. Diameter: 3.17)
G0 Z23.000
G0 X264.915 Y128.415
G0 Z21.000
G1 X264.915 Y128.415 Z14.830 F600.000
G1 X264.915 Y1.585 Z14.830 F600.000
G1 X259.585 Y1.585 Z14.830 F600.000
G1 X259.585 Y128.415 Z14.830 F600.000
G1 X264.915 Y128.415 Z14.830 F600.000
G0 Z23.000
G0 X104.915 Z23.000
G0 X104.915 Z21.000
G1 X104.915 Y128.415 Z14.830 F600.000
G1 X104.915 Y1.585 Z14.830 F600.000
G1 X99.585 Y1.585 Z14.830 F600.000
G1 X99.585 Y128.415 Z14.830 F600.000
G1 X104.915 Y128.415 Z14.830 F600.000
G1 X104.915 Y128.415 Z11.660 F600.000
G1 X104.915 Y1.585 Z11.660 F600.000
G1 X99.585 Y1.585 Z11.660 F600.000
G1 X99.585 Y128.415 Z11.660 F600.000
G1 X104.915 Y128.415 Z11.660 F600.000
G0 Z23.000
G0 X259.585 Z23.000
G0 X259.585 Z21.000
G1 X259.585 Y128.415 Z11.660 F600.000
G1 X264.915 Y128.415 Z11.660 F600.000
G1 X264.915 Y1.585 Z11.660 F600.000
G1 X259.585 Y1.585 Z11.660 F600.000
G1 X259.585 Y128.415 Z11.660 F600.000
G1 X259.585 Y128.415 Z10.000 F600.000
G1 X264.915 Y128.415 Z10.000 F600.000
G1 X264.915 Y1.585 Z10.000 F600.000
G1 X259.585 Y1.585 Z10.000 F600.000
G1 X259.585 Y128.415 Z10.000 F600.000
G0 Z23.000
G0 X104.915 Z23.000
G0 X104.915 Z21.000
G1 X104.915 Y128.415 Z10.000 F600.000
G1 X104.915 Y1.585 Z10.000 F600.000
G1 X99.585 Y1.585 Z10.000 F600.000
G1 X99.585 Y128.415 Z10.000 F600.000
G1 X104.915 Y128.415 Z10.000 F600.000
G0 Z23.000
G0 Z23.000
(Finish operation: Profile)
(Begin postamble)
M5
G17 G90
M2
