(Exported by FreeCAD)
(Post Processor: grbl_post)
(Output Time:2024-12-04 14:24:45.588913)
(Begin preamble)
G17 G90
G21
(Begin operation: Fixture)
(Path: Fixture)
G54
(Finish operation: Fixture)
(Begin operation: endmill_compression_3175_spe001)
(Path: endmill_compression_3175_spe001)
(endmill_compression_3175_spe001)
(Begin toolchange)
( M6 T2 )
M3 S18000
(Finish operation: endmill_compression_3175_spe001)
(Begin operation: RampEntryDressup)
(Path: RampEntryDressup)
G0 X0.000 Y0.000 Z23.000
G0 X66.054 Y66.054 Z23.000
G0 X66.054 Y66.054 Z21.000
G1 X67.916 Y64.138 Z19.457 F1200.000
G1 X69.723 Y62.170 Z17.915 F1200.000
G1 X67.916 Y64.138 Z16.372 F1200.000
G1 X66.054 Y66.054 Z14.830 F1200.000
G2 X9.811 Y-92.899 Z14.830 I-66.055 J-66.054 K0.000 F1200.000
G3 X8.415 Y-94.472 Z14.830 I0.189 J-1.574 K0.000 F1200.000
G1 X8.415 Y-103.062 Z14.830 F1200.000
G2 X1.409 Y-103.405 Z14.830 I-7.696 J85.473 K0.000 F1200.000
G2 X-8.415 Y-103.062 Z14.830 I-1.474 J98.659 K0.000 F1200.000
G1 X-8.415 Y-94.472 Z14.830 F1200.000
G3 X-9.810 Y-92.899 Z14.830 I-1.585 J0.000 K0.000 F1200.000
G2 X-9.253 Y92.955 Z14.830 I9.811 J92.898 K0.000 F1200.000
G2 X66.054 Y66.054 Z14.830 I9.253 J-92.956 K0.000 F1200.000
G0 X66.054 Y66.054 Z23.000
G0 X92.910 Y-9.604 Z23.000
G0 X92.910 Y-9.604 Z21.000
G1 X89.132 Y-13.382 Z17.915 F1200.000
G1 X92.910 Y-9.604 Z14.830 F1200.000
G1 X9.558 Y-92.956 Z14.830 F1200.000
G1 X9.811 Y-92.899 Z14.830 F1200.000
G1 X11.118 Y-92.741 Z14.830 F1200.000
G1 X92.747 Y-11.113 Z14.830 F1200.000
G1 X92.546 Y-12.659 Z14.830 F1200.000
G1 X12.652 Y-92.552 Z14.830 F1200.000
G1 X14.234 Y-92.315 Z14.830 F1200.000
G1 X92.316 Y-14.233 Z14.830 F1200.000
G1 X92.061 Y-15.833 Z14.830 F1200.000
G1 X15.839 Y-92.055 Z14.830 F1200.000
G1 X17.478 Y-91.761 Z14.830 F1200.000
G1 X91.754 Y-17.485 Z14.830 F1200.000
G2 X91.422 Y-19.161 Z14.830 I-29.336 J4.934 K0.000 F1200.000
G1 X19.166 Y-91.418 Z14.830 F1200.000
G3 X20.884 Y-91.045 Z14.830 I-5.630 J30.073 K0.000 F1200.000
G1 X91.046 Y-20.883 Z14.830 F1200.000
G2 X90.615 Y-22.658 Z14.830 I-31.098 J6.597 K0.000 F1200.000
G1 X22.652 Y-90.622 Z14.830 F1200.000
G3 X24.477 Y-90.141 Z14.830 I-7.454 J32.005 K0.000 F1200.000
G1 X90.145 Y-24.474 Z14.830 F1200.000
G1 X89.622 Y-26.341 Z14.830 F1200.000
G1 X26.350 Y-89.613 Z14.830 F1200.000
G3 X28.278 Y-89.031 Z14.830 I-9.170 J33.823 K0.000 F1200.000
G1 X89.020 Y-28.288 Z14.830 F1200.000
G2 X88.355 Y-30.299 Z14.830 I-35.317 J10.580 K0.000 F1200.000
G1 X30.292 Y-88.361 Z14.830 F1200.000
G3 X32.386 Y-87.612 Z14.830 I-11.988 J36.808 K0.000 F1200.000
G1 X87.612 Y-32.386 Z14.830 F1200.000
G2 X86.778 Y-34.565 Z14.830 I-38.321 J13.417 K0.000 F1200.000
G1 X34.571 Y-86.772 Z14.830 F1200.000
G3 X36.866 Y-85.822 Z14.830 I-15.374 J40.394 K0.000 F1200.000
G1 X85.833 Y-36.855 Z14.830 F1200.000
G2 X84.749 Y-39.284 Z14.830 I-42.793 J17.639 K0.000 F1200.000
G1 X39.296 Y-84.737 Z14.830 F1200.000
G3 X41.895 Y-83.482 Z14.830 I-20.533 J45.858 K0.000 F1200.000
G1 X83.491 Y-41.887 Z14.830 F1200.000
G2 X82.007 Y-44.716 Z14.830 I-49.957 J24.403 K0.000 F1200.000
G1 X44.713 Y-82.009 Z14.830 F1200.000
G3 X47.826 Y-80.242 Z14.830 I-28.148 J53.193 K0.000 F1200.000
G1 X80.223 Y-47.844 Z14.830 F1200.000
G2 X77.954 Y-51.459 Z14.830 I-52.056 J30.167 K0.000 F1200.000
G1 X51.461 Y-77.951 Z14.830 F1200.000
G3 X55.996 Y-74.761 Z14.830 I-36.995 J57.411 K0.000 F1200.000
G1 X74.756 Y-56.001 Z14.830 F1200.000
G2 X66.687 Y-65.415 Z14.830 I-72.647 J54.103 K0.000 F1200.000
G0 X66.687 Y-65.415 Z23.000
G0 X8.415 Y-102.169 Z23.000
G0 X8.415 Y-102.169 Z21.000
G1 X8.415 Y-103.062 Z20.484 F1200.000
G1 X7.442 Y-103.142 Z19.920 F1200.000
G1 X8.415 Y-102.169 Z19.126 F1200.000
G1 X8.415 Y-100.824 Z18.349 F1200.000
G1 X7.883 Y-101.355 Z17.915 F1200.000
G1 X8.415 Y-100.824 Z17.481 F1200.000
G1 X8.415 Y-102.169 Z16.704 F1200.000
G1 X7.442 Y-103.142 Z15.910 F1200.000
G1 X8.415 Y-103.062 Z15.346 F1200.000
G1 X8.415 Y-102.169 Z14.830 F1200.000
G1 X8.415 Y-103.062 Z14.830 F1200.000
G1 X7.442 Y-103.142 Z14.830 F1200.000
G1 X8.415 Y-102.169 Z14.830 F1200.000
G1 X8.415 Y-100.824 Z14.830 F1200.000
G1 X6.008 Y-103.231 Z14.830 F1200.000
G1 X4.585 Y-103.309 Z14.830 F1200.000
G1 X8.415 Y-99.479 Z14.830 F1200.000
G1 X8.415 Y-98.134 Z14.830 F1200.000
G1 X3.192 Y-103.357 Z14.830 F1200.000
G1 X1.810 Y-103.394 Z14.830 F1200.000
G1 X8.415 Y-96.789 Z14.830 F1200.000
G1 X8.415 Y-95.444 Z14.830 F1200.000
G1 X0.454 Y-103.405 Z14.830 F1200.000
G1 X-0.891 Y-103.405 Z14.830 F1200.000
G1 X8.487 Y-94.027 Z14.830 F1200.000
G2 X9.558 Y-92.956 Z14.830 I1.477 J-0.406 K0.000 F1200.000
G1 X92.910 Y-9.604 Z14.830 F1200.000
G1 X93.061 Y-8.108 Z14.830 F1200.000
G1 X-2.214 Y-103.383 Z14.830 F1200.000
G1 X-3.523 Y-103.348 Z14.830 F1200.000
G1 X93.168 Y-6.657 Z14.830 F1200.000
G3 X93.267 Y-5.212 Z14.830 I-25.080 J2.454 K0.000 F1200.000
G1 X-4.817 Y-103.296 Z14.830 F1200.000
G1 X-6.092 Y-103.227 Z14.830 F1200.000
G1 X93.328 Y-3.807 Z14.830 F1200.000
G3 X93.380 Y-2.409 Z14.830 I-24.283 J1.610 K0.000 F1200.000
G1 X-7.359 Y-103.149 Z14.830 F1200.000
G1 X-8.415 Y-103.062 Z14.830 F1200.000
G1 X-8.415 Y-102.860 Z14.830 F1200.000
G1 X93.400 Y-1.045 Z14.830 F1200.000
G3 X93.410 Y0.311 Z14.830 I-23.551 J0.861 K0.000 F1200.000
G1 X-8.415 Y-101.515 Z14.830 F1200.000
G1 X-8.415 Y-100.170 Z14.830 F1200.000
G1 X93.391 Y1.636 Z14.830 F1200.000
G3 X93.365 Y2.955 Z14.830 I-22.899 J0.197 K0.000 F1200.000
G1 X-8.415 Y-98.825 Z14.830 F1200.000
G1 X-8.415 Y-97.480 Z14.830 F1200.000
G1 X93.309 Y4.244 Z14.830 F1200.000
G3 X93.249 Y5.529 Z14.830 I-22.338 J-0.398 K0.000 F1200.000
G1 X-8.415 Y-96.135 Z14.830 F1200.000
G1 X-8.415 Y-94.790 Z14.830 F1200.000
G1 X93.159 Y6.783 Z14.830 F1200.000
G1 X93.068 Y8.038 Z14.830 F1200.000
G1 X-8.642 Y-93.672 Z14.830 F1200.000
G3 X-9.350 Y-93.036 Z14.830 I-1.250 J-0.680 K0.000 F1200.000
G1 X92.945 Y9.260 Z14.830 F1200.000
G1 X92.822 Y10.481 Z14.830 F1200.000
G1 X-10.478 Y-92.818 Z14.830 F1200.000
G1 X-11.678 Y-92.674 Z14.830 F1200.000
G1 X92.673 Y11.678 Z14.830 F1200.000
G1 X92.518 Y12.867 Z14.830 F1200.000
G1 X-12.869 Y-92.520 Z14.830 F1200.000
G1 X-14.039 Y-92.344 Z14.830 F1200.000
G1 X92.346 Y14.041 Z14.830 F1200.000
G1 X92.161 Y15.200 Z14.830 F1200.000
G1 X-15.207 Y-92.168 Z14.830 F1200.000
G1 X-16.348 Y-91.964 Z14.830 F1200.000
G1 X91.969 Y16.353 Z14.830 F1200.000
G1 X91.754 Y17.483 Z14.830 F1200.000
G1 X-17.488 Y-91.759 Z14.830 F1200.000
G2 X-18.608 Y-91.534 Z14.830 I3.341 J19.559 K0.000 F1200.000
G1 X91.540 Y18.614 Z14.830 F1200.000
G3 X91.300 Y19.719 Z14.830 I-19.305 J-3.611 K0.000 F1200.000
G1 X-19.721 Y-91.302 Z14.830 F1200.000
G2 X-20.823 Y-91.059 Z14.830 I3.653 J19.265 K0.000 F1200.000
G1 X91.058 Y20.822 Z14.830 F1200.000
G3 X90.802 Y21.911 Z14.830 I-19.024 J-3.908 K0.000 F1200.000
G1 X-21.908 Y-90.800 Z14.830 F1200.000
G1 X-22.993 Y-90.540 Z14.830 F1200.000
G1 X90.533 Y22.987 Z14.830 F1200.000
G3 X90.261 Y24.060 Z14.830 I-18.766 J-4.182 K0.000 F1200.000
G1 X-24.054 Y-90.255 Z14.830 F1200.000
G1 X-25.113 Y-89.969 Z14.830 F1200.000
G1 X89.967 Y25.110 Z14.830 F1200.000
G1 X89.672 Y26.160 Z14.830 F1200.000
G1 X-26.159 Y-89.671 Z14.830 F1200.000
G1 X-27.193 Y-89.360 Z14.830 F1200.000
G1 X89.361 Y27.194 Z14.830 F1200.000
G1 X89.041 Y28.220 Z14.830 F1200.000
G1 X-28.226 Y-89.048 Z14.830 F1200.000
G2 X-29.236 Y-88.712 Z14.830 I5.327 J17.691 K0.000 F1200.000
G1 X88.718 Y29.241 Z14.830 F1200.000
G1 X88.374 Y30.242 Z14.830 F1200.000
G1 X-30.244 Y-88.376 Z14.830 F1200.000
G2 X-31.242 Y-88.029 Z14.830 I5.526 J17.496 K0.000 F1200.000
G1 X88.030 Y31.243 Z14.830 F1200.000
G3 X87.672 Y32.229 Z14.830 I-17.306 J-5.728 K0.000 F1200.000
G1 X-32.227 Y-87.670 Z14.830 F1200.000
G1 X-33.213 Y-87.310 Z14.830 F1200.000
G1 X87.304 Y33.207 Z14.830 F1200.000
G3 X86.935 Y34.183 Z14.830 I-17.138 J-5.907 K0.000 F1200.000
G1 X-34.177 Y-86.929 Z14.830 F1200.000
G1 X-35.139 Y-86.546 Z14.830 F1200.000
G1 X86.545 Y35.137 Z14.830 F1200.000
G1 X86.154 Y36.091 Z14.830 F1200.000
G1 X-36.094 Y-86.156 Z14.830 F1200.000
G1 X-37.033 Y-85.750 Z14.830 F1200.000
G1 X85.754 Y37.036 Z14.830 F1200.000
G1 X85.340 Y37.968 Z14.830 F1200.000
G1 X-37.972 Y-85.345 Z14.830 F1200.000
G2 X-38.896 Y-84.924 Z14.830 I6.841 J16.255 K0.000 F1200.000
G1 X84.927 Y38.899 Z14.830 F1200.000
G3 X84.497 Y39.814 Z14.830 I-16.091 J-7.016 K0.000 F1200.000
G1 X-39.813 Y-84.496 Z14.830 F1200.000
G2 X-40.730 Y-84.068 Z14.830 I6.977 J16.128 K0.000 F1200.000
G1 X84.061 Y40.724 Z14.830 F1200.000
G3 X83.624 Y41.631 Z14.830 I-15.968 J-7.145 K0.000 F1200.000
G1 X-41.625 Y-83.618 Z14.830 F1200.000
G1 X-42.520 Y-83.168 Z14.830 F1200.000
G1 X83.167 Y42.519 Z14.830 F1200.000
G1 X82.710 Y43.407 Z14.830 F1200.000
G1 X-43.409 Y-82.712 Z14.830 F1200.000
G1 X-44.283 Y-82.241 Z14.830 F1200.000
G1 X82.244 Y44.286 Z14.830 F1200.000
G1 X81.766 Y45.153 Z14.830 F1200.000
G1 X-45.157 Y-81.770 Z14.830 F1200.000
G2 X-46.018 Y-81.286 Z14.830 I7.971 J15.189 K0.000 F1200.000
G1 X81.288 Y46.020 Z14.830 F1200.000
G3 X80.796 Y46.872 Z14.830 I-15.042 J-8.126 K0.000 F1200.000
G1 X-46.871 Y-80.794 Z14.830 F1200.000
G1 X-47.724 Y-80.302 Z14.830 F1200.000
G1 X80.297 Y47.718 Z14.830 F1200.000
G1 X79.798 Y48.564 Z14.830 F1200.000
G1 X-48.559 Y-79.792 Z14.830 F1200.000
G1 X-49.391 Y-79.280 Z14.830 F1200.000
G1 X79.279 Y49.391 Z14.830 F1200.000
G1 X78.760 Y50.216 Z14.830 F1200.000
G1 X-50.221 Y-78.765 Z14.830 F1200.000
G1 X-51.033 Y-78.232 Z14.830 F1200.000
G1 X78.237 Y51.038 Z14.830 F1200.000
G1 X77.697 Y51.843 Z14.830 F1200.000
G1 X-51.845 Y-77.699 Z14.830 F1200.000
G2 X-52.650 Y-77.159 Z14.830 I8.976 J14.240 K0.000 F1200.000
G1 X77.158 Y52.649 Z14.830 F1200.000
G3 X76.609 Y53.445 Z14.830 I-14.105 J-9.119 K0.000 F1200.000
G1 X-53.442 Y-76.606 Z14.830 F1200.000
G1 X-54.234 Y-76.053 Z14.830 F1200.000
G1 X76.050 Y54.231 Z14.830 F1200.000
G1 X75.490 Y55.016 Z14.830 F1200.000
G1 X-55.014 Y-75.489 Z14.830 F1200.000
G1 X-55.787 Y-74.916 Z14.830 F1200.000
G1 X74.918 Y55.789 Z14.830 F1200.000
G1 X74.339 Y56.554 Z14.830 F1200.000
G1 X-56.559 Y-74.343 Z14.830 F1200.000
G2 X-57.315 Y-73.755 Z14.830 I9.834 J13.430 K0.000 F1200.000
G1 X73.759 Y57.320 Z14.830 F1200.000
G3 X73.163 Y58.069 Z14.830 I-13.300 J-9.971 K0.000 F1200.000
G1 X-58.068 Y-73.163 Z14.830 F1200.000
G1 X-58.820 Y-72.570 Z14.830 F1200.000
G1 X72.564 Y58.814 Z14.830 F1200.000
G3 X71.965 Y59.560 Z14.830 I-13.238 J-10.037 K0.000 F1200.000
G1 X-59.554 Y-71.959 Z14.830 F1200.000
G1 X-60.287 Y-71.347 Z14.830 F1200.000
G1 X71.346 Y60.286 Z14.830 F1200.000
G1 X70.727 Y61.012 Z14.830 F1200.000
G1 X-61.016 Y-70.731 Z14.830 F1200.000
G1 X-61.730 Y-70.100 Z14.830 F1200.000
G1 X70.105 Y61.735 Z14.830 F1200.000
G1 X69.467 Y62.442 Z14.830 F1200.000
G1 X-62.443 Y-69.468 Z14.830 F1200.000
G2 X-63.150 Y-68.830 Z14.830 I10.724 J12.590 K0.000 F1200.000
G1 X68.829 Y63.148 Z14.830 F1200.000
G3 X68.183 Y63.848 Z14.830 I-12.464 J-10.857 K0.000 F1200.000
G1 X-63.844 Y-68.179 Z14.830 F1200.000
G1 X-64.538 Y-67.529 Z14.830 F1200.000
G1 X67.526 Y64.535 Z14.830 F1200.000
G1 X66.868 Y65.223 Z14.830 F1200.000
G1 X-65.222 Y-66.868 Z14.830 F1200.000
G1 X-65.897 Y-66.198 Z14.830 F1200.000
G1 X66.200 Y65.899 Z14.830 F1200.000
G1 X65.523 Y66.568 Z14.830 F1200.000
G1 X-66.572 Y-65.527 Z14.830 F1200.000
G2 X-67.233 Y-64.844 Z14.830 I11.536 J11.824 K0.000 F1200.000
G1 X64.846 Y67.236 Z14.830 F1200.000
G3 X64.156 Y67.890 Z14.830 I-11.699 J-11.668 K0.000 F1200.000
G1 X-67.888 Y-64.154 Z14.830 F1200.000
G1 X-68.544 Y-63.465 Z14.830 F1200.000
G1 X63.459 Y68.538 Z14.830 F1200.000
G1 X62.763 Y69.187 Z14.830 F1200.000
G1 X-69.182 Y-62.758 Z14.830 F1200.000
G1 X-69.818 Y-62.049 Z14.830 F1200.000
G1 X62.049 Y69.818 Z14.830 F1200.000
G1 X61.334 Y70.448 Z14.830 F1200.000
G1 X-70.454 Y-61.340 Z14.830 F1200.000
G1 X-71.070 Y-60.611 Z14.830 F1200.000
G1 X60.617 Y71.076 Z14.830 F1200.000
G1 X59.882 Y71.685 Z14.830 F1200.000
G1 X-71.686 Y-59.883 Z14.830 F1200.000
G2 X-72.299 Y-59.150 Z14.830 I12.414 J10.995 K0.000 F1200.000
G1 X59.147 Y72.295 Z14.830 F1200.000
G3 X58.406 Y72.900 Z14.830 I-10.867 J-12.549 K0.000 F1200.000
G1 X-72.896 Y-58.402 Z14.830 F1200.000
G1 X-73.492 Y-57.654 Z14.830 F1200.000
G1 X57.652 Y73.490 Z14.830 F1200.000
G1 X56.897 Y74.081 Z14.830 F1200.000
G1 X-74.081 Y-56.898 Z14.830 F1200.000
G1 X-74.659 Y-56.130 Z14.830 F1200.000
G1 X56.133 Y74.662 Z14.830 F1200.000
G1 X55.359 Y75.232 Z14.830 F1200.000
G1 X-75.236 Y-55.363 Z14.830 F1200.000
G2 X-75.801 Y-54.583 Z14.830 I13.253 J10.202 K0.000 F1200.000
G1 X54.585 Y75.803 Z14.830 F1200.000
G3 X53.797 Y76.360 Z14.830 I-10.070 J-13.394 K0.000 F1200.000
G1 X-76.358 Y-53.795 Z14.830 F1200.000
G1 X-76.916 Y-53.008 Z14.830 F1200.000
G1 X53.003 Y76.911 Z14.830 F1200.000
G1 X52.209 Y77.462 Z14.830 F1200.000
G1 X-77.457 Y-52.204 Z14.830 F1200.000
G1 X-77.994 Y-51.396 Z14.830 F1200.000
G1 X51.397 Y77.995 Z14.830 F1200.000
G1 X50.582 Y78.525 Z14.830 F1200.000
G1 X-78.531 Y-50.588 Z14.830 F1200.000
G1 X-79.048 Y-49.760 Z14.830 F1200.000
G1 X49.766 Y79.053 Z14.830 F1200.000
G1 X48.931 Y79.564 Z14.830 F1200.000
G1 X-79.565 Y-48.932 Z14.830 F1200.000
G2 X-80.076 Y-48.099 Z14.830 I14.219 J9.291 K0.000 F1200.000
G1 X48.096 Y80.074 Z14.830 F1200.000
G3 X47.254 Y80.576 Z14.830 I-9.148 J-14.370 K0.000 F1200.000
G1 X-80.573 Y-47.250 Z14.830 F1200.000
G1 X-81.069 Y-46.402 Z14.830 F1200.000
G1 X46.399 Y81.066 Z14.830 F1200.000
G1 X45.543 Y81.556 Z14.830 F1200.000
G1 X-81.554 Y-45.542 Z14.830 F1200.000
G1 X-82.030 Y-44.673 Z14.830 F1200.000
G1 X44.675 Y82.032 Z14.830 F1200.000
G1 X43.798 Y82.500 Z14.830 F1200.000
G1 X-82.506 Y-43.804 Z14.830 F1200.000
G2 X-82.964 Y-42.917 Z14.830 I15.170 J8.393 K0.000 F1200.000
G1 X42.922 Y82.969 Z14.830 F1200.000
G3 X42.026 Y83.418 Z14.830 I-8.239 J-15.333 K0.000 F1200.000
G1 X-83.418 Y-42.026 Z14.830 F1200.000
G2 X-83.869 Y-41.133 Z14.830 I15.288 J8.281 K0.000 F1200.000
G1 X41.128 Y83.865 Z14.830 F1200.000
G3 X40.225 Y84.307 Z14.830 I-8.123 J-15.456 K0.000 F1200.000
G1 X-84.302 Y-40.221 Z14.830 F1200.000
G1 X-84.735 Y-39.308 Z14.830 F1200.000
G1 X39.306 Y84.732 Z14.830 F1200.000
G1 X38.386 Y85.158 Z14.830 F1200.000
G1 X-85.157 Y-38.386 Z14.830 F1200.000
G1 X-85.568 Y-37.452 Z14.830 F1200.000
G1 X37.454 Y85.570 Z14.830 F1200.000
G1 X36.512 Y85.974 Z14.830 F1200.000
G1 X-85.979 Y-36.518 Z14.830 F1200.000
G2 X-86.371 Y-35.564 Z14.830 I16.352 J7.277 K0.000 F1200.000
G1 X35.571 Y86.377 Z14.830 F1200.000
G3 X34.607 Y86.758 Z14.830 I-7.102 J-16.537 K0.000 F1200.000
G1 X-86.759 Y-34.608 Z14.830 F1200.000
G2 X-87.142 Y-33.646 Z14.830 I16.514 J7.125 K0.000 F1200.000
G1 X33.643 Y87.139 Z14.830 F1200.000
G3 X32.670 Y87.511 Z14.830 I-6.943 J-16.706 K0.000 F1200.000
G1 X-87.507 Y-32.666 Z14.830 F1200.000
G1 X-87.872 Y-31.686 Z14.830 F1200.000
G1 X31.682 Y87.868 Z14.830 F1200.000
G1 X30.694 Y88.225 Z14.830 F1200.000
G1 X-88.221 Y-30.691 Z14.830 F1200.000
G1 X-88.563 Y-29.687 Z14.830 F1200.000
G1 X29.687 Y88.563 Z14.830 F1200.000
G1 X28.676 Y88.896 Z14.830 F1200.000
G1 X-88.901 Y-28.680 Z14.830 F1200.000
G1 X-89.218 Y-27.652 Z14.830 F1200.000
G1 X27.657 Y89.223 Z14.830 F1200.000
G1 X26.621 Y89.531 Z14.830 F1200.000
G1 X-89.535 Y-26.625 Z14.830 F1200.000
G2 X-89.836 Y-25.581 Z14.830 I17.970 J5.750 K0.000 F1200.000
G1 X25.585 Y89.840 Z14.830 F1200.000
G3 X24.528 Y90.128 Z14.830 I-5.534 J-18.198 K0.000 F1200.000
G1 X-90.128 Y-24.528 Z14.830 F1200.000
G2 X-90.416 Y-23.470 Z14.830 I18.214 J5.519 K0.000 F1200.000
G1 X23.466 Y90.412 Z14.830 F1200.000
G3 X22.395 Y90.686 Z14.830 I-5.293 J-18.454 K0.000 F1200.000
G1 X-90.682 Y-22.391 Z14.830 F1200.000
G1 X-90.948 Y-21.312 Z14.830 F1200.000
G1 X21.307 Y90.943 Z14.830 F1200.000
G1 X20.219 Y91.199 Z14.830 F1200.000
G1 X-91.193 Y-20.213 Z14.830 F1200.000
G1 X-91.432 Y-19.107 Z14.830 F1200.000
G1 X19.106 Y91.431 Z14.830 F1200.000
G1 X17.990 Y91.660 Z14.830 F1200.000
G1 X-91.661 Y-17.991 Z14.830 F1200.000
G1 X-91.872 Y-16.857 Z14.830 F1200.000
G1 X16.859 Y91.874 Z14.830 F1200.000
G1 X15.715 Y92.075 Z14.830 F1200.000
G1 X-92.082 Y-15.722 Z14.830 F1200.000
G1 X-92.264 Y-14.559 Z14.830 F1200.000
G1 X14.564 Y92.269 Z14.830 F1200.000
G1 X13.391 Y92.440 Z14.830 F1200.000
G1 X-92.446 Y-13.396 Z14.830 F1200.000
G2 X-92.605 Y-12.210 Z14.830 I20.507 J3.354 K0.000 F1200.000
G1 X12.218 Y92.612 Z14.830 F1200.000
G3 X11.014 Y92.754 Z14.830 I-3.054 J-20.823 K0.000 F1200.000
G1 X-92.756 Y-11.017 Z14.830 F1200.000
G2 X-92.892 Y-9.807 Z14.830 I20.934 J2.952 K0.000 F1200.000
G1 X9.810 Y92.895 Z14.830 F1200.000
G3 X8.582 Y93.011 Z14.830 I-2.630 J-21.274 K0.000 F1200.000
G1 X-93.012 Y-8.582 Z14.830 F1200.000
G2 X-93.120 Y-7.346 Z14.830 I21.404 J2.508 K0.000 F1200.000
G1 X7.346 Y93.120 Z14.830 F1200.000
G3 X6.089 Y93.208 Z14.830 I-2.162 J-21.770 K0.000 F1200.000
G1 X-93.207 Y-6.088 Z14.830 F1200.000
G2 X-93.287 Y-4.823 Z14.830 I21.925 J2.016 K0.000 F1200.000
G1 X4.819 Y93.283 Z14.830 F1200.000
G3 X3.532 Y93.341 Z14.830 I-1.643 J-22.320 K0.000 F1200.000
G1 X-93.339 Y-3.530 Z14.830 F1200.000
G2 X-93.386 Y-2.232 Z14.830 I22.504 J1.469 K0.000 F1200.000
G1 X2.227 Y93.381 Z14.830 F1200.000
G3 X0.905 Y93.404 Z14.830 I-1.065 J-22.933 K0.000 F1200.000
G1 X-93.401 Y-0.902 Z14.830 F1200.000
G2 X-93.412 Y0.432 Z14.830 I23.151 J0.858 K0.000 F1200.000
G1 X-0.438 Y93.406 Z14.830 F1200.000
G3 X-1.798 Y93.391 Z14.830 I-0.418 J-23.618 K0.000 F1200.000
G1 X-93.388 Y1.801 Z14.830 F1200.000
G2 X-93.358 Y3.175 Z14.830 I23.879 J0.172 K0.000 F1200.000
G1 X-3.180 Y93.353 Z14.830 F1200.000
G3 X-4.584 Y93.295 Z14.830 I0.310 J-24.389 K0.000 F1200.000
G1 X-93.293 Y4.586 Z14.830 F1200.000
G2 X-93.217 Y6.006 Z14.830 I24.699 J-0.602 K0.000 F1200.000
G1 X-6.008 Y93.215 Z14.830 F1200.000
G3 X-7.460 Y93.108 Z14.830 I1.134 J-25.261 K0.000 F1200.000
G1 X-93.108 Y7.460 Z14.830 F1200.000
G2 X-92.980 Y8.933 Z14.830 I25.630 J-1.481 K0.000 F1200.000
G1 X-8.930 Y92.983 Z14.830 F1200.000
G3 X-10.438 Y92.820 Z14.830 I2.070 J-26.253 K0.000 F1200.000
G1 X-92.824 Y10.435 Z14.830 F1200.000
G2 X-92.636 Y11.967 Z14.830 I26.693 J-2.485 K0.000 F1200.000
G1 X-11.957 Y92.646 Z14.830 F1200.000
G1 X-13.527 Y92.421 Z14.830 F1200.000
G1 X-92.429 Y13.519 Z14.830 F1200.000
G2 X-92.173 Y15.119 Z14.830 I27.915 J-3.639 K0.000 F1200.000
G1 X-15.115 Y92.178 Z14.830 F1200.000
G1 X-16.741 Y91.896 Z14.830 F1200.000
G1 X-91.898 Y16.740 Z14.830 F1200.000
G1 X-91.577 Y18.406 Z14.830 F1200.000
G1 X-18.410 Y91.573 Z14.830 F1200.000
G3 X-20.105 Y91.222 Z14.830 I5.240 J-29.611 K0.000 F1200.000
G1 X-91.214 Y20.114 Z14.830 F1200.000
G2 X-90.819 Y21.853 Z14.830 I30.397 J-5.981 K0.000 F1200.000
G1 X-21.858 Y90.814 Z14.830 F1200.000
G3 X-23.658 Y90.360 Z14.830 I6.993 J-31.468 K0.000 F1200.000
G1 X-90.364 Y23.654 Z14.830 F1200.000
G2 X-89.855 Y25.508 Z14.830 I32.438 J-7.908 K0.000 F1200.000
G1 X-25.501 Y89.861 Z14.830 F1200.000
G1 X-27.407 Y89.300 Z14.830 F1200.000
G1 X-89.295 Y27.412 Z14.830 F1200.000
G2 X-88.675 Y29.377 Z14.830 I34.414 J-9.774 K0.000 F1200.000
G1 X-29.390 Y88.662 Z14.830 F1200.000
G3 X-31.444 Y87.954 Z14.830 I11.272 J-36.001 K0.000 F1200.000
G1 X-87.960 Y31.437 Z14.830 F1200.000
G2 X-87.161 Y33.581 Z14.830 I37.617 J-12.797 K0.000 F1200.000
G1 X-33.581 Y87.161 Z14.830 F1200.000
G3 X-35.820 Y86.267 Z14.830 I14.401 J-39.315 K0.000 F1200.000
G1 X-86.262 Y35.825 Z14.830 F1200.000
G2 X-85.241 Y38.191 Z14.830 I41.591 J-16.548 K0.000 F1200.000
G1 X-38.183 Y85.248 Z14.830 F1200.000
G3 X-40.703 Y84.074 Z14.830 I19.135 J-44.331 K0.000 F1200.000
G1 X-84.067 Y40.710 Z14.830 F1200.000
G2 X-82.700 Y43.421 Z14.830 I47.755 J-22.368 K0.000 F1200.000
G1 X-43.422 Y82.700 Z14.830 F1200.000
G3 X-46.402 Y81.065 Z14.830 I26.894 J-52.549 K0.000 F1200.000
G1 X-81.083 Y46.383 Z14.830 F1200.000
G2 X-79.041 Y49.771 Z14.830 I56.571 J-31.800 K0.000 F1200.000
G1 X-49.748 Y79.064 Z14.830 F1200.000
G3 X-53.784 Y76.373 Z14.830 I44.703 J-71.415 K0.000 F1200.000
G1 X-76.366 Y53.791 Z14.830 F1200.000
G2 X-72.041 Y59.460 Z14.830 I70.344 J-49.173 K0.000 F1200.000
G2 X-59.496 Y72.005 Z14.830 I70.931 J-58.386 K0.000 F1200.000
G1 X-72.041 Y59.460 Z14.830 F1200.000
G1 X-70.920 Y60.581 Z13.915 F1200.000
G1 X-72.041 Y59.460 Z13.000 F1200.000
G1 X-59.496 Y72.005 Z13.000 F1200.000
G3 X-72.041 Y59.460 Z13.000 I58.386 J-70.931 K0.000 F1200.000
G3 X-76.366 Y53.791 Z13.000 I66.020 J-54.842 K0.000 F1200.000
G1 X-53.784 Y76.373 Z13.000 F1200.000
G2 X-49.748 Y79.064 Z13.000 I48.739 J-68.724 K0.000 F1200.000
G1 X-79.041 Y49.771 Z13.000 F1200.000
G3 X-81.083 Y46.383 Z13.000 I54.529 J-35.187 K0.000 F1200.000
G1 X-46.402 Y81.065 Z13.000 F1200.000
G2 X-43.422 Y82.700 Z13.000 I29.874 J-50.914 K0.000 F1200.000
G1 X-82.700 Y43.421 Z13.000 F1200.000
G3 X-84.067 Y40.710 Z13.000 I46.389 J-25.080 K0.000 F1200.000
G1 X-40.703 Y84.074 Z13.000 F1200.000
G2 X-38.183 Y85.248 Z13.000 I21.655 J-43.156 K0.000 F1200.000
G1 X-85.241 Y38.191 Z13.000 F1200.000
G3 X-86.262 Y35.825 Z13.000 I40.569 J-18.915 K0.000 F1200.000
G1 X-35.820 Y86.267 Z13.000 F1200.000
G2 X-33.581 Y87.161 Z13.000 I16.639 J-38.421 K0.000 F1200.000
G1 X-87.161 Y33.581 Z13.000 F1200.000
G3 X-87.960 Y31.437 Z13.000 I36.818 J-14.941 K0.000 F1200.000
G1 X-31.444 Y87.954 Z13.000 F1200.000
G2 X-29.390 Y88.662 Z13.000 I13.325 J-35.293 K0.000 F1200.000
G1 X-88.675 Y29.377 Z13.000 F1200.000
G3 X-89.295 Y27.412 Z13.000 I33.795 J-11.739 K0.000 F1200.000
G1 X-27.407 Y89.300 Z13.000 F1200.000
G1 X-25.501 Y89.861 Z13.000 F1200.000
G1 X-89.855 Y25.508 Z13.000 F1200.000
G3 X-90.364 Y23.654 Z13.000 I31.929 J-9.762 K0.000 F1200.000
G1 X-23.658 Y90.360 Z13.000 F1200.000
G2 X-21.858 Y90.814 Z13.000 I8.793 J-31.014 K0.000 F1200.000
G1 X-90.819 Y21.853 Z13.000 F1200.000
G3 X-91.214 Y20.114 Z13.000 I30.002 J-7.721 K0.000 F1200.000
G1 X-20.105 Y91.222 Z13.000 F1200.000
G2 X-18.410 Y91.573 Z13.000 I6.936 J-29.261 K0.000 F1200.000
G1 X-91.577 Y18.406 Z13.000 F1200.000
G1 X-91.898 Y16.740 Z13.000 F1200.000
G1 X-16.741 Y91.896 Z13.000 F1200.000
G1 X-15.115 Y92.178 Z13.000 F1200.000
G1 X-92.173 Y15.119 Z13.000 F1200.000
G3 X-92.429 Y13.519 Z13.000 I27.659 J-5.239 K0.000 F1200.000
G1 X-13.527 Y92.421 Z13.000 F1200.000
G1 X-11.957 Y92.646 Z13.000 F1200.000
G1 X-92.636 Y11.967 Z13.000 F1200.000
G3 X-92.824 Y10.435 Z13.000 I26.506 J-4.017 K0.000 F1200.000
G1 X-10.438 Y92.820 Z13.000 F1200.000
G2 X-8.930 Y92.983 Z13.000 I3.577 J-26.090 K0.000 F1200.000
G1 X-92.980 Y8.933 Z13.000 F1200.000
G3 X-93.108 Y7.460 Z13.000 I25.502 J-2.954 K0.000 F1200.000
G1 X-7.460 Y93.108 Z13.000 F1200.000
G2 X-6.008 Y93.215 Z13.000 I2.586 J-25.154 K0.000 F1200.000
G1 X-93.217 Y6.006 Z13.000 F1200.000
G3 X-93.293 Y4.586 Z13.000 I24.623 J-2.023 K0.000 F1200.000
G1 X-4.584 Y93.295 Z13.000 F1200.000
G2 X-3.180 Y93.353 Z13.000 I1.714 J-24.331 K0.000 F1200.000
G1 X-93.358 Y3.175 Z13.000 F1200.000
G3 X-93.388 Y1.801 Z13.000 I23.849 J-1.203 K0.000 F1200.000
G1 X-1.798 Y93.391 Z13.000 F1200.000
G2 X-0.438 Y93.406 Z13.000 I0.943 J-23.603 K0.000 F1200.000
G1 X-93.412 Y0.432 Z13.000 F1200.000
G3 X-93.401 Y-0.902 Z13.000 I23.162 J-0.476 K0.000 F1200.000
G1 X0.905 Y93.404 Z13.000 F1200.000
G2 X2.227 Y93.381 Z13.000 I0.257 J-22.956 K0.000 F1200.000
G1 X-93.386 Y-2.232 Z13.000 F1200.000
G3 X-93.339 Y-3.530 Z13.000 I22.552 J0.171 K0.000 F1200.000
G1 X3.532 Y93.341 Z13.000 F1200.000
G2 X4.819 Y93.283 Z13.000 I-0.356 J-22.378 K0.000 F1200.000
G1 X-93.287 Y-4.823 Z13.000 F1200.000
G3 X-93.207 Y-6.088 Z13.000 I22.005 J0.751 K0.000 F1200.000
G1 X6.089 Y93.208 Z13.000 F1200.000
G2 X7.346 Y93.120 Z13.000 I-0.906 J-21.859 K0.000 F1200.000
G1 X-93.120 Y-7.346 Z13.000 F1200.000
G3 X-93.012 Y-8.582 Z13.000 I21.513 J1.272 K0.000 F1200.000
G1 X8.582 Y93.011 Z13.000 F1200.000
G2 X9.810 Y92.895 Z13.000 I-1.401 J-21.390 K0.000 F1200.000
G1 X-92.892 Y-9.807 Z13.000 F1200.000
G3 X-92.756 Y-11.017 Z13.000 I21.069 J1.742 K0.000 F1200.000
G1 X11.014 Y92.754 Z13.000 F1200.000
G2 X12.218 Y92.612 Z13.000 I-1.850 J-20.964 K0.000 F1200.000
G1 X-92.605 Y-12.210 Z13.000 F1200.000
G3 X-92.446 Y-13.396 Z13.000 I20.666 J2.168 K0.000 F1200.000
G1 X13.391 Y92.440 Z13.000 F1200.000
G1 X14.564 Y92.269 Z13.000 F1200.000
G1 X-92.264 Y-14.559 Z13.000 F1200.000
G1 X-92.082 Y-15.722 Z13.000 F1200.000
G1 X15.715 Y92.075 Z13.000 F1200.000
G1 X16.859 Y91.874 Z13.000 F1200.000
G1 X-91.872 Y-16.857 Z13.000 F1200.000
G1 X-91.661 Y-17.991 Z13.000 F1200.000
G1 X17.990 Y91.660 Z13.000 F1200.000
G1 X19.106 Y91.431 Z13.000 F1200.000
G1 X-91.432 Y-19.107 Z13.000 F1200.000
G1 X-91.193 Y-20.213 Z13.000 F1200.000
G1 X20.219 Y91.199 Z13.000 F1200.000
G1 X21.307 Y90.943 Z13.000 F1200.000
G1 X-90.948 Y-21.312 Z13.000 F1200.000
G1 X-90.682 Y-22.391 Z13.000 F1200.000
G1 X22.395 Y90.686 Z13.000 F1200.000
G2 X23.466 Y90.412 Z13.000 I-4.222 J-18.728 K0.000 F1200.000
G1 X-90.416 Y-23.470 Z13.000 F1200.000
G3 X-90.128 Y-24.528 Z13.000 I18.502 J4.461 K0.000 F1200.000
G1 X24.528 Y90.128 Z13.000 F1200.000
G2 X25.585 Y89.840 Z13.000 I-4.478 J-18.486 K0.000 F1200.000
G1 X-89.836 Y-25.581 Z13.000 F1200.000
G3 X-89.535 Y-26.625 Z13.000 I18.271 J4.706 K0.000 F1200.000
G1 X26.621 Y89.531 Z13.000 F1200.000
G1 X27.657 Y89.223 Z13.000 F1200.000
G1 X-89.218 Y-27.652 Z13.000 F1200.000
G1 X-88.901 Y-28.680 Z13.000 F1200.000
G1 X28.676 Y88.896 Z13.000 F1200.000
G1 X29.687 Y88.563 Z13.000 F1200.000
G1 X-88.563 Y-29.687 Z13.000 F1200.000
G1 X-88.221 Y-30.691 Z13.000 F1200.000
G1 X30.694 Y88.225 Z13.000 F1200.000
G1 X31.682 Y87.868 Z13.000 F1200.000
G1 X-87.872 Y-31.686 Z13.000 F1200.000
G1 X-87.507 Y-32.666 Z13.000 F1200.000
G1 X32.670 Y87.511 Z13.000 F1200.000
G2 X33.643 Y87.139 Z13.000 I-5.970 J-17.078 K0.000 F1200.000
G1 X-87.142 Y-33.646 Z13.000 F1200.000
G3 X-86.759 Y-34.608 Z13.000 I16.896 J6.162 K0.000 F1200.000
G1 X34.607 Y86.758 Z13.000 F1200.000
G2 X35.571 Y86.377 Z13.000 I-6.138 J-16.919 K0.000 F1200.000
G1 X-86.371 Y-35.564 Z13.000 F1200.000
G3 X-85.979 Y-36.518 Z13.000 I16.744 J6.324 K0.000 F1200.000
G1 X36.512 Y85.974 Z13.000 F1200.000
G1 X37.454 Y85.570 Z13.000 F1200.000
G1 X-85.568 Y-37.452 Z13.000 F1200.000
G1 X-85.157 Y-38.386 Z13.000 F1200.000
G1 X38.386 Y85.158 Z13.000 F1200.000
G1 X39.306 Y84.732 Z13.000 F1200.000
G1 X-84.735 Y-39.308 Z13.000 F1200.000
G1 X-84.302 Y-40.221 Z13.000 F1200.000
G1 X40.225 Y84.307 Z13.000 F1200.000
G2 X41.128 Y83.865 Z13.000 I-7.220 J-15.898 K0.000 F1200.000
G1 X-83.869 Y-41.133 Z13.000 F1200.000
G3 X-83.418 Y-42.026 Z13.000 I15.739 J7.388 K0.000 F1200.000
G1 X42.026 Y83.418 Z13.000 F1200.000
G2 X42.922 Y82.969 Z13.000 I-7.343 J-15.782 K0.000 F1200.000
G1 X-82.964 Y-42.917 Z13.000 F1200.000
G3 X-82.506 Y-43.804 Z13.000 I15.628 J7.506 K0.000 F1200.000
G1 X43.798 Y82.500 Z13.000 F1200.000
G1 X44.675 Y82.032 Z13.000 F1200.000
G1 X-82.030 Y-44.673 Z13.000 F1200.000
G1 X-81.554 Y-45.542 Z13.000 F1200.000
G1 X45.543 Y81.556 Z13.000 F1200.000
G1 X46.399 Y81.066 Z13.000 F1200.000
G1 X-81.069 Y-46.402 Z13.000 F1200.000
G1 X-80.573 Y-47.250 Z13.000 F1200.000
G1 X47.254 Y80.576 Z13.000 F1200.000
G2 X48.096 Y80.074 Z13.000 I-8.306 J-14.873 K0.000 F1200.000
G1 X-80.076 Y-48.099 Z13.000 F1200.000
G3 X-79.565 Y-48.932 Z13.000 I14.730 J8.457 K0.000 F1200.000
G1 X48.931 Y79.564 Z13.000 F1200.000
G1 X49.766 Y79.053 Z13.000 F1200.000
G1 X-79.048 Y-49.760 Z13.000 F1200.000
G1 X-78.531 Y-50.588 Z13.000 F1200.000
G1 X50.582 Y78.525 Z13.000 F1200.000
G1 X51.397 Y77.995 Z13.000 F1200.000
G1 X-77.994 Y-51.396 Z13.000 F1200.000
G1 X-77.457 Y-52.204 Z13.000 F1200.000
G1 X52.209 Y77.462 Z13.000 F1200.000
G1 X53.003 Y76.911 Z13.000 F1200.000
G1 X-76.916 Y-53.008 Z13.000 F1200.000
G1 X-76.358 Y-53.795 Z13.000 F1200.000
G1 X53.797 Y76.360 Z13.000 F1200.000
G2 X54.585 Y75.803 Z13.000 I-9.282 J-13.951 K0.000 F1200.000
G1 X-75.801 Y-54.583 Z13.000 F1200.000
G3 X-75.236 Y-55.363 Z13.000 I13.818 J9.423 K0.000 F1200.000
G1 X55.359 Y75.232 Z13.000 F1200.000
G1 X56.133 Y74.662 Z13.000 F1200.000
G1 X-74.659 Y-56.130 Z13.000 F1200.000
G1 X-74.081 Y-56.898 Z13.000 F1200.000
G1 X56.897 Y74.081 Z13.000 F1200.000
G1 X57.652 Y73.490 Z13.000 F1200.000
G1 X-73.492 Y-57.654 Z13.000 F1200.000
G1 X-72.896 Y-58.402 Z13.000 F1200.000
G1 X58.406 Y72.900 Z13.000 F1200.000
G2 X59.147 Y72.295 Z13.000 I-10.127 J-13.154 K0.000 F1200.000
G1 X-72.299 Y-59.150 Z13.000 F1200.000
G3 X-71.686 Y-59.883 Z13.000 I13.026 J10.262 K0.000 F1200.000
G1 X59.882 Y71.685 Z13.000 F1200.000
G1 X60.617 Y71.076 Z13.000 F1200.000
G1 X-71.070 Y-60.611 Z13.000 F1200.000
G1 X-70.454 Y-61.340 Z13.000 F1200.000
G1 X61.334 Y70.448 Z13.000 F1200.000
G1 X62.049 Y69.818 Z13.000 F1200.000
G1 X-69.818 Y-62.049 Z13.000 F1200.000
G1 X-69.182 Y-62.758 Z13.000 F1200.000
G1 X62.763 Y69.187 Z13.000 F1200.000
G1 X63.459 Y68.538 Z13.000 F1200.000
G1 X-68.544 Y-63.465 Z13.000 F1200.000
G1 X-67.888 Y-64.154 Z13.000 F1200.000
G1 X64.156 Y67.890 Z13.000 F1200.000
G2 X64.846 Y67.236 Z13.000 I-11.008 J-12.322 K0.000 F1200.000
G1 X-67.233 Y-64.844 Z13.000 F1200.000
G3 X-66.572 Y-65.527 Z13.000 I12.197 J11.140 K0.000 F1200.000
G1 X65.523 Y66.568 Z13.000 F1200.000
G1 X66.200 Y65.899 Z13.000 F1200.000
G1 X-65.897 Y-66.198 Z13.000 F1200.000
G1 X-65.222 Y-66.868 Z13.000 F1200.000
G1 X66.868 Y65.223 Z13.000 F1200.000
G1 X67.526 Y64.535 Z13.000 F1200.000
G1 X-64.538 Y-67.529 Z13.000 F1200.000
G1 X-63.844 Y-68.179 Z13.000 F1200.000
G1 X68.183 Y63.848 Z13.000 F1200.000
G2 X68.829 Y63.148 Z13.000 I-11.819 J-11.556 K0.000 F1200.000
G1 X-63.150 Y-68.830 Z13.000 F1200.000
G3 X-62.443 Y-69.468 Z13.000 I11.431 J11.952 K0.000 F1200.000
G1 X69.467 Y62.442 Z13.000 F1200.000
G1 X70.105 Y61.735 Z13.000 F1200.000
G1 X-61.730 Y-70.100 Z13.000 F1200.000
G1 X-61.016 Y-70.731 Z13.000 F1200.000
G1 X70.727 Y61.012 Z13.000 F1200.000
G1 X71.346 Y60.286 Z13.000 F1200.000
G1 X-60.287 Y-71.347 Z13.000 F1200.000
G1 X-59.554 Y-71.959 Z13.000 F1200.000
G1 X71.965 Y59.560 Z13.000 F1200.000
G2 X72.564 Y58.814 Z13.000 I-12.638 J-10.782 K0.000 F1200.000
G1 X-58.820 Y-72.570 Z13.000 F1200.000
G1 X-58.068 Y-73.163 Z13.000 F1200.000
G1 X73.163 Y58.069 Z13.000 F1200.000
G2 X73.759 Y57.320 Z13.000 I-12.704 J-10.720 K0.000 F1200.000
G1 X-57.315 Y-73.755 Z13.000 F1200.000
G3 X-56.559 Y-74.343 Z13.000 I10.591 J12.842 K0.000 F1200.000
G1 X74.339 Y56.554 Z13.000 F1200.000
G1 X74.918 Y55.789 Z13.000 F1200.000
G1 X-55.787 Y-74.916 Z13.000 F1200.000
G1 X-55.014 Y-75.489 Z13.000 F1200.000
G1 X75.490 Y55.016 Z13.000 F1200.000
G1 X76.050 Y54.231 Z13.000 F1200.000
G1 X-54.234 Y-76.053 Z13.000 F1200.000
G1 X-53.442 Y-76.606 Z13.000 F1200.000
G1 X76.609 Y53.445 Z13.000 F1200.000
G2 X77.158 Y52.649 Z13.000 I-13.557 J-9.916 K0.000 F1200.000
G1 X-52.650 Y-77.159 Z13.000 F1200.000
G3 X-51.845 Y-77.699 Z13.000 I9.781 J13.700 K0.000 F1200.000
G1 X77.697 Y51.843 Z13.000 F1200.000
G1 X78.237 Y51.038 Z13.000 F1200.000
G1 X-51.033 Y-78.232 Z13.000 F1200.000
G1 X-50.221 Y-78.765 Z13.000 F1200.000
G1 X78.760 Y50.216 Z13.000 F1200.000
G1 X79.279 Y49.391 Z13.000 F1200.000
G1 X-49.391 Y-79.280 Z13.000 F1200.000
G1 X-48.559 Y-79.792 Z13.000 F1200.000
G1 X79.798 Y48.564 Z13.000 F1200.000
G1 X80.297 Y47.718 Z13.000 F1200.000
G1 X-47.724 Y-80.302 Z13.000 F1200.000
G1 X-46.871 Y-80.794 Z13.000 F1200.000
G1 X80.796 Y46.872 Z13.000 F1200.000
G2 X81.288 Y46.020 Z13.000 I-14.550 J-8.979 K0.000 F1200.000
G1 X-46.018 Y-81.286 Z13.000 F1200.000
G3 X-45.157 Y-81.770 Z13.000 I8.832 J14.705 K0.000 F1200.000
G1 X81.766 Y45.153 Z13.000 F1200.000
G1 X82.244 Y44.286 Z13.000 F1200.000
G1 X-44.283 Y-82.241 Z13.000 F1200.000
G1 X-43.409 Y-82.712 Z13.000 F1200.000
G1 X82.710 Y43.407 Z13.000 F1200.000
G1 X83.167 Y42.519 Z13.000 F1200.000
G1 X-42.520 Y-83.168 Z13.000 F1200.000
G1 X-41.625 Y-83.618 Z13.000 F1200.000
G1 X83.624 Y41.631 Z13.000 F1200.000
G2 X84.061 Y40.724 Z13.000 I-15.530 J-8.053 K0.000 F1200.000
G1 X-40.730 Y-84.068 Z13.000 F1200.000
G3 X-39.813 Y-84.496 Z13.000 I7.894 J15.700 K0.000 F1200.000
G1 X84.497 Y39.814 Z13.000 F1200.000
G2 X84.927 Y38.899 Z13.000 I-15.660 J-7.930 K0.000 F1200.000
G1 X-38.896 Y-84.924 Z13.000 F1200.000
G3 X-37.972 Y-85.345 Z13.000 I7.765 J15.834 K0.000 F1200.000
G1 X85.340 Y37.968 Z13.000 F1200.000
G1 X85.754 Y37.036 Z13.000 F1200.000
G1 X-37.033 Y-85.750 Z13.000 F1200.000
G1 X-36.094 Y-86.156 Z13.000 F1200.000
G1 X86.154 Y36.091 Z13.000 F1200.000
G1 X86.545 Y35.137 Z13.000 F1200.000
G1 X-35.139 Y-86.546 Z13.000 F1200.000
G1 X-34.177 Y-86.929 Z13.000 F1200.000
G1 X86.935 Y34.183 Z13.000 F1200.000
G2 X87.304 Y33.207 Z13.000 I-16.769 J-6.884 K0.000 F1200.000
G1 X-33.213 Y-87.310 Z13.000 F1200.000
G1 X-32.227 Y-87.670 Z13.000 F1200.000
G1 X87.672 Y32.229 Z13.000 F1200.000
G2 X88.030 Y31.243 Z13.000 I-16.948 J-6.715 K0.000 F1200.000
G1 X-31.242 Y-88.029 Z13.000 F1200.000
G3 X-30.244 Y-88.376 Z13.000 I6.524 J17.149 K0.000 F1200.000
G1 X88.374 Y30.242 Z13.000 F1200.000
G1 X88.718 Y29.241 Z13.000 F1200.000
G1 X-29.236 Y-88.712 Z13.000 F1200.000
G3 X-28.226 Y-89.048 Z13.000 I6.337 J17.356 K0.000 F1200.000
G1 X89.041 Y28.220 Z13.000 F1200.000
G1 X89.361 Y27.194 Z13.000 F1200.000
G1 X-27.193 Y-89.360 Z13.000 F1200.000
G1 X-26.159 Y-89.671 Z13.000 F1200.000
G1 X89.672 Y26.160 Z13.000 F1200.000
G1 X89.967 Y25.110 Z13.000 F1200.000
G1 X-25.113 Y-89.969 Z13.000 F1200.000
G1 X-24.054 Y-90.255 Z13.000 F1200.000
G1 X90.261 Y24.060 Z13.000 F1200.000
G2 X90.533 Y22.987 Z13.000 I-18.494 J-5.255 K0.000 F1200.000
G1 X-22.993 Y-90.540 Z13.000 F1200.000
G1 X-21.908 Y-90.800 Z13.000 F1200.000
G1 X90.802 Y21.911 Z13.000 F1200.000
G2 X91.058 Y20.822 Z13.000 I-18.768 J-4.997 K0.000 F1200.000
G1 X-20.823 Y-91.059 Z13.000 F1200.000
G3 X-19.721 Y-91.302 Z13.000 I4.756 J19.023 K0.000 F1200.000
G1 X91.300 Y19.719 Z13.000 F1200.000
G2 X91.540 Y18.614 Z13.000 I-19.065 J-4.716 K0.000 F1200.000
G1 X-18.608 Y-91.534 Z13.000 F1200.000
G3 X-17.488 Y-91.759 Z13.000 I4.461 J19.335 K0.000 F1200.000
G1 X91.754 Y17.483 Z13.000 F1200.000
G1 X91.969 Y16.353 Z13.000 F1200.000
G1 X-16.348 Y-91.964 Z13.000 F1200.000
G1 X-15.207 Y-92.168 Z13.000 F1200.000
G1 X92.161 Y15.200 Z13.000 F1200.000
G1 X92.346 Y14.041 Z13.000 F1200.000
G1 X-14.039 Y-92.344 Z13.000 F1200.000
G1 X-12.869 Y-92.520 Z13.000 F1200.000
G1 X92.518 Y12.867 Z13.000 F1200.000
G1 X92.673 Y11.678 Z13.000 F1200.000
G1 X-11.678 Y-92.674 Z13.000 F1200.000
G1 X-10.478 Y-92.818 Z13.000 F1200.000
G1 X92.822 Y10.481 Z13.000 F1200.000
G1 X92.945 Y9.260 Z13.000 F1200.000
G1 X-9.350 Y-93.036 Z13.000 F1200.000
G2 X-8.642 Y-93.672 Z13.000 I-0.541 J-1.316 K0.000 F1200.000
G1 X93.068 Y8.038 Z13.000 F1200.000
G1 X93.159 Y6.783 Z13.000 F1200.000
G1 X-8.415 Y-94.790 Z13.000 F1200.000
G1 X-8.415 Y-96.135 Z13.000 F1200.000
G1 X93.249 Y5.529 Z13.000 F1200.000
G2 X93.309 Y4.244 Z13.000 I-22.278 J-1.683 K0.000 F1200.000
G1 X-8.415 Y-97.480 Z13.000 F1200.000
G1 X-8.415 Y-98.825 Z13.000 F1200.000
G1 X93.365 Y2.955 Z13.000 F1200.000
G2 X93.391 Y1.636 Z13.000 I-22.873 J-1.121 K0.000 F1200.000
G1 X-8.415 Y-100.170 Z13.000 F1200.000
G1 X-8.415 Y-101.515 Z13.000 F1200.000
G1 X93.410 Y0.311 Z13.000 F1200.000
G2 X93.400 Y-1.045 Z13.000 I-23.562 J-0.495 K0.000 F1200.000
G1 X-8.415 Y-102.860 Z13.000 F1200.000
G1 X-8.415 Y-103.062 Z13.000 F1200.000
G1 X-7.359 Y-103.149 Z13.000 F1200.000
G1 X93.380 Y-2.409 Z13.000 F1200.000
G2 X93.328 Y-3.807 Z13.000 I-24.335 J0.212 K0.000 F1200.000
G1 X-6.092 Y-103.227 Z13.000 F1200.000
G1 X-4.817 Y-103.296 Z13.000 F1200.000
G1 X93.267 Y-5.212 Z13.000 F1200.000
G2 X93.168 Y-6.657 Z13.000 I-25.179 J1.009 K0.000 F1200.000
G1 X-3.523 Y-103.348 Z13.000 F1200.000
G1 X-2.214 Y-103.383 Z13.000 F1200.000
G1 X93.061 Y-8.108 Z13.000 F1200.000
G1 X92.910 Y-9.604 Z13.000 F1200.000
G1 X9.558 Y-92.956 Z13.000 F1200.000
G3 X8.487 Y-94.027 Z13.000 I0.406 J-1.477 K0.000 F1200.000
G1 X-0.891 Y-103.405 Z13.000 F1200.000
G1 X0.454 Y-103.405 Z13.000 F1200.000
G1 X8.415 Y-95.444 Z13.000 F1200.000
G1 X8.415 Y-96.789 Z13.000 F1200.000
G1 X1.810 Y-103.394 Z13.000 F1200.000
G1 X3.192 Y-103.357 Z13.000 F1200.000
G1 X8.415 Y-98.134 Z13.000 F1200.000
G1 X8.415 Y-99.479 Z13.000 F1200.000
G1 X4.585 Y-103.309 Z13.000 F1200.000
G1 X6.008 Y-103.231 Z13.000 F1200.000
G1 X8.415 Y-100.824 Z13.000 F1200.000
G1 X8.415 Y-102.169 Z13.000 F1200.000
G1 X7.442 Y-103.142 Z13.000 F1200.000
G1 X8.415 Y-103.062 Z13.000 F1200.000
G1 X8.415 Y-102.169 Z13.000 F1200.000
G1 X8.415 Y-103.062 Z13.000 F1200.000
G2 X1.409 Y-103.405 Z13.000 I-7.696 J85.473 K0.000 F1200.000
G2 X-8.415 Y-103.062 Z13.000 I-1.474 J98.659 K0.000 F1200.000
G1 X-8.415 Y-94.472 Z13.000 F1200.000
G3 X-9.810 Y-92.899 Z13.000 I-1.585 J0.000 K0.000 F1200.000
G2 X-9.253 Y92.955 Z13.000 I9.811 J92.898 K0.000 F1200.000
G2 X9.811 Y-92.899 Z13.000 I9.253 J-92.956 K0.000 F1200.000
G3 X8.415 Y-94.472 Z13.000 I0.189 J-1.574 K0.000 F1200.000
G1 X8.415 Y-102.169 Z13.000 F1200.000
G0 X8.415 Y-102.169 Z23.000
G0 X66.687 Y-65.415 Z23.000
G0 X66.687 Y-65.415 Z21.000
G1 X68.286 Y-63.748 Z19.667 F1200.000
G1 X69.841 Y-62.041 Z18.333 F1200.000
G1 X71.352 Y-60.295 Z17.000 F1200.000
G1 X69.841 Y-62.041 Z15.667 F1200.000
G1 X68.286 Y-63.748 Z14.333 F1200.000
G1 X66.687 Y-65.415 Z13.000 F1200.000
G3 X74.756 Y-56.001 Z13.000 I-64.578 J63.517 K0.000 F1200.000
G1 X55.996 Y-74.761 Z13.000 F1200.000
G2 X51.461 Y-77.951 Z13.000 I-41.529 J54.221 K0.000 F1200.000
G1 X77.954 Y-51.459 Z13.000 F1200.000
G3 X80.223 Y-47.844 Z13.000 I-49.787 J33.782 K0.000 F1200.000
G1 X47.826 Y-80.242 Z13.000 F1200.000
G2 X44.713 Y-82.009 Z13.000 I-31.260 J51.426 K0.000 F1200.000
G1 X82.007 Y-44.716 Z13.000 F1200.000
G3 X83.491 Y-41.887 Z13.000 I-48.473 J27.232 K0.000 F1200.000
G1 X41.895 Y-83.482 Z13.000 F1200.000
G2 X39.296 Y-84.737 Z13.000 I-23.133 J44.603 K0.000 F1200.000
G1 X84.749 Y-39.284 Z13.000 F1200.000
G3 X85.833 Y-36.855 Z13.000 I-41.710 J20.068 K0.000 F1200.000
G1 X36.866 Y-85.822 Z13.000 F1200.000
G2 X34.571 Y-86.772 Z13.000 I-17.669 J39.444 K0.000 F1200.000
G1 X86.778 Y-34.565 Z13.000 F1200.000
G3 X87.612 Y-32.386 Z13.000 I-37.487 J15.596 K0.000 F1200.000
G1 X32.386 Y-87.612 Z13.000 F1200.000
G2 X30.292 Y-88.361 Z13.000 I-14.082 J36.058 K0.000 F1200.000
G1 X88.355 Y-30.299 Z13.000 F1200.000
G3 X89.020 Y-28.288 Z13.000 I-34.651 J12.591 K0.000 F1200.000
G1 X28.278 Y-89.031 Z13.000 F1200.000
G2 X26.350 Y-89.613 Z13.000 I-11.098 J33.241 K0.000 F1200.000
G1 X89.622 Y-26.341 Z13.000 F1200.000
G1 X90.145 Y-24.474 Z13.000 F1200.000
G1 X24.477 Y-90.141 Z13.000 F1200.000
G2 X22.652 Y-90.622 Z13.000 I-9.279 J31.524 K0.000 F1200.000
G1 X90.615 Y-22.658 Z13.000 F1200.000
G3 X91.046 Y-20.883 Z13.000 I-30.668 J8.372 K0.000 F1200.000
G1 X20.884 Y-91.045 Z13.000 F1200.000
G2 X19.166 Y-91.418 Z13.000 I-7.348 J29.700 K0.000 F1200.000
G1 X91.422 Y-19.161 Z13.000 F1200.000
G3 X91.754 Y-17.485 Z13.000 I-29.004 J6.611 K0.000 F1200.000
G1 X17.478 Y-91.761 Z13.000 F1200.000
G1 X15.839 Y-92.055 Z13.000 F1200.000
G1 X92.061 Y-15.833 Z13.000 F1200.000
G1 X92.316 Y-14.233 Z13.000 F1200.000
G1 X14.234 Y-92.315 Z13.000 F1200.000
G1 X12.652 Y-92.552 Z13.000 F1200.000
G1 X92.546 Y-12.659 Z13.000 F1200.000
G1 X92.747 Y-11.113 Z13.000 F1200.000
G1 X11.118 Y-92.741 Z13.000 F1200.000
G1 X9.811 Y-92.899 Z13.000 F1200.000
G1 X9.558 Y-92.956 Z13.000 F1200.000
G1 X92.910 Y-9.604 Z13.000 F1200.000
G0 X92.910 Y-9.604 Z23.000
(Finish operation: RampEntryDressup)
(Begin operation: Profile)
(Path: Profile)
(Profile)
(Compensated Tool Path. Diameter: 3.17)
G0 Z23.000
G0 X66.054 Y66.054
G0 Z21.000
G1 X66.054 Y66.054 Z14.830 F1200.000
G2 X93.260 Y5.376 Z14.830 I-66.054 J-66.054 K0.000 F1200.000
G2 X9.811 Y-92.899 Z14.830 I-93.261 J-5.376 K0.000 F1200.000
G3 X8.415 Y-94.472 Z14.830 I0.189 J-1.574 K0.000 F1200.000
G1 X8.415 Y-103.062 Z14.830 F1200.000
G2 X-8.415 Y-103.062 Z14.830 I-8.415 J100.169 K0.000 F1200.000
G1 X-8.415 Y-94.472 Z14.830 F1200.000
G3 X-9.810 Y-92.899 Z14.830 I-1.585 J0.000 K0.000 F1200.000
G2 X-93.276 Y-5.085 Z14.830 I9.811 J92.899 K0.000 F1200.000
G2 X66.054 Y66.054 Z14.830 I93.276 J5.085 K0.000 F1200.000
G1 X66.054 Y66.054 Z13.000 F1200.000
G2 X93.260 Y5.376 Z13.000 I-66.054 J-66.054 K0.000 F1200.000
G2 X9.811 Y-92.899 Z13.000 I-93.261 J-5.376 K0.000 F1200.000
G3 X8.415 Y-94.472 Z13.000 I0.189 J-1.574 K0.000 F1200.000
G1 X8.415 Y-103.062 Z13.000 F1200.000
G2 X-8.415 Y-103.062 Z13.000 I-8.415 J100.169 K0.000 F1200.000
G1 X-8.415 Y-94.472 Z13.000 F1200.000
G3 X-9.810 Y-92.899 Z13.000 I-1.585 J0.000 K0.000 F1200.000
G2 X-93.276 Y-5.085 Z13.000 I9.811 J92.899 K0.000 F1200.000
G2 X66.054 Y66.054 Z13.000 I93.276 J5.085 K0.000 F1200.000
G0 Z23.000
G0 Z23.000
(Finish operation: Profile)
(Begin operation: RampEntryDressup001)
(Path: RampEntryDressup001)
G0 X0.000 Y0.000 Z23.000
G0 X76.583 Y76.661 Z23.000
G0 X76.583 Y76.661 Z21.000
G1 X78.449 Y74.749 Z19.458 F1200.000
G1 X80.267 Y72.791 Z17.915 F1200.000
G1 X78.449 Y74.749 Z16.372 F1200.000
G1 X76.583 Y76.661 Z14.830 F1200.000
G2 X108.337 Y-0.000 Z14.830 I-76.661 J-76.661 K0.000 F1200.000
G2 X-108.493 Y-0.000 Z14.830 I-108.415 J0.000 K0.000 F1200.000
G2 X76.583 Y76.661 Z14.830 I108.415 J-0.000 K0.000 F1200.000
G0 X76.583 Y76.661 Z23.000
G0 X77.096 Y76.145 Z23.000
G0 X77.096 Y76.145 Z21.000
G1 X75.197 Y78.024 Z19.457 F1200.000
G1 X73.252 Y79.855 Z17.915 F1200.000
G1 X75.197 Y78.024 Z16.373 F1200.000
G1 X77.096 Y76.145 Z14.830 F1200.000
G3 X65.795 Y86.101 Z14.830 I-76.224 J-75.129 K0.000 F1200.000
G1 X86.007 Y65.888 Z14.830 F1200.000
G2 X89.513 Y61.038 Z14.830 I-70.604 J-54.719 K0.000 F1200.000
G1 X78.886 Y71.665 Z14.830 F1200.000
G2 X85.262 Y63.943 Z14.830 I-73.562 J-67.243 K0.000 F1200.000
G1 X92.017 Y57.189 Z14.830 F1200.000
G2 X94.003 Y53.858 Z14.830 I-61.013 J-38.633 K0.000 F1200.000
G1 X88.540 Y59.321 Z14.830 F1200.000
G2 X90.952 Y55.564 Z14.830 I-54.273 J-37.498 K0.000 F1200.000
G1 X95.665 Y50.851 Z14.830 F1200.000
G2 X97.086 Y48.086 Z14.830 I-50.769 J-27.824 K0.000 F1200.000
G1 X92.847 Y52.324 Z14.830 F1200.000
G2 X94.444 Y49.382 Z14.830 I-52.915 J-30.627 K0.000 F1200.000
G1 X98.319 Y45.507 Z14.830 F1200.000
G2 X99.405 Y43.077 Z14.830 I-44.708 J-21.429 K0.000 F1200.000
G1 X95.815 Y46.666 Z14.830 F1200.000
G2 X97.012 Y44.125 Z14.830 I-45.863 J-23.144 K0.000 F1200.000
G1 X100.372 Y40.765 Z14.830 F1200.000
G2 X101.241 Y38.550 Z14.830 I-40.796 J-17.301 K0.000 F1200.000
G1 X98.069 Y41.722 Z14.830 F1200.000
G2 X99.015 Y39.432 Z14.830 I-41.520 J-18.481 K0.000 F1200.000
G1 X102.031 Y36.416 Z14.830 F1200.000
G1 X102.751 Y34.350 Z14.830 F1200.000
G1 X99.868 Y37.233 Z14.830 F1200.000
G1 X100.621 Y35.136 Z14.830 F1200.000
G1 X103.382 Y32.375 Z14.830 F1200.000
G2 X103.964 Y30.448 Z14.830 I-35.584 J-11.801 K0.000 F1200.000
G1 X101.301 Y33.110 Z14.830 F1200.000
G2 X101.927 Y31.140 Z14.830 I-35.860 J-12.473 K0.000 F1200.000
G1 X104.504 Y28.562 Z14.830 F1200.000
G1 X104.979 Y26.743 Z14.830 F1200.000
G1 X102.497 Y29.225 Z14.830 F1200.000
G2 X102.999 Y27.378 Z14.830 I-34.160 J-10.267 K0.000 F1200.000
G1 X105.415 Y24.962 Z14.830 F1200.000
G1 X105.822 Y23.210 Z14.830 F1200.000
G1 X103.467 Y25.565 Z14.830 F1200.000
G1 X103.888 Y23.799 Z14.830 F1200.000
G1 X106.171 Y21.516 Z14.830 F1200.000
G2 X106.501 Y19.841 Z14.830 I-31.024 J-6.989 K0.000 F1200.000
G1 X104.263 Y22.079 Z14.830 F1200.000
G2 X104.618 Y20.379 Z14.830 I-34.172 J-8.021 K0.000 F1200.000
G1 X106.789 Y18.208 Z14.830 F1200.000
G2 X107.051 Y16.602 Z14.830 I-29.776 J-5.672 K0.000 F1200.000
G1 X104.915 Y18.737 Z14.830 F1200.000
G2 X105.198 Y17.110 Z14.830 I-29.885 J-6.024 K0.000 F1200.000
G1 X107.286 Y15.022 Z14.830 F1200.000
G2 X107.487 Y13.475 Z14.830 I-28.693 J-4.529 K0.000 F1200.000
G1 X105.440 Y15.522 Z14.830 F1200.000
G2 X105.660 Y13.958 Z14.830 I-28.678 J-4.827 K0.000 F1200.000
G1 X107.673 Y11.944 Z14.830 F1200.000
G2 X107.823 Y10.450 Z14.830 I-27.749 J-3.533 K0.000 F1200.000
G1 X105.851 Y12.421 Z14.830 F1200.000
G2 X106.017 Y10.911 Z14.830 I-27.718 J-3.802 K0.000 F1200.000
G1 X107.963 Y8.965 Z14.830 F1200.000
G2 X108.067 Y7.516 Z14.830 I-26.921 J-2.659 K0.000 F1200.000
G1 X106.161 Y9.422 Z14.830 F1200.000
G2 X106.279 Y7.959 Z14.830 I-26.890 J-2.908 K0.000 F1200.000
G1 X108.164 Y6.074 Z14.830 F1200.000
G2 X108.227 Y4.666 Z14.830 I-26.191 J-1.889 K0.000 F1200.000
G1 X106.379 Y6.514 Z14.830 F1200.000
G2 X106.456 Y5.093 Z14.830 I-26.152 J-2.121 K0.000 F1200.000
G1 X108.284 Y3.264 Z14.830 F1200.000
G2 X108.312 Y1.891 Z14.830 I-25.544 J-1.206 K0.000 F1200.000
G1 X106.514 Y3.690 Z14.830 F1200.000
G2 X106.553 Y2.305 Z14.830 I-25.504 J-1.427 K0.000 F1200.000
G1 X108.330 Y0.528 Z14.830 F1200.000
G2 X108.326 Y-0.813 Z14.830 I-24.969 J-0.599 K0.000 F1200.000
G1 X106.572 Y0.941 Z14.830 F1200.000
G2 X106.579 Y-0.411 Z14.830 I-25.002 J-0.811 K0.000 F1200.000
G1 X108.308 Y-2.140 Z14.830 F1200.000
G2 X108.276 Y-3.453 Z14.830 I-24.455 J-0.057 K0.000 F1200.000
G1 X106.561 Y-1.738 Z14.830 F1200.000
G2 X106.540 Y-3.061 Z14.830 I-25.238 J-0.249 K0.000 F1200.000
G1 X108.224 Y-4.745 Z14.830 F1200.000
G2 X108.166 Y-6.033 Z14.830 I-23.994 J0.429 K0.000 F1200.000
G1 X106.486 Y-4.352 Z14.830 F1200.000
G1 X106.433 Y-5.644 Z14.830 F1200.000
G1 X108.082 Y-7.293 Z14.830 F1200.000
G1 X107.997 Y-8.553 Z14.830 F1200.000
G1 X106.352 Y-6.908 Z14.830 F1200.000
G1 X106.265 Y-8.166 Z14.830 F1200.000
G1 X107.885 Y-9.786 Z14.830 F1200.000
G1 X107.770 Y-11.016 Z14.830 F1200.000
G1 X106.162 Y-9.408 Z14.830 F1200.000
G1 X106.044 Y-10.635 Z14.830 F1200.000
G1 X107.639 Y-12.229 Z14.830 F1200.000
G1 X107.493 Y-13.429 Z14.830 F1200.000
G1 X105.922 Y-11.858 Z14.830 F1200.000
G1 X105.773 Y-13.053 Z14.830 F1200.000
G1 X107.345 Y-14.625 Z14.830 F1200.000
G1 X107.170 Y-15.796 Z14.830 F1200.000
G1 X105.624 Y-14.249 Z14.830 F1200.000
G2 X105.455 Y-15.426 Z14.830 I-21.872 J2.537 K0.000 F1200.000
G1 X106.996 Y-16.967 Z14.830 F1200.000
G2 X106.805 Y-18.120 Z14.830 I-21.566 J2.991 K0.000 F1200.000
G1 X105.277 Y-16.592 Z14.830 F1200.000
G2 X105.093 Y-17.754 Z14.830 I-21.840 J2.853 K0.000 F1200.000
G1 X106.603 Y-19.263 Z14.830 F1200.000
G2 X106.398 Y-20.403 Z14.830 I-21.323 J3.247 K0.000 F1200.000
G1 X104.887 Y-18.892 Z14.830 F1200.000
G1 X104.681 Y-20.031 Z14.830 F1200.000
G1 X106.170 Y-21.520 Z14.830 F1200.000
G1 X105.942 Y-22.637 Z14.830 F1200.000
G1 X104.457 Y-21.153 Z14.830 F1200.000
G1 X104.224 Y-22.264 Z14.830 F1200.000
G1 X105.699 Y-23.739 Z14.830 F1200.000
G1 X105.446 Y-24.831 Z14.830 F1200.000
G1 X103.990 Y-23.375 Z14.830 F1200.000
G1 X103.730 Y-24.460 Z14.830 F1200.000
G1 X105.192 Y-25.922 Z14.830 F1200.000
G2 X104.915 Y-26.989 Z14.830 I-20.009 J4.635 K0.000 F1200.000
G1 X103.471 Y-25.546 Z14.830 F1200.000
G2 X103.201 Y-26.621 Z14.830 I-20.036 J4.459 K0.000 F1200.000
G1 X104.636 Y-28.056 Z14.830 F1200.000
G2 X104.350 Y-29.115 Z14.830 I-19.852 J4.800 K0.000 F1200.000
G1 X102.917 Y-27.682 Z14.830 F1200.000
G1 X102.633 Y-28.743 Z14.830 F1200.000
G1 X104.048 Y-30.158 Z14.830 F1200.000
G1 X103.746 Y-31.200 Z14.830 F1200.000
G1 X102.330 Y-29.785 Z14.830 F1200.000
G1 X102.022 Y-30.821 Z14.830 F1200.000
G1 X103.429 Y-32.228 Z14.830 F1200.000
G1 X103.103 Y-33.248 Z14.830 F1200.000
G1 X101.712 Y-31.857 Z14.830 F1200.000
G1 X101.380 Y-32.870 Z14.830 F1200.000
G1 X102.778 Y-34.267 Z14.830 F1200.000
G2 X102.432 Y-35.266 Z14.830 I-18.762 J5.950 K0.000 F1200.000
G1 X101.048 Y-33.882 Z14.830 F1200.000
G2 X100.709 Y-34.889 Z14.830 I-18.899 J5.800 K0.000 F1200.000
G1 X102.084 Y-36.263 Z14.830 F1200.000
G2 X101.732 Y-37.256 Z14.830 I-18.664 J6.053 K0.000 F1200.000
G1 X100.354 Y-35.878 Z14.830 F1200.000
G1 X99.999 Y-36.868 Z14.830 F1200.000
G1 X101.362 Y-38.231 Z14.830 F1200.000
G1 X100.993 Y-39.206 Z14.830 F1200.000
G1 X99.633 Y-37.847 Z14.830 F1200.000
G1 X99.256 Y-38.814 Z14.830 F1200.000
G1 X100.614 Y-40.173 Z14.830 F1200.000
G1 X100.223 Y-41.127 Z14.830 F1200.000
G1 X98.878 Y-39.782 Z14.830 F1200.000
G2 X98.486 Y-40.735 Z14.830 I-17.900 J6.805 K0.000 F1200.000
G1 X99.832 Y-42.080 Z14.830 F1200.000
G2 X99.429 Y-43.022 Z14.830 I-17.735 J7.034 K0.000 F1200.000
G1 X98.087 Y-41.680 Z14.830 F1200.000
G1 X97.688 Y-42.626 Z14.830 F1200.000
G1 X99.016 Y-43.955 Z14.830 F1200.000
G1 X98.604 Y-44.887 Z14.830 F1200.000
G1 X97.271 Y-43.554 Z14.830 F1200.000
G1 X96.850 Y-44.479 Z14.830 F1200.000
G1 X98.177 Y-45.806 Z14.830 F1200.000
G1 X97.745 Y-46.718 Z14.830 F1200.000
G1 X96.430 Y-45.403 Z14.830 F1200.000
G2 X95.990 Y-46.308 Z14.830 I-17.770 J8.071 K0.000 F1200.000
G1 X97.312 Y-47.630 Z14.830 F1200.000
G2 X96.862 Y-48.525 Z14.830 I-16.895 J7.920 K0.000 F1200.000
G1 X95.548 Y-47.211 Z14.830 F1200.000
G2 X95.107 Y-48.115 Z14.830 I-131.360 J63.663 K0.000 F1200.000
G1 X96.409 Y-49.417 Z14.830 F1200.000
G1 X95.956 Y-50.309 Z14.830 F1200.000
G1 X94.645 Y-48.998 Z14.830 F1200.000
G1 X94.183 Y-49.881 Z14.830 F1200.000
G1 X95.485 Y-51.183 Z14.830 F1200.000
G1 X95.012 Y-52.055 Z14.830 F1200.000
G1 X93.720 Y-50.763 Z14.830 F1200.000
G1 X93.238 Y-51.625 Z14.830 F1200.000
G1 X94.540 Y-52.927 Z14.830 F1200.000
G2 X94.048 Y-53.780 Z14.830 I-16.124 J8.731 K0.000 F1200.000
G1 X92.755 Y-52.488 Z14.830 F1200.000
G2 X92.272 Y-53.349 Z14.830 I-17.389 J9.198 K0.000 F1200.000
G1 X93.555 Y-54.633 Z14.830 F1200.000
G2 X93.063 Y-55.485 Z14.830 I-16.111 J8.748 K0.000 F1200.000
G1 X91.770 Y-54.192 Z14.830 F1200.000
G1 X91.267 Y-55.035 Z14.830 F1200.000
G1 X92.551 Y-56.318 Z14.830 F1200.000
G1 X92.040 Y-57.152 Z14.830 F1200.000
G1 X90.764 Y-55.876 Z14.830 F1200.000
G1 X90.242 Y-56.699 Z14.830 F1200.000
G1 X91.527 Y-57.984 Z14.830 F1200.000
G1 X90.997 Y-58.799 Z14.830 F1200.000
G1 X89.720 Y-57.522 Z14.830 F1200.000
G2 X89.197 Y-58.344 Z14.830 I-16.846 J10.139 K0.000 F1200.000
G1 X90.466 Y-59.613 Z14.830 F1200.000
G2 X89.935 Y-60.427 Z14.830 I-15.409 J9.488 K0.000 F1200.000
G1 X88.656 Y-59.148 Z14.830 F1200.000
G1 X88.115 Y-59.952 Z14.830 F1200.000
G1 X89.386 Y-61.222 Z14.830 F1200.000
G1 X88.836 Y-62.018 Z14.830 F1200.000
G1 X87.574 Y-60.755 Z14.830 F1200.000
G1 X87.013 Y-61.540 Z14.830 F1200.000
G1 X88.286 Y-62.813 Z14.830 F1200.000
G1 X87.718 Y-63.590 Z14.830 F1200.000
G1 X86.453 Y-62.325 Z14.830 F1200.000
G2 X85.893 Y-63.109 Z14.830 I-114.235 J80.972 K0.000 F1200.000
G1 X87.151 Y-64.367 Z14.830 F1200.000
G2 X86.583 Y-65.144 Z14.830 I-14.745 J10.189 K0.000 F1200.000
G1 X85.314 Y-63.875 Z14.830 F1200.000
G1 X84.735 Y-64.641 Z14.830 F1200.000
G1 X85.996 Y-65.903 Z14.830 F1200.000
G1 X85.410 Y-66.661 Z14.830 F1200.000
G1 X84.156 Y-65.407 Z14.830 F1200.000
G2 X83.559 Y-66.155 Z14.830 I-15.047 J11.384 K0.000 F1200.000
G1 X84.824 Y-67.420 Z14.830 F1200.000
G2 X84.220 Y-68.161 Z14.830 I-14.092 J10.878 K0.000 F1200.000
G1 X82.961 Y-66.902 Z14.830 F1200.000
G1 X82.363 Y-67.649 Z14.830 F1200.000
G1 X83.615 Y-68.901 Z14.830 F1200.000
G1 X83.011 Y-69.641 Z14.830 F1200.000
G1 X81.749 Y-68.380 Z14.830 F1200.000
G1 X81.132 Y-69.108 Z14.830 F1200.000
G1 X82.389 Y-70.365 Z14.830 F1200.000
G1 X81.766 Y-71.087 Z14.830 F1200.000
G1 X80.515 Y-69.836 Z14.830 F1200.000
G2 X79.884 Y-70.550 Z14.830 I-13.702 J11.480 K0.000 F1200.000
G1 X81.144 Y-71.809 Z14.830 F1200.000
G2 X80.505 Y-72.515 Z14.830 I-13.466 J11.538 K0.000 F1200.000
G1 X79.249 Y-71.259 Z14.830 F1200.000
G1 X78.614 Y-71.969 Z14.830 F1200.000
G1 X79.864 Y-73.219 Z14.830 F1200.000
G1 X79.223 Y-73.924 Z14.830 F1200.000
G1 X77.965 Y-72.666 Z14.830 F1200.000
G1 X77.311 Y-73.357 Z14.830 F1200.000
G1 X78.567 Y-74.613 Z14.830 F1200.000
G1 X77.908 Y-75.299 Z14.830 F1200.000
G1 X76.657 Y-74.048 Z14.830 F1200.000
G2 X75.992 Y-74.727 Z14.830 I-12.967 J12.021 K0.000 F1200.000
G1 X77.250 Y-75.985 Z14.830 F1200.000
G2 X76.577 Y-76.657 Z14.830 I-12.850 J12.189 K0.000 F1200.000
G1 X75.320 Y-75.400 Z14.830 F1200.000
G1 X74.647 Y-76.072 Z14.830 F1200.000
G1 X75.900 Y-77.325 Z14.830 F1200.000
G1 X75.223 Y-77.993 Z14.830 F1200.000
G1 X73.965 Y-76.735 Z14.830 F1200.000
G1 X73.274 Y-77.389 Z14.830 F1200.000
G1 X74.533 Y-78.648 Z14.830 F1200.000
G1 X73.838 Y-79.298 Z14.830 F1200.000
G1 X72.583 Y-78.043 Z14.830 F1200.000
G2 X71.885 Y-78.689 Z14.830 I-12.348 J12.659 K0.000 F1200.000
G1 X73.143 Y-79.948 Z14.830 F1200.000
G2 X72.436 Y-80.586 Z14.830 I-12.234 J12.838 K0.000 F1200.000
G1 X71.175 Y-79.324 Z14.830 F1200.000
G1 X70.465 Y-79.960 Z14.830 F1200.000
G1 X71.723 Y-81.218 Z14.830 F1200.000
G1 X71.010 Y-81.849 Z14.830 F1200.000
G1 X69.749 Y-80.589 Z14.830 F1200.000
G1 X69.021 Y-81.206 Z14.830 F1200.000
G1 X70.286 Y-82.470 Z14.830 F1200.000
G1 X69.555 Y-83.084 Z14.830 F1200.000
G1 X68.293 Y-81.822 Z14.830 F1200.000
G2 X67.560 Y-82.434 Z14.830 I-11.798 J13.394 K0.000 F1200.000
G1 X68.824 Y-83.698 Z14.830 F1200.000
G2 X68.082 Y-84.301 Z14.830 I-11.610 J13.496 K0.000 F1200.000
G1 X66.813 Y-83.032 Z14.830 F1200.000
G1 X66.066 Y-83.630 Z14.830 F1200.000
G1 X67.333 Y-84.897 Z14.830 F1200.000
G1 X66.583 Y-85.492 Z14.830 F1200.000
G1 X65.316 Y-84.224 Z14.830 F1200.000
G1 X64.550 Y-84.804 Z14.830 F1200.000
G1 X65.825 Y-86.078 Z14.830 F1200.000
G1 X65.057 Y-86.655 Z14.830 F1200.000
G1 X63.784 Y-85.383 Z14.830 F1200.000
G2 X63.016 Y-85.959 Z14.830 I-11.370 J14.349 K0.000 F1200.000
G1 X64.289 Y-87.232 Z14.830 F1200.000
G2 X63.512 Y-87.801 Z14.830 I-10.969 J14.173 K0.000 F1200.000
G1 X62.231 Y-86.520 Z14.830 F1200.000
G1 X61.447 Y-87.080 Z14.830 F1200.000
G1 X62.726 Y-88.359 Z14.830 F1200.000
G1 X61.939 Y-88.918 Z14.830 F1200.000
G1 X60.660 Y-87.638 Z14.830 F1200.000
G1 X59.856 Y-88.180 Z14.830 F1200.000
G1 X61.145 Y-89.468 Z14.830 F1200.000
G1 X60.340 Y-90.008 Z14.830 F1200.000
G1 X59.052 Y-88.721 Z14.830 F1200.000
G2 X58.248 Y-89.261 Z14.830 I-11.286 J15.955 K0.000 F1200.000
G1 X59.535 Y-90.548 Z14.830 F1200.000
G2 X58.721 Y-91.079 Z14.830 I-10.300 J14.879 K0.000 F1200.000
G1 X57.424 Y-89.782 Z14.830 F1200.000
G1 X56.601 Y-90.304 Z14.830 F1200.000
G1 X57.897 Y-91.600 Z14.830 F1200.000
G1 X57.073 Y-92.121 Z14.830 F1200.000
G1 X55.777 Y-90.825 Z14.830 F1200.000
G1 X54.934 Y-91.327 Z14.830 F1200.000
G1 X56.240 Y-92.633 Z14.830 F1200.000
G1 X55.397 Y-93.135 Z14.830 F1200.000
G1 X54.092 Y-91.829 Z14.830 F1200.000
G2 X53.248 Y-92.330 Z14.830 I-10.665 J16.995 K0.000 F1200.000
G1 X54.554 Y-93.637 Z14.830 F1200.000
G2 X53.702 Y-94.129 Z14.830 I-9.592 J15.626 K0.000 F1200.000
G1 X52.385 Y-92.813 Z14.830 F1200.000
G1 X51.523 Y-93.295 Z14.830 F1200.000
G1 X52.840 Y-94.612 Z14.830 F1200.000
G1 X51.977 Y-95.095 Z14.830 F1200.000
G1 X50.658 Y-93.776 Z14.830 F1200.000
G1 X49.776 Y-94.238 Z14.830 F1200.000
G1 X51.104 Y-95.566 Z14.830 F1200.000
G1 X50.222 Y-96.029 Z14.830 F1200.000
G1 X48.893 Y-94.700 Z14.830 F1200.000
G2 X48.007 Y-95.159 Z14.830 I-9.191 J16.632 K0.000 F1200.000
G1 X49.340 Y-96.492 Z14.830 F1200.000
G2 X48.445 Y-96.942 Z14.830 I-8.832 J16.428 K0.000 F1200.000
G1 X47.104 Y-95.601 Z14.830 F1200.000
G1 X46.201 Y-96.043 Z14.830 F1200.000
G1 X47.543 Y-97.385 Z14.830 F1200.000
G1 X46.641 Y-97.828 Z14.830 F1200.000
G1 X45.293 Y-96.480 Z14.830 F1200.000
G1 X44.369 Y-96.901 Z14.830 F1200.000
G1 X45.725 Y-98.256 Z14.830 F1200.000
G1 X44.802 Y-98.679 Z14.830 F1200.000
G1 X43.445 Y-97.321 Z14.830 F1200.000
G2 X42.513 Y-97.735 Z14.830 I-8.162 J17.107 K0.000 F1200.000
G1 X43.880 Y-99.102 Z14.830 F1200.000
G2 X42.940 Y-99.506 Z14.830 I-8.004 J17.302 K0.000 F1200.000
G1 X41.568 Y-98.134 Z14.830 F1200.000
G1 X40.622 Y-98.534 Z14.830 F1200.000
G1 X41.997 Y-99.908 Z14.830 F1200.000
G2 X41.053 Y-100.309 Z14.830 I-7.943 J17.364 K0.000 F1200.000
G1 X39.667 Y-98.923 Z14.830 F1200.000
G1 X38.699 Y-99.301 Z14.830 F1200.000
G1 X40.089 Y-100.690 Z14.830 F1200.000
G1 X39.124 Y-101.071 Z14.830 F1200.000
G1 X37.732 Y-99.678 Z14.830 F1200.000
G2 X36.750 Y-100.041 Z14.830 I-7.234 J18.030 K0.000 F1200.000
G1 X38.155 Y-101.447 Z14.830 F1200.000
G1 X37.169 Y-101.805 Z14.830 F1200.000
G1 X35.761 Y-100.397 Z14.830 F1200.000
G1 X34.771 Y-100.752 Z14.830 F1200.000
G1 X36.183 Y-102.164 Z14.830 F1200.000
G2 X35.188 Y-102.513 Z14.830 I-6.997 J18.364 K0.000 F1200.000
G1 X33.762 Y-101.088 Z14.830 F1200.000
G1 X32.749 Y-101.420 Z14.830 F1200.000
G1 X34.179 Y-102.850 Z14.830 F1200.000
G1 X33.171 Y-103.187 Z14.830 F1200.000
G1 X31.734 Y-101.750 Z14.830 F1200.000
G1 X30.698 Y-102.059 Z14.830 F1200.000
G1 X32.147 Y-103.507 Z14.830 F1200.000
G1 X31.115 Y-103.821 Z14.830 F1200.000
G1 X29.662 Y-102.367 Z14.830 F1200.000
G2 X28.616 Y-102.667 Z14.830 I-6.079 J19.228 K0.000 F1200.000
G1 X30.084 Y-104.135 Z14.830 F1200.000
G1 X29.030 Y-104.425 Z14.830 F1200.000
G1 X27.556 Y-102.951 Z14.830 F1200.000
G1 X26.495 Y-103.235 Z14.830 F1200.000
G1 X27.975 Y-104.715 Z14.830 F1200.000
G2 X26.912 Y-104.997 Z14.830 I-5.781 J19.648 K0.000 F1200.000
G1 X25.417 Y-103.502 Z14.830 F1200.000
G1 X24.331 Y-103.761 Z14.830 F1200.000
G1 X25.833 Y-105.263 Z14.830 F1200.000
G1 X24.754 Y-105.529 Z14.830 F1200.000
G1 X23.244 Y-104.019 Z14.830 F1200.000
G1 X22.132 Y-104.252 Z14.830 F1200.000
G1 X23.657 Y-105.777 Z14.830 F1200.000
G1 X22.553 Y-106.018 Z14.830 F1200.000
G1 X21.020 Y-104.485 Z14.830 F1200.000
G2 X19.896 Y-104.706 Z14.830 I-4.638 J20.685 K0.000 F1200.000
G1 X21.445 Y-106.255 Z14.830 F1200.000
G1 X20.315 Y-106.470 Z14.830 F1200.000
G1 X18.757 Y-104.912 Z14.830 F1200.000
G1 X17.618 Y-105.118 Z14.830 F1200.000
G1 X19.185 Y-106.685 Z14.830 F1200.000
G2 X18.039 Y-106.883 Z14.830 I-4.267 J21.245 K0.000 F1200.000
G1 X16.453 Y-105.298 Z14.830 F1200.000
G1 X15.287 Y-105.476 Z14.830 F1200.000
G1 X16.882 Y-107.071 Z14.830 F1200.000
G2 X15.721 Y-107.256 Z14.830 I-4.013 J21.513 K0.000 F1200.000
G1 X14.107 Y-105.641 Z14.830 F1200.000
G1 X12.911 Y-105.790 Z14.830 F1200.000
G1 X14.536 Y-107.416 Z14.830 F1200.000
G1 X13.351 Y-107.576 Z14.830 F1200.000
G1 X11.715 Y-105.939 Z14.830 F1200.000
G2 X10.489 Y-106.058 Z14.830 I-16.131 J160.270 K0.000 F1200.000
G1 X12.146 Y-107.715 Z14.830 F1200.000
G1 X10.932 Y-107.846 Z14.830 F1200.000
G1 X9.262 Y-106.177 Z14.830 F1200.000
G2 X8.016 Y-106.275 Z14.830 I-2.449 J22.986 K0.000 F1200.000
G1 X9.709 Y-107.968 Z14.830 F1200.000
G1 X8.464 Y-108.068 Z14.830 F1200.000
G1 X6.758 Y-106.362 Z14.830 F1200.000
G2 X5.490 Y-106.439 Z14.830 I-2.059 J23.442 K0.000 F1200.000
G1 X7.220 Y-108.169 Z14.830 F1200.000
G2 X5.944 Y-108.238 Z14.830 I-1.927 J23.713 K0.000 F1200.000
G1 X4.199 Y-106.492 Z14.830 F1200.000
G2 X2.906 Y-106.545 Z14.830 I-1.816 J28.699 K0.000 F1200.000
G1 X4.668 Y-108.306 Z14.830 F1200.000
G2 X3.368 Y-108.352 Z14.830 I-1.490 J24.175 K0.000 F1200.000
G1 X1.580 Y-106.563 Z14.830 F1200.000
G1 X0.253 Y-106.582 Z14.830 F1200.000
G1 X2.058 Y-108.387 Z14.830 F1200.000
G2 X0.732 Y-108.405 Z14.830 I-1.004 J24.688 K0.000 F1200.000
G1 X-1.103 Y-106.570 Z14.830 F1200.000
G1 X-2.467 Y-106.551 Z14.830 F1200.000
G1 X-0.613 Y-108.405 Z14.830 F1200.000
G2 X-1.970 Y-108.393 Z14.830 I-0.460 J25.262 K0.000 F1200.000
G1 X-3.857 Y-106.507 Z14.830 F1200.000
G1 X-5.260 Y-106.449 Z14.830 F1200.000
G1 X-3.352 Y-108.356 Z14.830 F1200.000
G2 X-4.742 Y-108.311 Z14.830 I0.150 J25.906 K0.000 F1200.000
G1 X-6.686 Y-106.367 Z14.830 F1200.000
G1 X-8.131 Y-106.267 Z14.830 F1200.000
G1 X-6.163 Y-108.234 Z14.830 F1200.000
G2 X-7.592 Y-108.151 Z14.830 I0.837 J26.630 K0.000 F1200.000
G1 X-9.599 Y-106.144 Z14.830 F1200.000
G1 X-11.088 Y-106.000 Z14.830 F1200.000
G1 X-9.055 Y-108.033 Z14.830 F1200.000
G2 X-10.526 Y-107.907 Z14.830 I1.614 J27.450 K0.000 F1200.000
G1 X-12.604 Y-105.829 Z14.830 F1200.000
G1 X-14.140 Y-105.637 Z14.830 F1200.000
G1 X-12.033 Y-107.744 Z14.830 F1200.000
G2 X-13.553 Y-107.569 Z14.830 I2.498 J28.383 K0.000 F1200.000
G1 X-15.711 Y-105.411 Z14.830 F1200.000
G1 X-17.299 Y-105.169 Z14.830 F1200.000
G1 X-15.108 Y-107.359 Z14.830 F1200.000
G2 X-16.684 Y-107.129 Z14.830 I3.508 J29.449 K0.000 F1200.000
G1 X-18.932 Y-104.880 Z14.830 F1200.000
G2 X-20.580 Y-104.577 Z14.830 I4.892 J31.282 K0.000 F1200.000
G1 X-18.290 Y-106.868 Z14.830 F1200.000
G2 X-19.930 Y-106.573 Z14.830 I4.670 J30.675 K0.000 F1200.000
G1 X-22.282 Y-104.221 Z14.830 F1200.000
G2 X-24.009 Y-103.838 Z14.830 I6.164 J31.931 K0.000 F1200.000
G1 X-21.590 Y-106.257 Z14.830 F1200.000
G2 X-23.304 Y-105.888 Z14.830 I6.015 J32.094 K0.000 F1200.000
G1 X-25.775 Y-103.417 Z14.830 F1200.000
G2 X-27.597 Y-102.940 Z14.830 I7.888 J33.863 K0.000 F1200.000
G1 X-25.040 Y-105.497 Z14.830 F1200.000
G1 X-26.825 Y-105.057 Z14.830 F1200.000
G1 X-29.452 Y-102.429 Z14.830 F1200.000
G1 X-31.367 Y-101.859 Z14.830 F1200.000
G1 X-28.656 Y-104.570 Z14.830 F1200.000
G2 X-30.523 Y-104.048 Z14.830 I8.782 J35.015 K0.000 F1200.000
G1 X-33.349 Y-101.223 Z14.830 F1200.000
G2 X-35.385 Y-100.531 Z14.830 I11.670 J37.694 K0.000 F1200.000
G1 X-32.456 Y-103.460 Z14.830 F1200.000
G2 X-34.450 Y-102.812 Z14.830 I11.080 J37.440 K0.000 F1200.000
G1 X-37.489 Y-99.773 Z14.830 F1200.000
G1 X-39.694 Y-98.912 Z14.830 F1200.000
G1 X-36.501 Y-102.105 Z14.830 F1200.000
G2 X-38.621 Y-101.331 Z14.830 I13.357 J39.842 K0.000 F1200.000
G1 X-41.999 Y-97.952 Z14.830 F1200.000
G2 X-44.418 Y-96.878 Z14.830 I18.461 J44.832 K0.000 F1200.000
G1 X-40.842 Y-100.454 Z14.830 F1200.000
G2 X-43.165 Y-99.477 Z14.830 I17.031 J43.719 K0.000 F1200.000
G1 X-46.979 Y-95.662 Z14.830 F1200.000
G2 X-49.718 Y-94.268 Z14.830 I24.105 J50.747 K0.000 F1200.000
G1 X-45.603 Y-98.384 Z14.830 F1200.000
G2 X-48.184 Y-97.147 Z14.830 I21.722 J48.669 K0.000 F1200.000
G1 X-52.687 Y-92.644 Z14.830 F1200.000
G2 X-55.975 Y-90.701 Z14.830 I30.737 J55.767 K0.000 F1200.000
G1 X-50.944 Y-95.732 Z14.830 F1200.000
G2 X-53.935 Y-94.086 Z14.830 I29.142 J56.498 K0.000 F1200.000
G1 X-59.811 Y-88.210 Z14.830 F1200.000
G2 X-64.600 Y-84.765 Z14.830 I47.016 J70.424 K0.000 F1200.000
G1 X-57.272 Y-92.094 Z14.830 F1200.000
G2 X-61.126 Y-89.585 Z14.830 I44.779 J72.998 K0.000 F1200.000
G1 X-74.151 Y-76.560 Z14.830 F1200.000
G2 X-89.658 Y-61.052 Z14.830 I3228.717 J3244.224 K0.000 F1200.000
G3 X-86.148 Y-65.908 Z14.830 I65.452 J43.626 K0.000 F1200.000
G3 X-65.969 Y-86.087 Z14.830 I85.495 J65.316 K0.000 F1200.000
G1 X-86.148 Y-65.908 Z14.830 F1200.000
G0 X-86.148 Y-65.908 Z23.000
G0 X-84.652 Y-64.764 Z23.000
G0 X-84.652 Y-64.764 Z21.000
G1 X-83.002 Y-66.865 Z19.457 F1200.000
G1 X-81.300 Y-68.925 Z17.915 F1200.000
G1 X-83.002 Y-66.865 Z16.372 F1200.000
G1 X-84.652 Y-64.764 Z14.830 F1200.000
G3 X106.585 Y-0.000 Z14.830 I84.652 J64.764 K0.000 F1200.000
G3 X-106.585 Y0.022 Z14.830 I-106.585 J0.000 K0.000 F1200.000
G3 X-84.652 Y-64.764 Z14.830 I106.585 J-0.022 K0.000 F1200.000
G0 X-84.652 Y-64.764 Z23.000
G0 X-89.658 Y-61.052 Z23.000
G0 X-89.658 Y-61.052 Z21.000
G1 X-85.880 Y-64.831 Z17.915 F1200.000
G1 X-89.658 Y-61.052 Z14.830 F1200.000
G1 X-76.560 Y-74.151 Z14.830 F1200.000
G2 X-84.765 Y-64.600 Z14.830 I74.220 J72.069 K0.000 F1200.000
G1 X-92.165 Y-57.201 Z14.830 F1200.000
G2 X-94.152 Y-53.869 Z14.830 I61.031 J38.652 K0.000 F1200.000
G1 X-88.210 Y-59.811 Z14.830 F1200.000
G2 X-90.701 Y-55.975 Z14.830 I68.679 J47.324 K0.000 F1200.000
G1 X-95.815 Y-50.861 Z14.830 F1200.000
G2 X-97.236 Y-48.095 Z14.830 I50.781 J27.837 K0.000 F1200.000
G1 X-92.644 Y-52.687 Z14.830 F1200.000
G2 X-94.268 Y-49.718 Z14.830 I53.432 J31.155 K0.000 F1200.000
G1 X-98.470 Y-45.516 Z14.830 F1200.000
G2 X-99.557 Y-43.085 Z14.830 I44.717 J21.438 K0.000 F1200.000
G1 X-95.662 Y-46.979 Z14.830 F1200.000
G2 X-96.878 Y-44.418 Z14.830 I46.213 J23.511 K0.000 F1200.000
G1 X-100.524 Y-40.772 Z14.830 F1200.000
G2 X-101.394 Y-38.557 Z14.830 I40.803 J17.308 K0.000 F1200.000
G1 X-97.952 Y-41.999 Z14.830 F1200.000
G2 X-98.912 Y-39.694 Z14.830 I41.965 J18.832 K0.000 F1200.000
G1 X-102.184 Y-36.423 Z14.830 F1200.000
G1 X-102.904 Y-34.357 Z14.830 F1200.000
G1 X-99.773 Y-37.489 Z14.830 F1200.000
G2 X-100.531 Y-35.385 Z14.830 I39.630 J15.475 K0.000 F1200.000
G1 X-103.535 Y-32.381 Z14.830 F1200.000
G2 X-104.118 Y-30.454 Z14.830 I35.589 J11.806 K0.000 F1200.000
G1 X-101.223 Y-33.349 Z14.830 F1200.000
G2 X-101.859 Y-31.367 Z14.830 I36.164 J12.705 K0.000 F1200.000
G1 X-104.658 Y-28.569 Z14.830 F1200.000
G1 X-105.133 Y-26.749 Z14.830 F1200.000
G1 X-102.429 Y-29.452 Z14.830 F1200.000
G2 X-102.940 Y-27.597 Z14.830 I33.928 J10.334 K0.000 F1200.000
G1 X-105.569 Y-24.968 Z14.830 F1200.000
G1 X-105.976 Y-23.216 Z14.830 F1200.000
G1 X-103.417 Y-25.775 Z14.830 F1200.000
G1 X-103.838 Y-24.009 Z14.830 F1200.000
G1 X-106.325 Y-21.522 Z14.830 F1200.000
G2 X-106.656 Y-19.847 Z14.830 I31.028 J6.993 K0.000 F1200.000
G1 X-104.221 Y-22.282 Z14.830 F1200.000
G1 X-104.577 Y-20.580 Z14.830 F1200.000
G1 X-106.944 Y-18.214 Z14.830 F1200.000
G2 X-107.205 Y-16.607 Z14.830 I29.779 J5.675 K0.000 F1200.000
G1 X-104.880 Y-18.932 Z14.830 F1200.000
G2 X-105.169 Y-17.299 Z14.830 I30.280 J6.197 K0.000 F1200.000
G1 X-107.440 Y-15.027 Z14.830 F1200.000
G2 X-107.642 Y-13.480 Z14.830 I28.696 J4.532 K0.000 F1200.000
G1 X-105.411 Y-15.711 Z14.830 F1200.000
G2 X-105.637 Y-14.140 Z14.830 I28.840 J4.949 K0.000 F1200.000
G1 X-107.828 Y-11.950 Z14.830 F1200.000
G2 X-107.978 Y-10.455 Z14.830 I27.752 J3.536 K0.000 F1200.000
G1 X-105.829 Y-12.604 Z14.830 F1200.000
G2 X-106.000 Y-11.088 Z14.830 I27.826 J3.910 K0.000 F1200.000
G1 X-108.118 Y-8.970 Z14.830 F1200.000
G2 X-108.222 Y-7.521 Z14.830 I26.923 J2.662 K0.000 F1200.000
G1 X-106.144 Y-9.599 Z14.830 F1200.000
G2 X-106.267 Y-8.131 Z14.830 I26.977 J3.007 K0.000 F1200.000
G1 X-108.319 Y-6.079 Z14.830 F1200.000
G2 X-108.383 Y-4.670 Z14.830 I26.193 J1.891 K0.000 F1200.000
G1 X-106.367 Y-6.686 Z14.830 F1200.000
G2 X-106.449 Y-5.260 Z14.830 I26.243 J2.215 K0.000 F1200.000
G1 X-108.439 Y-3.269 Z14.830 F1200.000
G2 X-108.467 Y-1.896 Z14.830 I25.546 J1.209 K0.000 F1200.000
G1 X-106.507 Y-3.857 Z14.830 F1200.000
G2 X-106.551 Y-2.467 Z14.830 I25.631 J1.517 K0.000 F1200.000
G1 X-108.485 Y-0.533 Z14.830 F1200.000
G2 X-108.482 Y0.808 Z14.830 I24.971 J0.602 K0.000 F1200.000
G1 X-106.570 Y-1.103 Z14.830 F1200.000
G2 X-106.582 Y0.253 Z14.830 I25.272 J0.897 K0.000 F1200.000
G1 X-108.464 Y2.135 Z14.830 F1200.000
G2 X-108.432 Y3.448 Z14.830 I24.457 J0.059 K0.000 F1200.000
G1 X-106.563 Y1.580 Z14.830 F1200.000
G1 X-106.545 Y2.906 Z14.830 F1200.000
G1 X-108.380 Y4.741 Z14.830 F1200.000
G2 X-108.322 Y6.029 Z14.830 I23.996 J-0.427 K0.000 F1200.000
G1 X-106.492 Y4.199 Z14.830 F1200.000
G1 X-106.439 Y5.490 Z14.830 F1200.000
G1 X-108.238 Y7.289 Z14.830 F1200.000
G1 X-108.153 Y8.549 Z14.830 F1200.000
G1 X-106.362 Y6.758 Z14.830 F1200.000
G1 X-106.275 Y8.016 Z14.830 F1200.000
G1 X-108.041 Y9.782 Z14.830 F1200.000
G1 X-107.925 Y11.011 Z14.830 F1200.000
G1 X-106.177 Y9.262 Z14.830 F1200.000
G1 X-106.058 Y10.489 Z14.830 F1200.000
G1 X-107.795 Y12.225 Z14.830 F1200.000
G1 X-107.649 Y13.425 Z14.830 F1200.000
G1 X-105.939 Y11.715 Z14.830 F1200.000
G2 X-105.790 Y12.911 Z14.830 I35.046 J-3.751 K0.000 F1200.000
G1 X-107.501 Y14.621 Z14.830 F1200.000
G1 X-107.327 Y15.792 Z14.830 F1200.000
G1 X-105.641 Y14.107 Z14.830 F1200.000
G2 X-105.476 Y15.287 Z14.830 I21.885 J-2.464 K0.000 F1200.000
G1 X-107.152 Y16.963 Z14.830 F1200.000
G2 X-106.961 Y18.116 Z14.830 I21.567 J-2.990 K0.000 F1200.000
G1 X-105.298 Y16.453 Z14.830 F1200.000
G2 X-105.118 Y17.618 Z14.830 I22.974 J-2.955 K0.000 F1200.000
G1 X-106.759 Y19.260 Z14.830 F1200.000
G2 X-106.554 Y20.400 Z14.830 I21.325 J-3.246 K0.000 F1200.000
G1 X-104.912 Y18.757 Z14.830 F1200.000
G1 X-104.706 Y19.896 Z14.830 F1200.000
G1 X-106.326 Y21.516 Z14.830 F1200.000
G1 X-106.098 Y22.633 Z14.830 F1200.000
G1 X-104.485 Y21.020 Z14.830 F1200.000
G1 X-104.252 Y22.132 Z14.830 F1200.000
G1 X-105.856 Y23.736 Z14.830 F1200.000
G1 X-105.602 Y24.827 Z14.830 F1200.000
G1 X-104.019 Y23.244 Z14.830 F1200.000
G2 X-103.761 Y24.331 Z14.830 I21.764 J-4.582 K0.000 F1200.000
G1 X-105.349 Y25.918 Z14.830 F1200.000
G2 X-105.071 Y26.986 Z14.830 I20.009 J-4.634 K0.000 F1200.000
G1 X-103.502 Y25.417 Z14.830 F1200.000
G2 X-103.235 Y26.495 Z14.830 I20.150 J-4.417 K0.000 F1200.000
G1 X-104.793 Y28.053 Z14.830 F1200.000
G2 X-104.507 Y29.111 Z14.830 I19.853 J-4.798 K0.000 F1200.000
G1 X-102.951 Y27.556 Z14.830 F1200.000
G1 X-102.667 Y28.616 Z14.830 F1200.000
G1 X-104.205 Y30.154 Z14.830 F1200.000
G1 X-103.903 Y31.197 Z14.830 F1200.000
G1 X-102.367 Y29.662 Z14.830 F1200.000
G1 X-102.059 Y30.698 Z14.830 F1200.000
G1 X-103.585 Y32.225 Z14.830 F1200.000
G1 X-103.260 Y33.244 Z14.830 F1200.000
G1 X-101.750 Y31.734 Z14.830 F1200.000
G2 X-101.420 Y32.749 Z14.830 I19.928 J-5.925 K0.000 F1200.000
G1 X-102.935 Y34.264 Z14.830 F1200.000
G2 X-102.588 Y35.263 Z14.830 I18.764 J-5.948 K0.000 F1200.000
G1 X-101.088 Y33.762 Z14.830 F1200.000
G2 X-100.752 Y34.771 Z14.830 I19.187 J-5.828 K0.000 F1200.000
G1 X-102.241 Y36.260 Z14.830 F1200.000
G2 X-101.889 Y37.253 Z14.830 I18.666 J-6.051 K0.000 F1200.000
G1 X-100.397 Y35.761 Z14.830 F1200.000
G1 X-100.041 Y36.750 Z14.830 F1200.000
G1 X-101.519 Y38.228 Z14.830 F1200.000
G1 X-101.149 Y39.203 Z14.830 F1200.000
G1 X-99.678 Y37.732 Z14.830 F1200.000
G1 X-99.301 Y38.699 Z14.830 F1200.000
G1 X-100.771 Y40.170 Z14.830 F1200.000
G1 X-100.380 Y41.124 Z14.830 F1200.000
G1 X-98.923 Y39.667 Z14.830 F1200.000
G2 X-98.534 Y40.622 Z14.830 I17.905 J-6.738 K0.000 F1200.000
G1 X-99.989 Y42.077 Z14.830 F1200.000
G2 X-99.586 Y43.019 Z14.830 I17.736 J-7.033 K0.000 F1200.000
G1 X-98.134 Y41.568 Z14.830 F1200.000
G1 X-97.735 Y42.513 Z14.830 F1200.000
G1 X-99.173 Y43.952 Z14.830 F1200.000
G1 X-98.761 Y44.884 Z14.830 F1200.000
G1 X-97.321 Y43.445 Z14.830 F1200.000
G1 X-96.901 Y44.369 Z14.830 F1200.000
G1 X-98.334 Y45.803 Z14.830 F1200.000
G1 X-97.901 Y46.715 Z14.830 F1200.000
G1 X-96.480 Y45.293 Z14.830 F1200.000
G2 X-96.043 Y46.201 Z14.830 I17.235 J-7.742 K0.000 F1200.000
G1 X-97.469 Y47.627 Z14.830 F1200.000
G2 X-97.019 Y48.522 Z14.830 I16.896 J-7.919 K0.000 F1200.000
G1 X-95.601 Y47.104 Z14.830 F1200.000
G1 X-95.159 Y48.007 Z14.830 F1200.000
G1 X-96.566 Y49.414 Z14.830 F1200.000
G1 X-96.113 Y50.306 Z14.830 F1200.000
G1 X-94.700 Y48.893 Z14.830 F1200.000
G1 X-94.238 Y49.776 Z14.830 F1200.000
G1 X-95.642 Y51.180 Z14.830 F1200.000
G1 X-95.169 Y52.052 Z14.830 F1200.000
G1 X-93.776 Y50.658 Z14.830 F1200.000
G2 X-93.295 Y51.523 Z14.830 I17.180 J-8.990 K0.000 F1200.000
G1 X-94.697 Y52.924 Z14.830 F1200.000
G2 X-94.205 Y53.777 Z14.830 I16.127 J-8.731 K0.000 F1200.000
G1 X-92.813 Y52.385 Z14.830 F1200.000
G1 X-92.330 Y53.248 Z14.830 F1200.000
G1 X-93.713 Y54.630 Z14.830 F1200.000
G2 X-93.220 Y55.482 Z14.830 I16.111 J-8.746 K0.000 F1200.000
G1 X-91.829 Y54.092 Z14.830 F1200.000
G1 X-91.327 Y54.934 Z14.830 F1200.000
G1 X-92.708 Y56.316 Z14.830 F1200.000
G1 X-92.197 Y57.149 Z14.830 F1200.000
G1 X-90.825 Y55.777 Z14.830 F1200.000
G2 X-90.304 Y56.601 Z14.830 I17.390 J-10.415 K0.000 F1200.000
G1 X-91.684 Y57.982 Z14.830 F1200.000
G1 X-91.154 Y58.796 Z14.830 F1200.000
G1 X-89.782 Y57.424 Z14.830 F1200.000
G1 X-89.261 Y58.248 Z14.830 F1200.000
G1 X-90.624 Y59.610 Z14.830 F1200.000
G2 X-90.092 Y60.424 Z14.830 I15.410 J-9.486 K0.000 F1200.000
G1 X-88.721 Y59.052 Z14.830 F1200.000
G1 X-88.180 Y59.856 Z14.830 F1200.000
G1 X-89.543 Y61.220 Z14.830 F1200.000
G1 X-88.994 Y62.015 Z14.830 F1200.000
G1 X-87.638 Y60.660 Z14.830 F1200.000
G2 X-87.080 Y61.447 Z14.830 I15.590 J-10.480 K0.000 F1200.000
G1 X-88.444 Y62.810 Z14.830 F1200.000
G1 X-87.876 Y63.587 Z14.830 F1200.000
G1 X-86.520 Y62.231 Z14.830 F1200.000
G1 X-85.959 Y63.016 Z14.830 F1200.000
G1 X-87.308 Y64.365 Z14.830 F1200.000
G2 X-86.740 Y65.141 Z14.830 I14.746 J-10.188 K0.000 F1200.000
G1 X-85.383 Y63.784 Z14.830 F1200.000
G1 X-84.804 Y64.550 Z14.830 F1200.000
G1 X-86.154 Y65.900 Z14.830 F1200.000
G1 X-85.568 Y66.659 Z14.830 F1200.000
G1 X-84.224 Y65.316 Z14.830 F1200.000
G2 X-83.630 Y66.066 Z14.830 I14.421 J-10.809 K0.000 F1200.000
G1 X-84.981 Y67.417 Z14.830 F1200.000
G2 X-84.377 Y68.158 Z14.830 I14.093 J-10.877 K0.000 F1200.000
G1 X-83.032 Y66.813 Z14.830 F1200.000
G1 X-82.434 Y67.560 Z14.830 F1200.000
G1 X-83.773 Y68.899 Z14.830 F1200.000
G1 X-83.168 Y69.639 Z14.830 F1200.000
G1 X-81.822 Y68.293 Z14.830 F1200.000
G1 X-81.206 Y69.021 Z14.830 F1200.000
G1 X-82.547 Y70.362 Z14.830 F1200.000
G1 X-81.924 Y71.085 Z14.830 F1200.000
G1 X-80.589 Y69.749 Z14.830 F1200.000
G2 X-79.960 Y70.465 Z14.830 I13.640 J-11.348 K0.000 F1200.000
G1 X-81.301 Y71.807 Z14.830 F1200.000
G2 X-80.663 Y72.513 Z14.830 I13.467 J-11.537 K0.000 F1200.000
G1 X-79.324 Y71.175 Z14.830 F1200.000
G1 X-78.689 Y71.885 Z14.830 F1200.000
G1 X-80.022 Y73.217 Z14.830 F1200.000
G1 X-79.381 Y73.921 Z14.830 F1200.000
G1 X-78.043 Y72.583 Z14.830 F1200.000
G1 X-77.389 Y73.274 Z14.830 F1200.000
G1 X-78.725 Y74.610 Z14.830 F1200.000
G1 X-78.066 Y75.296 Z14.830 F1200.000
G1 X-76.735 Y73.965 Z14.830 F1200.000
G2 X-76.072 Y74.647 Z14.830 I12.994 J-11.967 K0.000 F1200.000
G1 X-77.407 Y75.982 Z14.830 F1200.000
G2 X-76.735 Y76.655 Z14.830 I12.851 J-12.187 K0.000 F1200.000
G1 X-75.400 Y75.320 Z14.830 F1200.000
G1 X-74.727 Y75.992 Z14.830 F1200.000
G1 X-76.058 Y77.323 Z14.830 F1200.000
G1 X-75.381 Y77.990 Z14.830 F1200.000
G1 X-74.048 Y76.657 Z14.830 F1200.000
G1 X-73.357 Y77.311 Z14.830 F1200.000
G1 X-74.691 Y78.646 Z14.830 F1200.000
G1 X-73.996 Y79.296 Z14.830 F1200.000
G1 X-72.666 Y77.965 Z14.830 F1200.000
G2 X-71.969 Y78.614 Z14.830 I12.431 J-12.663 K0.000 F1200.000
G1 X-73.301 Y79.945 Z14.830 F1200.000
G2 X-72.594 Y80.584 Z14.830 I12.235 J-12.837 K0.000 F1200.000
G1 X-71.259 Y79.249 Z14.830 F1200.000
G1 X-70.550 Y79.884 Z14.830 F1200.000
G1 X-71.881 Y81.216 Z14.830 F1200.000
G1 X-71.168 Y81.847 Z14.830 F1200.000
G1 X-69.836 Y80.515 Z14.830 F1200.000
G1 X-69.108 Y81.132 Z14.830 F1200.000
G1 X-70.444 Y82.468 Z14.830 F1200.000
G1 X-69.713 Y83.082 Z14.830 F1200.000
G1 X-68.380 Y81.749 Z14.830 F1200.000
G2 X-67.649 Y82.363 Z14.830 I12.033 J-13.583 K0.000 F1200.000
G1 X-68.982 Y83.696 Z14.830 F1200.000
G2 X-68.240 Y84.299 Z14.830 I11.611 J-13.495 K0.000 F1200.000
G1 X-66.902 Y82.961 Z14.830 F1200.000
G1 X-66.155 Y83.559 Z14.830 F1200.000
G1 X-67.491 Y84.895 Z14.830 F1200.000
G1 X-66.741 Y85.490 Z14.830 F1200.000
G1 X-65.407 Y84.156 Z14.830 F1200.000
G1 X-64.641 Y84.735 Z14.830 F1200.000
G1 X-65.983 Y86.076 Z14.830 F1200.000
G1 X-65.215 Y86.653 Z14.830 F1200.000
G1 X-63.875 Y85.314 Z14.830 F1200.000
G2 X-63.109 Y85.893 Z14.830 I18.310 J-23.435 K0.000 F1200.000
G1 X-64.447 Y87.231 Z14.830 F1200.000
G2 X-63.670 Y87.799 Z14.830 I10.970 J-14.172 K0.000 F1200.000
G1 X-62.325 Y86.453 Z14.830 F1200.000
G1 X-61.540 Y87.013 Z14.830 F1200.000
G1 X-62.884 Y88.357 Z14.830 F1200.000
G1 X-62.098 Y88.916 Z14.830 F1200.000
G1 X-60.755 Y87.574 Z14.830 F1200.000
G2 X-59.952 Y88.115 Z14.830 I12.789 J-18.100 K0.000 F1200.000
G1 X-61.303 Y89.466 Z14.830 F1200.000
G1 X-60.498 Y90.006 Z14.830 F1200.000
G1 X-59.148 Y88.656 Z14.830 F1200.000
G1 X-58.344 Y89.197 Z14.830 F1200.000
G1 X-59.693 Y90.546 Z14.830 F1200.000
G2 X-58.879 Y91.077 Z14.830 I10.301 J-14.878 K0.000 F1200.000
G1 X-57.522 Y89.720 Z14.830 F1200.000
G1 X-56.699 Y90.242 Z14.830 F1200.000
G1 X-58.055 Y91.598 Z14.830 F1200.000
G1 X-57.232 Y92.119 Z14.830 F1200.000
G1 X-55.876 Y90.764 Z14.830 F1200.000
G2 X-55.035 Y91.267 Z14.830 I10.379 J-16.384 K0.000 F1200.000
G1 X-56.399 Y92.632 Z14.830 F1200.000
G1 X-55.556 Y93.133 Z14.830 F1200.000
G1 X-54.192 Y91.770 Z14.830 F1200.000
G1 X-53.349 Y92.272 Z14.830 F1200.000
G1 X-54.713 Y93.635 Z14.830 F1200.000
G2 X-53.860 Y94.128 Z14.830 I9.593 J-15.625 K0.000 F1200.000
G1 X-52.488 Y92.755 Z14.830 F1200.000
G1 X-51.625 Y93.238 Z14.830 F1200.000
G1 X-52.998 Y94.610 Z14.830 F1200.000
G1 X-52.136 Y95.093 Z14.830 F1200.000
G1 X-50.763 Y93.720 Z14.830 F1200.000
G2 X-49.881 Y94.183 Z14.830 I10.286 J-18.526 K0.000 F1200.000
G1 X-51.262 Y95.565 Z14.830 F1200.000
G1 X-50.380 Y96.028 Z14.830 F1200.000
G1 X-48.998 Y94.645 Z14.830 F1200.000
G2 X-48.115 Y95.107 Z14.830 I16.087 J-29.685 K0.000 F1200.000
G1 X-49.498 Y96.491 Z14.830 F1200.000
G2 X-48.604 Y96.941 Z14.830 I8.833 J-16.427 K0.000 F1200.000
G1 X-47.211 Y95.548 Z14.830 F1200.000
G1 X-46.308 Y95.990 Z14.830 F1200.000
G1 X-47.702 Y97.384 Z14.830 F1200.000
G1 X-46.800 Y97.827 Z14.830 F1200.000
G1 X-45.403 Y96.430 Z14.830 F1200.000
G1 X-44.479 Y96.850 Z14.830 F1200.000
G1 X-45.883 Y98.255 Z14.830 F1200.000
G1 X-44.961 Y98.678 Z14.830 F1200.000
G1 X-43.554 Y97.271 Z14.830 F1200.000
G2 X-42.626 Y97.688 Z14.830 I8.278 J-17.215 K0.000 F1200.000
G1 X-44.039 Y99.100 Z14.830 F1200.000
G2 X-43.098 Y99.505 Z14.830 I8.005 J-17.300 K0.000 F1200.000
G1 X-41.680 Y98.087 Z14.830 F1200.000
G1 X-40.735 Y98.486 Z14.830 F1200.000
G1 X-42.155 Y99.907 Z14.830 F1200.000
G2 X-41.212 Y100.308 Z14.830 I7.945 J-17.363 K0.000 F1200.000
G1 X-39.782 Y98.878 Z14.830 F1200.000
G1 X-38.814 Y99.256 Z14.830 F1200.000
G1 X-40.247 Y100.689 Z14.830 F1200.000
G1 X-39.283 Y101.069 Z14.830 F1200.000
G1 X-37.847 Y99.633 Z14.830 F1200.000
G2 X-36.868 Y99.999 Z14.830 I7.272 J-17.951 K0.000 F1200.000
G1 X-38.314 Y101.445 Z14.830 F1200.000
G1 X-37.328 Y101.804 Z14.830 F1200.000
G1 X-35.878 Y100.354 Z14.830 F1200.000
G1 X-34.889 Y100.709 Z14.830 F1200.000
G1 X-36.342 Y102.163 Z14.830 F1200.000
G2 X-35.346 Y102.512 Z14.830 I6.998 J-18.363 K0.000 F1200.000
G1 X-33.882 Y101.048 Z14.830 F1200.000
G1 X-32.870 Y101.380 Z14.830 F1200.000
G1 X-34.338 Y102.849 Z14.830 F1200.000
G1 X-33.330 Y103.186 Z14.830 F1200.000
G1 X-31.857 Y101.712 Z14.830 F1200.000
G2 X-30.821 Y102.022 Z14.830 I7.019 J-21.600 K0.000 F1200.000
G1 X-32.306 Y103.506 Z14.830 F1200.000
G1 X-31.274 Y103.820 Z14.830 F1200.000
G1 X-29.785 Y102.330 Z14.830 F1200.000
G2 X-28.743 Y102.633 Z14.830 I6.162 J-19.280 K0.000 F1200.000
G1 X-30.243 Y104.134 Z14.830 F1200.000
G2 X-29.189 Y104.424 Z14.830 I5.931 J-19.489 K0.000 F1200.000
G1 X-27.682 Y102.917 Z14.830 F1200.000
G1 X-26.621 Y103.201 Z14.830 F1200.000
G1 X-28.134 Y104.714 Z14.830 F1200.000
G2 X-27.071 Y104.996 Z14.830 I5.782 J-19.646 K0.000 F1200.000
G1 X-25.546 Y103.471 Z14.830 F1200.000
G1 X-24.460 Y103.730 Z14.830 F1200.000
G1 X-25.992 Y105.262 Z14.830 F1200.000
G1 X-24.913 Y105.528 Z14.830 F1200.000
G1 X-23.375 Y103.990 Z14.830 F1200.000
G2 X-22.264 Y104.224 Z14.830 I5.209 J-21.896 K0.000 F1200.000
G1 X-23.816 Y105.776 Z14.830 F1200.000
G1 X-22.712 Y106.017 Z14.830 F1200.000
G1 X-21.153 Y104.457 Z14.830 F1200.000
G2 X-20.031 Y104.681 Z14.830 I4.703 J-20.660 K0.000 F1200.000
G1 X-21.604 Y106.254 Z14.830 F1200.000
G1 X-20.474 Y106.469 Z14.830 F1200.000
G1 X-18.892 Y104.887 Z14.830 F1200.000
G1 X-17.754 Y105.093 Z14.830 F1200.000
G1 X-19.344 Y106.684 Z14.830 F1200.000
G2 X-18.198 Y106.882 Z14.830 I4.269 J-21.243 K0.000 F1200.000
G1 X-16.592 Y105.277 Z14.830 F1200.000
G1 X-15.426 Y105.455 Z14.830 F1200.000
G1 X-17.041 Y107.071 Z14.830 F1200.000
G2 X-15.881 Y107.255 Z14.830 I4.015 J-21.511 K0.000 F1200.000
G1 X-14.249 Y105.624 Z14.830 F1200.000
G1 X-13.053 Y105.773 Z14.830 F1200.000
G1 X-14.696 Y107.415 Z14.830 F1200.000
G1 X-13.511 Y107.575 Z14.830 F1200.000
G1 X-11.858 Y105.922 Z14.830 F1200.000
G2 X-10.635 Y106.044 Z14.830 I2.931 J-23.190 K0.000 F1200.000
G1 X-12.306 Y107.715 Z14.830 F1200.000
G1 X-11.092 Y107.846 Z14.830 F1200.000
G1 X-9.408 Y106.162 Z14.830 F1200.000
G2 X-8.166 Y106.265 Z14.830 I2.515 J-22.886 K0.000 F1200.000
G1 X-9.868 Y107.967 Z14.830 F1200.000
G1 X-8.624 Y108.068 Z14.830 F1200.000
G1 X-6.908 Y106.352 Z14.830 F1200.000
G2 X-5.644 Y106.433 Z14.830 I2.144 J-23.577 K0.000 F1200.000
G1 X-7.380 Y108.168 Z14.830 F1200.000
G2 X-6.104 Y108.238 Z14.830 I1.929 J-23.711 K0.000 F1200.000
G1 X-4.352 Y106.486 Z14.830 F1200.000
G1 X-3.061 Y106.540 Z14.830 F1200.000
G1 X-4.828 Y108.306 Z14.830 F1200.000
G2 X-3.528 Y108.352 Z14.830 I1.492 J-24.173 K0.000 F1200.000
G1 X-1.738 Y106.561 Z14.830 F1200.000
G1 X-0.411 Y106.579 Z14.830 F1200.000
G1 X-2.218 Y108.387 Z14.830 F1200.000
G2 X-0.892 Y108.405 Z14.830 I1.006 J-24.686 K0.000 F1200.000
G1 X0.941 Y106.572 Z14.830 F1200.000
G1 X2.305 Y106.553 Z14.830 F1200.000
G1 X0.453 Y108.405 Z14.830 F1200.000
G2 X1.810 Y108.393 Z14.830 I0.462 J-25.260 K0.000 F1200.000
G1 X3.690 Y106.514 Z14.830 F1200.000
G1 X5.093 Y106.456 Z14.830 F1200.000
G1 X3.192 Y108.356 Z14.830 F1200.000
G2 X4.582 Y108.311 Z14.830 I-0.147 J-25.903 K0.000 F1200.000
G1 X6.514 Y106.379 Z14.830 F1200.000
G1 X7.959 Y106.279 Z14.830 F1200.000
G1 X6.003 Y108.235 Z14.830 F1200.000
G2 X7.431 Y108.152 Z14.830 I-0.834 J-26.627 K0.000 F1200.000
G1 X9.422 Y106.161 Z14.830 F1200.000
G1 X10.911 Y106.017 Z14.830 F1200.000
G1 X8.894 Y108.033 Z14.830 F1200.000
G2 X10.365 Y107.907 Z14.830 I-1.611 J-27.448 K0.000 F1200.000
G1 X12.421 Y105.851 Z14.830 F1200.000
G1 X13.958 Y105.660 Z14.830 F1200.000
G1 X11.873 Y107.745 Z14.830 F1200.000
G2 X13.392 Y107.570 Z14.830 I-2.495 J-28.380 K0.000 F1200.000
G1 X15.522 Y105.440 Z14.830 F1200.000
G1 X17.110 Y105.198 Z14.830 F1200.000
G1 X14.947 Y107.360 Z14.830 F1200.000
G2 X16.523 Y107.129 Z14.830 I-3.505 J-29.446 K0.000 F1200.000
G1 X18.737 Y104.915 Z14.830 F1200.000
G1 X20.379 Y104.618 Z14.830 F1200.000
G1 X18.129 Y106.868 Z14.830 F1200.000
G2 X19.768 Y106.574 Z14.830 I-4.667 J-30.672 K0.000 F1200.000
G1 X22.079 Y104.263 Z14.830 F1200.000
G2 X23.799 Y103.888 Z14.830 I-6.043 J-31.862 K0.000 F1200.000
G1 X21.429 Y106.258 Z14.830 F1200.000
G2 X23.143 Y105.889 Z14.830 I-6.011 J-32.090 K0.000 F1200.000
G1 X25.565 Y103.467 Z14.830 F1200.000
G2 X27.378 Y102.999 Z14.830 I-7.701 J-33.563 K0.000 F1200.000
G1 X24.879 Y105.498 Z14.830 F1200.000
G1 X26.664 Y105.058 Z14.830 F1200.000
G1 X29.225 Y102.497 Z14.830 F1200.000
G1 X31.140 Y101.927 Z14.830 F1200.000
G1 X28.495 Y104.572 Z14.830 F1200.000
G2 X30.361 Y104.050 Z14.830 I-8.778 J-35.010 K0.000 F1200.000
G1 X33.110 Y101.301 Z14.830 F1200.000
G2 X35.136 Y100.621 Z14.830 I-11.497 J-37.572 K0.000 F1200.000
G1 X32.294 Y103.462 Z14.830 F1200.000
G2 X34.288 Y102.814 Z14.830 I-11.075 J-37.434 K0.000 F1200.000
G1 X37.233 Y99.868 Z14.830 F1200.000
G2 X39.432 Y99.015 Z14.830 I-15.014 J-41.934 K0.000 F1200.000
G1 X36.339 Y102.108 Z14.830 F1200.000
G2 X38.458 Y101.334 Z14.830 I-13.350 J-39.835 K0.000 F1200.000
G1 X41.722 Y98.069 Z14.830 F1200.000
G2 X44.125 Y97.012 Z14.830 I-18.147 J-44.479 K0.000 F1200.000
G1 X40.679 Y100.457 Z14.830 F1200.000
G2 X43.001 Y99.480 Z14.830 I-17.024 J-43.711 K0.000 F1200.000
G1 X46.666 Y95.815 Z14.830 F1200.000
G2 X49.382 Y94.444 Z14.830 I-23.698 J-50.315 K0.000 F1200.000
G1 X45.439 Y98.387 Z14.830 F1200.000
G2 X48.019 Y97.152 Z14.830 I-21.713 J-48.659 K0.000 F1200.000
G1 X52.324 Y92.847 Z14.830 F1200.000
G2 X55.564 Y90.952 Z14.830 I-32.995 J-60.130 K0.000 F1200.000
G1 X50.779 Y95.737 Z14.830 F1200.000
G2 X53.769 Y94.092 Z14.830 I-29.128 J-56.483 K0.000 F1200.000
G1 X59.321 Y88.540 Z14.830 F1200.000
G2 X63.943 Y85.262 Z14.830 I-45.318 J-68.812 K0.000 F1200.000
G1 X57.104 Y92.101 Z14.830 F1200.000
G2 X60.957 Y89.594 Z14.830 I-44.754 J-72.971 K0.000 F1200.000
G1 X71.665 Y78.886 Z14.830 F1200.000
G1 X69.724 Y80.827 Z13.245 F1200.000
G1 X71.665 Y78.886 Z11.660 F1200.000
G1 X60.957 Y89.594 Z11.660 F1200.000
G3 X57.104 Y92.101 Z11.660 I-48.606 J-70.464 K0.000 F1200.000
G1 X63.943 Y85.262 Z11.660 F1200.000
G3 X59.321 Y88.540 Z11.660 I-49.941 J-65.535 K0.000 F1200.000
G1 X53.769 Y94.092 Z11.660 F1200.000
G3 X50.779 Y95.737 Z11.660 I-32.118 J-54.839 K0.000 F1200.000
G1 X55.564 Y90.952 Z11.660 F1200.000
G3 X52.324 Y92.847 Z11.660 I-36.235 J-58.235 K0.000 F1200.000
G1 X48.019 Y97.152 Z11.660 F1200.000
G3 X45.439 Y98.387 Z11.660 I-24.293 J-47.423 K0.000 F1200.000
G1 X49.382 Y94.444 Z11.660 F1200.000
G3 X46.666 Y95.815 Z11.660 I-26.415 J-48.944 K0.000 F1200.000
G1 X43.001 Y99.480 Z11.660 F1200.000
G3 X40.679 Y100.457 Z11.660 I-19.346 J-42.734 K0.000 F1200.000
G1 X44.125 Y97.012 Z11.660 F1200.000
G3 X41.722 Y98.069 Z11.660 I-20.549 J-43.421 K0.000 F1200.000
G1 X38.458 Y101.334 Z11.660 F1200.000
G3 X36.339 Y102.108 Z11.660 I-15.469 J-39.061 K0.000 F1200.000
G1 X39.432 Y99.015 Z11.660 F1200.000
G3 X37.233 Y99.868 Z11.660 I-17.213 J-41.081 K0.000 F1200.000
G1 X34.288 Y102.814 Z11.660 F1200.000
G3 X32.294 Y103.462 Z11.660 I-13.069 J-36.786 K0.000 F1200.000
G1 X35.136 Y100.621 Z11.660 F1200.000
G3 X33.110 Y101.301 Z11.660 I-13.523 J-36.892 K0.000 F1200.000
G1 X30.361 Y104.050 Z11.660 F1200.000
G3 X28.495 Y104.572 Z11.660 I-10.644 J-34.488 K0.000 F1200.000
G1 X31.140 Y101.927 Z11.660 F1200.000
G1 X29.225 Y102.497 Z11.660 F1200.000
G1 X26.664 Y105.058 Z11.660 F1200.000
G1 X24.879 Y105.498 Z11.660 F1200.000
G1 X27.378 Y102.999 Z11.660 F1200.000
G3 X25.565 Y103.467 Z11.660 I-9.514 J-33.095 K0.000 F1200.000
G1 X23.143 Y105.889 Z11.660 F1200.000
G3 X21.429 Y106.258 Z11.660 I-7.725 J-31.721 K0.000 F1200.000
G1 X23.799 Y103.888 Z11.660 F1200.000
G3 X22.079 Y104.263 Z11.660 I-7.763 J-31.488 K0.000 F1200.000
G1 X19.768 Y106.574 Z11.660 F1200.000
G3 X18.129 Y106.868 Z11.660 I-6.306 J-30.377 K0.000 F1200.000
G1 X20.379 Y104.618 Z11.660 F1200.000
G1 X18.737 Y104.915 Z11.660 F1200.000
G1 X16.523 Y107.129 Z11.660 F1200.000
G3 X14.947 Y107.360 Z11.660 I-5.080 J-29.215 K0.000 F1200.000
G1 X17.110 Y105.198 Z11.660 F1200.000
G1 X15.522 Y105.440 Z11.660 F1200.000
G1 X13.392 Y107.570 Z11.660 F1200.000
G3 X11.873 Y107.745 Z11.660 I-4.014 J-28.205 K0.000 F1200.000
G1 X13.958 Y105.660 Z11.660 F1200.000
G1 X12.421 Y105.851 Z11.660 F1200.000
G1 X10.365 Y107.907 Z11.660 F1200.000
G3 X8.894 Y108.033 Z11.660 I-3.082 J-27.322 K0.000 F1200.000
G1 X10.911 Y106.017 Z11.660 F1200.000
G1 X9.422 Y106.161 Z11.660 F1200.000
G1 X7.431 Y108.152 Z11.660 F1200.000
G3 X6.003 Y108.235 Z11.660 I-2.262 J-26.544 K0.000 F1200.000
G1 X7.959 Y106.279 Z11.660 F1200.000
G1 X6.514 Y106.379 Z11.660 F1200.000
G1 X4.582 Y108.311 Z11.660 F1200.000
G3 X3.192 Y108.356 Z11.660 I-1.538 J-25.858 K0.000 F1200.000
G1 X5.093 Y106.456 Z11.660 F1200.000
G1 X3.690 Y106.514 Z11.660 F1200.000
G1 X1.810 Y108.393 Z11.660 F1200.000
G3 X0.453 Y108.405 Z11.660 I-0.894 J-25.248 K0.000 F1200.000
G1 X2.305 Y106.553 Z11.660 F1200.000
G1 X0.941 Y106.572 Z11.660 F1200.000
G1 X-0.892 Y108.405 Z11.660 F1200.000
G3 X-2.218 Y108.387 Z11.660 I-0.321 J-24.705 K0.000 F1200.000
G1 X-0.411 Y106.579 Z11.660 F1200.000
G1 X-1.738 Y106.561 Z11.660 F1200.000
G1 X-3.528 Y108.352 Z11.660 F1200.000
G3 X-4.828 Y108.306 Z11.660 I0.193 J-24.218 K0.000 F1200.000
G1 X-3.061 Y106.540 Z11.660 F1200.000
G1 X-4.352 Y106.486 Z11.660 F1200.000
G1 X-6.104 Y108.238 Z11.660 F1200.000
G3 X-7.380 Y108.168 Z11.660 I0.653 J-23.780 K0.000 F1200.000
G1 X-5.644 Y106.433 Z11.660 F1200.000
G3 X-6.908 Y106.352 Z11.660 I0.880 J-23.658 K0.000 F1200.000
G1 X-8.624 Y108.068 Z11.660 F1200.000
G1 X-9.868 Y107.967 Z11.660 F1200.000
G1 X-8.166 Y106.265 Z11.660 F1200.000
G3 X-9.408 Y106.162 Z11.660 I1.272 J-22.989 K0.000 F1200.000
G1 X-11.092 Y107.846 Z11.660 F1200.000
G1 X-12.306 Y107.715 Z11.660 F1200.000
G1 X-10.635 Y106.044 Z11.660 F1200.000
G3 X-11.858 Y105.922 Z11.660 I1.708 J-23.312 K0.000 F1200.000
G1 X-13.511 Y107.575 Z11.660 F1200.000
G1 X-14.696 Y107.415 Z11.660 F1200.000
G1 X-13.053 Y105.773 Z11.660 F1200.000
G1 X-14.249 Y105.624 Z11.660 F1200.000
G1 X-15.881 Y107.255 Z11.660 F1200.000
G3 X-17.041 Y107.071 Z11.660 I2.854 J-21.696 K0.000 F1200.000
G1 X-15.426 Y105.455 Z11.660 F1200.000
G1 X-16.592 Y105.277 Z11.660 F1200.000
G1 X-18.198 Y106.882 Z11.660 F1200.000
G3 X-19.344 Y106.684 Z11.660 I3.122 J-21.442 K0.000 F1200.000
G1 X-17.754 Y105.093 Z11.660 F1200.000
G1 X-18.892 Y104.887 Z11.660 F1200.000
G1 X-20.474 Y106.469 Z11.660 F1200.000
G1 X-21.604 Y106.254 Z11.660 F1200.000
G1 X-20.031 Y104.681 Z11.660 F1200.000
G3 X-21.153 Y104.457 Z11.660 I3.581 J-20.883 K0.000 F1200.000
G1 X-22.712 Y106.017 Z11.660 F1200.000
G1 X-23.816 Y105.776 Z11.660 F1200.000
G1 X-22.264 Y104.224 Z11.660 F1200.000
G3 X-23.375 Y103.990 Z11.660 I4.099 J-22.131 K0.000 F1200.000
G1 X-24.913 Y105.528 Z11.660 F1200.000
G1 X-25.992 Y105.262 Z11.660 F1200.000
G1 X-24.460 Y103.730 Z11.660 F1200.000
G1 X-25.546 Y103.471 Z11.660 F1200.000
G1 X-27.071 Y104.996 Z11.660 F1200.000
G3 X-28.134 Y104.714 Z11.660 I4.719 J-19.928 K0.000 F1200.000
G1 X-26.621 Y103.201 Z11.660 F1200.000
G1 X-27.682 Y102.917 Z11.660 F1200.000
G1 X-29.189 Y104.424 Z11.660 F1200.000
G3 X-30.243 Y104.134 Z11.660 I4.876 J-19.779 K0.000 F1200.000
G1 X-28.743 Y102.633 Z11.660 F1200.000
G3 X-29.785 Y102.330 Z11.660 I5.120 J-19.583 K0.000 F1200.000
G1 X-31.274 Y103.820 Z11.660 F1200.000
G1 X-32.306 Y103.506 Z11.660 F1200.000
G1 X-30.821 Y102.022 Z11.660 F1200.000
G3 X-31.857 Y101.712 Z11.660 I5.984 J-21.909 K0.000 F1200.000
G1 X-33.330 Y103.186 Z11.660 F1200.000
G1 X-34.338 Y102.849 Z11.660 F1200.000
G1 X-32.870 Y101.380 Z11.660 F1200.000
G1 X-33.882 Y101.048 Z11.660 F1200.000
G1 X-35.346 Y102.512 Z11.660 F1200.000
G3 X-36.342 Y102.163 Z11.660 I6.002 J-18.712 K0.000 F1200.000
G1 X-34.889 Y100.709 Z11.660 F1200.000
G1 X-35.878 Y100.354 Z11.660 F1200.000
G1 X-37.328 Y101.804 Z11.660 F1200.000
G1 X-38.314 Y101.445 Z11.660 F1200.000
G1 X-36.868 Y99.999 Z11.660 F1200.000
G3 X-37.847 Y99.633 Z11.660 I6.293 J-18.317 K0.000 F1200.000
G1 X-39.283 Y101.069 Z11.660 F1200.000
G1 X-40.247 Y100.689 Z11.660 F1200.000
G1 X-38.814 Y99.256 Z11.660 F1200.000
G1 X-39.782 Y98.878 Z11.660 F1200.000
G1 X-41.212 Y100.308 Z11.660 F1200.000
G3 X-42.155 Y99.907 Z11.660 I7.001 J-17.765 K0.000 F1200.000
G1 X-40.735 Y98.486 Z11.660 F1200.000
G1 X-41.680 Y98.087 Z11.660 F1200.000
G1 X-43.098 Y99.505 Z11.660 F1200.000
G3 X-44.039 Y99.100 Z11.660 I7.065 J-17.705 K0.000 F1200.000
G1 X-42.626 Y97.688 Z11.660 F1200.000
G3 X-43.554 Y97.271 Z11.660 I7.350 J-17.632 K0.000 F1200.000
G1 X-44.961 Y98.678 Z11.660 F1200.000
G1 X-45.883 Y98.255 Z11.660 F1200.000
G1 X-44.479 Y96.850 Z11.660 F1200.000
G1 X-45.403 Y96.430 Z11.660 F1200.000
G1 X-46.800 Y97.827 Z11.660 F1200.000
G1 X-47.702 Y97.384 Z11.660 F1200.000
G1 X-46.308 Y95.990 Z11.660 F1200.000
G1 X-47.211 Y95.548 Z11.660 F1200.000
G1 X-48.604 Y96.941 Z11.660 F1200.000
G3 X-49.498 Y96.491 Z11.660 I7.938 J-16.878 K0.000 F1200.000
G1 X-48.115 Y95.107 Z11.660 F1200.000
G3 X-48.998 Y94.645 Z11.660 I15.204 J-30.147 K0.000 F1200.000
G1 X-50.380 Y96.028 Z11.660 F1200.000
G1 X-51.262 Y95.565 Z11.660 F1200.000
G1 X-49.881 Y94.183 Z11.660 F1200.000
G3 X-50.763 Y93.720 Z11.660 I9.404 J-18.989 K0.000 F1200.000
G1 X-52.136 Y95.093 Z11.660 F1200.000
G1 X-52.998 Y94.610 Z11.660 F1200.000
G1 X-51.625 Y93.238 Z11.660 F1200.000
G1 X-52.488 Y92.755 Z11.660 F1200.000
G1 X-53.860 Y94.128 Z11.660 F1200.000
G3 X-54.713 Y93.635 Z11.660 I8.740 J-16.118 K0.000 F1200.000
G1 X-53.349 Y92.272 Z11.660 F1200.000
G1 X-54.192 Y91.770 Z11.660 F1200.000
G1 X-55.556 Y93.133 Z11.660 F1200.000
G1 X-56.399 Y92.632 Z11.660 F1200.000
G1 X-55.035 Y91.267 Z11.660 F1200.000
G3 X-55.876 Y90.764 Z11.660 I9.538 J-16.888 K0.000 F1200.000
G1 X-57.232 Y92.119 Z11.660 F1200.000
G1 X-58.055 Y91.598 Z11.660 F1200.000
G1 X-56.699 Y90.242 Z11.660 F1200.000
G1 X-57.522 Y89.720 Z11.660 F1200.000
G1 X-58.879 Y91.077 Z11.660 F1200.000
G3 X-59.693 Y90.546 Z11.660 I9.487 J-15.410 K0.000 F1200.000
G1 X-58.344 Y89.197 Z11.660 F1200.000
G1 X-59.148 Y88.656 Z11.660 F1200.000
G1 X-60.498 Y90.006 Z11.660 F1200.000
G1 X-61.303 Y89.466 Z11.660 F1200.000
G1 X-59.952 Y88.115 Z11.660 F1200.000
G3 X-60.755 Y87.574 Z11.660 I11.985 J-18.641 K0.000 F1200.000
G1 X-62.098 Y88.916 Z11.660 F1200.000
G1 X-62.884 Y88.357 Z11.660 F1200.000
G1 X-61.540 Y87.013 Z11.660 F1200.000
G1 X-62.325 Y86.453 Z11.660 F1200.000
G1 X-63.670 Y87.799 Z11.660 F1200.000
G3 X-64.447 Y87.231 Z11.660 I10.193 J-14.740 K0.000 F1200.000
G1 X-63.109 Y85.893 Z11.660 F1200.000
G3 X-63.875 Y85.314 Z11.660 I17.543 J-24.014 K0.000 F1200.000
G1 X-65.215 Y86.653 Z11.660 F1200.000
G1 X-65.983 Y86.076 Z11.660 F1200.000
G1 X-64.641 Y84.735 Z11.660 F1200.000
G1 X-65.407 Y84.156 Z11.660 F1200.000
G1 X-66.741 Y85.490 Z11.660 F1200.000
G1 X-67.491 Y84.895 Z11.660 F1200.000
G1 X-66.155 Y83.559 Z11.660 F1200.000
G1 X-66.902 Y82.961 Z11.660 F1200.000
G1 X-68.240 Y84.299 Z11.660 F1200.000
G3 X-68.982 Y83.696 Z11.660 I10.870 J-14.099 K0.000 F1200.000
G1 X-67.649 Y82.363 Z11.660 F1200.000
G3 X-68.380 Y81.749 Z11.660 I11.302 J-14.197 K0.000 F1200.000
G1 X-69.713 Y83.082 Z11.660 F1200.000
G1 X-70.444 Y82.468 Z11.660 F1200.000
G1 X-69.108 Y81.132 Z11.660 F1200.000
G1 X-69.836 Y80.515 Z11.660 F1200.000
G1 X-71.168 Y81.847 Z11.660 F1200.000
G1 X-71.881 Y81.216 Z11.660 F1200.000
G1 X-70.550 Y79.884 Z11.660 F1200.000
G1 X-71.259 Y79.249 Z11.660 F1200.000
G1 X-72.594 Y80.584 Z11.660 F1200.000
G3 X-73.301 Y79.945 Z11.660 I11.529 J-13.475 K0.000 F1200.000
G1 X-71.969 Y78.614 Z11.660 F1200.000
G3 X-72.666 Y77.965 Z11.660 I11.734 J-13.311 K0.000 F1200.000
G1 X-73.996 Y79.296 Z11.660 F1200.000
G1 X-74.691 Y78.646 Z11.660 F1200.000
G1 X-73.357 Y77.311 Z11.660 F1200.000
G1 X-74.048 Y76.657 Z11.660 F1200.000
G1 X-75.381 Y77.990 Z11.660 F1200.000
G1 X-76.058 Y77.323 Z11.660 F1200.000
G1 X-74.727 Y75.992 Z11.660 F1200.000
G1 X-75.400 Y75.320 Z11.660 F1200.000
G1 X-76.735 Y76.655 Z11.660 F1200.000
G3 X-77.407 Y75.982 Z11.660 I12.178 J-12.860 K0.000 F1200.000
G1 X-76.072 Y74.647 Z11.660 F1200.000
G3 X-76.735 Y73.965 Z11.660 I12.331 J-12.649 K0.000 F1200.000
G1 X-78.066 Y75.296 Z11.660 F1200.000
G1 X-78.725 Y74.610 Z11.660 F1200.000
G1 X-77.389 Y73.274 Z11.660 F1200.000
G1 X-78.043 Y72.583 Z11.660 F1200.000
G1 X-79.381 Y73.921 Z11.660 F1200.000
G1 X-80.022 Y73.217 Z11.660 F1200.000
G1 X-78.689 Y71.885 Z11.660 F1200.000
G1 X-79.324 Y71.175 Z11.660 F1200.000
G1 X-80.663 Y72.513 Z11.660 F1200.000
G3 X-81.301 Y71.807 Z11.660 I12.828 J-12.243 K0.000 F1200.000
G1 X-79.960 Y70.465 Z11.660 F1200.000
G3 X-80.589 Y69.749 Z11.660 I13.011 J-12.064 K0.000 F1200.000
G1 X-81.924 Y71.085 Z11.660 F1200.000
G1 X-82.547 Y70.362 Z11.660 F1200.000
G1 X-81.206 Y69.021 Z11.660 F1200.000
G1 X-81.822 Y68.293 Z11.660 F1200.000
G1 X-83.168 Y69.639 Z11.660 F1200.000
G1 X-83.773 Y68.899 Z11.660 F1200.000
G1 X-82.434 Y67.560 Z11.660 F1200.000
G1 X-83.032 Y66.813 Z11.660 F1200.000
G1 X-84.377 Y68.158 Z11.660 F1200.000
G3 X-84.981 Y67.417 Z11.660 I13.489 J-11.618 K0.000 F1200.000
G1 X-83.630 Y66.066 Z11.660 F1200.000
G3 X-84.224 Y65.316 Z11.660 I13.827 J-11.559 K0.000 F1200.000
G1 X-85.568 Y66.659 Z11.660 F1200.000
G1 X-86.154 Y65.900 Z11.660 F1200.000
G1 X-84.804 Y64.550 Z11.660 F1200.000
G1 X-85.383 Y63.784 Z11.660 F1200.000
G1 X-86.740 Y65.141 Z11.660 F1200.000
G3 X-87.308 Y64.365 Z11.660 I14.178 J-10.965 K0.000 F1200.000
G1 X-85.959 Y63.016 Z11.660 F1200.000
G1 X-86.520 Y62.231 Z11.660 F1200.000
G1 X-87.876 Y63.587 Z11.660 F1200.000
G1 X-88.444 Y62.810 Z11.660 F1200.000
G1 X-87.080 Y61.447 Z11.660 F1200.000
G3 X-87.638 Y60.660 Z11.660 I15.031 J-11.267 K0.000 F1200.000
G1 X-88.994 Y62.015 Z11.660 F1200.000
G1 X-89.543 Y61.220 Z11.660 F1200.000
G1 X-88.180 Y59.856 Z11.660 F1200.000
G1 X-88.721 Y59.052 Z11.660 F1200.000
G1 X-90.092 Y60.424 Z11.660 F1200.000
G3 X-90.624 Y59.610 Z11.660 I14.879 J-10.300 K0.000 F1200.000
G1 X-89.261 Y58.248 Z11.660 F1200.000
G1 X-89.782 Y57.424 Z11.660 F1200.000
G1 X-91.154 Y58.796 Z11.660 F1200.000
G1 X-91.684 Y57.982 Z11.660 F1200.000
G1 X-90.304 Y56.601 Z11.660 F1200.000
G3 X-90.825 Y55.777 Z11.660 I16.869 J-11.239 K0.000 F1200.000
G1 X-92.197 Y57.149 Z11.660 F1200.000
G1 X-92.708 Y56.316 Z11.660 F1200.000
G1 X-91.327 Y54.934 Z11.660 F1200.000
G1 X-91.829 Y54.092 Z11.660 F1200.000
G1 X-93.220 Y55.482 Z11.660 F1200.000
G3 X-93.713 Y54.630 Z11.660 I15.618 J-9.599 K0.000 F1200.000
G1 X-92.330 Y53.248 Z11.660 F1200.000
G1 X-92.813 Y52.385 Z11.660 F1200.000
G1 X-94.205 Y53.777 Z11.660 F1200.000
G3 X-94.697 Y52.924 Z11.660 I15.635 J-9.584 K0.000 F1200.000
G1 X-93.295 Y51.523 Z11.660 F1200.000
G3 X-93.776 Y50.658 Z11.660 I16.700 J-9.854 K0.000 F1200.000
G1 X-95.169 Y52.052 Z11.660 F1200.000
G1 X-95.642 Y51.180 Z11.660 F1200.000
G1 X-94.238 Y49.776 Z11.660 F1200.000
G1 X-94.700 Y48.893 Z11.660 F1200.000
G1 X-96.113 Y50.306 Z11.660 F1200.000
G1 X-96.566 Y49.414 Z11.660 F1200.000
G1 X-95.159 Y48.007 Z11.660 F1200.000
G1 X-95.601 Y47.104 Z11.660 F1200.000
G1 X-97.019 Y48.522 Z11.660 F1200.000
G3 X-97.469 Y47.627 Z11.660 I16.447 J-8.814 K0.000 F1200.000
G1 X-96.043 Y46.201 Z11.660 F1200.000
G3 X-96.480 Y45.293 Z11.660 I16.797 J-8.649 K0.000 F1200.000
G1 X-97.901 Y46.715 Z11.660 F1200.000
G1 X-98.334 Y45.803 Z11.660 F1200.000
G1 X-96.901 Y44.369 Z11.660 F1200.000
G1 X-97.321 Y43.445 Z11.660 F1200.000
G1 X-98.761 Y44.884 Z11.660 F1200.000
G1 X-99.173 Y43.952 Z11.660 F1200.000
G1 X-97.735 Y42.513 Z11.660 F1200.000
G1 X-98.134 Y41.568 Z11.660 F1200.000
G1 X-99.586 Y43.019 Z11.660 F1200.000
G3 X-99.989 Y42.077 Z11.660 I17.333 J-7.975 K0.000 F1200.000
G1 X-98.534 Y40.622 Z11.660 F1200.000
G3 X-98.923 Y39.667 Z11.660 I17.516 J-7.694 K0.000 F1200.000
G1 X-100.380 Y41.124 Z11.660 F1200.000
G1 X-100.771 Y40.170 Z11.660 F1200.000
G1 X-99.301 Y38.699 Z11.660 F1200.000
G1 X-99.678 Y37.732 Z11.660 F1200.000
G1 X-101.149 Y39.203 Z11.660 F1200.000
G1 X-101.519 Y38.228 Z11.660 F1200.000
G1 X-100.041 Y36.750 Z11.660 F1200.000
G1 X-100.397 Y35.761 Z11.660 F1200.000
G1 X-101.889 Y37.253 Z11.660 F1200.000
G3 X-102.241 Y36.260 Z11.660 I18.314 J-7.045 K0.000 F1200.000
G1 X-100.752 Y34.771 Z11.660 F1200.000
G3 X-101.088 Y33.762 Z11.660 I18.851 J-6.837 K0.000 F1200.000
G1 X-102.588 Y35.263 Z11.660 F1200.000
G3 X-102.935 Y34.264 Z11.660 I18.417 J-6.947 K0.000 F1200.000
G1 X-101.420 Y32.749 Z11.660 F1200.000
G3 X-101.750 Y31.734 Z11.660 I19.598 J-6.940 K0.000 F1200.000
G1 X-103.260 Y33.244 Z11.660 F1200.000
G1 X-103.585 Y32.225 Z11.660 F1200.000
G1 X-102.059 Y30.698 Z11.660 F1200.000
G1 X-102.367 Y29.662 Z11.660 F1200.000
G1 X-103.903 Y31.197 Z11.660 F1200.000
G1 X-104.205 Y30.154 Z11.660 F1200.000
G1 X-102.667 Y28.616 Z11.660 F1200.000
G1 X-102.951 Y27.556 Z11.660 F1200.000
G1 X-104.507 Y29.111 Z11.660 F1200.000
G3 X-104.793 Y28.053 Z11.660 I19.567 J-5.857 K0.000 F1200.000
G1 X-103.235 Y26.495 Z11.660 F1200.000
G3 X-103.502 Y25.417 Z11.660 I19.883 J-5.495 K0.000 F1200.000
G1 X-105.071 Y26.986 Z11.660 F1200.000
G3 X-105.349 Y25.918 Z11.660 I19.732 J-5.701 K0.000 F1200.000
G1 X-103.761 Y24.331 Z11.660 F1200.000
G3 X-104.019 Y23.244 Z11.660 I21.506 J-5.669 K0.000 F1200.000
G1 X-105.602 Y24.827 Z11.660 F1200.000
G1 X-105.856 Y23.736 Z11.660 F1200.000
G1 X-104.252 Y22.132 Z11.660 F1200.000
G1 X-104.485 Y21.020 Z11.660 F1200.000
G1 X-106.098 Y22.633 Z11.660 F1200.000
G1 X-106.326 Y21.516 Z11.660 F1200.000
G1 X-104.706 Y19.896 Z11.660 F1200.000
G1 X-104.912 Y18.757 Z11.660 F1200.000
G1 X-106.554 Y20.400 Z11.660 F1200.000
G3 X-106.759 Y19.260 Z11.660 I21.120 J-4.386 K0.000 F1200.000
G1 X-105.118 Y17.618 Z11.660 F1200.000
G3 X-105.298 Y16.453 Z11.660 I22.794 J-4.119 K0.000 F1200.000
G1 X-106.961 Y18.116 Z11.660 F1200.000
G3 X-107.152 Y16.963 Z11.660 I21.376 J-4.143 K0.000 F1200.000
G1 X-105.476 Y15.287 Z11.660 F1200.000
G3 X-105.641 Y14.107 Z11.660 I21.720 J-3.643 K0.000 F1200.000
G1 X-107.327 Y15.792 Z11.660 F1200.000
G1 X-107.501 Y14.621 Z11.660 F1200.000
G1 X-105.790 Y12.911 Z11.660 F1200.000
G3 X-105.939 Y11.715 Z11.660 I34.897 J-4.948 K0.000 F1200.000
G1 X-107.649 Y13.425 Z11.660 F1200.000
G1 X-107.795 Y12.225 Z11.660 F1200.000
G1 X-106.058 Y10.489 Z11.660 F1200.000
G1 X-106.177 Y9.262 Z11.660 F1200.000
G1 X-107.925 Y11.011 Z11.660 F1200.000
G1 X-108.041 Y9.782 Z11.660 F1200.000
G1 X-106.275 Y8.016 Z11.660 F1200.000
G1 X-106.362 Y6.758 Z11.660 F1200.000
G1 X-108.153 Y8.549 Z11.660 F1200.000
G1 X-108.238 Y7.289 Z11.660 F1200.000
G1 X-106.439 Y5.490 Z11.660 F1200.000
G1 X-106.492 Y4.199 Z11.660 F1200.000
G1 X-108.322 Y6.029 Z11.660 F1200.000
G3 X-108.380 Y4.741 Z11.660 I23.939 J-1.714 K0.000 F1200.000
G1 X-106.545 Y2.906 Z11.660 F1200.000
G1 X-106.563 Y1.580 Z11.660 F1200.000
G1 X-108.432 Y3.448 Z11.660 F1200.000
G3 X-108.464 Y2.135 Z11.660 I24.425 J-1.254 K0.000 F1200.000
G1 X-106.582 Y0.253 Z11.660 F1200.000
G3 X-106.570 Y-1.103 Z11.660 I25.284 J-0.460 K0.000 F1200.000
G1 X-108.482 Y0.808 Z11.660 F1200.000
G3 X-108.485 Y-0.533 Z11.660 I24.967 J-0.739 K0.000 F1200.000
G1 X-106.551 Y-2.467 Z11.660 F1200.000
G3 X-106.507 Y-3.857 Z11.660 I25.676 J0.127 K0.000 F1200.000
G1 X-108.467 Y-1.896 Z11.660 F1200.000
G3 X-108.439 Y-3.269 Z11.660 I25.574 J-0.164 K0.000 F1200.000
G1 X-106.449 Y-5.260 Z11.660 F1200.000
G3 X-106.367 Y-6.686 Z11.660 I26.325 J0.789 K0.000 F1200.000
G1 X-108.383 Y-4.670 Z11.660 F1200.000
G3 X-108.319 Y-6.079 Z11.660 I26.257 J0.483 K0.000 F1200.000
G1 X-106.267 Y-8.131 Z11.660 F1200.000
G3 X-106.144 Y-9.599 Z11.660 I27.100 J1.539 K0.000 F1200.000
G1 X-108.222 Y-7.521 Z11.660 F1200.000
G3 X-108.118 Y-8.970 Z11.660 I27.027 J1.213 K0.000 F1200.000
G1 X-106.000 Y-11.088 Z11.660 F1200.000
G3 X-105.829 Y-12.604 Z11.660 I27.997 J2.394 K0.000 F1200.000
G1 X-107.978 Y-10.455 Z11.660 F1200.000
G3 X-107.828 Y-11.950 Z11.660 I27.901 J2.041 K0.000 F1200.000
G1 X-105.637 Y-14.140 Z11.660 F1200.000
G3 X-105.411 Y-15.711 Z11.660 I29.066 J3.378 K0.000 F1200.000
G1 X-107.642 Y-13.480 Z11.660 F1200.000
G3 X-107.440 Y-15.027 Z11.660 I28.898 J2.986 K0.000 F1200.000
G1 X-105.169 Y-17.299 Z11.660 F1200.000
G3 X-104.880 Y-18.932 Z11.660 I30.569 J4.563 K0.000 F1200.000
G1 X-107.205 Y-16.607 Z11.660 F1200.000
G3 X-106.944 Y-18.214 Z11.660 I30.040 J4.068 K0.000 F1200.000
G1 X-104.577 Y-20.580 Z11.660 F1200.000
G1 X-104.221 Y-22.282 Z11.660 F1200.000
G1 X-106.656 Y-19.847 Z11.660 F1200.000
G3 X-106.325 Y-21.522 Z11.660 I31.358 J5.317 K0.000 F1200.000
G1 X-103.838 Y-24.009 Z11.660 F1200.000
G1 X-103.417 Y-25.775 Z11.660 F1200.000
G1 X-105.976 Y-23.216 Z11.660 F1200.000
G1 X-105.569 Y-24.968 Z11.660 F1200.000
G1 X-102.940 Y-27.597 Z11.660 F1200.000
G3 X-102.429 Y-29.452 Z11.660 I34.438 J8.478 K0.000 F1200.000
G1 X-105.133 Y-26.749 Z11.660 F1200.000
