(Exported by FreeCAD)
(Post Processor: grbl_post)
(Output Time:2024-11-15 17:34:33.312703)
(Begin preamble)
G17 G90
G21
(Begin operation: Fixture)
(Path: Fixture)
G54
(Finish operation: Fixture)
(Begin operation: eigthinchendmill001)
(Path: eigthinchendmill001)
(eigthinchendmill001)
(Begin toolchange)
( M6 T2 )
M3 S18000
(Finish operation: eigthinchendmill001)
(Begin operation: Pocket_Shape)
(Path: Pocket_Shape)
(Pocket_Shape)
G0 Z41.000
G0 X199.409 Y129.214
G0 Z39.000
G1 X199.409 Y129.214 Z33.000 F1400.000
G3 X186.368 Y158.566 Z33.000 I-94.192 J-24.277 K0.000 F1400.000
G1 X202.321 Y99.030 Z33.000 F1400.000
G2 X200.648 Y85.955 Z33.000 I-96.107 J5.654 K0.000 F1400.000
G1 X178.385 Y169.041 Z33.000 F1400.000
G3 X171.239 Y176.393 Z33.000 I-68.703 J-59.628 K0.000 F1400.000
G1 X198.131 Y76.029 Z33.000 F1400.000
G2 X195.167 Y67.773 Z33.000 I-87.691 J26.820 K0.000 F1400.000
G1 X164.546 Y182.053 Z33.000 F1400.000
G3 X158.155 Y186.585 Z33.000 I-53.522 J-68.700 K0.000 F1400.000
G1 X191.897 Y60.658 Z33.000 F1400.000
G2 X188.403 Y54.379 Z33.000 I-77.798 J39.179 K0.000 F1400.000
G1 X151.986 Y190.289 Z33.000 F1400.000
G3 X146.000 Y193.310 Z33.000 I-39.335 J-70.494 K0.000 F1400.000
G1 X184.734 Y48.755 Z33.000 F1400.000
G2 X180.915 Y43.688 Z33.000 I-72.678 J50.808 K0.000 F1400.000
G1 X140.158 Y195.796 Z33.000 F1400.000
G3 X134.443 Y197.806 Z33.000 I-32.919 J-84.442 K0.000 F1400.000
G1 X176.969 Y39.097 Z33.000 F1400.000
G2 X172.913 Y34.916 Z33.000 I-56.120 J50.395 K0.000 F1400.000
G1 X128.841 Y199.395 Z33.000 F1400.000
G3 X123.338 Y200.613 Z33.000 I-17.756 J-67.159 K0.000 F1400.000
G1 X168.757 Y31.108 Z33.000 F1400.000
G2 X164.509 Y27.640 Z33.000 I-49.938 J56.827 K0.000 F1400.000
G1 X117.926 Y201.492 Z33.000 F1400.000
G3 X112.598 Y202.057 Z33.000 I-9.725 J-66.305 K0.000 F1400.000
G1 X160.178 Y24.488 Z33.000 F1400.000
G2 X155.767 Y21.632 Z33.000 I-41.070 J58.589 K0.000 F1400.000
G1 X107.349 Y202.327 Z33.000 F1400.000
G3 X102.175 Y202.318 Z33.000 I-2.475 J-63.047 K0.000 F1400.000
G1 X151.281 Y19.055 Z33.000 F1400.000
G2 X146.723 Y16.747 Z33.000 I-31.908 J57.344 K0.000 F1400.000
G1 X97.075 Y202.034 Z33.000 F1400.000
G3 X92.045 Y201.489 Z33.000 I6.406 J-82.505 K0.000 F1400.000
G1 X142.096 Y14.697 Z33.000 F1400.000
G2 X137.399 Y12.904 Z33.000 I-34.288 J82.792 K0.000 F1400.000
G1 X87.082 Y200.690 Z33.000 F1400.000
G3 X82.186 Y199.644 Z33.000 I11.993 J-68.098 K0.000 F1400.000
G1 X132.635 Y11.367 Z33.000 F1400.000
G2 X127.805 Y10.075 Z33.000 I-21.637 J71.233 K0.000 F1400.000
G1 X77.356 Y198.352 Z33.000 F1400.000
G3 X72.592 Y196.814 Z33.000 I16.798 J-60.174 K0.000 F1400.000
G1 X122.909 Y9.029 Z33.000 F1400.000
G2 X117.946 Y8.232 Z33.000 I-12.858 J64.158 K0.000 F1400.000
G1 X67.896 Y195.021 Z33.000 F1400.000
G3 X63.269 Y192.971 Z33.000 I31.661 J-77.691 K0.000 F1400.000
G1 X112.916 Y7.686 Z33.000 F1400.000
G2 X107.815 Y7.403 Z33.000 I-7.605 J90.750 K0.000 F1400.000
G1 X58.711 Y190.662 Z33.000 F1400.000
G3 X54.225 Y188.085 Z33.000 I34.026 J-64.428 K0.000 F1400.000
G1 X102.641 Y7.394 Z33.000 F1400.000
G2 X97.392 Y7.665 Z33.000 I1.679 J83.585 K0.000 F1400.000
G1 X49.814 Y185.228 Z33.000 F1400.000
G3 X45.483 Y182.075 Z33.000 I39.316 J-58.571 K0.000 F1400.000
G1 X92.065 Y8.230 Z33.000 F1400.000
G2 X86.652 Y9.110 Z33.000 I10.320 J80.557 K0.000 F1400.000
G1 X41.236 Y178.607 Z33.000 F1400.000
G3 X37.080 Y174.798 Z33.000 I47.514 J-56.011 K0.000 F1400.000
G1 X81.149 Y10.329 Z33.000 F1400.000
G2 X75.547 Y11.918 Z33.000 I21.628 J86.924 K0.000 F1400.000
G1 X33.024 Y170.617 Z33.000 F1400.000
G3 X29.078 Y166.024 Z33.000 I61.897 J-57.172 K0.000 F1400.000
G1 X69.832 Y13.930 Z33.000 F1400.000
G2 X63.989 Y16.416 Z33.000 I27.467 J72.656 K0.000 F1400.000
G1 X25.260 Y160.957 Z33.000 F1400.000
G3 X21.591 Y155.331 Z33.000 I66.751 J-47.547 K0.000 F1400.000
G1 X58.003 Y19.438 Z33.000 F1400.000
G2 X51.834 Y23.143 Z33.000 I43.252 J79.003 K0.000 F1400.000
G1 X18.097 Y149.051 Z33.000 F1400.000
G3 X14.827 Y141.935 Z33.000 I81.723 J-41.858 K0.000 F1400.000
G1 X45.443 Y27.677 Z33.000 F1400.000
G2 X38.749 Y33.339 Z33.000 I54.209 J70.870 K0.000 F1400.000
G1 X11.864 Y133.676 Z33.000 F1400.000
G3 X9.349 Y123.745 Z33.000 I90.090 J-28.105 K0.000 F1400.000
G1 X31.601 Y40.696 Z33.000 F1400.000
G2 X23.616 Y51.180 Z33.000 I70.794 J62.206 K0.000 F1400.000
G2 X7.677 Y110.664 Z33.000 I81.284 J53.657 K0.000 F1400.000
G1 X23.616 Y51.180 Z33.000 F1400.000
G1 X23.616 Y51.180 Z30.000 F1400.000
G1 X7.677 Y110.664 Z30.000 F1400.000
G3 X23.616 Y51.180 Z30.000 I97.223 J-5.826 K0.000 F1400.000
G3 X31.601 Y40.696 Z30.000 I78.779 J51.721 K0.000 F1400.000
G1 X9.349 Y123.745 Z30.000 F1400.000
G2 X11.864 Y133.676 Z30.000 I92.605 J-18.175 K0.000 F1400.000
G1 X38.749 Y33.339 Z30.000 F1400.000
G3 X45.443 Y27.677 Z30.000 I60.903 J65.208 K0.000 F1400.000
G1 X14.827 Y141.935 Z30.000 F1400.000
G2 X18.097 Y149.051 Z30.000 I84.992 J-34.742 K0.000 F1400.000
G1 X51.834 Y23.143 Z30.000 F1400.000
G3 X58.003 Y19.438 Z30.000 I49.421 J75.298 K0.000 F1400.000
G1 X21.591 Y155.331 Z30.000 F1400.000
G2 X25.260 Y160.957 Z30.000 I70.420 J-41.921 K0.000 F1400.000
G1 X63.989 Y16.416 Z30.000 F1400.000
G3 X69.832 Y13.930 Z30.000 I33.309 J70.170 K0.000 F1400.000
G1 X29.078 Y166.024 Z30.000 F1400.000
G2 X33.024 Y170.617 Z30.000 I65.843 J-52.580 K0.000 F1400.000
G1 X75.547 Y11.918 Z30.000 F1400.000
G3 X81.149 Y10.329 Z30.000 I27.230 J85.335 K0.000 F1400.000
G1 X37.080 Y174.798 Z30.000 F1400.000
G2 X41.236 Y178.607 Z30.000 I51.670 J-52.202 K0.000 F1400.000
G1 X86.652 Y9.110 Z30.000 F1400.000
G3 X92.065 Y8.230 Z30.000 I15.732 J79.677 K0.000 F1400.000
G1 X45.483 Y182.075 Z30.000 F1400.000
G2 X49.814 Y185.228 Z30.000 I43.648 J-55.418 K0.000 F1400.000
G1 X97.392 Y7.665 Z30.000 F1400.000
G3 X102.641 Y7.394 Z30.000 I6.928 J83.314 K0.000 F1400.000
G1 X54.225 Y188.085 Z30.000 F1400.000
G2 X58.711 Y190.662 Z30.000 I38.512 J-61.851 K0.000 F1400.000
G1 X107.815 Y7.403 Z30.000 F1400.000
G3 X112.916 Y7.686 Z30.000 I-2.504 J91.034 K0.000 F1400.000
G1 X63.269 Y192.971 Z30.000 F1400.000
G2 X67.896 Y195.021 Z30.000 I36.288 J-75.640 K0.000 F1400.000
G1 X117.946 Y8.232 Z30.000 F1400.000
G3 X122.909 Y9.029 Z30.000 I-7.896 J64.956 K0.000 F1400.000
G1 X72.592 Y196.814 Z30.000 F1400.000
G2 X77.356 Y198.352 Z30.000 I21.562 J-58.636 K0.000 F1400.000
G1 X127.805 Y10.075 Z30.000 F1400.000
G3 X132.635 Y11.367 Z30.000 I-16.807 J72.525 K0.000 F1400.000
G1 X82.186 Y199.644 Z30.000 F1400.000
G2 X87.082 Y200.690 Z30.000 I16.889 J-67.051 K0.000 F1400.000
G1 X137.399 Y12.904 Z30.000 F1400.000
G3 X142.096 Y14.697 Z30.000 I-29.591 J84.584 K0.000 F1400.000
G1 X92.045 Y201.489 Z30.000 F1400.000
G2 X97.075 Y202.034 Z30.000 I11.436 J-81.960 K0.000 F1400.000
G1 X146.723 Y16.747 Z30.000 F1400.000
G3 X151.281 Y19.055 Z30.000 I-27.350 J59.653 K0.000 F1400.000
G1 X102.175 Y202.318 Z30.000 F1400.000
G2 X107.349 Y202.327 Z30.000 I2.699 J-63.038 K0.000 F1400.000
G1 X155.767 Y21.632 Z30.000 F1400.000
G3 X160.178 Y24.488 Z30.000 I-36.659 J61.445 K0.000 F1400.000
G1 X112.598 Y202.057 Z30.000 F1400.000
G2 X117.926 Y201.492 Z30.000 I-4.397 J-66.869 K0.000 F1400.000
G1 X164.509 Y27.640 Z30.000 F1400.000
G3 X168.757 Y31.108 Z30.000 I-45.691 J60.295 K0.000 F1400.000
G1 X123.338 Y200.613 Z30.000 F1400.000
G2 X128.841 Y199.395 Z30.000 I-12.254 J-68.378 K0.000 F1400.000
G1 X172.913 Y34.916 Z30.000 F1400.000
G3 X176.969 Y39.097 Z30.000 I-52.064 J54.576 K0.000 F1400.000
G1 X134.443 Y197.806 Z30.000 F1400.000
G2 X140.158 Y195.796 Z30.000 I-27.204 J-86.453 K0.000 F1400.000
G1 X180.915 Y43.688 Z30.000 F1400.000
G3 X184.734 Y48.755 Z30.000 I-68.859 J55.875 K0.000 F1400.000
G1 X146.000 Y193.310 Z30.000 F1400.000
G2 X151.986 Y190.289 Z30.000 I-33.349 J-73.515 K0.000 F1400.000
G1 X188.403 Y54.379 Z30.000 F1400.000
G3 X191.897 Y60.658 Z30.000 I-74.304 J45.458 K0.000 F1400.000
G1 X158.155 Y186.585 Z30.000 F1400.000
G2 X164.546 Y182.053 Z30.000 I-47.131 J-73.232 K0.000 F1400.000
G1 X195.167 Y67.773 Z30.000 F1400.000
G3 X198.131 Y76.029 Z30.000 I-84.727 J35.077 K0.000 F1400.000
G1 X171.239 Y176.393 Z30.000 F1400.000
G2 X178.385 Y169.041 Z30.000 I-61.557 J-66.980 K0.000 F1400.000
G1 X200.648 Y85.955 Z30.000 F1400.000
G3 X202.321 Y99.030 Z30.000 I-94.434 J18.729 K0.000 F1400.000
G1 X186.368 Y158.566 Z30.000 F1400.000
G2 X199.409 Y129.214 Z30.000 I-81.151 J-53.629 K0.000 F1400.000
G0 Z41.000
G0 Z41.000
(Finish operation: Pocket_Shape)
(Begin operation: Profile001)
(Path: Profile001)
(Profile001)
(Compensated Tool Path. Diameter: 5.0)
G0 Z41.000
G0 X173.943 Y173.803
G0 Z39.000
G1 X173.943 Y173.803 Z33.000 F1400.000
G2 X110.467 Y7.514 Z33.000 I-68.943 J-68.943 K0.000 F1400.000
G2 X7.654 Y99.394 Z33.000 I-5.467 J97.346 K0.000 F1400.000
G2 X99.533 Y202.207 Z33.000 I97.346 J5.467 K0.000 F1400.000
G2 X173.943 Y173.803 Z33.000 I5.467 J-97.346 K0.000 F1400.000
G1 X173.943 Y173.803 Z30.000 F1400.000
G2 X110.467 Y7.514 Z30.000 I-68.943 J-68.943 K0.000 F1400.000
G2 X7.654 Y99.394 Z30.000 I-5.467 J97.346 K0.000 F1400.000
G2 X99.533 Y202.207 Z30.000 I97.346 J5.467 K0.000 F1400.000
G2 X173.943 Y173.803 Z30.000 I5.467 J-97.346 K0.000 F1400.000
G0 Z41.000
G0 Z41.000
(Finish operation: Profile001)
(Begin operation: DressupTag)
(Path: DressupTag)
G0 Z41.000
G0 X181.014 Y180.874 Z41.000
G0 X181.014 Y180.874 Z39.000
G1 X181.014 Y180.874 Z31.000 F1400.000
G2 X110.956 Y-2.474 Z31.000 I-76.014 J-76.014 K0.000 F1400.000
G2 X-2.335 Y98.904 Z31.000 I-5.956 J107.335 K0.000 F1400.000
G2 X99.044 Y212.195 Z31.000 I107.335 J5.956 K0.000 F1400.000
G2 X181.014 Y180.874 Z31.000 I5.956 J-107.335 K0.000 F1400.000
G1 X181.014 Y180.874 Z26.000 F1400.000
G2 X110.956 Y-2.474 Z26.000 I-76.014 J-76.014 K0.000 F1400.000
G2 X-2.335 Y98.904 Z26.000 I-5.956 J107.335 K0.000 F1400.000
G2 X99.044 Y212.195 Z26.000 I107.335 J5.956 K0.000 F1400.000
G2 X181.014 Y180.874 Z26.000 I5.956 J-107.335 K0.000 F1400.000
G1 X181.014 Y180.874 Z21.000 F1400.000
G2 X110.956 Y-2.474 Z21.000 I-76.014 J-76.014 K0.000 F1400.000
G2 X-2.335 Y98.904 Z21.000 I-5.956 J107.335 K0.000 F1400.000
G2 X99.044 Y212.195 Z21.000 I107.335 J5.956 K0.000 F1400.000
G2 X181.014 Y180.874 Z21.000 I5.956 J-107.335 K0.000 F1400.000
G1 X181.014 Y180.874 Z16.000 F1400.000
G2 X110.956 Y-2.474 Z16.000 I-76.014 J-76.014 K0.000 F1400.000
G2 X-2.335 Y98.904 Z16.000 I-5.956 J107.335 K0.000 F1400.000
G2 X99.044 Y212.195 Z16.000 I107.335 J5.956 K0.000 F1400.000
G2 X181.014 Y180.874 Z16.000 I5.956 J-107.335 K0.000 F1400.000
G1 X181.014 Y180.874 Z11.000 F1400.000
G2 X110.956 Y-2.474 Z11.000 I-76.014 J-76.014 K0.000 F1400.000
G2 X-2.335 Y98.904 Z11.000 I-5.956 J107.335 K0.000 F1400.000
G2 X99.044 Y212.195 Z11.000 I107.335 J5.956 K0.000 F1400.000
G2 X181.014 Y180.874 Z11.000 I5.956 J-107.335 K0.000 F1400.000
G1 X181.014 Y180.874 Z6.000 F1400.000
G2 X110.956 Y-2.474 Z6.000 I-76.014 J-76.014 K0.000 F1400.000
G2 X-2.335 Y98.904 Z6.000 I-5.956 J107.335 K0.000 F1400.000
G2 X99.044 Y212.195 Z6.000 I107.335 J5.956 K0.000 F1400.000
G2 X181.014 Y180.874 Z6.000 I5.956 J-107.335 K0.000 F1400.000
G1 X181.014 Y180.874 Z1.000 F1400.000
G2 X110.956 Y-2.474 Z1.000 I-76.014 J-76.014 K0.000 F1400.000
G2 X-2.335 Y98.904 Z1.000 I-5.956 J107.335 K0.000 F1400.000
G2 X99.044 Y212.195 Z1.000 I107.335 J5.956 K0.000 F1400.000
G2 X181.014 Y180.874 Z1.000 I5.956 J-107.335 K0.000 F1400.000
G1 X181.014 Y180.874 Z0.000 F1400.000
G2 X110.956 Y-2.474 Z0.000 I-76.014 J-76.014 K0.000 F1400.000
G2 X-2.335 Y98.904 Z0.000 I-5.956 J107.335 K0.000 F1400.000
G2 X99.044 Y212.195 Z0.000 I107.335 J5.956 K0.000 F1400.000
G2 X181.014 Y180.874 Z0.000 I5.956 J-107.335 K0.000 F1400.000
G0 X181.014 Y180.874 Z41.000
(Finish operation: DressupTag)
(Begin postamble)
M5
G17 G90
M2
