(Exported by FreeCAD)
(Post Processor: grbl_post)
(Output Time:2024-12-03 15:57:16.504613)
(Begin preamble)
G17 G90
G21
(Begin operation: Fixture)
(Path: Fixture)
G54
(Finish operation: Fixture)
(Begin operation: endmill_compression_3175_spe001)
(Path: endmill_compression_3175_spe001)
(endmill_compression_3175_spe001)
(Begin toolchange)
( M6 T2 )
M3 S18000
(Finish operation: endmill_compression_3175_spe001)
(Begin operation: Check pos)
(Path: Check pos)
(Check pos)
(Compensated Tool Path. Diameter: 3.17)
G0 Z20.000
G0 X69.236 Y69.236
G1 X69.236 Y69.236 Z18.000 F1000.000
G2 X97.758 Y5.540 Z18.000 I-69.236 J-69.236 K0.000 F1000.000
G2 X-97.758 Y-5.540 Z18.000 I-97.758 J-5.540 K0.000 F1000.000
G2 X69.236 Y69.236 Z18.000 I97.758 J5.540 K0.000 F1000.000
G0 Z20.000
G0 Z20.000
(Finish operation: Check pos)
(Begin operation: Profile005)
(Path: Profile005)
(Profile005)
(Compensated Tool Path. Diameter: 3.17)
G0 Z20.000
G0 X69.236 Y69.236
G1 X69.236 Y69.236 Z5.330 F1000.000
G2 X6.922 Y-97.670 Z5.330 I-69.236 J-69.236 K0.000 F1000.000
G2 X-6.922 Y97.670 Z5.330 I-6.922 J97.670 K0.000 F1000.000
G2 X69.236 Y69.236 Z5.330 I6.922 J-97.670 K0.000 F1000.000
G1 X69.236 Y69.236 Z2.160 F1000.000
G2 X6.922 Y-97.670 Z2.160 I-69.236 J-69.236 K0.000 F1000.000
G2 X-6.922 Y97.670 Z2.160 I-6.922 J97.670 K0.000 F1000.000
G2 X69.236 Y69.236 Z2.160 I6.922 J-97.670 K0.000 F1000.000
G1 X69.236 Y69.236 Z-1.010 F1000.000
G2 X6.922 Y-97.670 Z-1.010 I-69.236 J-69.236 K0.000 F1000.000
G2 X-6.922 Y97.670 Z-1.010 I-6.922 J97.670 K0.000 F1000.000
G2 X69.236 Y69.236 Z-1.010 I6.922 J-97.670 K0.000 F1000.000
G1 X69.236 Y69.236 Z-2.000 F1000.000
G2 X6.922 Y-97.670 Z-2.000 I-69.236 J-69.236 K0.000 F1000.000
G2 X-6.922 Y97.670 Z-2.000 I-6.922 J97.670 K0.000 F1000.000
G2 X69.236 Y69.236 Z-2.000 I6.922 J-97.670 K0.000 F1000.000
G0 Z20.000
G0 Z20.000
(Finish operation: Profile005)
(Begin operation: Pocket_Shape001)
(Path: Pocket_Shape001)
(Pocket_Shape001)
G0 Z20.000
G0 X69.237 Y69.235
G1 X69.237 Y69.235 Z-2.000 F1000.000
G2 X1.386 Y-97.905 Z-2.000 I-69.237 J-69.235 K0.000 F1000.000
G2 X-1.386 Y97.905 Z-2.000 I-1.386 J97.905 K0.000 F1000.000
G2 X69.237 Y69.235 Z-2.000 I1.386 J-97.905 K0.000 F1000.000
G0 Z20.000
G0 X-59.450 Y77.789 Z20.000
G0 X-59.450 Y77.789 Z20.000
G1 X-59.450 Y77.789 Z-2.000 F1000.000
G1 X-77.834 Y59.405 Z-2.000 F1000.000
G2 X-59.450 Y77.789 Z-2.000 I77.356 J-58.973 K0.000 F1000.000
G2 X-52.113 Y82.885 Z-2.000 I54.830 J-71.118 K0.000 F1000.000
G1 X-82.895 Y52.103 Z-2.000 F1000.000
G3 X-86.042 Y46.714 Z-2.000 I71.699 J-45.492 K0.000 F1000.000
G1 X-46.696 Y86.060 Z-2.000 F1000.000
G2 X-42.138 Y88.376 Z-2.000 I30.714 J-54.796 K0.000 F1000.000
G1 X-88.374 Y42.140 Z-2.000 F1000.000
G3 X-90.210 Y38.063 Z-2.000 I71.090 J-34.458 K0.000 F1000.000
G1 X-38.074 Y90.199 Z-2.000 F1000.000
G2 X-34.342 Y91.689 Z-2.000 I28.179 J-65.157 K0.000 F1000.000
G1 X-91.683 Y34.348 Z-2.000 F1000.000
G3 X-92.908 Y30.882 Z-2.000 I60.610 J-23.367 K0.000 F1000.000
G1 X-30.876 Y92.913 Z-2.000 F1000.000
G2 X-27.619 Y93.929 Z-2.000 I19.564 J-57.016 K0.000 F1000.000
G1 X-93.938 Y27.611 Z-2.000 F1000.000
G3 X-94.795 Y24.512 Z-2.000 I51.383 J-15.882 K0.000 F1000.000
G1 X-24.522 Y94.784 Z-2.000 F1000.000
G2 X-21.563 Y95.502 Z-2.000 I14.151 J-51.902 K0.000 F1000.000
G1 X-95.507 Y21.558 Z-2.000 F1000.000
G3 X-96.102 Y18.722 Z-2.000 I49.802 J-11.930 K0.000 F1000.000
G1 X-18.724 Y96.099 Z-2.000 F1000.000
G2 X-15.990 Y96.592 Z-2.000 I10.067 J-48.043 K0.000 F1000.000
G1 X-96.594 Y15.988 Z-2.000 F1000.000
G3 X-96.996 Y13.345 Z-2.000 I46.476 J-8.409 K0.000 F1000.000
G1 X-13.349 Y96.992 Z-2.000 F1000.000
G2 X-10.790 Y97.309 Z-2.000 I6.881 J-45.031 K0.000 F1000.000
G1 X-97.316 Y10.783 Z-2.000 F1000.000
G3 X-97.563 Y8.295 Z-2.000 I43.829 J-5.608 K0.000 F1000.000
G1 X-8.305 Y97.552 Z-2.000 F1000.000
G2 X-5.888 Y97.728 Z-2.000 I4.324 J-42.615 K0.000 F1000.000
G1 X-97.734 Y5.882 Z-2.000 F1000.000
G3 X-97.843 Y3.531 Z-2.000 I41.470 J-3.111 K0.000 F1000.000
G1 X-3.530 Y97.844 Z-2.000 F1000.000
G2 X-1.228 Y97.905 Z-2.000 I2.223 J-40.631 K0.000 F1000.000
G1 X-97.897 Y1.236 Z-2.000 F1000.000
G3 X-97.901 Y-1.009 Z-2.000 I39.644 J-1.179 K0.000 F1000.000
G1 X1.014 Y97.905 Z-2.000 F1000.000
G2 X3.204 Y97.854 Z-2.000 I0.186 J-38.705 K0.000 F1000.000
G1 X-97.857 Y-3.207 Z-2.000 F1000.000
G1 X-97.766 Y-5.357 Z-2.000 F1000.000
G1 X5.351 Y97.759 Z-2.000 F1000.000
G2 X7.457 Y97.624 Z-2.000 I-1.324 J-37.279 K0.000 F1000.000
G1 X-97.622 Y-7.455 Z-2.000 F1000.000
G3 X-97.442 Y-9.516 Z-2.000 I36.489 J2.160 K0.000 F1000.000
G1 X9.523 Y97.448 Z-2.000 F1000.000
G2 X11.540 Y97.224 Z-2.000 I-2.960 J-35.732 K0.000 F1000.000
G1 X-97.226 Y-11.543 Z-2.000 F1000.000
G1 X-96.972 Y-13.530 Z-2.000 F1000.000
G1 X13.525 Y96.967 Z-2.000 F1000.000
G2 X15.479 Y96.680 Z-2.000 I-4.093 J-34.662 K0.000 F1000.000
G1 X-96.675 Y-15.474 Z-2.000 F1000.000
G3 X-96.350 Y-17.390 Z-2.000 I34.006 J4.787 K0.000 F1000.000
G1 X17.392 Y96.352 Z-2.000 F1000.000
G2 X19.272 Y95.990 Z-2.000 I-5.455 J-33.375 K0.000 F1000.000
G1 X-95.998 Y-19.280 Z-2.000 F1000.000
G1 X-95.600 Y-21.124 Z-2.000 F1000.000
G1 X21.126 Y95.603 Z-2.000 F1000.000
G1 X22.948 Y95.183 Z-2.000 F1000.000
G1 X-95.179 Y-22.945 Z-2.000 F1000.000
G3 X-94.736 Y-24.743 Z-2.000 I31.981 J6.930 K0.000 F1000.000
G1 X24.736 Y94.729 Z-2.000 F1000.000
G2 X26.502 Y94.254 Z-2.000 I-7.505 J-31.438 K0.000 F1000.000
G1 X-94.252 Y-26.500 Z-2.000 F1000.000
G3 X-93.746 Y-28.236 Z-2.000 I30.910 J8.063 K0.000 F1000.000
G1 X28.239 Y93.749 Z-2.000 F1000.000
G2 X29.945 Y93.213 Z-2.000 I-8.606 J-30.398 K0.000 F1000.000
G1 X-93.221 Y-29.952 Z-2.000 F1000.000
G3 X-92.656 Y-31.629 Z-2.000 I29.900 J9.134 K0.000 F1000.000
G1 X31.633 Y92.660 Z-2.000 F1000.000
G1 X33.289 Y92.075 Z-2.000 F1000.000
G1 X-92.074 Y-33.289 Z-2.000 F1000.000
G1 X-91.470 Y-34.926 Z-2.000 F1000.000
G1 X34.922 Y91.466 Z-2.000 F1000.000
G2 X36.539 Y90.841 Z-2.000 I-10.219 J-28.873 K0.000 F1000.000
G1 X-90.834 Y-36.532 Z-2.000 F1000.000
G3 X-90.184 Y-38.123 Z-2.000 I28.427 J10.692 K0.000 F1000.000
G1 X38.119 Y90.180 Z-2.000 F1000.000
G2 X39.685 Y89.504 Z-2.000 I-11.154 J-27.990 K0.000 F1000.000
G1 X-89.504 Y-39.685 Z-2.000 F1000.000
G3 X-88.803 Y-41.225 Z-2.000 I27.561 J11.607 K0.000 F1000.000
G1 X41.229 Y88.806 Z-2.000 F1000.000
G2 X42.745 Y88.081 Z-2.000 I-12.051 J-27.142 K0.000 F1000.000
G1 X-88.087 Y-42.751 Z-2.000 F1000.000
G3 X-87.338 Y-44.243 Z-2.000 I26.730 J12.487 K0.000 F1000.000
G1 X44.249 Y87.343 Z-2.000 F1000.000
G1 X45.721 Y86.575 Z-2.000 F1000.000
G1 X-86.577 Y-45.724 Z-2.000 F1000.000
G1 X-85.791 Y-47.179 Z-2.000 F1000.000
G1 X47.179 Y85.790 Z-2.000 F1000.000
G1 X48.617 Y84.987 Z-2.000 F1000.000
G1 X-84.984 Y-48.614 Z-2.000 F1000.000
G1 X-84.163 Y-50.035 Z-2.000 F1000.000
G1 X50.029 Y84.158 Z-2.000 F1000.000
G2 X51.431 Y83.318 Z-2.000 I-14.129 J-25.178 K0.000 F1000.000
G1 X-83.312 Y-51.425 Z-2.000 F1000.000
G3 X-82.451 Y-52.805 Z-2.000 I24.806 J14.524 K0.000 F1000.000
G1 X52.801 Y82.447 Z-2.000 F1000.000
G2 X54.160 Y81.564 Z-2.000 I-14.914 J-24.437 K0.000 F1000.000
G1 X-81.563 Y-54.159 Z-2.000 F1000.000
G3 X-80.659 Y-55.496 Z-2.000 I24.073 J15.299 K0.000 F1000.000
G1 X55.498 Y80.660 Z-2.000 F1000.000
G2 X56.814 Y79.735 Z-2.000 I-15.681 J-23.712 K0.000 F1000.000
G1 X-79.739 Y-56.818 Z-2.000 F1000.000
G3 X-78.793 Y-58.113 Z-2.000 I23.355 J16.059 K0.000 F1000.000
G1 X58.119 Y78.798 Z-2.000 F1000.000
G2 X59.394 Y77.832 Z-2.000 I-16.434 J-23.001 K0.000 F1000.000
G1 X-77.838 Y-59.400 Z-2.000 F1000.000
G1 X-76.853 Y-60.656 Z-2.000 F1000.000
G1 X60.660 Y76.857 Z-2.000 F1000.000
G1 X61.900 Y75.855 Z-2.000 F1000.000
G1 X-75.857 Y-61.902 Z-2.000 F1000.000
G1 X-74.840 Y-63.126 Z-2.000 F1000.000
G1 X63.126 Y74.839 Z-2.000 F1000.000
G1 X64.334 Y73.806 Z-2.000 F1000.000
G1 X-73.804 Y-64.332 Z-2.000 F1000.000
G1 X-72.755 Y-65.524 Z-2.000 F1000.000
G1 X65.520 Y72.750 Z-2.000 F1000.000
G1 X66.696 Y71.685 Z-2.000 F1000.000
G1 X-71.679 Y-66.690 Z-2.000 F1000.000
G3 X-70.595 Y-67.848 Z-2.000 I20.989 J18.563 K0.000 F1000.000
G1 X67.842 Y70.589 Z-2.000 F1000.000
G2 X68.980 Y69.486 Z-2.000 I-18.924 J-20.648 K0.000 F1000.000
G1 X-69.482 Y-68.976 Z-2.000 F1000.000
G3 X-68.359 Y-70.094 Z-2.000 I20.307 J19.284 K0.000 F1000.000
G1 X70.093 Y68.357 Z-2.000 F1000.000
G2 X71.191 Y67.214 Z-2.000 I-19.645 J-19.966 K0.000 F1000.000
G1 X-67.214 Y-71.191 Z-2.000 F1000.000
G3 X-66.051 Y-72.270 Z-2.000 I19.625 J20.006 K0.000 F1000.000
G1 X72.272 Y66.053 Z-2.000 F1000.000
G2 X73.330 Y64.870 Z-2.000 I-20.368 J-19.283 K0.000 F1000.000
G1 X-64.874 Y-73.335 Z-2.000 F1000.000
G3 X-63.671 Y-74.373 Z-2.000 I18.940 J20.731 K0.000 F1000.000
G1 X74.380 Y63.678 Z-2.000 F1000.000
G2 X75.398 Y62.455 Z-2.000 I-21.095 J-18.597 K0.000 F1000.000
G1 X-62.460 Y-75.403 Z-2.000 F1000.000
G1 X-61.220 Y-76.405 Z-2.000 F1000.000
G1 X76.408 Y61.223 Z-2.000 F1000.000
G1 X77.393 Y59.967 Z-2.000 F1000.000
G1 X-59.968 Y-77.394 Z-2.000 F1000.000
G1 X-58.696 Y-78.364 Z-2.000 F1000.000
G1 X78.363 Y58.695 Z-2.000 F1000.000
G1 X79.316 Y57.406 Z-2.000 F1000.000
G1 X-57.403 Y-79.312 Z-2.000 F1000.000
G1 X-56.098 Y-80.249 Z-2.000 F1000.000
G1 X80.244 Y56.093 Z-2.000 F1000.000
G2 X81.163 Y54.770 Z-2.000 I-22.899 J-16.891 K0.000 F1000.000
G1 X-54.764 Y-81.156 Z-2.000 F1000.000
G3 X-53.420 Y-82.054 Z-2.000 I16.529 J23.283 K0.000 F1000.000
G1 X82.050 Y53.416 Z-2.000 F1000.000
G2 X82.927 Y52.051 Z-2.000 I-23.671 J-16.162 K0.000 F1000.000
G1 X-52.049 Y-82.925 Z-2.000 F1000.000
G3 X-50.663 Y-83.780 Z-2.000 I15.790 J24.064 K0.000 F1000.000
G1 X83.781 Y50.664 Z-2.000 F1000.000
G2 X84.614 Y49.255 Z-2.000 I-24.462 J-15.414 K0.000 F1000.000
G1 X-49.258 Y-84.617 Z-2.000 F1000.000
G3 X-47.828 Y-85.428 Z-2.000 I15.033 J24.866 K0.000 F1000.000
G1 X85.434 Y47.834 Z-2.000 F1000.000
G2 X86.222 Y46.380 Z-2.000 I-25.275 J-14.646 K0.000 F1000.000
G1 X-46.386 Y-86.228 Z-2.000 F1000.000
G1 X-44.913 Y-86.997 Z-2.000 F1000.000
G1 X86.999 Y44.916 Z-2.000 F1000.000
G1 X87.750 Y43.426 Z-2.000 F1000.000
G1 X-43.425 Y-87.750 Z-2.000 F1000.000
G1 X-41.917 Y-88.484 Z-2.000 F1000.000
G1 X88.480 Y41.914 Z-2.000 F1000.000
G1 X89.196 Y40.388 Z-2.000 F1000.000
G1 X-40.381 Y-89.189 Z-2.000 F1000.000
G3 X-38.832 Y-89.882 Z-2.000 I13.004 J27.013 K0.000 F1000.000
G1 X89.877 Y38.828 Z-2.000 F1000.000
G2 X90.544 Y37.253 Z-2.000 I-27.472 J-12.570 K0.000 F1000.000
G1 X-37.252 Y-90.543 Z-2.000 F1000.000
G3 X-35.652 Y-91.184 Z-2.000 I12.127 J27.941 K0.000 F1000.000
G1 X91.187 Y35.654 Z-2.000 F1000.000
G2 X91.802 Y34.028 Z-2.000 I-28.421 J-11.673 K0.000 F1000.000
G1 X-34.034 Y-91.808 Z-2.000 F1000.000
G3 X-32.380 Y-92.396 Z-2.000 I11.209 J28.912 K0.000 F1000.000
G1 X92.401 Y32.385 Z-2.000 F1000.000
G1 X92.966 Y30.709 Z-2.000 F1000.000
G1 X-30.710 Y-92.967 Z-2.000 F1000.000
G1 X-29.014 Y-93.513 Z-2.000 F1000.000
G1 X93.509 Y29.010 Z-2.000 F1000.000
G2 X94.033 Y27.293 Z-2.000 I-30.067 J-10.119 K0.000 F1000.000
G1 X-27.286 Y-94.026 Z-2.000 F1000.000
G3 X-25.538 Y-94.520 Z-2.000 I9.596 J30.619 K0.000 F1000.000
G1 X94.517 Y25.536 Z-2.000 F1000.000
G2 X94.980 Y23.757 Z-2.000 I-31.189 J-9.058 K0.000 F1000.000
G1 X-23.760 Y-94.983 Z-2.000 F1000.000
G3 X-21.948 Y-95.413 Z-2.000 I8.504 J31.776 K0.000 F1000.000
G1 X95.421 Y21.956 Z-2.000 F1000.000
G1 X95.818 Y20.112 Z-2.000 F1000.000
G1 X-20.114 Y-95.820 Z-2.000 F1000.000
G1 X-18.247 Y-96.195 Z-2.000 F1000.000
G1 X96.191 Y18.243 Z-2.000 F1000.000
G2 X96.538 Y16.348 Z-2.000 I-33.291 J-7.072 K0.000 F1000.000
G1 X-16.342 Y-96.532 Z-2.000 F1000.000
G3 X-14.410 Y-96.841 Z-2.000 I6.424 J33.976 K0.000 F1000.000
G1 X96.842 Y14.411 Z-2.000 F1000.000
G2 X97.112 Y12.439 Z-2.000 I-34.688 J-5.752 K0.000 F1000.000
G1 X-12.448 Y-97.120 Z-2.000 F1000.000
G3 X-10.435 Y-97.349 Z-2.000 I5.053 J35.427 K0.000 F1000.000
G1 X97.350 Y10.436 Z-2.000 F1000.000
G1 X97.553 Y8.397 Z-2.000 F1000.000
G1 X-8.390 Y-97.545 Z-2.000 F1000.000
G3 X-6.308 Y-97.705 Z-2.000 I3.862 J36.688 K0.000 F1000.000
G1 X97.704 Y6.307 Z-2.000 F1000.000
G2 X97.816 Y4.177 Z-2.000 I-37.550 J-3.047 K0.000 F1000.000
G1 X-4.186 Y-97.825 Z-2.000 F1000.000
G3 X-2.007 Y-97.887 Z-2.000 I2.194 J38.453 K0.000 F1000.000
G1 X97.886 Y2.006 Z-2.000 F1000.000
G2 X97.912 Y-0.210 Z-2.000 I-39.127 J-1.557 K0.000 F1000.000
G1 X0.216 Y-97.905 Z-2.000 F1000.000
G3 X2.489 Y-97.874 Z-2.000 I0.585 J40.156 K0.000 F1000.000
G1 X97.880 Y-2.483 Z-2.000 F1000.000
G2 X97.789 Y-4.816 Z-2.000 I-41.240 J0.440 K0.000 F1000.000
G1 X4.815 Y-97.789 Z-2.000 F1000.000
G3 X7.200 Y-97.646 Z-2.000 I-1.334 J42.186 K0.000 F1000.000
G1 X97.640 Y-7.206 Z-2.000 F1000.000
G2 X97.427 Y-9.660 Z-2.000 I-43.450 J2.528 K0.000 F1000.000
G1 X9.650 Y-97.438 Z-2.000 F1000.000
G3 X12.178 Y-97.151 Z-2.000 I-3.796 J44.793 K0.000 F1000.000
G1 X97.144 Y-12.185 Z-2.000 F1000.000
G2 X96.783 Y-14.788 Z-2.000 I-46.156 J5.085 K0.000 F1000.000
G1 X14.783 Y-96.788 Z-2.000 F1000.000
G3 X17.475 Y-96.338 Z-2.000 I-6.602 J47.761 K0.000 F1000.000
G1 X96.333 Y-17.479 Z-2.000 F1000.000
G2 X95.785 Y-20.269 Z-2.000 I-49.551 J8.292 K0.000 F1000.000
G1 X20.263 Y-95.791 Z-2.000 F1000.000
G3 X23.162 Y-95.134 Z-2.000 I-10.152 J51.519 K0.000 F1000.000
G1 X95.124 Y-23.172 Z-2.000 F1000.000
G2 X94.334 Y-26.203 Z-2.000 I-53.936 J12.436 K0.000 F1000.000
G1 X26.193 Y-94.344 Z-2.000 F1000.000
G3 X29.385 Y-93.393 Z-2.000 I-15.190 J56.849 K0.000 F1000.000
G1 X93.395 Y-29.384 Z-2.000 F1000.000
G2 X92.276 Y-32.744 Z-2.000 I-57.308 J17.217 K0.000 F1000.000
G1 X32.757 Y-92.263 Z-2.000 F1000.000
G3 X36.344 Y-90.917 Z-2.000 I-21.964 J64.019 K0.000 F1000.000
G1 X90.904 Y-36.357 Z-2.000 F1000.000
G2 X89.262 Y-40.241 Z-2.000 I-69.411 J27.059 K0.000 F1000.000
G1 X40.258 Y-89.245 Z-2.000 F1000.000
G3 X44.567 Y-87.177 Z-2.000 I-29.194 J66.360 K0.000 F1000.000
G1 X87.173 Y-44.572 Z-2.000 F1000.000
G2 X84.453 Y-49.533 Z-2.000 I-62.789 J31.192 K0.000 F1000.000
G1 X49.532 Y-84.454 Z-2.000 F1000.000
G3 X55.713 Y-80.515 Z-2.000 I-44.223 J76.206 K0.000 F1000.000
G1 X80.493 Y-55.734 Z-2.000 F1000.000
G2 X68.745 Y-69.724 Z-2.000 I-79.494 J54.829 K0.000 F1000.000
G0 Z20.000
G0 Z20.000
(Finish operation: Pocket_Shape001)
(Begin postamble)
M5
G17 G90
M2
