(Exported by FreeCAD)
(Post Processor: grbl_post)
(Output Time:2024-12-10 12:29:28.429277)
(Begin preamble)
G17 G90
G21
(Begin operation: Fixture)
(Path: Fixture)
G54
(Finish operation: Fixture)
(Begin operation: endmill_compression_3175_spe001)
(Path: endmill_compression_3175_spe001)
(endmill_compression_3175_spe001)
(Begin toolchange)
( M6 T2 )
M3 S18000
(Finish operation: endmill_compression_3175_spe001)
(Begin operation: Cut Inner Pocket)
(Path: Cut Inner Pocket)
G0 X0.000 Y0.000 Z23.000
G0 X44.841 Y44.841 Z23.000
G0 X44.841 Y44.841 Z21.000
G1 X46.345 Y43.284 Z19.750 F600.000
G1 X47.796 Y41.677 Z18.500 F600.000
G1 X46.345 Y43.284 Z17.250 F600.000
G1 X44.841 Y44.841 Z16.000 F600.000
G2 X9.729 Y-62.664 Z16.000 I-44.841 J-44.841 K0.000 F600.000
G3 X8.415 Y-64.226 Z16.000 I0.271 J-1.562 K0.000 F600.000
G1 X8.415 Y-77.952 Z16.000 F600.000
G2 X0.000 Y-78.415 Z16.000 I-8.298 J74.223 K0.000 F600.000
G2 X-8.415 Y-77.952 Z16.000 I-0.117 J74.686 K0.000 F600.000
G1 X-8.415 Y-64.226 Z16.000 F600.000
G3 X-9.729 Y-62.665 Z16.000 I-1.585 J-0.000 K0.000 F600.000
G2 X-9.301 Y62.729 Z16.000 I9.729 J62.664 K0.000 F600.000
G2 X44.841 Y44.841 Z16.000 I9.300 J-62.729 K0.000 F600.000
G0 X44.841 Y44.841 Z23.000
G0 X-39.986 Y49.210 Z23.000
G0 X-39.986 Y49.210 Z21.000
G1 X-43.048 Y46.148 Z18.500 F600.000
G1 X-39.986 Y49.210 Z16.000 F600.000
G1 X-49.227 Y39.969 Z16.000 F600.000
G2 X-39.986 Y49.210 Z16.000 I48.380 J-39.140 K0.000 F600.000
G2 X-34.944 Y52.907 Z16.000 I36.210 J-44.095 K0.000 F600.000
G1 X-52.937 Y34.914 Z16.000 F600.000
G3 X-55.065 Y31.441 Z16.000 I33.143 J-22.693 K0.000 F600.000
G1 X-31.450 Y55.056 Z16.000 F600.000
G2 X-28.532 Y56.629 Z16.000 I23.889 J-40.815 K0.000 F600.000
G1 X-56.620 Y28.541 Z16.000 F600.000
G3 X-57.840 Y25.976 Z16.000 I35.950 J-18.670 K0.000 F600.000
G1 X-25.968 Y57.848 Z16.000 F600.000
G2 X-23.634 Y58.837 Z16.000 I15.264 J-32.775 K0.000 F600.000
G1 X-58.838 Y23.633 Z16.000 F600.000
G3 X-59.665 Y21.461 Z16.000 I30.556 J-12.884 K0.000 F600.000
G1 X-21.464 Y59.663 Z16.000 F600.000
G2 X-19.423 Y60.358 Z16.000 I10.935 J-28.739 K0.000 F600.000
G1 X-60.359 Y19.422 Z16.000 F600.000
G3 X-60.945 Y17.491 Z16.000 I27.237 J-9.324 K0.000 F600.000
G1 X-17.488 Y60.949 Z16.000 F600.000
G2 X-15.639 Y61.453 Z16.000 I8.112 J-26.108 K0.000 F600.000
G1 X-61.444 Y15.648 Z16.000 F600.000
G3 X-61.869 Y13.877 Z16.000 I25.022 J-6.947 K0.000 F600.000
G1 X-13.871 Y61.876 Z16.000 F600.000
G2 X-12.175 Y62.226 Z16.000 I5.845 J-23.994 K0.000 F600.000
G1 X-62.233 Y12.169 Z16.000 F600.000
G1 X-62.530 Y10.527 Z16.000 F600.000
G1 X-10.532 Y62.524 Z16.000 F600.000
G2 X-8.935 Y62.777 Z16.000 I4.397 J-22.644 K0.000 F600.000
G1 X-62.772 Y8.940 Z16.000 F600.000
G3 X-62.975 Y7.392 Z16.000 I21.963 J-3.666 K0.000 F600.000
G1 X-7.389 Y62.978 Z16.000 F600.000
G2 X-5.891 Y63.131 Z16.000 I2.922 J-21.269 K0.000 F600.000
G1 X-63.140 Y5.882 Z16.000 F600.000
G3 X-63.251 Y4.426 Z16.000 I20.701 J-2.313 K0.000 F600.000
G1 X-4.423 Y63.254 Z16.000 F600.000
G1 X-2.993 Y63.339 Z16.000 F600.000
G1 X-63.337 Y2.996 Z16.000 F600.000
G1 X-63.391 Y1.596 Z16.000 F600.000
G1 X-1.602 Y63.385 Z16.000 F600.000
G2 X-0.231 Y63.411 Z16.000 I1.059 J-19.533 K0.000 F600.000
G1 X-63.405 Y0.238 Z16.000 F600.000
G3 X-63.402 Y-1.104 Z16.000 I19.131 J-0.629 K0.000 F600.000
G1 X1.100 Y63.397 Z16.000 F600.000
G2 X2.409 Y63.361 Z16.000 I0.144 J-18.679 K0.000 F600.000
G1 X-63.361 Y-2.408 Z16.000 F600.000
G3 X-63.300 Y-3.692 Z16.000 I18.332 J0.228 K0.000 F600.000
G1 X3.695 Y63.302 Z16.000 F600.000
G2 X4.949 Y63.212 Z16.000 I-0.664 J-17.926 K0.000 F600.000
G1 X-63.216 Y-4.953 Z16.000 F600.000
G3 X-63.103 Y-6.185 Z16.000 I17.624 J0.988 K0.000 F600.000
G1 X6.193 Y63.111 Z16.000 F600.000
G2 X7.399 Y62.972 Z16.000 I-1.383 J-17.256 K0.000 F600.000
G1 X-62.979 Y-7.406 Z16.000 F600.000
G3 X-62.820 Y-8.592 Z16.000 I16.991 J1.667 K0.000 F600.000
G1 X8.598 Y62.826 Z16.000 F600.000
G1 X9.766 Y62.649 Z16.000 F600.000
G1 X-62.656 Y-9.773 Z16.000 F600.000
G1 X-62.458 Y-10.920 Z16.000 F600.000
G1 X10.924 Y62.462 Z16.000 F600.000
G1 X12.056 Y62.249 Z16.000 F600.000
G1 X-62.255 Y-12.062 Z16.000 F600.000
G1 X-62.022 Y-13.173 Z16.000 F600.000
G1 X13.177 Y62.025 Z16.000 F600.000
G1 X14.275 Y61.778 Z16.000 F600.000
G1 X-61.783 Y-14.280 Z16.000 F600.000
G1 X-61.517 Y-15.359 Z16.000 F600.000
G1 X15.362 Y61.520 Z16.000 F600.000
G1 X16.428 Y61.241 Z16.000 F600.000
G1 X-61.246 Y-16.432 Z16.000 F600.000
G1 X-60.948 Y-17.480 Z16.000 F600.000
G1 X17.483 Y60.952 Z16.000 F600.000
G1 X18.518 Y60.642 Z16.000 F600.000
G1 X-60.647 Y-18.523 Z16.000 F600.000
G1 X-60.319 Y-19.540 Z16.000 F600.000
G1 X19.544 Y60.323 Z16.000 F600.000
G1 X20.549 Y59.983 Z16.000 F600.000
G1 X-59.990 Y-20.556 Z16.000 F600.000
G1 X-59.633 Y-21.544 Z16.000 F600.000
G1 X21.549 Y59.638 Z16.000 F600.000
G1 X22.525 Y59.269 Z16.000 F600.000
G1 X-59.276 Y-22.532 Z16.000 F600.000
G3 X-58.892 Y-23.493 Z16.000 I13.899 J4.984 K0.000 F600.000
G1 X23.500 Y58.899 Z16.000 F600.000
G1 X24.448 Y58.502 Z16.000 F600.000
G1 X-58.507 Y-24.453 Z16.000 F600.000
G3 X-58.100 Y-25.391 Z16.000 I13.577 J5.329 K0.000 F600.000
G1 X25.396 Y58.105 Z16.000 F600.000
G2 X26.320 Y57.684 Z16.000 I-5.539 J-13.381 K0.000 F600.000
G1 X-57.687 Y-26.323 Z16.000 F600.000
G3 X-57.258 Y-27.239 Z16.000 I13.274 J5.655 K0.000 F600.000
G1 X27.241 Y57.261 Z16.000 F600.000
G2 X28.144 Y56.818 Z16.000 I-5.855 J-13.086 K0.000 F600.000
G1 X-56.819 Y-28.144 Z16.000 F600.000
G3 X-56.369 Y-29.039 Z16.000 I12.986 J5.963 K0.000 F600.000
G1 X29.038 Y56.368 Z16.000 F600.000
G2 X29.920 Y55.905 Z16.000 I-6.156 J-12.806 K0.000 F600.000
G1 X-55.903 Y-29.918 Z16.000 F600.000
G3 X-55.433 Y-30.794 Z16.000 I12.713 J6.256 K0.000 F600.000
G1 X30.789 Y55.429 Z16.000 F600.000
G2 X31.652 Y54.947 Z16.000 I-6.442 J-12.539 K0.000 F600.000
G1 X-54.942 Y-31.647 Z16.000 F600.000
G1 X-54.451 Y-32.501 Z16.000 F600.000
G1 X32.495 Y54.445 Z16.000 F600.000
G1 X33.339 Y53.944 Z16.000 F600.000
G1 X-53.937 Y-33.332 Z16.000 F600.000
G1 X-53.421 Y-34.161 Z16.000 F600.000
G1 X34.158 Y53.418 Z16.000 F600.000
G1 X34.976 Y52.891 Z16.000 F600.000
G1 X-52.889 Y-34.974 Z16.000 F600.000
G1 X-52.348 Y-35.778 Z16.000 F600.000
G1 X35.778 Y52.348 Z16.000 F600.000
G1 X36.572 Y51.797 Z16.000 F600.000
G1 X-51.799 Y-36.574 Z16.000 F600.000
G1 X-51.234 Y-37.354 Z16.000 F600.000
G1 X37.357 Y51.237 Z16.000 F600.000
G1 X38.126 Y50.662 Z16.000 F600.000
G1 X-50.668 Y-38.133 Z16.000 F600.000
G1 X-50.079 Y-38.888 Z16.000 F600.000
G1 X38.894 Y50.085 Z16.000 F600.000
G1 X39.640 Y49.486 Z16.000 F600.000
G1 X-49.490 Y-39.644 Z16.000 F600.000
G3 X-48.884 Y-40.383 Z16.000 I10.838 J8.267 K0.000 F600.000
G1 X40.386 Y48.887 Z16.000 F600.000
G2 X41.114 Y48.270 Z16.000 I-8.430 J-10.687 K0.000 F600.000
G1 X-48.270 Y-41.115 Z16.000 F600.000
G3 X-47.649 Y-41.838 Z16.000 I10.618 J8.503 K0.000 F600.000
G1 X41.836 Y47.647 Z16.000 F600.000
G2 X42.548 Y47.014 Z16.000 I-8.663 J-10.469 K0.000 F600.000
G1 X-47.012 Y-42.546 Z16.000 F600.000
G3 X-46.374 Y-43.253 Z16.000 I10.402 J8.736 K0.000 F600.000
G1 X43.247 Y46.368 Z16.000 F600.000
G2 X43.943 Y45.719 Z16.000 I-8.895 J-10.253 K0.000 F600.000
G1 X-45.713 Y-43.937 Z16.000 F600.000
G1 X-45.053 Y-44.622 Z16.000 F600.000
G1 X44.618 Y45.049 Z16.000 F600.000
G1 X45.293 Y44.379 Z16.000 F600.000
G1 X-44.376 Y-45.290 Z16.000 F600.000
G1 X-43.692 Y-45.951 Z16.000 F600.000
G1 X45.950 Y43.691 Z16.000 F600.000
G1 X46.601 Y42.998 Z16.000 F600.000
G1 X-42.999 Y-46.603 Z16.000 F600.000
G1 X-42.292 Y-47.240 Z16.000 F600.000
G1 X47.243 Y42.294 Z16.000 F600.000
G1 X47.871 Y41.577 Z16.000 F600.000
G1 X-41.584 Y-47.877 Z16.000 F600.000
G1 X-40.852 Y-48.490 Z16.000 F600.000
G1 X48.496 Y40.858 Z16.000 F600.000
G1 X49.100 Y40.117 Z16.000 F600.000
G1 X-40.121 Y-49.104 Z16.000 F600.000
G3 X-39.373 Y-49.701 Z16.000 I8.885 J10.362 K0.000 F600.000
G1 X49.704 Y39.376 Z16.000 F600.000
G2 X50.290 Y38.617 Z16.000 I-10.526 J-8.732 K0.000 F600.000
G1 X-38.617 Y-50.291 Z16.000 F600.000
G3 X-37.853 Y-50.871 Z16.000 I8.661 J10.603 K0.000 F600.000
G1 X50.870 Y37.852 Z16.000 F600.000
G2 X51.439 Y37.076 Z16.000 I-10.769 J-8.506 K0.000 F600.000
G1 X-37.074 Y-51.437 Z16.000 F600.000
G3 X-36.293 Y-52.001 Z16.000 I8.432 J10.848 K0.000 F600.000
G1 X51.995 Y36.287 Z16.000 F600.000
G2 X52.548 Y35.495 Z16.000 I-11.018 J-8.274 K0.000 F600.000
G1 X-35.490 Y-52.542 Z16.000 F600.000
G1 X-34.686 Y-53.084 Z16.000 F600.000
G1 X53.079 Y34.681 Z16.000 F600.000
G1 X53.610 Y33.868 Z16.000 F600.000
G1 X-33.863 Y-53.606 Z16.000 F600.000
G1 X-33.035 Y-54.123 Z16.000 F600.000
G1 X54.121 Y33.033 Z16.000 F600.000
G1 X54.627 Y32.195 Z16.000 F600.000
G1 X-32.195 Y-54.627 Z16.000 F600.000
G1 X-31.341 Y-55.119 Z16.000 F600.000
G1 X55.120 Y31.342 Z16.000 F600.000
G1 X55.601 Y30.479 Z16.000 F600.000
G1 X-30.482 Y-55.604 Z16.000 F600.000
G1 X-29.603 Y-56.070 Z16.000 F600.000
G1 X56.074 Y29.607 Z16.000 F600.000
G1 X56.529 Y28.717 Z16.000 F600.000
G1 X-28.724 Y-56.536 Z16.000 F600.000
G3 X-27.819 Y-56.976 Z16.000 I6.724 J12.677 K0.000 F600.000
G1 X56.982 Y27.825 Z16.000 F600.000
G1 X57.411 Y26.910 Z16.000 F600.000
G1 X-26.914 Y-57.416 Z16.000 F600.000
G3 X-25.988 Y-57.835 Z16.000 I6.435 J12.991 K0.000 F600.000
G1 X57.841 Y25.994 Z16.000 F600.000
G2 X58.246 Y25.054 Z16.000 I-13.197 J-6.242 K0.000 F600.000
G1 X-25.057 Y-58.248 Z16.000 F600.000
G3 X-24.108 Y-58.645 Z16.000 I6.128 J13.320 K0.000 F600.000
G1 X58.648 Y24.111 Z16.000 F600.000
G2 X59.030 Y23.148 Z16.000 I-13.537 J-5.925 K0.000 F600.000
G1 X-23.149 Y-59.031 Z16.000 F600.000
G3 X-22.177 Y-59.404 Z16.000 I5.801 J13.670 K0.000 F600.000
G1 X59.404 Y22.177 Z16.000 F600.000
G2 X59.761 Y21.190 Z16.000 I-13.898 J-5.589 K0.000 F600.000
G1 X-21.190 Y-59.761 Z16.000 F600.000
G3 X-20.192 Y-60.109 Z16.000 I5.453 J14.043 K0.000 F600.000
G1 X60.107 Y20.191 Z16.000 F600.000
G2 X60.438 Y19.177 Z16.000 I-14.285 J-5.228 K0.000 F600.000
G1 X-19.175 Y-60.437 Z16.000 F600.000
G3 X-18.151 Y-60.757 Z16.000 I5.080 J14.444 K0.000 F600.000
G1 X60.754 Y18.148 Z16.000 F600.000
G2 X61.057 Y17.106 Z16.000 I-14.701 J-4.840 K0.000 F600.000
G1 X-17.104 Y-61.055 Z16.000 F600.000
G3 X-16.050 Y-61.346 Z16.000 I4.677 J14.876 K0.000 F600.000
G1 X61.343 Y16.047 Z16.000 F600.000
G2 X61.615 Y14.974 Z16.000 I-15.151 J-4.421 K0.000 F600.000
G1 X-14.972 Y-61.613 Z16.000 F600.000
G3 X-13.886 Y-61.872 Z16.000 I4.240 J15.345 K0.000 F600.000
G1 X61.868 Y13.882 Z16.000 F600.000
G2 X62.108 Y12.777 Z16.000 I-15.640 J-3.965 K0.000 F600.000
G1 X-12.775 Y-62.105 Z16.000 F600.000
G3 X-11.654 Y-62.330 Z16.000 I3.763 J15.857 K0.000 F600.000
G1 X62.327 Y11.652 Z16.000 F600.000
G2 X62.530 Y10.510 Z16.000 I-16.176 J-3.466 K0.000 F600.000
G1 X-10.508 Y-62.529 Z16.000 F600.000
G2 X-9.398 Y-62.763 Z16.000 I-0.439 J-4.840 K0.000 F600.000
G1 X62.715 Y9.349 Z16.000 F600.000
G2 X62.878 Y8.168 Z16.000 I-16.765 J-2.916 K0.000 F600.000
G1 X-8.667 Y-63.377 Z16.000 F600.000
G2 X-8.415 Y-64.470 Z16.000 I-1.447 J-0.909 K0.000 F600.000
G1 X63.026 Y6.970 Z16.000 F600.000
G2 X63.145 Y5.744 Z16.000 I-17.418 J-2.307 K0.000 F600.000
G1 X-8.415 Y-65.815 Z16.000 F600.000
G1 X-8.415 Y-67.160 Z16.000 F600.000
G1 X63.253 Y4.508 Z16.000 F600.000
G2 X63.323 Y3.233 Z16.000 I-18.147 J-1.627 K0.000 F600.000
G1 X-8.415 Y-68.505 Z16.000 F600.000
G1 X-8.415 Y-69.850 Z16.000 F600.000
G1 X63.381 Y1.946 Z16.000 F600.000
G1 X63.404 Y0.624 Z16.000 F600.000
G1 X-8.415 Y-71.195 Z16.000 F600.000
G1 X-8.415 Y-72.540 Z16.000 F600.000
G1 X63.402 Y-0.723 Z16.000 F600.000
G1 X63.379 Y-2.091 Z16.000 F600.000
G1 X-8.415 Y-73.885 Z16.000 F600.000
G1 X-8.415 Y-75.230 Z16.000 F600.000
G1 X63.309 Y-3.506 Z16.000 F600.000
G2 X63.214 Y-4.945 Z16.000 I-20.871 J0.645 K0.000 F600.000
G1 X-8.415 Y-76.575 Z16.000 F600.000
G1 X-8.415 Y-77.920 Z16.000 F600.000
G1 X63.087 Y-6.418 Z16.000 F600.000
G2 X62.907 Y-7.943 Z16.000 I-22.158 J1.847 K0.000 F600.000
G1 X-7.229 Y-78.079 Z16.000 F600.000
G1 X-5.982 Y-78.177 Z16.000 F600.000
G1 X8.520 Y-63.675 Z16.000 F600.000
G2 X9.453 Y-62.741 Z16.000 I1.452 J-0.519 K0.000 F600.000
G1 X62.690 Y-9.505 Z16.000 F600.000
G2 X62.431 Y-11.108 Z16.000 I-23.332 J2.942 K0.000 F600.000
G1 X11.115 Y-62.424 Z16.000 F600.000
G3 X12.780 Y-62.104 Z16.000 I-3.793 J24.244 K0.000 F600.000
G1 X62.111 Y-12.774 Z16.000 F600.000
G2 X61.725 Y-14.504 Z16.000 I-25.224 J4.708 K0.000 F600.000
G1 X14.501 Y-61.728 Z16.000 F600.000
G3 X16.289 Y-61.285 Z16.000 I-5.513 J26.087 K0.000 F600.000
G1 X61.274 Y-16.300 Z16.000 F600.000
G2 X60.745 Y-18.174 Z16.000 I-27.380 J6.720 K0.000 F600.000
G1 X18.163 Y-60.756 Z16.000 F600.000
G3 X20.135 Y-60.129 Z16.000 I-8.076 J28.834 K0.000 F600.000
G1 X60.122 Y-20.142 Z16.000 F600.000
G2 X59.383 Y-22.226 Z16.000 I-30.518 J9.648 K0.000 F600.000
G1 X22.217 Y-59.392 Z16.000 F600.000
G3 X24.437 Y-58.516 Z16.000 I-11.555 J32.561 K0.000 F600.000
G1 X58.500 Y-24.454 Z16.000 F600.000
G2 X57.434 Y-26.865 Z16.000 I-35.418 J14.221 K0.000 F600.000
G1 X26.859 Y-57.439 Z16.000 F600.000
G3 X29.539 Y-56.104 Z16.000 I-17.977 J39.443 K0.000 F600.000
G1 X56.125 Y-29.519 Z16.000 F600.000
G2 X54.376 Y-32.612 Z16.000 I-45.636 J23.756 K0.000 F600.000
G1 X32.602 Y-54.387 Z16.000 F600.000
G3 X36.449 Y-51.884 Z16.000 I-28.136 J47.467 K0.000 F600.000
G1 X51.883 Y-36.450 Z16.000 F600.000
G2 X44.430 Y-45.249 Z16.000 I-51.123 J35.752 K0.000 F600.000
G0 X44.430 Y-45.249 Z23.000
G0 X7.601 Y-78.042 Z23.000
G0 X7.601 Y-78.042 Z21.000
G1 X8.415 Y-77.952 Z20.527 F600.000
G1 X8.415 Y-77.229 Z20.110 F600.000
G1 X7.601 Y-78.042 Z19.445 F600.000
G1 X6.869 Y-78.115 Z19.020 F600.000
G1 X6.134 Y-78.165 Z18.595 F600.000
G1 X6.250 Y-78.049 Z18.500 F600.000
G1 X6.134 Y-78.165 Z18.405 F600.000
G1 X6.869 Y-78.115 Z17.980 F600.000
G1 X7.601 Y-78.042 Z17.555 F600.000
G1 X8.415 Y-77.229 Z16.890 F600.000
G1 X8.415 Y-77.952 Z16.473 F600.000
G1 X7.601 Y-78.042 Z16.000 F600.000
G1 X8.415 Y-77.952 Z16.000 F600.000
G1 X8.415 Y-77.229 Z16.000 F600.000
G1 X7.601 Y-78.042 Z16.000 F600.000
G2 X6.134 Y-78.165 Z16.000 I-2.694 J23.354 K0.000 F600.000
G1 X8.415 Y-75.884 Z16.000 F600.000
G1 X8.415 Y-74.539 Z16.000 F600.000
G1 X4.682 Y-78.272 Z16.000 F600.000
G1 X3.271 Y-78.338 Z16.000 F600.000
G1 X8.415 Y-73.194 Z16.000 F600.000
G1 X8.415 Y-71.849 Z16.000 F600.000
G1 X1.878 Y-78.385 Z16.000 F600.000
G1 X0.512 Y-78.407 Z16.000 F600.000
G1 X8.415 Y-70.504 Z16.000 F600.000
G1 X8.415 Y-69.159 Z16.000 F600.000
G1 X-0.828 Y-78.402 Z16.000 F600.000
G1 X-2.152 Y-78.381 Z16.000 F600.000
G1 X8.415 Y-67.814 Z16.000 F600.000
G1 X8.415 Y-66.469 Z16.000 F600.000
G1 X-3.446 Y-78.330 Z16.000 F600.000
G1 X-4.730 Y-78.269 Z16.000 F600.000
G1 X8.415 Y-65.124 Z16.000 F600.000
G2 X8.447 Y-63.911 Z16.000 I6.064 J0.449 K0.000 F600.000
G1 X8.520 Y-63.675 Z16.000 F600.000
G1 X-5.982 Y-78.177 Z16.000 F600.000
G1 X-4.758 Y-76.952 Z15.000 F600.000
G1 X-5.982 Y-78.177 Z14.000 F600.000
G1 X8.520 Y-63.675 Z14.000 F600.000
G1 X8.447 Y-63.911 Z14.000 F600.000
G3 X8.415 Y-65.124 Z14.000 I6.032 J-0.764 K0.000 F600.000
G1 X-4.730 Y-78.269 Z14.000 F600.000
G1 X-3.446 Y-78.330 Z14.000 F600.000
G1 X8.415 Y-66.469 Z14.000 F600.000
G1 X8.415 Y-67.814 Z14.000 F600.000
G1 X-2.152 Y-78.381 Z14.000 F600.000
G1 X-0.828 Y-78.402 Z14.000 F600.000
G1 X8.415 Y-69.159 Z14.000 F600.000
G1 X8.415 Y-70.504 Z14.000 F600.000
G1 X0.512 Y-78.407 Z14.000 F600.000
G1 X1.878 Y-78.385 Z14.000 F600.000
G1 X8.415 Y-71.849 Z14.000 F600.000
G1 X8.415 Y-73.194 Z14.000 F600.000
G1 X3.271 Y-78.338 Z14.000 F600.000
G1 X4.682 Y-78.272 Z14.000 F600.000
G1 X8.415 Y-74.539 Z14.000 F600.000
G1 X8.415 Y-75.884 Z14.000 F600.000
G1 X6.134 Y-78.165 Z14.000 F600.000
G3 X7.601 Y-78.042 Z14.000 I-1.226 J23.477 K0.000 F600.000
G1 X8.415 Y-77.229 Z14.000 F600.000
G1 X8.415 Y-77.952 Z14.000 F600.000
G1 X7.601 Y-78.042 Z14.000 F600.000
G0 X7.601 Y-78.042 Z23.000
G0 X7.601 Y-78.039 Z23.000
G0 X7.601 Y-78.039 Z21.000
G1 X5.588 Y-78.214 Z19.833 F600.000
G1 X3.571 Y-78.335 Z18.667 F600.000
G1 X1.551 Y-78.401 Z17.500 F600.000
G1 X3.571 Y-78.335 Z16.333 F600.000
G1 X5.588 Y-78.214 Z15.167 F600.000
G1 X7.601 Y-78.039 Z14.000 F600.000
G2 X0.000 Y-78.415 Z14.000 I-7.484 J74.310 K0.000 F600.000
G2 X-8.415 Y-77.952 Z14.000 I-0.117 J74.686 K0.000 F600.000
G1 X-8.415 Y-64.226 Z14.000 F600.000
G3 X-9.729 Y-62.665 Z14.000 I-1.585 J-0.000 K0.000 F600.000
G2 X-9.301 Y62.729 Z14.000 I9.729 J62.664 K0.000 F600.000
G2 X9.729 Y-62.664 Z14.000 I9.300 J-62.729 K0.000 F600.000
G3 X8.415 Y-64.226 Z14.000 I0.271 J-1.562 K0.000 F600.000
G1 X8.415 Y-77.952 Z14.000 F600.000
G2 X7.601 Y-78.039 Z14.000 I-8.298 J74.223 K0.000 F600.000
G0 X7.601 Y-78.039 Z23.000
G0 X44.430 Y-45.249 Z23.000
G0 X44.430 Y-45.249 Z21.000
G1 X45.850 Y-43.811 Z19.833 F600.000
G1 X47.222 Y-42.328 Z18.667 F600.000
G1 X48.546 Y-40.802 Z17.500 F600.000
G1 X47.222 Y-42.328 Z16.333 F600.000
G1 X45.850 Y-43.811 Z15.167 F600.000
G1 X44.430 Y-45.249 Z14.000 F600.000
G3 X51.883 Y-36.450 Z14.000 I-43.669 J44.551 K0.000 F600.000
G1 X36.449 Y-51.884 Z14.000 F600.000
G2 X32.602 Y-54.387 Z14.000 I-31.983 J44.965 K0.000 F600.000
G1 X54.376 Y-32.612 Z14.000 F600.000
G3 X56.125 Y-29.519 Z14.000 I-43.887 J26.849 K0.000 F600.000
G1 X29.539 Y-56.104 Z14.000 F600.000
G2 X26.859 Y-57.439 Z14.000 I-20.657 J38.108 K0.000 F600.000
G1 X57.434 Y-26.865 Z14.000 F600.000
G3 X58.500 Y-24.454 Z14.000 I-34.352 J16.632 K0.000 F600.000
G1 X24.437 Y-58.516 Z14.000 F600.000
G2 X22.217 Y-59.392 Z14.000 I-13.775 J31.686 K0.000 F600.000
G1 X59.383 Y-22.226 Z14.000 F600.000
G3 X60.122 Y-20.142 Z14.000 I-29.779 J11.732 K0.000 F600.000
G1 X20.135 Y-60.129 Z14.000 F600.000
G2 X18.163 Y-60.756 Z14.000 I-10.048 J28.207 K0.000 F600.000
G1 X60.745 Y-18.174 Z14.000 F600.000
G3 X61.274 Y-16.300 Z14.000 I-26.851 J8.594 K0.000 F600.000
G1 X16.289 Y-61.285 Z14.000 F600.000
G2 X14.501 Y-61.728 Z14.000 I-7.301 J25.644 K0.000 F600.000
G1 X61.725 Y-14.504 Z14.000 F600.000
G3 X62.111 Y-12.774 Z14.000 I-24.839 J6.438 K0.000 F600.000
G1 X12.780 Y-62.104 Z14.000 F600.000
G2 X11.115 Y-62.424 Z14.000 I-5.458 J23.924 K0.000 F600.000
G1 X62.431 Y-11.108 Z14.000 F600.000
G3 X62.690 Y-9.505 Z14.000 I-23.073 J4.546 K0.000 F600.000
G1 X9.453 Y-62.741 Z14.000 F600.000
G3 X8.520 Y-63.675 Z14.000 I0.519 J-1.452 K0.000 F600.000
G1 X-5.982 Y-78.177 Z14.000 F600.000
G1 X-7.229 Y-78.079 Z14.000 F600.000
G1 X62.907 Y-7.943 Z14.000 F600.000
G3 X63.087 Y-6.418 Z14.000 I-21.977 J3.372 K0.000 F600.000
G1 X-8.415 Y-77.920 Z14.000 F600.000
G1 X-8.415 Y-76.575 Z14.000 F600.000
G1 X63.214 Y-4.945 Z14.000 F600.000
G3 X63.309 Y-3.506 Z14.000 I-20.776 J2.085 K0.000 F600.000
G1 X-8.415 Y-75.230 Z14.000 F600.000
G1 X-8.415 Y-73.885 Z14.000 F600.000
G1 X63.379 Y-2.091 Z14.000 F600.000
G1 X63.402 Y-0.723 Z14.000 F600.000
G1 X-8.415 Y-72.540 Z14.000 F600.000
G1 X-8.415 Y-71.195 Z14.000 F600.000
G1 X63.404 Y0.624 Z14.000 F600.000
G1 X63.381 Y1.946 Z14.000 F600.000
G1 X-8.415 Y-69.850 Z14.000 F600.000
G1 X-8.415 Y-68.505 Z14.000 F600.000
G1 X63.323 Y3.233 Z14.000 F600.000
G3 X63.253 Y4.508 Z14.000 I-18.217 J-0.352 K0.000 F600.000
G1 X-8.415 Y-67.160 Z14.000 F600.000
G1 X-8.415 Y-65.815 Z14.000 F600.000
G1 X63.145 Y5.744 Z14.000 F600.000
G3 X63.026 Y6.970 Z14.000 I-17.537 J-1.081 K0.000 F600.000
G1 X-8.415 Y-64.470 Z14.000 F600.000
G3 X-8.667 Y-63.377 Z14.000 I-1.699 J0.184 K0.000 F600.000
G1 X62.878 Y8.168 Z14.000 F600.000
G3 X62.715 Y9.349 Z14.000 I-16.928 J-1.734 K0.000 F600.000
G1 X-9.398 Y-62.763 Z14.000 F600.000
G3 X-10.508 Y-62.529 Z14.000 I-1.550 J-4.606 K0.000 F600.000
G1 X62.530 Y10.510 Z14.000 F600.000
G3 X62.327 Y11.652 Z14.000 I-16.379 J-2.324 K0.000 F600.000
G1 X-11.654 Y-62.330 Z14.000 F600.000
G2 X-12.775 Y-62.105 Z14.000 I2.643 J16.081 K0.000 F600.000
G1 X62.108 Y12.777 Z14.000 F600.000
G3 X61.868 Y13.882 Z14.000 I-15.880 J-2.859 K0.000 F600.000
G1 X-13.886 Y-61.872 Z14.000 F600.000
G2 X-14.972 Y-61.613 Z14.000 I3.154 J15.604 K0.000 F600.000
G1 X61.615 Y14.974 Z14.000 F600.000
G3 X61.343 Y16.047 Z14.000 I-15.423 J-3.348 K0.000 F600.000
G1 X-16.050 Y-61.346 Z14.000 F600.000
G2 X-17.104 Y-61.055 Z14.000 I3.623 J15.167 K0.000 F600.000
G1 X61.057 Y17.106 Z14.000 F600.000
G3 X60.754 Y18.148 Z14.000 I-15.004 J-3.798 K0.000 F600.000
G1 X-18.151 Y-60.757 Z14.000 F600.000
G2 X-19.175 Y-60.437 Z14.000 I4.055 J14.764 K0.000 F600.000
G1 X60.438 Y19.177 Z14.000 F600.000
G3 X60.107 Y20.191 Z14.000 I-14.616 J-4.214 K0.000 F600.000
G1 X-20.192 Y-60.109 Z14.000 F600.000
G2 X-21.190 Y-59.761 Z14.000 I4.456 J14.391 K0.000 F600.000
G1 X59.761 Y21.190 Z14.000 F600.000
G3 X59.404 Y22.177 Z14.000 I-14.256 J-4.601 K0.000 F600.000
G1 X-22.177 Y-59.404 Z14.000 F600.000
G2 X-23.149 Y-59.031 Z14.000 I4.829 J14.043 K0.000 F600.000
G1 X59.030 Y23.148 Z14.000 F600.000
G3 X58.648 Y24.111 Z14.000 I-13.919 J-4.962 K0.000 F600.000
G1 X-24.108 Y-58.645 Z14.000 F600.000
G2 X-25.057 Y-58.248 Z14.000 I5.179 J13.717 K0.000 F600.000
G1 X58.246 Y25.054 Z14.000 F600.000
G3 X57.841 Y25.994 Z14.000 I-13.602 J-5.302 K0.000 F600.000
G1 X-25.988 Y-57.835 Z14.000 F600.000
G2 X-26.914 Y-57.416 Z14.000 I5.509 J13.410 K0.000 F600.000
G1 X57.411 Y26.910 Z14.000 F600.000
G1 X56.982 Y27.825 Z14.000 F600.000
G1 X-27.819 Y-56.976 Z14.000 F600.000
G2 X-28.724 Y-56.536 Z14.000 I5.819 J13.117 K0.000 F600.000
G1 X56.529 Y28.717 Z14.000 F600.000
G1 X56.074 Y29.607 Z14.000 F600.000
G1 X-29.603 Y-56.070 Z14.000 F600.000
G1 X-30.482 Y-55.604 Z14.000 F600.000
G1 X55.601 Y30.479 Z14.000 F600.000
G1 X55.120 Y31.342 Z14.000 F600.000
G1 X-31.341 Y-55.119 Z14.000 F600.000
G1 X-32.195 Y-54.627 Z14.000 F600.000
G1 X54.627 Y32.195 Z14.000 F600.000
G1 X54.121 Y33.033 Z14.000 F600.000
G1 X-33.035 Y-54.123 Z14.000 F600.000
G1 X-33.863 Y-53.606 Z14.000 F600.000
G1 X53.610 Y33.868 Z14.000 F600.000
G1 X53.079 Y34.681 Z14.000 F600.000
G1 X-34.686 Y-53.084 Z14.000 F600.000
G1 X-35.490 Y-52.542 Z14.000 F600.000
G1 X52.548 Y35.495 Z14.000 F600.000
G3 X51.995 Y36.287 Z14.000 I-11.570 J-7.482 K0.000 F600.000
G1 X-36.293 Y-52.001 Z14.000 F600.000
G2 X-37.074 Y-51.437 Z14.000 I7.651 J11.412 K0.000 F600.000
G1 X51.439 Y37.076 Z14.000 F600.000
G3 X50.870 Y37.852 Z14.000 I-11.338 J-7.730 K0.000 F600.000
G1 X-37.853 Y-50.871 Z14.000 F600.000
G2 X-38.617 Y-50.291 Z14.000 I7.897 J11.183 K0.000 F600.000
G1 X50.290 Y38.617 Z14.000 F600.000
G3 X49.704 Y39.376 Z14.000 I-11.112 J-7.973 K0.000 F600.000
G1 X-39.373 Y-49.701 Z14.000 F600.000
G2 X-40.121 Y-49.104 Z14.000 I8.137 J10.960 K0.000 F600.000
G1 X49.100 Y40.117 Z14.000 F600.000
G1 X48.496 Y40.858 Z14.000 F600.000
G1 X-40.852 Y-48.490 Z14.000 F600.000
G1 X-41.584 Y-47.877 Z14.000 F600.000
G1 X47.871 Y41.577 Z14.000 F600.000
G1 X47.243 Y42.294 Z14.000 F600.000
G1 X-42.292 Y-47.240 Z14.000 F600.000
G1 X-42.999 Y-46.603 Z14.000 F600.000
G1 X46.601 Y42.998 Z14.000 F600.000
G1 X45.950 Y43.691 Z14.000 F600.000
G1 X-43.692 Y-45.951 Z14.000 F600.000
G1 X-44.376 Y-45.290 Z14.000 F600.000
G1 X45.293 Y44.379 Z14.000 F600.000
G1 X44.618 Y45.049 Z14.000 F600.000
G1 X-45.053 Y-44.622 Z14.000 F600.000
G1 X-45.713 Y-43.937 Z14.000 F600.000
G1 X43.943 Y45.719 Z14.000 F600.000
G3 X43.247 Y46.368 Z14.000 I-9.592 J-9.605 K0.000 F600.000
G1 X-46.374 Y-43.253 Z14.000 F600.000
G2 X-47.012 Y-42.546 Z14.000 I9.764 J9.443 K0.000 F600.000
G1 X42.548 Y47.014 Z14.000 F600.000
G3 X41.836 Y47.647 Z14.000 I-9.375 J-9.836 K0.000 F600.000
G1 X-47.649 Y-41.838 Z14.000 F600.000
G2 X-48.270 Y-41.115 Z14.000 I9.997 J9.226 K0.000 F600.000
G1 X41.114 Y48.270 Z14.000 F600.000
G3 X40.386 Y48.887 Z14.000 I-9.158 J-10.070 K0.000 F600.000
G1 X-48.884 Y-40.383 Z14.000 F600.000
G2 X-49.490 Y-39.644 Z14.000 I10.232 J9.006 K0.000 F600.000
G1 X39.640 Y49.486 Z14.000 F600.000
G1 X38.894 Y50.085 Z14.000 F600.000
G1 X-50.079 Y-38.888 Z14.000 F600.000
G1 X-50.668 Y-38.133 Z14.000 F600.000
G1 X38.126 Y50.662 Z14.000 F600.000
G1 X37.357 Y51.237 Z14.000 F600.000
G1 X-51.234 Y-37.354 Z14.000 F600.000
G1 X-51.799 Y-36.574 Z14.000 F600.000
G1 X36.572 Y51.797 Z14.000 F600.000
G1 X35.778 Y52.348 Z14.000 F600.000
G1 X-52.348 Y-35.778 Z14.000 F600.000
G1 X-52.889 Y-34.974 Z14.000 F600.000
G1 X34.976 Y52.891 Z14.000 F600.000
G1 X34.158 Y53.418 Z14.000 F600.000
G1 X-53.421 Y-34.161 Z14.000 F600.000
G1 X-53.937 Y-33.332 Z14.000 F600.000
G1 X33.339 Y53.944 Z14.000 F600.000
G1 X32.495 Y54.445 Z14.000 F600.000
G1 X-54.451 Y-32.501 Z14.000 F600.000
G1 X-54.942 Y-31.647 Z14.000 F600.000
G1 X31.652 Y54.947 Z14.000 F600.000
G3 X30.789 Y55.429 Z14.000 I-7.305 J-12.057 K0.000 F600.000
G1 X-55.433 Y-30.794 Z14.000 F600.000
G2 X-55.903 Y-29.918 Z14.000 I12.243 J7.132 K0.000 F600.000
G1 X29.920 Y55.905 Z14.000 F600.000
G3 X29.038 Y56.368 Z14.000 I-7.038 J-12.344 K0.000 F600.000
G1 X-56.369 Y-29.039 Z14.000 F600.000
G2 X-56.819 Y-28.144 Z14.000 I12.537 J6.858 K0.000 F600.000
G1 X28.144 Y56.818 Z14.000 F600.000
G3 X27.241 Y57.261 Z14.000 I-6.758 J-12.644 K0.000 F600.000
G1 X-57.258 Y-27.239 Z14.000 F600.000
G2 X-57.687 Y-26.323 Z14.000 I12.845 J6.571 K0.000 F600.000
G1 X26.320 Y57.684 Z14.000 F600.000
G3 X25.396 Y58.105 Z14.000 I-6.463 J-12.960 K0.000 F600.000
G1 X-58.100 Y-25.391 Z14.000 F600.000
G2 X-58.507 Y-24.453 Z14.000 I13.170 J6.267 K0.000 F600.000
G1 X24.448 Y58.502 Z14.000 F600.000
G1 X23.500 Y58.899 Z14.000 F600.000
G1 X-58.892 Y-23.493 Z14.000 F600.000
G2 X-59.276 Y-22.532 Z14.000 I13.516 J5.945 K0.000 F600.000
G1 X22.525 Y59.269 Z14.000 F600.000
G1 X21.549 Y59.638 Z14.000 F600.000
G1 X-59.633 Y-21.544 Z14.000 F600.000
G1 X-59.990 Y-20.556 Z14.000 F600.000
G1 X20.549 Y59.983 Z14.000 F600.000
G1 X19.544 Y60.323 Z14.000 F600.000
G1 X-60.319 Y-19.540 Z14.000 F600.000
G1 X-60.647 Y-18.523 Z14.000 F600.000
G1 X18.518 Y60.642 Z14.000 F600.000
G1 X17.483 Y60.952 Z14.000 F600.000
G1 X-60.948 Y-17.480 Z14.000 F600.000
G1 X-61.246 Y-16.432 Z14.000 F600.000
G1 X16.428 Y61.241 Z14.000 F600.000
G1 X15.362 Y61.520 Z14.000 F600.000
G1 X-61.517 Y-15.359 Z14.000 F600.000
G1 X-61.783 Y-14.280 Z14.000 F600.000
G1 X14.275 Y61.778 Z14.000 F600.000
G1 X13.177 Y62.025 Z14.000 F600.000
G1 X-62.022 Y-13.173 Z14.000 F600.000
G1 X-62.255 Y-12.062 Z14.000 F600.000
G1 X12.056 Y62.249 Z14.000 F600.000
G1 X10.924 Y62.462 Z14.000 F600.000
G1 X-62.458 Y-10.920 Z14.000 F600.000
G1 X-62.656 Y-9.773 Z14.000 F600.000
G1 X9.766 Y62.649 Z14.000 F600.000
G1 X8.598 Y62.826 Z14.000 F600.000
G1 X-62.820 Y-8.592 Z14.000 F600.000
G2 X-62.979 Y-7.406 Z14.000 I16.832 J2.853 K0.000 F600.000
G1 X7.399 Y62.972 Z14.000 F600.000
G3 X6.193 Y63.111 Z14.000 I-2.588 J-17.117 K0.000 F600.000
G1 X-63.103 Y-6.185 Z14.000 F600.000
G2 X-63.216 Y-4.953 Z14.000 I17.511 J2.221 K0.000 F600.000
G1 X4.949 Y63.212 Z14.000 F600.000
G3 X3.695 Y63.302 Z14.000 I-1.918 J-17.835 K0.000 F600.000
G1 X-63.300 Y-3.692 Z14.000 F600.000
G2 X-63.361 Y-2.408 Z14.000 I18.271 J1.512 K0.000 F600.000
G1 X2.409 Y63.361 Z14.000 F600.000
G3 X1.100 Y63.397 Z14.000 I-1.165 J-18.643 K0.000 F600.000
G1 X-63.402 Y-1.104 Z14.000 F600.000
G2 X-63.405 Y0.238 Z14.000 I19.128 J0.713 K0.000 F600.000
G1 X-0.231 Y63.411 Z14.000 F600.000
G3 X-1.602 Y63.385 Z14.000 I-0.312 J-19.559 K0.000 F600.000
G1 X-63.391 Y1.596 Z14.000 F600.000
G1 X-63.337 Y2.996 Z14.000 F600.000
G1 X-2.993 Y63.339 Z14.000 F600.000
G1 X-4.423 Y63.254 Z14.000 F600.000
G1 X-63.251 Y4.426 Z14.000 F600.000
G2 X-63.140 Y5.882 Z14.000 I20.812 J-0.857 K0.000 F600.000
G1 X-5.891 Y63.131 Z14.000 F600.000
G3 X-7.389 Y62.978 Z14.000 I1.425 J-21.421 K0.000 F600.000
G1 X-62.975 Y7.392 Z14.000 F600.000
G2 X-62.772 Y8.940 Z14.000 I22.166 J-2.119 K0.000 F600.000
G1 X-8.935 Y62.777 Z14.000 F600.000
G3 X-10.532 Y62.524 Z14.000 I2.800 J-22.896 K0.000 F600.000
G1 X-62.530 Y10.527 Z14.000 F600.000
G1 X-62.233 Y12.169 Z14.000 F600.000
G1 X-12.175 Y62.226 Z14.000 F600.000
G3 X-13.871 Y61.876 Z14.000 I4.150 J-24.345 K0.000 F600.000
G1 X-61.869 Y13.877 Z14.000 F600.000
G2 X-61.444 Y15.648 Z14.000 I25.447 J-5.177 K0.000 F600.000
G1 X-15.639 Y61.453 Z14.000 F600.000
G3 X-17.488 Y60.949 Z14.000 I6.263 J-26.612 K0.000 F600.000
G1 X-60.945 Y17.491 Z14.000 F600.000
G2 X-60.359 Y19.422 Z14.000 I27.823 J-7.393 K0.000 F600.000
G1 X-19.423 Y60.358 Z14.000 F600.000
G3 X-21.464 Y59.663 Z14.000 I8.894 J-29.434 K0.000 F600.000
G1 X-59.665 Y21.461 Z14.000 F600.000
G2 X-58.838 Y23.633 Z14.000 I31.383 J-10.711 K0.000 F600.000
G1 X-23.634 Y58.837 Z14.000 F600.000
G3 X-25.968 Y57.848 Z14.000 I12.930 J-33.763 K0.000 F600.000
G1 X-57.840 Y25.976 Z14.000 F600.000
G2 X-56.620 Y28.541 Z14.000 I37.169 J-16.105 K0.000 F600.000
G1 X-28.532 Y56.629 Z14.000 F600.000
G3 X-31.450 Y55.056 Z14.000 I20.971 J-42.389 K0.000 F600.000
G1 X-55.065 Y31.441 Z14.000 F600.000
G2 X-52.937 Y34.914 Z14.000 I35.270 J-19.221 K0.000 F600.000
G1 X-34.944 Y52.907 Z14.000 F600.000
G3 X-39.986 Y49.210 Z14.000 I31.168 J-47.792 K0.000 F600.000
G3 X-49.227 Y39.969 Z14.000 I39.140 J-48.380 K0.000 F600.000
G1 X-39.986 Y49.210 Z14.000 F600.000
G1 X-40.599 Y48.597 Z13.500 F600.000
G1 X-39.986 Y49.210 Z13.000 F600.000
G1 X-49.227 Y39.969 Z13.000 F600.000
G2 X-39.986 Y49.210 Z13.000 I48.380 J-39.140 K0.000 F600.000
G2 X-34.944 Y52.907 Z13.000 I36.210 J-44.095 K0.000 F600.000
G1 X-52.937 Y34.914 Z13.000 F600.000
G3 X-55.065 Y31.441 Z13.000 I33.143 J-22.693 K0.000 F600.000
G1 X-31.450 Y55.056 Z13.000 F600.000
G2 X-28.532 Y56.629 Z13.000 I23.889 J-40.815 K0.000 F600.000
G1 X-56.620 Y28.541 Z13.000 F600.000
G3 X-57.840 Y25.976 Z13.000 I35.950 J-18.670 K0.000 F600.000
G1 X-25.968 Y57.848 Z13.000 F600.000
G2 X-23.634 Y58.837 Z13.000 I15.264 J-32.775 K0.000 F600.000
G1 X-58.838 Y23.633 Z13.000 F600.000
G3 X-59.665 Y21.461 Z13.000 I30.556 J-12.884 K0.000 F600.000
G1 X-21.464 Y59.663 Z13.000 F600.000
G2 X-19.423 Y60.358 Z13.000 I10.935 J-28.739 K0.000 F600.000
G1 X-60.359 Y19.422 Z13.000 F600.000
G3 X-60.945 Y17.491 Z13.000 I27.237 J-9.324 K0.000 F600.000
G1 X-17.488 Y60.949 Z13.000 F600.000
G2 X-15.639 Y61.453 Z13.000 I8.112 J-26.108 K0.000 F600.000
G1 X-61.444 Y15.648 Z13.000 F600.000
G3 X-61.869 Y13.877 Z13.000 I25.022 J-6.947 K0.000 F600.000
G1 X-13.871 Y61.876 Z13.000 F600.000
G2 X-12.175 Y62.226 Z13.000 I5.845 J-23.994 K0.000 F600.000
G1 X-62.233 Y12.169 Z13.000 F600.000
G1 X-62.530 Y10.527 Z13.000 F600.000
G1 X-10.532 Y62.524 Z13.000 F600.000
G2 X-8.935 Y62.777 Z13.000 I4.397 J-22.644 K0.000 F600.000
G1 X-62.772 Y8.940 Z13.000 F600.000
G3 X-62.975 Y7.392 Z13.000 I21.963 J-3.666 K0.000 F600.000
G1 X-7.389 Y62.978 Z13.000 F600.000
G2 X-5.891 Y63.131 Z13.000 I2.922 J-21.269 K0.000 F600.000
G1 X-63.140 Y5.882 Z13.000 F600.000
G3 X-63.251 Y4.426 Z13.000 I20.701 J-2.313 K0.000 F600.000
G1 X-4.423 Y63.254 Z13.000 F600.000
G1 X-2.993 Y63.339 Z13.000 F600.000
G1 X-63.337 Y2.996 Z13.000 F600.000
G1 X-63.391 Y1.596 Z13.000 F600.000
G1 X-1.602 Y63.385 Z13.000 F600.000
G2 X-0.231 Y63.411 Z13.000 I1.059 J-19.533 K0.000 F600.000
G1 X-63.405 Y0.238 Z13.000 F600.000
G3 X-63.402 Y-1.104 Z13.000 I19.131 J-0.629 K0.000 F600.000
G1 X1.100 Y63.397 Z13.000 F600.000
G2 X2.409 Y63.361 Z13.000 I0.144 J-18.679 K0.000 F600.000
G1 X-63.361 Y-2.408 Z13.000 F600.000
G3 X-63.300 Y-3.692 Z13.000 I18.332 J0.228 K0.000 F600.000
G1 X3.695 Y63.302 Z13.000 F600.000
G2 X4.949 Y63.212 Z13.000 I-0.664 J-17.926 K0.000 F600.000
G1 X-63.216 Y-4.953 Z13.000 F600.000
G3 X-63.103 Y-6.185 Z13.000 I17.624 J0.988 K0.000 F600.000
G1 X6.193 Y63.111 Z13.000 F600.000
G2 X7.399 Y62.972 Z13.000 I-1.383 J-17.256 K0.000 F600.000
G1 X-62.979 Y-7.406 Z13.000 F600.000
G3 X-62.820 Y-8.592 Z13.000 I16.991 J1.667 K0.000 F600.000
G1 X8.598 Y62.826 Z13.000 F600.000
G1 X9.766 Y62.649 Z13.000 F600.000
G1 X-62.656 Y-9.773 Z13.000 F600.000
G1 X-62.458 Y-10.920 Z13.000 F600.000
G1 X10.924 Y62.462 Z13.000 F600.000
G1 X12.056 Y62.249 Z13.000 F600.000
G1 X-62.255 Y-12.062 Z13.000 F600.000
G1 X-62.022 Y-13.173 Z13.000 F600.000
G1 X13.177 Y62.025 Z13.000 F600.000
G1 X14.275 Y61.778 Z13.000 F600.000
G1 X-61.783 Y-14.280 Z13.000 F600.000
G1 X-61.517 Y-15.359 Z13.000 F600.000
G1 X15.362 Y61.520 Z13.000 F600.000
G1 X16.428 Y61.241 Z13.000 F600.000
G1 X-61.246 Y-16.432 Z13.000 F600.000
G1 X-60.948 Y-17.480 Z13.000 F600.000
G1 X17.483 Y60.952 Z13.000 F600.000
G1 X18.518 Y60.642 Z13.000 F600.000
G1 X-60.647 Y-18.523 Z13.000 F600.000
G1 X-60.319 Y-19.540 Z13.000 F600.000
G1 X19.544 Y60.323 Z13.000 F600.000
G1 X20.549 Y59.983 Z13.000 F600.000
G1 X-59.990 Y-20.556 Z13.000 F600.000
G1 X-59.633 Y-21.544 Z13.000 F600.000
G1 X21.549 Y59.638 Z13.000 F600.000
G1 X22.525 Y59.269 Z13.000 F600.000
G1 X-59.276 Y-22.532 Z13.000 F600.000
G3 X-58.892 Y-23.493 Z13.000 I13.899 J4.984 K0.000 F600.000
G1 X23.500 Y58.899 Z13.000 F600.000
G1 X24.448 Y58.502 Z13.000 F600.000
G1 X-58.507 Y-24.453 Z13.000 F600.000
G3 X-58.100 Y-25.391 Z13.000 I13.577 J5.329 K0.000 F600.000
G1 X25.396 Y58.105 Z13.000 F600.000
G2 X26.320 Y57.684 Z13.000 I-5.539 J-13.381 K0.000 F600.000
G1 X-57.687 Y-26.323 Z13.000 F600.000
G3 X-57.258 Y-27.239 Z13.000 I13.274 J5.655 K0.000 F600.000
G1 X27.241 Y57.261 Z13.000 F600.000
G2 X28.144 Y56.818 Z13.000 I-5.855 J-13.086 K0.000 F600.000
G1 X-56.819 Y-28.144 Z13.000 F600.000
G3 X-56.369 Y-29.039 Z13.000 I12.986 J5.963 K0.000 F600.000
G1 X29.038 Y56.368 Z13.000 F600.000
G2 X29.920 Y55.905 Z13.000 I-6.156 J-12.806 K0.000 F600.000
G1 X-55.903 Y-29.918 Z13.000 F600.000
G3 X-55.433 Y-30.794 Z13.000 I12.713 J6.256 K0.000 F600.000
G1 X30.789 Y55.429 Z13.000 F600.000
G2 X31.652 Y54.947 Z13.000 I-6.442 J-12.539 K0.000 F600.000
G1 X-54.942 Y-31.647 Z13.000 F600.000
G1 X-54.451 Y-32.501 Z13.000 F600.000
G1 X32.495 Y54.445 Z13.000 F600.000
G1 X33.339 Y53.944 Z13.000 F600.000
G1 X-53.937 Y-33.332 Z13.000 F600.000
G1 X-53.421 Y-34.161 Z13.000 F600.000
G1 X34.158 Y53.418 Z13.000 F600.000
G1 X34.976 Y52.891 Z13.000 F600.000
G1 X-52.889 Y-34.974 Z13.000 F600.000
G1 X-52.348 Y-35.778 Z13.000 F600.000
G1 X35.778 Y52.348 Z13.000 F600.000
G1 X36.572 Y51.797 Z13.000 F600.000
G1 X-51.799 Y-36.574 Z13.000 F600.000
G1 X-51.234 Y-37.354 Z13.000 F600.000
G1 X37.357 Y51.237 Z13.000 F600.000
G1 X38.126 Y50.662 Z13.000 F600.000
G1 X-50.668 Y-38.133 Z13.000 F600.000
G1 X-50.079 Y-38.888 Z13.000 F600.000
G1 X38.894 Y50.085 Z13.000 F600.000
G1 X39.640 Y49.486 Z13.000 F600.000
G1 X-49.490 Y-39.644 Z13.000 F600.000
G3 X-48.884 Y-40.383 Z13.000 I10.838 J8.267 K0.000 F600.000
G1 X40.386 Y48.887 Z13.000 F600.000
G2 X41.114 Y48.270 Z13.000 I-8.430 J-10.687 K0.000 F600.000
G1 X-48.270 Y-41.115 Z13.000 F600.000
G3 X-47.649 Y-41.838 Z13.000 I10.618 J8.503 K0.000 F600.000
G1 X41.836 Y47.647 Z13.000 F600.000
G2 X42.548 Y47.014 Z13.000 I-8.663 J-10.469 K0.000 F600.000
G1 X-47.012 Y-42.546 Z13.000 F600.000
G3 X-46.374 Y-43.253 Z13.000 I10.402 J8.736 K0.000 F600.000
G1 X43.247 Y46.368 Z13.000 F600.000
G2 X43.943 Y45.719 Z13.000 I-8.895 J-10.253 K0.000 F600.000
G1 X-45.713 Y-43.937 Z13.000 F600.000
G1 X-45.053 Y-44.622 Z13.000 F600.000
G1 X44.618 Y45.049 Z13.000 F600.000
G1 X45.293 Y44.379 Z13.000 F600.000
G1 X-44.376 Y-45.290 Z13.000 F600.000
G1 X-43.692 Y-45.951 Z13.000 F600.000
G1 X45.950 Y43.691 Z13.000 F600.000
G1 X46.601 Y42.998 Z13.000 F600.000
G1 X-42.999 Y-46.603 Z13.000 F600.000
G1 X-42.292 Y-47.240 Z13.000 F600.000
G1 X47.243 Y42.294 Z13.000 F600.000
G1 X47.871 Y41.577 Z13.000 F600.000
G1 X-41.584 Y-47.877 Z13.000 F600.000
G1 X-40.852 Y-48.490 Z13.000 F600.000
G1 X48.496 Y40.858 Z13.000 F600.000
G1 X49.100 Y40.117 Z13.000 F600.000
G1 X-40.121 Y-49.104 Z13.000 F600.000
G3 X-39.373 Y-49.701 Z13.000 I8.885 J10.362 K0.000 F600.000
G1 X49.704 Y39.376 Z13.000 F600.000
G2 X50.290 Y38.617 Z13.000 I-10.526 J-8.732 K0.000 F600.000
G1 X-38.617 Y-50.291 Z13.000 F600.000
G3 X-37.853 Y-50.871 Z13.000 I8.661 J10.603 K0.000 F600.000
G1 X50.870 Y37.852 Z13.000 F600.000
G2 X51.439 Y37.076 Z13.000 I-10.769 J-8.506 K0.000 F600.000
G1 X-37.074 Y-51.437 Z13.000 F600.000
G3 X-36.293 Y-52.001 Z13.000 I8.432 J10.848 K0.000 F600.000
G1 X51.995 Y36.287 Z13.000 F600.000
G2 X52.548 Y35.495 Z13.000 I-11.018 J-8.274 K0.000 F600.000
G1 X-35.490 Y-52.542 Z13.000 F600.000
G1 X-34.686 Y-53.084 Z13.000 F600.000
G1 X53.079 Y34.681 Z13.000 F600.000
G1 X53.610 Y33.868 Z13.000 F600.000
G1 X-33.863 Y-53.606 Z13.000 F600.000
G1 X-33.035 Y-54.123 Z13.000 F600.000
G1 X54.121 Y33.033 Z13.000 F600.000
G1 X54.627 Y32.195 Z13.000 F600.000
G1 X-32.195 Y-54.627 Z13.000 F600.000
G1 X-31.341 Y-55.119 Z13.000 F600.000
G1 X55.120 Y31.342 Z13.000 F600.000
G1 X55.601 Y30.479 Z13.000 F600.000
G1 X-30.482 Y-55.604 Z13.000 F600.000
G1 X-29.603 Y-56.070 Z13.000 F600.000
G1 X56.074 Y29.607 Z13.000 F600.000
G1 X56.529 Y28.717 Z13.000 F600.000
G1 X-28.724 Y-56.536 Z13.000 F600.000
G3 X-27.819 Y-56.976 Z13.000 I6.724 J12.677 K0.000 F600.000
G1 X56.982 Y27.825 Z13.000 F600.000
G1 X57.411 Y26.910 Z13.000 F600.000
G1 X-26.914 Y-57.416 Z13.000 F600.000
G3 X-25.988 Y-57.835 Z13.000 I6.435 J12.991 K0.000 F600.000
G1 X57.841 Y25.994 Z13.000 F600.000
G2 X58.246 Y25.054 Z13.000 I-13.197 J-6.242 K0.000 F600.000
G1 X-25.057 Y-58.248 Z13.000 F600.000
G3 X-24.108 Y-58.645 Z13.000 I6.128 J13.320 K0.000 F600.000
G1 X58.648 Y24.111 Z13.000 F600.000
G2 X59.030 Y23.148 Z13.000 I-13.537 J-5.925 K0.000 F600.000
G1 X-23.149 Y-59.031 Z13.000 F600.000
G3 X-22.177 Y-59.404 Z13.000 I5.801 J13.670 K0.000 F600.000
G1 X59.404 Y22.177 Z13.000 F600.000
G2 X59.761 Y21.190 Z13.000 I-13.898 J-5.589 K0.000 F600.000
G1 X-21.190 Y-59.761 Z13.000 F600.000
G3 X-20.192 Y-60.109 Z13.000 I5.453 J14.043 K0.000 F600.000
G1 X60.107 Y20.191 Z13.000 F600.000
G2 X60.438 Y19.177 Z13.000 I-14.285 J-5.228 K0.000 F600.000
G1 X-19.175 Y-60.437 Z13.000 F600.000
G3 X-18.151 Y-60.757 Z13.000 I5.080 J14.444 K0.000 F600.000
G1 X60.754 Y18.148 Z13.000 F600.000
G2 X61.057 Y17.106 Z13.000 I-14.701 J-4.840 K0.000 F600.000
G1 X-17.104 Y-61.055 Z13.000 F600.000
G3 X-16.050 Y-61.346 Z13.000 I4.677 J14.876 K0.000 F600.000
G1 X61.343 Y16.047 Z13.000 F600.000
G2 X61.615 Y14.974 Z13.000 I-15.151 J-4.421 K0.000 F600.000
G1 X-14.972 Y-61.613 Z13.000 F600.000
G3 X-13.886 Y-61.872 Z13.000 I4.240 J15.345 K0.000 F600.000
G1 X61.868 Y13.882 Z13.000 F600.000
G2 X62.108 Y12.777 Z13.000 I-15.640 J-3.965 K0.000 F600.000
G1 X-12.775 Y-62.105 Z13.000 F600.000
G3 X-11.654 Y-62.330 Z13.000 I3.763 J15.857 K0.000 F600.000
G1 X62.327 Y11.652 Z13.000 F600.000
G2 X62.530 Y10.510 Z13.000 I-16.176 J-3.466 K0.000 F600.000
G1 X-10.508 Y-62.529 Z13.000 F600.000
G2 X-9.398 Y-62.763 Z13.000 I-0.439 J-4.840 K0.000 F600.000
G1 X62.715 Y9.349 Z13.000 F600.000
G2 X62.878 Y8.168 Z13.000 I-16.765 J-2.916 K0.000 F600.000
G1 X-8.667 Y-63.377 Z13.000 F600.000
G2 X-8.415 Y-64.470 Z13.000 I-1.447 J-0.909 K0.000 F600.000
G1 X63.026 Y6.970 Z13.000 F600.000
G2 X63.145 Y5.744 Z13.000 I-17.418 J-2.307 K0.000 F600.000
G1 X-8.415 Y-65.815 Z13.000 F600.000
G1 X-8.415 Y-67.160 Z13.000 F600.000
G1 X63.253 Y4.508 Z13.000 F600.000
G2 X63.323 Y3.233 Z13.000 I-18.147 J-1.627 K0.000 F600.000
G1 X-8.415 Y-68.505 Z13.000 F600.000
G1 X-8.415 Y-69.850 Z13.000 F600.000
G1 X63.381 Y1.946 Z13.000 F600.000
G1 X63.404 Y0.624 Z13.000 F600.000
G1 X-8.415 Y-71.195 Z13.000 F600.000
G1 X-8.415 Y-72.540 Z13.000 F600.000
G1 X63.402 Y-0.723 Z13.000 F600.000
G1 X63.379 Y-2.091 Z13.000 F600.000
G1 X-8.415 Y-73.885 Z13.000 F600.000
G1 X-8.415 Y-75.230 Z13.000 F600.000
G1 X63.309 Y-3.506 Z13.000 F600.000
G2 X63.214 Y-4.945 Z13.000 I-20.871 J0.645 K0.000 F600.000
G1 X-8.415 Y-76.575 Z13.000 F600.000
G1 X-8.415 Y-77.920 Z13.000 F600.000
G1 X63.087 Y-6.418 Z13.000 F600.000
G2 X62.907 Y-7.943 Z13.000 I-22.158 J1.847 K0.000 F600.000
G1 X-7.229 Y-78.079 Z13.000 F600.000
G1 X-5.982 Y-78.177 Z13.000 F600.000
G1 X8.520 Y-63.675 Z13.000 F600.000
G2 X9.453 Y-62.741 Z13.000 I1.452 J-0.519 K0.000 F600.000
G1 X62.690 Y-9.505 Z13.000 F600.000
G2 X62.431 Y-11.108 Z13.000 I-23.332 J2.942 K0.000 F600.000
G1 X11.115 Y-62.424 Z13.000 F600.000
G3 X12.780 Y-62.104 Z13.000 I-3.793 J24.244 K0.000 F600.000
G1 X62.111 Y-12.774 Z13.000 F600.000
G2 X61.725 Y-14.504 Z13.000 I-25.224 J4.708 K0.000 F600.000
G1 X14.501 Y-61.728 Z13.000 F600.000
G3 X16.289 Y-61.285 Z13.000 I-5.513 J26.087 K0.000 F600.000
G1 X61.274 Y-16.300 Z13.000 F600.000
G2 X60.745 Y-18.174 Z13.000 I-27.380 J6.720 K0.000 F600.000
G1 X18.163 Y-60.756 Z13.000 F600.000
G3 X20.135 Y-60.129 Z13.000 I-8.076 J28.834 K0.000 F600.000
G1 X60.122 Y-20.142 Z13.000 F600.000
G2 X59.383 Y-22.226 Z13.000 I-30.518 J9.648 K0.000 F600.000
G1 X22.217 Y-59.392 Z13.000 F600.000
G3 X24.437 Y-58.516 Z13.000 I-11.555 J32.561 K0.000 F600.000
G1 X58.500 Y-24.454 Z13.000 F600.000
G2 X57.434 Y-26.865 Z13.000 I-35.418 J14.221 K0.000 F600.000
G1 X26.859 Y-57.439 Z13.000 F600.000
G3 X29.539 Y-56.104 Z13.000 I-17.977 J39.443 K0.000 F600.000
G1 X56.125 Y-29.519 Z13.000 F600.000
G2 X54.376 Y-32.612 Z13.000 I-45.636 J23.756 K0.000 F600.000
G1 X32.602 Y-54.387 Z13.000 F600.000
G3 X36.449 Y-51.884 Z13.000 I-28.136 J47.467 K0.000 F600.000
G1 X51.883 Y-36.450 Z13.000 F600.000
G2 X44.430 Y-45.249 Z13.000 I-51.123 J35.752 K0.000 F600.000
G0 X44.430 Y-45.249 Z23.000
G0 X44.430 Y-45.249 Z23.000
G0 X44.430 Y-45.249 Z21.000
G1 X43.177 Y-46.445 Z20.000 F600.000
G1 X41.893 Y-47.607 Z19.000 F600.000
G1 X40.577 Y-48.733 Z18.000 F600.000
G1 X39.231 Y-49.823 Z17.000 F600.000
G1 X40.577 Y-48.733 Z16.000 F600.000
G1 X41.893 Y-47.607 Z15.000 F600.000
G1 X43.177 Y-46.445 Z14.000 F600.000
G1 X44.430 Y-45.249 Z13.000 F600.000
G2 X9.729 Y-62.664 Z13.000 I-44.430 J45.249 K0.000 F600.000
G3 X8.415 Y-64.226 Z13.000 I0.271 J-1.562 K0.000 F600.000
G1 X8.415 Y-77.952 Z13.000 F600.000
G2 X0.000 Y-78.415 Z13.000 I-8.298 J74.223 K0.000 F600.000
G2 X-8.415 Y-77.952 Z13.000 I-0.117 J74.686 K0.000 F600.000
G1 X-8.415 Y-64.226 Z13.000 F600.000
G3 X-9.729 Y-62.665 Z13.000 I-1.585 J-0.000 K0.000 F600.000
G2 X-9.301 Y62.729 Z13.000 I9.729 J62.664 K0.000 F600.000
G2 X44.430 Y-45.249 Z13.000 I9.300 J-62.729 K0.000 F600.000
G0 X44.430 Y-45.249 Z23.000
G0 X7.601 Y-78.042 Z23.000
G0 X7.601 Y-78.042 Z21.000
G1 X8.415 Y-77.952 Z20.527 F600.000
G1 X8.415 Y-77.229 Z20.110 F600.000
G1 X7.601 Y-78.042 Z19.445 F600.000
G1 X6.869 Y-78.115 Z19.020 F600.000
G1 X6.134 Y-78.165 Z18.595 F600.000
G1 X8.087 Y-76.212 Z17.000 F600.000
G1 X6.134 Y-78.165 Z15.405 F600.000
G1 X6.869 Y-78.115 Z14.980 F600.000
G1 X7.601 Y-78.042 Z14.555 F600.000
G1 X8.415 Y-77.229 Z13.890 F600.000
G1 X8.415 Y-77.952 Z13.473 F600.000
G1 X7.601 Y-78.042 Z13.000 F600.000
G1 X8.415 Y-77.952 Z13.000 F600.000
G1 X8.415 Y-77.229 Z13.000 F600.000
G1 X7.601 Y-78.042 Z13.000 F600.000
G2 X6.134 Y-78.165 Z13.000 I-2.694 J23.354 K0.000 F600.000
G1 X8.415 Y-75.884 Z13.000 F600.000
G1 X8.415 Y-74.539 Z13.000 F600.000
G1 X4.682 Y-78.272 Z13.000 F600.000
G1 X3.271 Y-78.338 Z13.000 F600.000
G1 X8.415 Y-73.194 Z13.000 F600.000
G1 X8.415 Y-71.849 Z13.000 F600.000
G1 X1.878 Y-78.385 Z13.000 F600.000
G1 X0.512 Y-78.407 Z13.000 F600.000
G1 X8.415 Y-70.504 Z13.000 F600.000
G1 X8.415 Y-69.159 Z13.000 F600.000
G1 X-0.828 Y-78.402 Z13.000 F600.000
G1 X-2.152 Y-78.381 Z13.000 F600.000
G1 X8.415 Y-67.814 Z13.000 F600.000
G1 X8.415 Y-66.469 Z13.000 F600.000
G1 X-3.446 Y-78.330 Z13.000 F600.000
G1 X-4.730 Y-78.269 Z13.000 F600.000
G1 X8.415 Y-65.124 Z13.000 F600.000
G2 X8.447 Y-63.911 Z13.000 I6.064 J0.449 K0.000 F600.000
G1 X8.520 Y-63.675 Z13.000 F600.000
G1 X-5.982 Y-78.177 Z13.000 F600.000
G0 X-5.982 Y-78.177 Z23.000
(Finish operation: Cut Inner Pocket)
(Begin operation: Profile Inner pocket with overcut001)
(Path: Profile Inner pocket with overcut001)
(Profile Inner pocket with overcut)
(Compensated Tool Path. Diameter: 3.17)
G0 X42.890 Y46.255 Z23.000
G0 Z21.000
G1 Z16.000 F600.000
G2 X46.255 Y46.255 Z16.000 I1.683 J-1.683 K-0.000 F600.000
G1 X46.255 Y46.255 Z16.000 F600.000
G2 X65.254 Y4.591 Z16.000 I-46.255 J-46.255 K0.000 F600.000
G2 X10.415 Y-64.575 Z16.000 I-65.244 J-4.593 K0.000 F600.000
G1 X10.415 Y-79.373 Z16.000 F600.000
G2 X10.045 Y-79.785 Z16.000 I-0.415 J0.000 K0.000 F600.000
G2 X-10.045 Y-79.785 Z16.000 I-10.045 J79.785 K0.000 F600.000
G2 X-10.415 Y-79.373 Z16.000 I0.045 J0.413 K0.000 F600.000
G1 X-10.415 Y-64.575 Z16.000 F600.000
G2 X-65.336 Y-3.209 Z16.000 I10.403 J64.570 K0.000 F600.000
G2 X46.255 Y46.255 Z16.000 I65.336 J3.209 K0.000 F600.000
G0 Z23.000
G0 X42.890 Y46.255 Z23.000
G0 Z21.000
G1 Z14.000 F600.000
G2 X46.255 Y46.255 Z14.000 I1.683 J-1.683 K-0.000 F600.000
G1 X46.255 Y46.255 Z14.000 F600.000
G2 X65.254 Y4.591 Z14.000 I-46.255 J-46.255 K0.000 F600.000
G2 X10.415 Y-64.575 Z14.000 I-65.244 J-4.593 K0.000 F600.000
G1 X10.415 Y-79.373 Z14.000 F600.000
G2 X10.045 Y-79.785 Z14.000 I-0.415 J0.000 K0.000 F600.000
G2 X-10.045 Y-79.785 Z14.000 I-10.045 J79.785 K0.000 F600.000
G2 X-10.415 Y-79.373 Z14.000 I0.045 J0.413 K0.000 F600.000
G1 X-10.415 Y-64.575 Z14.000 F600.000
G2 X-65.336 Y-3.209 Z14.000 I10.403 J64.570 K0.000 F600.000
G2 X46.255 Y46.255 Z14.000 I65.336 J3.209 K0.000 F600.000
G0 Z23.000
G0 X42.890 Y46.255 Z23.000
G0 Z21.000
G1 Z13.000 F600.000
G2 X46.255 Y46.255 Z13.000 I1.683 J-1.683 K-0.000 F600.000
G1 X46.255 Y46.255 Z13.000 F600.000
G2 X65.254 Y4.591 Z13.000 I-46.255 J-46.255 K0.000 F600.000
G2 X10.415 Y-64.575 Z13.000 I-65.244 J-4.593 K0.000 F600.000
G1 X10.415 Y-79.373 Z13.000 F600.000
G2 X10.045 Y-79.785 Z13.000 I-0.415 J0.000 K0.000 F600.000
G2 X-10.045 Y-79.785 Z13.000 I-10.045 J79.785 K0.000 F600.000
G2 X-10.415 Y-79.373 Z13.000 I0.045 J0.413 K0.000 F600.000
G1 X-10.415 Y-64.575 Z13.000 F600.000
G2 X-65.336 Y-3.209 Z13.000 I10.403 J64.570 K0.000 F600.000
G2 X46.255 Y46.255 Z13.000 I65.336 J3.209 K0.000 F600.000
G0 Z23.000
(Finish operation: Profile Inner pocket with overcut001)
(Begin operation: Cut Lip)
(Path: Cut Lip)
G0 X0.000 Y0.000 Z23.000
G0 X60.751 Y60.751 Z23.000
G0 X60.751 Y60.751 Z21.000
G1 X62.262 Y59.201 Z19.750 F600.000
G1 X63.734 Y57.613 Z18.500 F600.000
G1 X62.262 Y59.201 Z17.250 F600.000
G1 X60.751 Y60.751 Z16.000 F600.000
G2 X85.915 Y-0.000 Z16.000 I-60.751 J-60.751 K0.000 F600.000
G2 X-85.915 Y-0.000 Z16.000 I-85.915 J0.000 K0.000 F600.000
G2 X60.751 Y60.751 Z16.000 I85.915 J-0.000 K0.000 F600.000
G0 X60.751 Y60.751 Z23.000
G0 X60.751 Y60.751 Z23.000
G0 X60.751 Y60.751 Z21.000
G1 X59.201 Y62.263 Z19.750 F600.000
G1 X57.614 Y63.735 Z18.500 F600.000
G1 X59.201 Y62.263 Z17.250 F600.000
G1 X60.751 Y60.751 Z16.000 F600.000
G3 X51.078 Y69.079 Z16.000 I-60.318 J-60.277 K0.000 F600.000
G1 X69.079 Y51.078 Z16.000 F600.000
G2 X72.115 Y46.697 Z16.000 I-66.131 J-49.072 K0.000 F600.000
G1 X46.697 Y72.115 Z16.000 F600.000
G3 X43.235 Y74.232 Z16.000 I-35.993 J-54.971 K0.000 F600.000
G1 X74.232 Y43.235 Z16.000 F600.000
G2 X75.928 Y40.194 Z16.000 I-49.471 J-29.585 K0.000 F600.000
G1 X40.194 Y75.928 Z16.000 F600.000
G3 X37.463 Y77.314 Z16.000 I-22.116 J-40.197 K0.000 F600.000
G1 X51.554 Y63.223 Z16.000 F600.000
G3 X46.185 Y67.248 Z16.000 I-47.522 J-57.808 K0.000 F600.000
G1 X34.954 Y78.478 Z16.000 F600.000
G3 X32.604 Y79.484 Z16.000 I-17.820 J-38.396 K0.000 F600.000
G1 X42.391 Y69.696 Z16.000 F600.000
G3 X39.187 Y71.556 Z16.000 I-27.866 J-44.330 K0.000 F600.000
G1 X30.380 Y80.363 Z16.000 F600.000
G1 X28.271 Y81.126 Z16.000 F600.000
G1 X36.384 Y73.014 Z16.000 F600.000
G3 X33.816 Y74.236 Z16.000 I-20.919 J-40.629 K0.000 F600.000
G1 X26.257 Y81.796 Z16.000 F600.000
G3 X24.316 Y82.392 Z16.000 I-10.830 J-31.816 K0.000 F600.000
G1 X31.430 Y75.277 Z16.000 F600.000
G3 X29.187 Y76.176 Z16.000 I-15.576 J-35.641 K0.000 F600.000
G1 X22.437 Y82.926 Z16.000 F600.000
G1 X20.614 Y83.404 Z16.000 F600.000
G1 X27.058 Y76.960 Z16.000 F600.000
G3 X25.023 Y77.650 Z16.000 I-12.396 J-33.204 K0.000 F600.000
G1 X18.864 Y83.810 Z16.000 F600.000
G3 X17.152 Y84.176 Z16.000 I-6.925 J-28.140 K0.000 F600.000
G1 X23.081 Y78.248 Z16.000 F600.000
G3 X21.214 Y78.769 Z16.000 I-9.421 J-30.119 K0.000 F600.000
G1 X15.474 Y84.510 Z16.000 F600.000
G1 X13.858 Y84.781 Z16.000 F600.000
G1 X19.404 Y79.235 Z16.000 F600.000
G3 X17.641 Y79.653 Z16.000 I-7.830 J-29.092 K0.000 F600.000
G1 X12.266 Y85.027 Z16.000 F600.000
G1 X10.708 Y85.240 Z16.000 F600.000
G1 X15.944 Y80.004 Z16.000 F600.000
G3 X14.289 Y80.314 Z16.000 I-5.841 J-26.592 K0.000 F600.000
G1 X9.192 Y85.412 Z16.000 F600.000
G3 X7.690 Y85.569 Z16.000 I-3.345 J-24.770 K0.000 F600.000
G1 X12.664 Y80.595 Z16.000 F600.000
G1 X11.096 Y80.818 Z16.000 F600.000
G1 X6.235 Y85.679 Z16.000 F600.000
G3 X4.793 Y85.776 Z16.000 I-2.329 J-23.813 K0.000 F600.000
G1 X9.553 Y81.016 Z16.000 F600.000
G1 X8.041 Y81.183 Z16.000 F600.000
G1 X3.384 Y85.840 Z16.000 F600.000
G3 X1.994 Y85.885 Z16.000 I-1.437 J-22.974 K0.000 F600.000
G1 X6.569 Y81.310 Z16.000 F600.000
G3 X5.110 Y81.425 Z16.000 I-4.376 J-46.454 K0.000 F600.000
G1 X0.629 Y85.905 Z16.000 F600.000
G3 X-0.715 Y85.904 Z16.000 I-0.650 J-22.234 K0.000 F600.000
G1 X3.698 Y81.491 Z16.000 F600.000
G3 X2.295 Y81.549 Z16.000 I-1.647 J-22.948 K0.000 F600.000
G1 X-2.040 Y85.884 Z16.000 F600.000
G3 X-3.342 Y85.842 Z16.000 I0.048 J-21.576 K0.000 F600.000
G1 X0.929 Y81.571 Z16.000 F600.000
G3 X-0.424 Y81.579 Z16.000 I-0.805 J-21.991 K0.000 F600.000
G1 X-4.629 Y85.783 Z16.000 F600.000
G3 X-5.895 Y85.705 Z16.000 I0.672 J-20.989 K0.000 F600.000
G1 X-1.748 Y81.558 Z16.000 F600.000
G3 X-3.057 Y81.522 Z16.000 I-0.068 J-21.272 K0.000 F600.000
G1 X-7.145 Y85.610 Z16.000 F600.000
G3 X-8.379 Y85.498 Z16.000 I1.232 J-20.462 K0.000 F600.000
G1 X-4.341 Y81.461 Z16.000 F600.000
G3 X-5.611 Y81.386 Z16.000 I0.588 J-20.665 K0.000 F600.000
G1 X-9.594 Y85.369 Z16.000 F600.000
G3 X-10.798 Y85.228 Z16.000 I1.736 J-19.987 K0.000 F600.000
G1 X-6.858 Y81.288 Z16.000 F600.000
G3 X-8.092 Y81.177 Z16.000 I1.178 J-20.150 K0.000 F600.000
G1 X-11.981 Y85.066 Z16.000 F600.000
G3 X-13.158 Y84.898 Z16.000 I2.193 J-19.557 K0.000 F600.000
G1 X-9.304 Y81.044 Z16.000 F600.000
G3 X-10.507 Y80.902 Z16.000 I1.721 J-19.777 K0.000 F600.000
G1 X-14.310 Y84.705 Z16.000 F600.000
G1 X-15.462 Y84.512 Z16.000 F600.000
G1 X-11.684 Y80.734 Z16.000 F600.000
G3 X-12.859 Y80.564 Z16.000 I2.324 J-20.172 K0.000 F600.000
G1 X-16.584 Y84.289 Z16.000 F600.000
G1 X-17.706 Y84.066 Z16.000 F600.000
G1 X-14.004 Y80.364 Z16.000 F600.000
G1 X-15.149 Y80.164 Z16.000 F600.000
G1 X-18.807 Y83.823 Z16.000 F600.000
G1 X-19.900 Y83.571 Z16.000 F600.000
G1 X-16.267 Y79.937 Z16.000 F600.000
G1 X-17.381 Y79.707 Z16.000 F600.000
G1 X-20.982 Y83.308 Z16.000 F600.000
G1 X-22.047 Y83.028 Z16.000 F600.000
G1 X-18.477 Y79.457 Z16.000 F600.000
G1 X-19.561 Y79.197 Z16.000 F600.000
G1 X-23.112 Y82.747 Z16.000 F600.000
G1 X-24.150 Y82.441 Z16.000 F600.000
G1 X-20.636 Y78.927 Z16.000 F600.000
G1 X-21.692 Y78.638 Z16.000 F600.000
G1 X-25.188 Y82.134 Z16.000 F600.000
G3 X-26.210 Y81.811 Z16.000 I4.836 J-17.070 K0.000 F600.000
G1 X-22.748 Y78.349 Z16.000 F600.000
G3 X-23.777 Y78.033 Z16.000 I9.231 J-31.886 K0.000 F600.000
G1 X-27.223 Y81.479 Z16.000 F600.000
G3 X-28.230 Y81.141 Z16.000 I5.082 J-16.837 K0.000 F600.000
G1 X-24.806 Y77.717 Z16.000 F600.000
G3 X-25.818 Y77.384 Z16.000 I4.917 J-16.676 K0.000 F600.000
G1 X-29.218 Y80.784 Z16.000 F600.000
G1 X-30.205 Y80.426 Z16.000 F600.000
G1 X-26.820 Y77.041 Z16.000 F600.000
G3 X-27.817 Y76.694 Z16.000 I5.262 J-16.688 K0.000 F600.000
G1 X-31.174 Y80.051 Z16.000 F600.000
G1 X-32.137 Y79.669 Z16.000 F600.000
G1 X-28.793 Y76.325 Z16.000 F600.000
G1 X-29.769 Y75.956 Z16.000 F600.000
G1 X-33.095 Y79.281 Z16.000 F600.000
G1 X-34.034 Y78.876 Z16.000 F600.000
G1 X-30.727 Y75.569 Z16.000 F600.000
G1 X-31.678 Y75.175 Z16.000 F600.000
G1 X-34.973 Y78.470 Z16.000 F600.000
G3 X-35.896 Y78.048 Z16.000 I6.519 J-15.485 K0.000 F600.000
G1 X-32.623 Y74.775 Z16.000 F600.000
G1 X-33.550 Y74.357 Z16.000 F600.000
G1 X-36.812 Y77.619 Z16.000 F600.000
G3 X-37.725 Y77.187 Z16.000 I6.690 J-15.324 K0.000 F600.000
G1 X-34.476 Y73.938 Z16.000 F600.000
G3 X-35.386 Y73.503 Z16.000 I6.691 J-15.140 K0.000 F600.000
G1 X-38.618 Y76.735 Z16.000 F600.000
G1 X-39.512 Y76.284 Z16.000 F600.000
G1 X-36.288 Y73.061 Z16.000 F600.000
G3 X-37.187 Y72.614 Z16.000 I6.980 J-15.189 K0.000 F600.000
G1 X-40.393 Y75.820 Z16.000 F600.000
G1 X-41.264 Y75.346 Z16.000 F600.000
G1 X-38.067 Y72.149 Z16.000 F600.000
G1 X-38.946 Y71.683 Z16.000 F600.000
G1 X-42.135 Y74.872 Z16.000 F600.000
G3 X-42.985 Y74.378 Z16.000 I7.750 J-14.325 K0.000 F600.000
G1 X-39.812 Y71.204 Z16.000 F600.000
G1 X-40.668 Y70.716 Z16.000 F600.000
G1 X-43.834 Y73.882 Z16.000 F600.000
G3 X-44.678 Y73.380 Z16.000 I7.883 J-14.200 K0.000 F600.000
G1 X-41.524 Y70.227 Z16.000 F600.000
G3 X-42.359 Y69.716 Z16.000 I17.230 J-29.074 K0.000 F600.000
G1 X-45.505 Y72.863 Z16.000 F600.000
G1 X-46.332 Y72.345 Z16.000 F600.000
G1 X-43.192 Y69.205 Z16.000 F600.000
G3 X-44.018 Y68.686 Z16.000 I8.082 J-13.765 K0.000 F600.000
G1 X-47.147 Y71.815 Z16.000 F600.000
G1 X-47.953 Y71.276 Z16.000 F600.000
G1 X-44.830 Y68.153 Z16.000 F600.000
G1 X-45.641 Y67.620 Z16.000 F600.000
G1 X-48.759 Y70.737 Z16.000 F600.000
G3 X-49.546 Y70.179 Z16.000 I8.848 J-13.292 K0.000 F600.000
G1 X-46.437 Y67.070 Z16.000 F600.000
G1 X-47.227 Y66.515 Z16.000 F600.000
G1 X-50.331 Y69.619 Z16.000 F600.000
G3 X-51.111 Y69.054 Z16.000 I8.958 J-13.189 K0.000 F600.000
G1 X-48.015 Y65.958 Z16.000 F600.000
G1 X-48.783 Y65.382 Z16.000 F600.000
G1 X-51.875 Y68.474 Z16.000 F600.000
G1 X-52.640 Y67.893 Z16.000 F600.000
G1 X-49.551 Y64.805 Z16.000 F600.000
G3 X-50.311 Y64.219 Z16.000 I9.194 J-12.707 K0.000 F600.000
G1 X-53.393 Y67.301 Z16.000 F600.000
G1 X-54.137 Y66.700 Z16.000 F600.000
G1 X-51.057 Y63.621 Z16.000 F600.000
G1 X-51.804 Y63.023 Z16.000 F600.000
G1 X-54.880 Y66.099 Z16.000 F600.000
G3 X-55.607 Y65.481 Z16.000 I9.866 J-12.334 K0.000 F600.000
G1 X-52.535 Y62.409 Z16.000 F600.000
G1 X-53.261 Y61.790 Z16.000 F600.000
G1 X-56.331 Y64.859 Z16.000 F600.000
G3 X-57.052 Y64.236 Z16.000 I9.963 J-12.243 K0.000 F600.000
G1 X-53.985 Y61.169 Z16.000 F600.000
G1 X-54.689 Y60.528 Z16.000 F600.000
G1 X-57.755 Y63.594 Z16.000 F600.000
G1 X-58.457 Y62.952 Z16.000 F600.000
G1 X-55.393 Y59.888 Z16.000 F600.000
G3 X-56.090 Y59.239 Z16.000 I10.269 J-11.736 K0.000 F600.000
G1 X-59.153 Y62.302 Z16.000 F600.000
G1 X-59.835 Y61.639 Z16.000 F600.000
G1 X-56.773 Y58.577 Z16.000 F600.000
G1 X-57.456 Y57.916 Z16.000 F600.000
G1 X-60.518 Y60.977 Z16.000 F600.000
G3 X-61.187 Y60.301 Z16.000 I10.846 J-11.412 K0.000 F600.000
G1 X-58.125 Y57.240 Z16.000 F600.000
G1 X-58.787 Y56.557 Z16.000 F600.000
G1 X-61.849 Y59.619 Z16.000 F600.000
G1 X-62.512 Y58.936 Z16.000 F600.000
G1 X-59.449 Y55.874 Z16.000 F600.000
G3 X-60.091 Y55.170 Z16.000 I13.450 J-12.911 K0.000 F600.000
G1 X-63.155 Y58.235 Z16.000 F600.000
G1 X-63.797 Y57.532 Z16.000 F600.000
G1 X-60.731 Y54.466 Z16.000 F600.000
G3 X-61.366 Y53.756 Z16.000 I11.363 J-10.803 K0.000 F600.000
G1 X-64.435 Y56.825 Z16.000 F600.000
G1 X-65.056 Y56.101 Z16.000 F600.000
G1 X-61.986 Y53.031 Z16.000 F600.000
G1 X-62.605 Y52.305 Z16.000 F600.000
G1 X-65.678 Y55.378 Z16.000 F600.000
G3 X-66.290 Y54.645 Z16.000 I11.827 J-10.488 K0.000 F600.000
G1 X-63.212 Y51.568 Z16.000 F600.000
G1 X-63.811 Y50.821 Z16.000 F600.000
G1 X-66.891 Y53.901 Z16.000 F600.000
G1 X-67.492 Y53.157 Z16.000 F600.000
G1 X-64.409 Y50.074 Z16.000 F600.000
G3 X-64.988 Y49.308 Z16.000 I12.911 J-10.355 K0.000 F600.000
G1 X-68.077 Y52.397 Z16.000 F600.000
G1 X-68.658 Y51.633 Z16.000 F600.000
G1 X-65.564 Y48.540 Z16.000 F600.000
G3 X-66.136 Y47.767 Z16.000 I12.472 J-9.816 K0.000 F600.000
G1 X-69.237 Y50.867 Z16.000 F600.000
G1 X-69.796 Y50.082 Z16.000 F600.000
G1 X-66.691 Y46.977 Z16.000 F600.000
G1 X-67.246 Y46.187 Z16.000 F600.000
G1 X-70.356 Y49.297 Z16.000 F600.000
G3 X-70.908 Y48.504 Z16.000 I12.847 J-9.528 K0.000 F600.000
G1 X-67.789 Y45.384 Z16.000 F600.000
G1 X-68.322 Y44.573 Z16.000 F600.000
G1 X-71.447 Y47.697 Z16.000 F600.000
G1 X-71.985 Y46.891 Z16.000 F600.000
G1 X-68.855 Y43.761 Z16.000 F600.000
G3 X-69.367 Y42.928 Z16.000 I14.826 J-9.695 K0.000 F600.000
G1 X-72.509 Y46.070 Z16.000 F600.000
G1 X-73.027 Y45.243 Z16.000 F600.000
G1 X-69.878 Y42.094 Z16.000 F600.000
G3 X-70.382 Y41.253 Z16.000 I13.530 J-8.674 K0.000 F600.000
G1 X-73.543 Y44.414 Z16.000 F600.000
G1 X-74.039 Y43.565 Z16.000 F600.000
G1 X-70.870 Y40.397 Z16.000 F600.000
G1 X-71.359 Y39.540 Z16.000 F600.000
G1 X-74.535 Y42.716 Z16.000 F600.000
G3 X-75.022 Y41.859 Z16.000 I13.950 J-8.490 K0.000 F600.000
G1 X-71.831 Y38.667 Z16.000 F600.000
G1 X-72.296 Y37.788 Z16.000 F600.000
G1 X-75.496 Y40.988 Z16.000 F600.000
G1 X-75.970 Y40.117 Z16.000 F600.000
G1 X-72.758 Y36.905 Z16.000 F600.000
G1 X-73.201 Y36.002 Z16.000 F600.000
G1 X-76.427 Y39.229 Z16.000 F600.000
G1 X-76.879 Y38.335 Z16.000 F600.000
G1 X-73.643 Y35.100 Z16.000 F600.000
G3 X-74.071 Y34.183 Z16.000 I14.760 J-7.447 K0.000 F600.000
G1 X-77.326 Y37.438 Z16.000 F600.000
G1 X-77.755 Y36.522 Z16.000 F600.000
G1 X-74.489 Y33.256 Z16.000 F600.000
G3 X-74.906 Y32.328 Z16.000 I15.931 J-7.704 K0.000 F600.000
G1 X-78.184 Y35.606 Z16.000 F600.000
G3 X-78.598 Y34.676 Z16.000 I15.188 J-7.324 K0.000 F600.000
G1 X-75.300 Y31.377 Z16.000 F600.000
G1 X-75.694 Y30.426 Z16.000 F600.000
G1 X-79.004 Y33.736 Z16.000 F600.000
G3 X-79.408 Y32.795 Z16.000 I15.372 J-7.150 K0.000 F600.000
G1 X-76.073 Y29.460 Z16.000 F600.000
G1 X-76.442 Y28.484 Z16.000 F600.000
G1 X-79.790 Y31.832 Z16.000 F600.000
G1 X-80.172 Y30.869 Z16.000 F600.000
G1 X-76.807 Y27.504 Z16.000 F600.000
G1 X-77.150 Y26.503 Z16.000 F600.000
G1 X-80.540 Y29.892 Z16.000 F600.000
G1 X-80.897 Y28.905 Z16.000 F600.000
G1 X-77.493 Y25.501 Z16.000 F600.000
G3 X-77.817 Y24.480 Z16.000 I16.556 J-5.818 K0.000 F600.000
G1 X-81.252 Y27.914 Z16.000 F600.000
G1 X-81.584 Y26.902 Z16.000 F600.000
G1 X-78.134 Y23.451 Z16.000 F600.000
G3 X-78.441 Y22.414 Z16.000 I16.793 J-5.539 K0.000 F600.000
G1 X-81.917 Y25.889 Z16.000 F600.000
G3 X-82.231 Y24.859 Z16.000 I16.886 J-5.726 K0.000 F600.000
G1 X-78.730 Y21.358 Z16.000 F600.000
G3 X-79.019 Y20.302 Z16.000 I134.135 J-37.256 K0.000 F600.000
G1 X-82.538 Y23.821 Z16.000 F600.000
G3 X-82.837 Y22.775 Z16.000 I17.157 J-5.471 K0.000 F600.000
G1 X-79.279 Y19.217 Z16.000 F600.000
G1 X-79.540 Y18.133 Z16.000 F600.000
G1 X-83.117 Y21.710 Z16.000 F600.000
G1 X-83.396 Y20.645 Z16.000 F600.000
G1 X-79.780 Y17.028 Z16.000 F600.000
G1 X-80.010 Y15.914 Z16.000 F600.000
G1 X-83.650 Y19.554 Z16.000 F600.000
G1 X-83.902 Y18.461 Z16.000 F600.000
G1 X-80.228 Y14.786 Z16.000 F600.000
G1 X-80.427 Y13.641 Z16.000 F600.000
G1 X-84.137 Y17.350 Z16.000 F600.000
G1 X-84.360 Y16.229 Z16.000 F600.000
G1 X-80.620 Y12.488 Z16.000 F600.000
G1 X-80.787 Y11.311 Z16.000 F600.000
G1 X-84.573 Y15.097 Z16.000 F600.000
G1 X-84.766 Y13.945 Z16.000 F600.000
G1 X-80.952 Y10.131 Z16.000 F600.000
G1 X-81.086 Y8.920 Z16.000 F600.000
G1 X-84.956 Y12.789 Z16.000 F600.000
G1 X-85.117 Y11.606 Z16.000 F600.000
G1 X-81.220 Y7.709 Z16.000 F600.000
G3 X-81.319 Y6.463 Z16.000 I24.920 J-2.608 K0.000 F600.000
G1 X-85.279 Y10.423 Z16.000 F600.000
G3 X-85.410 Y9.209 Z16.000 I20.023 J-2.773 K0.000 F600.000
G1 X-81.417 Y5.216 Z16.000 F600.000
G3 X-81.480 Y3.934 Z16.000 I21.937 J-1.727 K0.000 F600.000
G1 X-85.539 Y7.993 Z16.000 F600.000
G3 X-85.640 Y6.749 Z16.000 I20.537 J-2.290 K0.000 F600.000
G1 X-81.541 Y2.650 Z16.000 F600.000
G3 X-81.564 Y1.329 Z16.000 I22.747 J-1.066 K0.000 F600.000
G1 X-85.735 Y5.499 Z16.000 F600.000
G3 X-85.802 Y4.221 Z16.000 I21.106 J-1.754 K0.000 F600.000
G1 X-81.585 Y0.004 Z16.000 F600.000
G3 X-81.564 Y-1.362 Z16.000 I49.487 J0.084 K0.000 F600.000
G1 X-85.860 Y2.935 Z16.000 F600.000
G3 X-85.890 Y1.620 Z16.000 I21.741 J-1.156 K0.000 F600.000
G1 X-81.537 Y-2.734 Z16.000 F600.000
G1 X-81.470 Y-4.145 Z16.000 F600.000
G1 X-85.910 Y0.295 Z16.000 F600.000
G3 X-85.899 Y-1.061 Z16.000 I22.452 J-0.487 K0.000 F600.000
G1 X-81.389 Y-5.571 Z16.000 F600.000
G1 X-81.274 Y-7.031 Z16.000 F600.000
G1 X-85.878 Y-2.427 Z16.000 F600.000
G3 X-85.820 Y-3.830 Z16.000 I23.253 J0.267 K0.000 F600.000
G1 X-81.130 Y-8.520 Z16.000 F600.000
G1 X-80.963 Y-10.032 Z16.000 F600.000
G1 X-85.754 Y-5.241 Z16.000 F600.000
G1 X-85.644 Y-6.696 Z16.000 F600.000
G1 X-80.747 Y-11.593 Z16.000 F600.000
G3 X-80.509 Y-13.176 Z16.000 I25.832 J3.084 K0.000 F600.000
G1 X-85.521 Y-8.164 Z16.000 F600.000
G1 X-85.361 Y-9.668 Z16.000 F600.000
G1 X-80.224 Y-14.806 Z16.000 F600.000
G3 X-79.893 Y-16.482 Z16.000 I27.322 J4.531 K0.000 F600.000
G1 X-85.173 Y-11.202 Z16.000 F600.000
G1 X-84.960 Y-12.760 Z16.000 F600.000
G1 X-79.525 Y-18.195 Z16.000 F600.000
G1 X-79.100 Y-19.964 Z16.000 F600.000
G1 X-84.695 Y-14.370 Z16.000 F600.000
G3 X-84.404 Y-16.005 Z16.000 I27.205 J3.988 K0.000 F600.000
G1 X-78.609 Y-21.801 Z16.000 F600.000
G3 X-78.058 Y-23.696 Z16.000 I30.814 J7.920 K0.000 F600.000
G1 X-84.070 Y-17.684 Z16.000 F600.000
G3 X-83.682 Y-19.417 Z16.000 I28.879 J5.564 K0.000 F600.000
G1 X-77.438 Y-25.661 Z16.000 F600.000
G3 X-76.734 Y-27.710 Z16.000 I35.841 J11.172 K0.000 F600.000
G1 X-83.253 Y-21.191 Z16.000 F600.000
G1 X-82.774 Y-23.015 Z16.000 F600.000
G1 X-75.917 Y-29.872 Z16.000 F600.000
G3 X-74.976 Y-32.158 Z16.000 I38.308 J14.433 K0.000 F600.000
G1 X-82.213 Y-24.921 Z16.000 F600.000
G3 X-81.588 Y-26.891 Z16.000 I32.921 J9.368 K0.000 F600.000
G1 X-73.885 Y-34.594 Z16.000 F600.000
G3 X-72.589 Y-37.234 Z16.000 I44.538 J20.218 K0.000 F600.000
G1 X-80.884 Y-28.939 Z16.000 F600.000
G3 X-80.088 Y-31.081 Z16.000 I35.835 J12.112 K0.000 F600.000
G1 X-71.001 Y-40.168 Z16.000 F600.000
G3 X-69.022 Y-43.492 Z16.000 I54.235 J30.041 K0.000 F600.000
G1 X-79.177 Y-33.337 Z16.000 F600.000
G3 X-78.123 Y-35.735 Z16.000 I40.211 J16.231 K0.000 F600.000
G1 X-66.240 Y-47.619 Z16.000 F600.000
G3 X-60.670 Y-54.534 Z16.000 I62.555 J44.688 K0.000 F600.000
G1 X-76.889 Y-38.314 Z16.000 F600.000
G0 X-76.889 Y-38.314 Z23.000
G0 X-73.021 Y-36.387 Z23.000
G0 X-73.021 Y-36.387 Z21.000
G1 X-72.030 Y-38.312 Z19.750 F600.000
G1 X-70.988 Y-40.209 Z18.500 F600.000
G1 X-72.030 Y-38.312 Z17.250 F600.000
G1 X-73.021 Y-36.387 Z16.000 F600.000
G3 X81.585 Y0.000 Z16.000 I73.021 J36.387 K0.000 F600.000
G3 X-81.585 Y0.025 Z16.000 I-81.585 J0.000 K0.000 F600.000
G3 X-73.021 Y-36.387 Z16.000 I81.585 J-0.025 K0.000 F600.000
G0 X-73.021 Y-36.387 Z23.000
G0 X-52.849 Y-67.734 Z23.000
G0 X-52.849 Y-67.734 Z21.000
G1 X-55.911 Y-64.672 Z18.500 F600.000
G1 X-52.849 Y-67.734 Z16.000 F600.000
G1 X-67.734 Y-52.849 Z16.000 F600.000
G3 X-52.849 Y-67.734 Z16.000 I67.508 J52.623 K0.000 F600.000
G3 X-47.981 Y-71.257 Z16.000 I48.096 J61.334 K0.000 F600.000
G1 X-71.257 Y-47.981 Z16.000 F600.000
G2 X-73.634 Y-44.260 Z16.000 I55.979 J38.368 K0.000 F600.000
G1 X-44.260 Y-73.634 Z16.000 F600.000
G3 X-41.129 Y-75.419 Z16.000 I31.112 J50.908 K0.000 F600.000
G1 X-75.419 Y-41.129 Z16.000 F600.000
G2 X-76.889 Y-38.314 Z16.000 I45.841 J25.729 K0.000 F600.000
G1 X-60.670 Y-54.534 Z16.000 F600.000
G3 X-54.534 Y-60.670 Z16.000 I56.776 J50.640 K0.000 F600.000
G1 X-38.314 Y-76.889 Z16.000 F600.000
G3 X-35.735 Y-78.123 Z16.000 I21.713 J42.061 K0.000 F600.000
G1 X-47.619 Y-66.240 Z16.000 F600.000
G3 X-43.492 Y-69.022 Z16.000 I42.960 J59.278 K0.000 F600.000
G1 X-33.337 Y-79.177 Z16.000 F600.000
G3 X-31.081 Y-80.088 Z16.000 I16.202 J36.873 K0.000 F600.000
G1 X-40.168 Y-71.001 Z16.000 F600.000
G3 X-37.234 Y-72.589 Z16.000 I26.968 J46.298 K0.000 F600.000
G1 X-28.939 Y-80.884 Z16.000 F600.000
G3 X-26.891 Y-81.588 Z16.000 I12.660 J33.539 K0.000 F600.000
G1 X-34.594 Y-73.885 Z16.000 F600.000
G3 X-32.158 Y-74.976 Z16.000 I19.037 J39.248 K0.000 F600.000
G1 X-24.921 Y-82.213 Z16.000 F600.000
G3 X-23.015 Y-82.774 Z16.000 I10.228 J31.249 K0.000 F600.000
G1 X-29.872 Y-75.917 Z16.000 F600.000
G1 X-27.710 Y-76.734 Z16.000 F600.000
G1 X-21.191 Y-83.253 Z16.000 F600.000
G3 X-19.417 Y-83.682 Z16.000 I7.988 J29.141 K0.000 F600.000
G1 X-25.661 Y-77.438 Z16.000 F600.000
G3 X-23.696 Y-78.058 Z16.000 I11.021 J31.496 K0.000 F600.000
G1 X-17.684 Y-84.070 Z16.000 F600.000
G1 X-16.005 Y-84.404 Z16.000 F600.000
G1 X-21.801 Y-78.609 Z16.000 F600.000
G3 X-19.964 Y-79.100 Z16.000 I8.919 J29.648 K0.000 F600.000
G1 X-14.370 Y-84.695 Z16.000 F600.000
G3 X-12.760 Y-84.960 Z16.000 I5.186 J26.503 K0.000 F600.000
G1 X-18.195 Y-79.525 Z16.000 F600.000
G3 X-16.482 Y-79.893 Z16.000 I6.827 J27.618 K0.000 F600.000
G1 X-11.202 Y-85.173 Z16.000 F600.000
G3 X-9.668 Y-85.361 Z16.000 I3.889 J25.282 K0.000 F600.000
G1 X-14.806 Y-80.224 Z16.000 F600.000
G1 X-13.176 Y-80.509 Z16.000 F600.000
G1 X-8.164 Y-85.521 Z16.000 F600.000
G3 X-6.696 Y-85.644 Z16.000 I2.767 J24.227 K0.000 F600.000
G1 X-11.593 Y-80.747 Z16.000 F600.000
G3 X-10.032 Y-80.963 Z16.000 I4.347 J25.667 K0.000 F600.000
G1 X-5.241 Y-85.754 Z16.000 F600.000
G3 X-3.830 Y-85.820 Z16.000 I1.790 J23.307 K0.000 F600.000
G1 X-8.520 Y-81.130 Z16.000 F600.000
G3 X-7.031 Y-81.274 Z16.000 I3.073 J24.023 K0.000 F600.000
G1 X-2.427 Y-85.878 Z16.000 F600.000
G1 X-1.061 Y-85.899 Z16.000 F600.000
G1 X-5.571 Y-81.389 Z16.000 F600.000
G3 X-4.145 Y-81.470 Z16.000 I2.035 J23.121 K0.000 F600.000
G1 X0.295 Y-85.910 Z16.000 F600.000
G1 X1.620 Y-85.890 Z16.000 F600.000
G1 X-2.734 Y-81.537 Z16.000 F600.000
G3 X-1.362 Y-81.564 Z16.000 I1.133 J22.760 K0.000 F600.000
G1 X2.935 Y-85.860 Z16.000 F600.000
G1 X4.221 Y-85.802 Z16.000 F600.000
G1 X0.004 Y-81.585 Z16.000 F600.000
G3 X1.329 Y-81.564 Z16.000 I-0.216 J56.313 K0.000 F600.000
G1 X5.499 Y-85.735 Z16.000 F600.000
G1 X6.749 Y-85.640 Z16.000 F600.000
G1 X2.650 Y-81.541 Z16.000 F600.000
G1 X3.934 Y-81.480 Z16.000 F600.000
G1 X7.993 Y-85.539 Z16.000 F600.000
G1 X9.209 Y-85.410 Z16.000 F600.000
G1 X5.216 Y-81.417 Z16.000 F600.000
G1 X6.463 Y-81.319 Z16.000 F600.000
G1 X10.423 Y-85.279 Z16.000 F600.000
G1 X11.606 Y-85.117 Z16.000 F600.000
G1 X7.709 Y-81.220 Z16.000 F600.000
G1 X8.920 Y-81.086 Z16.000 F600.000
G1 X12.789 Y-84.956 Z16.000 F600.000
G3 X13.945 Y-84.766 Z16.000 I-2.558 J19.213 K0.000 F600.000
G1 X10.131 Y-80.952 Z16.000 F600.000
G3 X11.311 Y-80.787 Z16.000 I-2.236 J20.299 K0.000 F600.000
G1 X15.097 Y-84.573 Z16.000 F600.000
G3 X16.229 Y-84.360 Z16.000 I-2.958 J18.837 K0.000 F600.000
G1 X12.488 Y-80.620 Z16.000 F600.000
G3 X13.641 Y-80.427 Z16.000 I-2.576 J18.990 K0.000 F600.000
G1 X17.350 Y-84.137 Z16.000 F600.000
G3 X18.461 Y-83.902 Z16.000 I-3.324 J18.492 K0.000 F600.000
G1 X14.786 Y-80.228 Z16.000 F600.000
G3 X15.914 Y-80.010 Z16.000 I-2.970 J18.454 K0.000 F600.000
G1 X19.554 Y-83.650 Z16.000 F600.000
G3 X20.645 Y-83.396 Z16.000 I-3.660 J18.176 K0.000 F600.000
G1 X17.028 Y-79.780 Z16.000 F600.000
G3 X18.133 Y-79.540 Z16.000 I-3.366 J18.170 K0.000 F600.000
G1 X21.710 Y-83.117 Z16.000 F600.000
G1 X22.775 Y-82.837 Z16.000 F600.000
G1 X19.217 Y-79.279 Z16.000 F600.000
G3 X20.302 Y-79.019 Z16.000 I-7.716 J34.466 K0.000 F600.000
G1 X23.821 Y-82.538 Z16.000 F600.000
G1 X24.859 Y-82.231 Z16.000 F600.000
G1 X21.358 Y-78.730 Z16.000 F600.000
G1 X22.414 Y-78.441 Z16.000 F600.000
G1 X25.889 Y-81.917 Z16.000 F600.000
G1 X26.902 Y-81.584 Z16.000 F600.000
G1 X23.451 Y-78.134 Z16.000 F600.000
G1 X24.480 Y-77.817 Z16.000 F600.000
G1 X27.914 Y-81.252 Z16.000 F600.000
G3 X28.905 Y-80.897 Z16.000 I-5.375 J16.562 K0.000 F600.000
G1 X25.501 Y-77.493 Z16.000 F600.000
G1 X26.503 Y-77.150 Z16.000 F600.000
G1 X29.892 Y-80.540 Z16.000 F600.000
G3 X30.869 Y-80.172 Z16.000 I-5.597 J16.353 K0.000 F600.000
G1 X27.504 Y-76.807 Z16.000 F600.000
G3 X28.484 Y-76.442 Z16.000 I-5.641 J16.615 K0.000 F600.000
G1 X31.832 Y-79.790 Z16.000 F600.000
G1 X32.795 Y-79.408 Z16.000 F600.000
G1 X29.460 Y-76.073 Z16.000 F600.000
G3 X30.426 Y-75.694 Z16.000 I-5.703 J15.946 K0.000 F600.000
G1 X33.736 Y-79.004 Z16.000 F600.000
G1 X34.676 Y-78.598 Z16.000 F600.000
G1 X31.377 Y-75.300 Z16.000 F600.000
G1 X32.328 Y-74.906 Z16.000 F600.000
G1 X35.606 Y-78.184 Z16.000 F600.000
G1 X36.522 Y-77.755 Z16.000 F600.000
G1 X33.256 Y-74.489 Z16.000 F600.000
G1 X34.183 Y-74.071 Z16.000 F600.000
G1 X37.438 Y-77.326 Z16.000 F600.000
G3 X38.335 Y-76.879 Z16.000 I-6.955 J15.075 K0.000 F600.000
G1 X35.100 Y-73.643 Z16.000 F600.000
G1 X36.002 Y-73.201 Z16.000 F600.000
G1 X39.229 Y-76.427 Z16.000 F600.000
G3 X40.117 Y-75.970 Z16.000 I-7.111 J14.927 K0.000 F600.000
G1 X36.905 Y-72.758 Z16.000 F600.000
G3 X37.788 Y-72.296 Z16.000 I-7.291 J15.003 K0.000 F600.000
G1 X40.988 Y-75.496 Z16.000 F600.000
G1 X41.859 Y-75.022 Z16.000 F600.000
G1 X38.667 Y-71.831 Z16.000 F600.000
G3 X39.540 Y-71.359 Z16.000 I-7.316 J14.578 K0.000 F600.000
G1 X42.716 Y-74.535 Z16.000 F600.000
G1 X43.565 Y-74.039 Z16.000 F600.000
G1 X40.397 Y-70.870 Z16.000 F600.000
G1 X41.253 Y-70.382 Z16.000 F600.000
G1 X44.414 Y-73.543 Z16.000 F600.000
G3 X45.243 Y-73.027 Z16.000 I-8.135 J13.965 K0.000 F600.000
G1 X42.094 Y-69.878 Z16.000 F600.000
G1 X42.928 Y-69.367 Z16.000 F600.000
G1 X46.070 Y-72.509 Z16.000 F600.000
G3 X46.891 Y-71.985 Z16.000 I-8.258 J13.848 K0.000 F600.000
G1 X43.761 Y-68.855 Z16.000 F600.000
G1 X44.573 Y-68.322 Z16.000 F600.000
G1 X47.697 Y-71.447 Z16.000 F600.000
G1 X48.504 Y-70.908 Z16.000 F600.000
G1 X45.384 Y-67.789 Z16.000 F600.000
G3 X46.187 Y-67.246 Z16.000 I-8.462 J13.388 K0.000 F600.000
G1 X49.297 Y-70.356 Z16.000 F600.000
G1 X50.082 Y-69.796 Z16.000 F600.000
G1 X46.977 Y-66.691 Z16.000 F600.000
G1 X47.767 Y-66.136 Z16.000 F600.000
G1 X50.867 Y-69.237 Z16.000 F600.000
G3 X51.633 Y-68.658 Z16.000 I-9.200 J12.961 K0.000 F600.000
G1 X48.540 Y-65.564 Z16.000 F600.000
G1 X49.308 Y-64.988 Z16.000 F600.000
G1 X52.397 Y-68.077 Z16.000 F600.000
G3 X53.157 Y-67.492 Z16.000 I-9.304 J12.863 K0.000 F600.000
G1 X50.074 Y-64.409 Z16.000 F600.000
G1 X50.821 Y-63.811 Z16.000 F600.000
G1 X53.901 Y-66.891 Z16.000 F600.000
G1 X54.645 Y-66.290 Z16.000 F600.000
G1 X51.568 Y-63.212 Z16.000 F600.000
G3 X52.305 Y-62.605 Z16.000 I-9.556 J12.367 K0.000 F600.000
G1 X55.378 Y-65.678 Z16.000 F600.000
G1 X56.101 Y-65.056 Z16.000 F600.000
G1 X53.031 Y-61.986 Z16.000 F600.000
G1 X53.756 Y-61.366 Z16.000 F600.000
G1 X56.825 Y-64.435 Z16.000 F600.000
G3 X57.532 Y-63.797 Z16.000 I-10.200 J12.019 K0.000 F600.000
G1 X54.466 Y-60.731 Z16.000 F600.000
G1 X55.170 Y-60.091 Z16.000 F600.000
G1 X58.235 Y-63.155 Z16.000 F600.000
G3 X58.936 Y-62.512 Z16.000 I-10.295 J11.930 K0.000 F600.000
G1 X55.874 Y-59.449 Z16.000 F600.000
G1 X56.557 Y-58.787 Z16.000 F600.000
G1 X59.619 Y-61.849 Z16.000 F600.000
G1 X60.301 Y-61.187 Z16.000 F600.000
G1 X57.240 Y-58.125 Z16.000 F600.000
G3 X57.916 Y-57.456 Z16.000 I-10.627 J11.409 K0.000 F600.000
G1 X60.977 Y-60.518 Z16.000 F600.000
G1 X61.639 Y-59.835 Z16.000 F600.000
G1 X58.577 Y-56.773 Z16.000 F600.000
G1 X59.239 Y-56.090 Z16.000 F600.000
G1 X62.302 Y-59.153 Z16.000 F600.000
G3 X62.952 Y-58.457 Z16.000 I-11.177 J11.100 K0.000 F600.000
G1 X59.888 Y-55.393 Z16.000 F600.000
G1 X60.528 Y-54.689 Z16.000 F600.000
G1 X63.594 Y-57.755 Z16.000 F600.000
G1 X64.236 Y-57.052 Z16.000 F600.000
G1 X61.169 Y-53.985 Z16.000 F600.000
G3 X61.790 Y-53.261 Z16.000 I-13.275 J11.998 K0.000 F600.000
G1 X64.859 Y-56.331 Z16.000 F600.000
G1 X65.481 Y-55.607 Z16.000 F600.000
G1 X62.409 Y-52.535 Z16.000 F600.000
G3 X63.023 Y-51.804 Z16.000 I-11.724 J10.467 K0.000 F600.000
G1 X66.099 Y-54.880 Z16.000 F600.000
G1 X66.700 Y-54.137 Z16.000 F600.000
G1 X63.621 Y-51.057 Z16.000 F600.000
G1 X64.219 Y-50.311 Z16.000 F600.000
G1 X67.301 Y-53.393 Z16.000 F600.000
G3 X67.893 Y-52.640 Z16.000 I-12.166 J10.169 K0.000 F600.000
G1 X64.805 Y-49.551 Z16.000 F600.000
G1 X65.382 Y-48.783 Z16.000 F600.000
G1 X68.474 Y-51.875 Z16.000 F600.000
G1 X69.054 Y-51.111 Z16.000 F600.000
G1 X65.958 Y-48.015 Z16.000 F600.000
G3 X66.515 Y-47.227 Z16.000 I-13.490 J10.121 K0.000 F600.000
G1 X69.619 Y-50.331 Z16.000 F600.000
G1 X70.179 Y-49.546 Z16.000 F600.000
G1 X67.070 Y-46.437 Z16.000 F600.000
G3 X67.620 Y-45.641 Z16.000 I-12.815 J9.434 K0.000 F600.000
G1 X70.737 Y-48.759 Z16.000 F600.000
G1 X71.276 Y-47.953 Z16.000 F600.000
G1 X68.153 Y-44.830 Z16.000 F600.000
G1 X68.686 Y-44.018 Z16.000 F600.000
G1 X71.815 Y-47.147 Z16.000 F600.000
G3 X72.345 Y-46.332 Z16.000 I-13.209 J9.187 K0.000 F600.000
G1 X69.205 Y-43.192 Z16.000 F600.000
G1 X69.716 Y-42.359 Z16.000 F600.000
G1 X72.863 Y-45.505 Z16.000 F600.000
G1 X73.380 Y-44.678 Z16.000 F600.000
G1 X70.227 Y-41.524 Z16.000 F600.000
G3 X70.716 Y-40.668 Z16.000 I-36.242 J21.245 K0.000 F600.000
G1 X73.882 Y-43.834 Z16.000 F600.000
G1 X74.378 Y-42.985 Z16.000 F600.000
G1 X71.204 Y-39.812 Z16.000 F600.000
G3 X71.683 Y-38.946 Z16.000 I-13.903 J8.260 K0.000 F600.000
G1 X74.872 Y-42.135 Z16.000 F600.000
G1 X75.346 Y-41.264 Z16.000 F600.000
G1 X72.149 Y-38.067 Z16.000 F600.000
G1 X72.614 Y-37.187 Z16.000 F600.000
G1 X75.820 Y-40.393 Z16.000 F600.000
G3 X76.284 Y-39.512 Z16.000 I-14.351 J8.113 K0.000 F600.000
G1 X73.061 Y-36.288 Z16.000 F600.000
G1 X73.503 Y-35.386 Z16.000 F600.000
G1 X76.735 Y-38.618 Z16.000 F600.000
G1 X77.187 Y-37.725 Z16.000 F600.000
G1 X73.938 Y-34.476 Z16.000 F600.000
G1 X74.357 Y-33.550 Z16.000 F600.000
G1 X77.619 Y-36.812 Z16.000 F600.000
G1 X78.048 Y-35.896 Z16.000 F600.000
G1 X74.775 Y-32.623 Z16.000 F600.000
G3 X75.175 Y-31.678 Z16.000 I-15.359 J7.054 K0.000 F600.000
G1 X78.470 Y-34.973 Z16.000 F600.000
G1 X78.876 Y-34.034 Z16.000 F600.000
G1 X75.569 Y-30.727 Z16.000 F600.000
G3 X75.956 Y-29.769 Z16.000 I-15.522 J6.831 K0.000 F600.000
G1 X79.281 Y-33.095 Z16.000 F600.000
G3 X79.669 Y-32.137 Z16.000 I-15.650 J6.890 K0.000 F600.000
G1 X76.325 Y-28.793 Z16.000 F600.000
G1 X76.694 Y-27.817 Z16.000 F600.000
G1 X80.051 Y-31.174 Z16.000 F600.000
G3 X80.426 Y-30.205 Z16.000 I-15.853 J6.698 K0.000 F600.000
G1 X77.041 Y-26.820 Z16.000 F600.000
G1 X77.384 Y-25.818 Z16.000 F600.000
G1 X80.784 Y-29.218 Z16.000 F600.000
G1 X81.141 Y-28.230 Z16.000 F600.000
G1 X77.717 Y-24.806 Z16.000 F600.000
G1 X78.033 Y-23.777 Z16.000 F600.000
G1 X81.479 Y-27.223 Z16.000 F600.000
G1 X81.811 Y-26.210 Z16.000 F600.000
G1 X78.349 Y-22.748 Z16.000 F600.000
G3 X78.638 Y-21.692 Z16.000 I-134.262 J37.303 K0.000 F600.000
G1 X82.134 Y-25.188 Z16.000 F600.000
G1 X82.441 Y-24.150 Z16.000 F600.000
G1 X78.927 Y-20.636 Z16.000 F600.000
G3 X79.197 Y-19.561 Z16.000 I-17.422 J4.942 K0.000 F600.000
G1 X82.747 Y-23.112 Z16.000 F600.000
G3 X83.028 Y-22.047 Z16.000 I-17.469 J5.177 K0.000 F600.000
G1 X79.457 Y-18.477 Z16.000 F600.000
G3 X79.707 Y-17.381 Z16.000 I-17.728 J4.610 K0.000 F600.000
G1 X83.308 Y-20.982 Z16.000 F600.000
G3 X83.571 Y-19.900 Z16.000 I-17.772 J4.892 K0.000 F600.000
G1 X79.937 Y-16.267 Z16.000 F600.000
G3 X80.164 Y-15.149 Z16.000 I-18.619 J4.363 K0.000 F600.000
G1 X83.823 Y-18.807 Z16.000 F600.000
G3 X84.066 Y-17.706 Z16.000 I-18.102 J4.581 K0.000 F600.000
G1 X80.364 Y-14.004 Z16.000 F600.000
G1 X80.564 Y-12.859 Z16.000 F600.000
G1 X84.289 Y-16.584 Z16.000 F600.000
G3 X84.512 Y-15.462 Z16.000 I-18.461 J4.243 K0.000 F600.000
G1 X80.734 Y-11.684 Z16.000 F600.000
G1 X80.902 Y-10.507 Z16.000 F600.000
G1 X84.705 Y-14.310 Z16.000 F600.000
G1 X84.898 Y-13.158 Z16.000 F600.000
G1 X81.044 Y-9.304 Z16.000 F600.000
G1 X81.177 Y-8.092 Z16.000 F600.000
G1 X85.066 Y-11.981 Z16.000 F600.000
G1 X85.228 Y-10.798 Z16.000 F600.000
G1 X81.288 Y-6.858 Z16.000 F600.000
G1 X81.386 Y-5.611 Z16.000 F600.000
G1 X85.369 Y-9.594 Z16.000 F600.000
G1 X85.498 Y-8.379 Z16.000 F600.000
G1 X81.461 Y-4.341 Z16.000 F600.000
G1 X81.522 Y-3.057 Z16.000 F600.000
G1 X85.610 Y-7.145 Z16.000 F600.000
G1 X85.705 Y-5.895 Z16.000 F600.000
G1 X81.558 Y-1.748 Z16.000 F600.000
G1 X81.579 Y-0.424 Z16.000 F600.000
G1 X85.783 Y-4.629 Z16.000 F600.000
G1 X85.842 Y-3.342 Z16.000 F600.000
G1 X81.571 Y0.929 Z16.000 F600.000
G1 X81.549 Y2.295 Z16.000 F600.000
G1 X85.884 Y-2.040 Z16.000 F600.000
G1 X85.904 Y-0.715 Z16.000 F600.000
G1 X81.491 Y3.698 Z16.000 F600.000
G3 X81.425 Y5.109 Z16.000 I-179.891 J-7.782 K0.000 F600.000
G1 X85.905 Y0.629 Z16.000 F600.000
G1 X85.885 Y1.994 Z16.000 F600.000
G1 X81.310 Y6.569 Z16.000 F600.000
G3 X81.183 Y8.041 Z16.000 I-24.031 J-1.337 K0.000 F600.000
G1 X85.840 Y3.384 Z16.000 F600.000
G1 X85.776 Y4.793 Z16.000 F600.000
G1 X81.016 Y9.553 Z16.000 F600.000
G3 X80.818 Y11.096 Z16.000 I-25.056 J-2.433 K0.000 F600.000
G1 X85.679 Y6.235 Z16.000 F600.000
G1 X85.569 Y7.690 Z16.000 F600.000
G1 X80.595 Y12.664 Z16.000 F600.000
G3 X80.314 Y14.289 Z16.000 I-27.838 J-3.967 K0.000 F600.000
G1 X85.412 Y9.192 Z16.000 F600.000
G3 X85.240 Y10.708 Z16.000 I-25.182 J-2.084 K0.000 F600.000
G1 X80.004 Y15.944 Z16.000 F600.000
G1 X79.653 Y17.641 Z16.000 F600.000
G1 X85.027 Y12.266 Z16.000 F600.000
G3 X84.781 Y13.858 Z16.000 I-26.455 J-3.282 K0.000 F600.000
G1 X79.235 Y19.404 Z16.000 F600.000
G3 X78.769 Y21.214 Z16.000 I-29.429 J-6.603 K0.000 F600.000
G1 X84.510 Y15.474 Z16.000 F600.000
G3 X84.176 Y17.152 Z16.000 I-27.939 J-4.678 K0.000 F600.000
G1 X78.248 Y23.081 Z16.000 F600.000
G1 X77.650 Y25.023 Z16.000 F600.000
G1 X83.810 Y18.864 Z16.000 F600.000
G3 X83.404 Y20.614 Z16.000 I-29.160 J-5.828 K0.000 F600.000
G1 X76.960 Y27.058 Z16.000 F600.000
G3 X76.176 Y29.187 Z16.000 I-34.741 J-11.584 K0.000 F600.000
G1 X82.926 Y22.437 Z16.000 F600.000
G3 X82.392 Y24.316 Z16.000 I-31.355 J-7.894 K0.000 F600.000
G1 X75.277 Y31.430 Z16.000 F600.000
G3 X74.236 Y33.816 Z16.000 I-38.864 J-15.538 K0.000 F600.000
G1 X81.796 Y26.257 Z16.000 F600.000
G3 X81.126 Y28.271 Z16.000 I-33.669 J-10.073 K0.000 F600.000
G1 X73.014 Y36.384 Z16.000 F600.000
G3 X71.556 Y39.187 Z16.000 I-45.830 J-22.061 K0.000 F600.000
G1 X80.363 Y30.380 Z16.000 F600.000
G3 X79.484 Y32.604 Z16.000 I-37.241 J-13.435 K0.000 F600.000
G1 X69.696 Y42.391 Z16.000 F600.000
G3 X67.248 Y46.185 Z16.000 I-55.093 J-32.873 K0.000 F600.000
G1 X78.478 Y34.954 Z16.000 F600.000
G3 X77.314 Y37.463 Z16.000 I-42.095 J-18.004 K0.000 F600.000
G1 X63.223 Y51.554 Z16.000 F600.000
G1 X64.448 Y50.329 Z15.000 F600.000
G1 X63.223 Y51.554 Z14.000 F600.000
G1 X77.314 Y37.463 Z14.000 F600.000
G2 X78.478 Y34.954 Z14.000 I-40.931 J-20.513 K0.000 F600.000
G1 X67.248 Y46.185 Z14.000 F600.000
G2 X69.696 Y42.391 Z14.000 I-52.645 J-36.666 K0.000 F600.000
G1 X79.484 Y32.604 Z14.000 F600.000
G2 X80.363 Y30.380 Z14.000 I-36.362 J-15.659 K0.000 F600.000
G1 X71.556 Y39.187 Z14.000 F600.000
G2 X73.014 Y36.384 Z14.000 I-44.371 J-24.864 K0.000 F600.000
G1 X81.126 Y28.271 Z14.000 F600.000
G2 X81.796 Y26.257 Z14.000 I-33.000 J-12.087 K0.000 F600.000
G1 X74.236 Y33.816 Z14.000 F600.000
G2 X75.277 Y31.430 Z14.000 I-37.823 J-17.924 K0.000 F600.000
G1 X82.392 Y24.316 Z14.000 F600.000
G2 X82.926 Y22.437 Z14.000 I-30.821 J-9.773 K0.000 F600.000
G1 X76.176 Y29.187 Z14.000 F600.000
G2 X76.960 Y27.058 Z14.000 I-33.957 J-13.713 K0.000 F600.000
G1 X83.404 Y20.614 Z14.000 F600.000
G2 X83.810 Y18.864 Z14.000 I-28.755 J-7.578 K0.000 F600.000
G1 X77.650 Y25.023 Z14.000 F600.000
G1 X78.248 Y23.081 Z14.000 F600.000
G1 X84.176 Y17.152 Z14.000 F600.000
G2 X84.510 Y15.474 Z14.000 I-27.606 J-6.357 K0.000 F600.000
G1 X78.769 Y21.214 Z14.000 F600.000
G2 X79.235 Y19.404 Z14.000 I-28.963 J-8.414 K0.000 F600.000
G1 X84.781 Y13.858 Z14.000 F600.000
G2 X85.027 Y12.266 Z14.000 I-26.209 J-4.873 K0.000 F600.000
G1 X79.653 Y17.641 Z14.000 F600.000
G1 X80.004 Y15.944 Z14.000 F600.000
G1 X85.240 Y10.708 Z14.000 F600.000
G2 X85.412 Y9.192 Z14.000 I-25.011 J-3.600 K0.000 F600.000
G1 X80.314 Y14.289 Z14.000 F600.000
G2 X80.595 Y12.664 Z14.000 I-27.557 J-5.592 K0.000 F600.000
G1 X85.569 Y7.690 Z14.000 F600.000
G1 X85.679 Y6.235 Z14.000 F600.000
G1 X80.818 Y11.096 Z14.000 F600.000
G2 X81.016 Y9.553 Z14.000 I-24.858 J-3.976 K0.000 F600.000
G1 X85.776 Y4.793 Z14.000 F600.000
G1 X85.840 Y3.384 Z14.000 F600.000
G1 X81.183 Y8.041 Z14.000 F600.000
G2 X81.310 Y6.569 Z14.000 I-23.904 J-2.810 K0.000 F600.000
G1 X85.885 Y1.994 Z14.000 F600.000
G1 X85.905 Y0.629 Z14.000 F600.000
G1 X81.425 Y5.109 Z14.000 F600.000
G2 X81.491 Y3.698 Z14.000 I-179.824 J-9.193 K0.000 F600.000
G1 X85.904 Y-0.715 Z14.000 F600.000
G1 X85.884 Y-2.040 Z14.000 F600.000
G1 X81.549 Y2.295 Z14.000 F600.000
G1 X81.571 Y0.929 Z14.000 F600.000
G1 X85.842 Y-3.342 Z14.000 F600.000
G1 X85.783 Y-4.629 Z14.000 F600.000
G1 X81.579 Y-0.424 Z14.000 F600.000
G1 X81.558 Y-1.748 Z14.000 F600.000
G1 X85.705 Y-5.895 Z14.000 F600.000
G1 X85.610 Y-7.145 Z14.000 F600.000
G1 X81.522 Y-3.057 Z14.000 F600.000
G1 X81.461 Y-4.341 Z14.000 F600.000
G1 X85.498 Y-8.379 Z14.000 F600.000
G1 X85.369 Y-9.594 Z14.000 F600.000
G1 X81.386 Y-5.611 Z14.000 F600.000
G1 X81.288 Y-6.858 Z14.000 F600.000
G1 X85.228 Y-10.798 Z14.000 F600.000
G1 X85.066 Y-11.981 Z14.000 F600.000
G1 X81.177 Y-8.092 Z14.000 F600.000
G1 X81.044 Y-9.304 Z14.000 F600.000
G1 X84.898 Y-13.158 Z14.000 F600.000
G1 X84.705 Y-14.310 Z14.000 F600.000
G1 X80.902 Y-10.507 Z14.000 F600.000
G1 X80.734 Y-11.684 Z14.000 F600.000
G1 X84.512 Y-15.462 Z14.000 F600.000
G2 X84.289 Y-16.584 Z14.000 I-18.683 J3.120 K0.000 F600.000
G1 X80.564 Y-12.859 Z14.000 F600.000
G1 X80.364 Y-14.004 Z14.000 F600.000
G1 X84.066 Y-17.706 Z14.000 F600.000
G2 X83.823 Y-18.807 Z14.000 I-18.346 J3.480 K0.000 F600.000
G1 X80.164 Y-15.149 Z14.000 F600.000
G2 X79.937 Y-16.267 Z14.000 I-18.846 J3.245 K0.000 F600.000
G1 X83.571 Y-19.900 Z14.000 F600.000
G2 X83.308 Y-20.982 Z14.000 I-18.035 J3.810 K0.000 F600.000
G1 X79.707 Y-17.381 Z14.000 F600.000
G2 X79.457 Y-18.477 Z14.000 I-17.977 J3.514 K0.000 F600.000
G1 X83.028 Y-22.047 Z14.000 F600.000
G2 X82.747 Y-23.112 Z14.000 I-17.749 J4.113 K0.000 F600.000
G1 X79.197 Y-19.561 Z14.000 F600.000
G2 X78.927 Y-20.636 Z14.000 I-17.691 J3.867 K0.000 F600.000
G1 X82.441 Y-24.150 Z14.000 F600.000
G1 X82.134 Y-25.188 Z14.000 F600.000
G1 X78.638 Y-21.692 Z14.000 F600.000
G2 X78.349 Y-22.748 Z14.000 I-134.551 J36.247 K0.000 F600.000
G1 X81.811 Y-26.210 Z14.000 F600.000
G1 X81.479 Y-27.223 Z14.000 F600.000
G1 X78.033 Y-23.777 Z14.000 F600.000
G1 X77.717 Y-24.806 Z14.000 F600.000
G1 X81.141 Y-28.230 Z14.000 F600.000
G1 X80.784 Y-29.218 Z14.000 F600.000
G1 X77.384 Y-25.818 Z14.000 F600.000
G1 X77.041 Y-26.820 Z14.000 F600.000
G1 X80.426 Y-30.205 Z14.000 F600.000
G2 X80.051 Y-31.174 Z14.000 I-16.229 J5.728 K0.000 F600.000
G1 X76.694 Y-27.817 Z14.000 F600.000
G1 X76.325 Y-28.793 Z14.000 F600.000
G1 X79.669 Y-32.137 Z14.000 F600.000
G2 X79.281 Y-33.095 Z14.000 I-16.037 J5.932 K0.000 F600.000
G1 X75.956 Y-29.769 Z14.000 F600.000
G2 X75.569 Y-30.727 Z14.000 I-15.909 J5.873 K0.000 F600.000
G1 X78.876 Y-34.034 Z14.000 F600.000
G1 X78.470 Y-34.973 Z14.000 F600.000
G1 X75.175 Y-31.678 Z14.000 F600.000
G2 X74.775 Y-32.623 Z14.000 I-15.759 J6.109 K0.000 F600.000
G1 X78.048 Y-35.896 Z14.000 F600.000
G1 X77.619 Y-36.812 Z14.000 F600.000
G1 X74.357 Y-33.550 Z14.000 F600.000
G1 X73.938 Y-34.476 Z14.000 F600.000
G1 X77.187 Y-37.725 Z14.000 F600.000
G1 X76.735 Y-38.618 Z14.000 F600.000
G1 X73.503 Y-35.386 Z14.000 F600.000
G1 X73.061 Y-36.288 Z14.000 F600.000
G1 X76.284 Y-39.512 Z14.000 F600.000
G2 X75.820 Y-40.393 Z14.000 I-14.814 J7.231 K0.000 F600.000
G1 X72.614 Y-37.187 Z14.000 F600.000
G1 X72.149 Y-38.067 Z14.000 F600.000
G1 X75.346 Y-41.264 Z14.000 F600.000
G1 X74.872 Y-42.135 Z14.000 F600.000
G1 X71.683 Y-38.946 Z14.000 F600.000
G2 X71.204 Y-39.812 Z14.000 I-14.382 J7.395 K0.000 F600.000
G1 X74.378 Y-42.985 Z14.000 F600.000
G1 X73.882 Y-43.834 Z14.000 F600.000
G1 X70.716 Y-40.668 Z14.000 F600.000
G2 X70.227 Y-41.524 Z14.000 I-36.730 J20.389 K0.000 F600.000
G1 X73.380 Y-44.678 Z14.000 F600.000
G1 X72.863 Y-45.505 Z14.000 F600.000
G1 X69.716 Y-42.359 Z14.000 F600.000
G1 X69.205 Y-43.192 Z14.000 F600.000
G1 X72.345 Y-46.332 Z14.000 F600.000
G2 X71.815 Y-47.147 Z14.000 I-13.740 J8.373 K0.000 F600.000
G1 X68.686 Y-44.018 Z14.000 F600.000
G1 X68.153 Y-44.830 Z14.000 F600.000
G1 X71.276 Y-47.953 Z14.000 F600.000
G1 X70.737 Y-48.759 Z14.000 F600.000
G1 X67.620 Y-45.641 Z14.000 F600.000
G2 X67.070 Y-46.437 Z14.000 I-13.364 J8.638 K0.000 F600.000
G1 X70.179 Y-49.546 Z14.000 F600.000
G1 X69.619 Y-50.331 Z14.000 F600.000
G1 X66.515 Y-47.227 Z14.000 F600.000
G2 X65.958 Y-48.015 Z14.000 I-14.047 J9.333 K0.000 F600.000
G1 X69.054 Y-51.111 Z14.000 F600.000
G1 X68.474 Y-51.875 Z14.000 F600.000
G1 X65.382 Y-48.783 Z14.000 F600.000
G1 X64.805 Y-49.551 Z14.000 F600.000
G1 X67.893 Y-52.640 Z14.000 F600.000
G2 X67.301 Y-53.393 Z14.000 I-12.758 J9.416 K0.000 F600.000
G1 X64.219 Y-50.311 Z14.000 F600.000
G1 X63.621 Y-51.057 Z14.000 F600.000
G1 X66.700 Y-54.137 Z14.000 F600.000
G1 X66.099 Y-54.880 Z14.000 F600.000
G1 X63.023 Y-51.804 Z14.000 F600.000
G2 X62.409 Y-52.535 Z14.000 I-12.338 J9.736 K0.000 F600.000
G1 X65.481 Y-55.607 Z14.000 F600.000
G1 X64.859 Y-56.331 Z14.000 F600.000
G1 X61.790 Y-53.261 Z14.000 F600.000
G2 X61.169 Y-53.985 Z14.000 I-13.895 J11.274 K0.000 F600.000
G1 X64.236 Y-57.052 Z14.000 F600.000
G1 X63.594 Y-57.755 Z14.000 F600.000
G1 X60.528 Y-54.689 Z14.000 F600.000
G1 X59.888 Y-55.393 Z14.000 F600.000
G1 X62.952 Y-58.457 Z14.000 F600.000
G2 X62.302 Y-59.153 Z14.000 I-11.826 J10.405 K0.000 F600.000
G1 X59.239 Y-56.090 Z14.000 F600.000
G1 X58.577 Y-56.773 Z14.000 F600.000
G1 X61.639 Y-59.835 Z14.000 F600.000
G1 X60.977 Y-60.518 Z14.000 F600.000
G1 X57.916 Y-57.456 Z14.000 F600.000
G2 X57.240 Y-58.125 Z14.000 I-11.303 J10.740 K0.000 F600.000
G1 X60.301 Y-61.187 Z14.000 F600.000
G1 X59.619 Y-61.849 Z14.000 F600.000
G1 X56.557 Y-58.787 Z14.000 F600.000
G1 X55.874 Y-59.449 Z14.000 F600.000
G1 X58.936 Y-62.512 Z14.000 F600.000
G2 X58.235 Y-63.155 Z14.000 I-10.997 J11.286 K0.000 F600.000
G1 X55.170 Y-60.091 Z14.000 F600.000
G1 X54.466 Y-60.731 Z14.000 F600.000
G1 X57.532 Y-63.797 Z14.000 F600.000
G2 X56.825 Y-64.435 Z14.000 I-10.908 J11.382 K0.000 F600.000
G1 X53.756 Y-61.366 Z14.000 F600.000
G1 X53.031 Y-61.986 Z14.000 F600.000
G1 X56.101 Y-65.056 Z14.000 F600.000
G1 X55.378 Y-65.678 Z14.000 F600.000
G1 X52.305 Y-62.605 Z14.000 F600.000
G2 X51.568 Y-63.212 Z14.000 I-10.294 J11.760 K0.000 F600.000
G1 X54.645 Y-66.290 Z14.000 F600.000
G1 X53.901 Y-66.891 Z14.000 F600.000
G1 X50.821 Y-63.811 Z14.000 F600.000
G1 X50.074 Y-64.409 Z14.000 F600.000
G1 X53.157 Y-67.492 Z14.000 F600.000
G2 X52.397 Y-68.077 Z14.000 I-10.064 J12.278 K0.000 F600.000
G1 X49.308 Y-64.988 Z14.000 F600.000
G1 X48.540 Y-65.564 Z14.000 F600.000
G1 X51.633 Y-68.658 Z14.000 F600.000
G2 X50.867 Y-69.237 Z14.000 I-9.966 J12.382 K0.000 F600.000
G1 X47.767 Y-66.136 Z14.000 F600.000
G1 X46.977 Y-66.691 Z14.000 F600.000
G1 X50.082 Y-69.796 Z14.000 F600.000
G1 X49.297 Y-70.356 Z14.000 F600.000
G1 X46.187 Y-67.246 Z14.000 F600.000
G2 X45.384 Y-67.789 Z14.000 I-9.265 J12.846 K0.000 F600.000
G1 X48.504 Y-70.908 Z14.000 F600.000
G1 X47.697 Y-71.447 Z14.000 F600.000
G1 X44.573 Y-68.322 Z14.000 F600.000
G1 X43.761 Y-68.855 Z14.000 F600.000
G1 X46.891 Y-71.985 Z14.000 F600.000
G2 X46.070 Y-72.509 Z14.000 I-9.079 J13.324 K0.000 F600.000
G1 X42.928 Y-69.367 Z14.000 F600.000
G1 X42.094 Y-69.878 Z14.000 F600.000
G1 X45.243 Y-73.027 Z14.000 F600.000
G2 X44.414 Y-73.543 Z14.000 I-8.963 J13.448 K0.000 F600.000
G1 X41.253 Y-70.382 Z14.000 F600.000
G1 X40.397 Y-70.870 Z14.000 F600.000
G1 X43.565 Y-74.039 Z14.000 F600.000
G1 X42.716 Y-74.535 Z14.000 F600.000
G1 X39.540 Y-71.359 Z14.000 F600.000
G2 X38.667 Y-71.831 Z14.000 I-8.189 J14.106 K0.000 F600.000
G1 X41.859 Y-75.022 Z14.000 F600.000
G1 X40.988 Y-75.496 Z14.000 F600.000
G1 X37.788 Y-72.296 Z14.000 F600.000
G2 X36.905 Y-72.758 Z14.000 I-8.174 J14.541 K0.000 F600.000
G1 X40.117 Y-75.970 Z14.000 F600.000
G2 X39.229 Y-76.427 Z14.000 I-7.999 J14.471 K0.000 F600.000
G1 X36.002 Y-73.201 Z14.000 F600.000
G1 X35.100 Y-73.643 Z14.000 F600.000
G1 X38.335 Y-76.879 Z14.000 F600.000
G2 X37.438 Y-77.326 Z14.000 I-7.852 J14.627 K0.000 F600.000
G1 X34.183 Y-74.071 Z14.000 F600.000
G1 X33.256 Y-74.489 Z14.000 F600.000
G1 X36.522 Y-77.755 Z14.000 F600.000
G1 X35.606 Y-78.184 Z14.000 F600.000
G1 X32.328 Y-74.906 Z14.000 F600.000
G1 X31.377 Y-75.300 Z14.000 F600.000
G1 X34.676 Y-78.598 Z14.000 F600.000
G1 X33.736 Y-79.004 Z14.000 F600.000
G1 X30.426 Y-75.694 Z14.000 F600.000
G2 X29.460 Y-76.073 Z14.000 I-6.669 J15.567 K0.000 F600.000
G1 X32.795 Y-79.408 Z14.000 F600.000
G1 X31.832 Y-79.790 Z14.000 F600.000
G1 X28.484 Y-76.442 Z14.000 F600.000
G2 X27.504 Y-76.807 Z14.000 I-6.621 J16.250 K0.000 F600.000
G1 X30.869 Y-80.172 Z14.000 F600.000
G2 X29.892 Y-80.540 Z14.000 I-6.574 J15.985 K0.000 F600.000
G1 X26.503 Y-77.150 Z14.000 F600.000
G1 X25.501 Y-77.493 Z14.000 F600.000
G1 X28.905 Y-80.897 Z14.000 F600.000
G2 X27.914 Y-81.252 Z14.000 I-6.365 J16.207 K0.000 F600.000
G1 X24.480 Y-77.817 Z14.000 F600.000
G1 X23.451 Y-78.134 Z14.000 F600.000
G1 X26.902 Y-81.584 Z14.000 F600.000
G1 X25.889 Y-81.917 Z14.000 F600.000
G1 X22.414 Y-78.441 Z14.000 F600.000
G1 X21.358 Y-78.730 Z14.000 F600.000
G1 X24.859 Y-82.231 Z14.000 F600.000
G1 X23.821 Y-82.538 Z14.000 F600.000
G1 X20.302 Y-79.019 Z14.000 F600.000
G2 X19.217 Y-79.279 Z14.000 I-8.800 J34.205 K0.000 F600.000
G1 X22.775 Y-82.837 Z14.000 F600.000
G1 X21.710 Y-83.117 Z14.000 F600.000
G1 X18.133 Y-79.540 Z14.000 F600.000
G2 X17.028 Y-79.780 Z14.000 I-4.471 J17.930 K0.000 F600.000
G1 X20.645 Y-83.396 Z14.000 F600.000
G2 X19.554 Y-83.650 Z14.000 I-4.750 J17.922 K0.000 F600.000
G1 X15.914 Y-80.010 Z14.000 F600.000
G2 X14.786 Y-80.228 Z14.000 I-4.097 J18.237 K0.000 F600.000
G1 X18.461 Y-83.902 Z14.000 F600.000
G2 X17.350 Y-84.137 Z14.000 I-4.435 J18.258 K0.000 F600.000
G1 X13.641 Y-80.427 Z14.000 F600.000
G2 X12.488 Y-80.620 Z14.000 I-3.729 J18.798 K0.000 F600.000
G1 X16.229 Y-84.360 Z14.000 F600.000
G2 X15.097 Y-84.573 Z14.000 I-4.090 J18.624 K0.000 F600.000
G1 X11.311 Y-80.787 Z14.000 F600.000
G2 X10.131 Y-80.952 Z14.000 I-3.416 J20.134 K0.000 F600.000
G1 X13.945 Y-84.766 Z14.000 F600.000
G2 X12.789 Y-84.956 Z14.000 I-3.713 J19.024 K0.000 F600.000
G1 X8.920 Y-81.086 Z14.000 F600.000
G1 X7.709 Y-81.220 Z14.000 F600.000
G1 X11.606 Y-85.117 Z14.000 F600.000
G1 X10.423 Y-85.279 Z14.000 F600.000
G1 X6.463 Y-81.319 Z14.000 F600.000
G1 X5.216 Y-81.417 Z14.000 F600.000
G1 X9.209 Y-85.410 Z14.000 F600.000
G1 X7.993 Y-85.539 Z14.000 F600.000
G1 X3.934 Y-81.480 Z14.000 F600.000
G1 X2.650 Y-81.541 Z14.000 F600.000
G1 X6.749 Y-85.640 Z14.000 F600.000
G1 X5.499 Y-85.735 Z14.000 F600.000
G1 X1.329 Y-81.564 Z14.000 F600.000
G2 X0.004 Y-81.585 Z14.000 I-1.540 J56.292 K0.000 F600.000
G1 X4.221 Y-85.802 Z14.000 F600.000
G1 X2.935 Y-85.860 Z14.000 F600.000
G1 X-1.362 Y-81.564 Z14.000 F600.000
G2 X-2.734 Y-81.537 Z14.000 I-0.239 J22.787 K0.000 F600.000
G1 X1.620 Y-85.890 Z14.000 F600.000
G1 X0.295 Y-85.910 Z14.000 F600.000
G1 X-4.145 Y-81.470 Z14.000 F600.000
G2 X-5.571 Y-81.389 Z14.000 I0.609 J23.202 K0.000 F600.000
G1 X-1.061 Y-85.899 Z14.000 F600.000
G1 X-2.427 Y-85.878 Z14.000 F600.000
G1 X-7.031 Y-81.274 Z14.000 F600.000
G2 X-8.520 Y-81.130 Z14.000 I1.584 J24.167 K0.000 F600.000
G1 X-3.830 Y-85.820 Z14.000 F600.000
G2 X-5.241 Y-85.754 Z14.000 I0.380 J23.372 K0.000 F600.000
G1 X-10.032 Y-80.963 Z14.000 F600.000
G2 X-11.593 Y-80.747 Z14.000 I2.786 J25.883 K0.000 F600.000
G1 X-6.696 Y-85.644 Z14.000 F600.000
G2 X-8.164 Y-85.521 Z14.000 I1.300 J24.349 K0.000 F600.000
G1 X-13.176 Y-80.509 Z14.000 F600.000
G1 X-14.806 Y-80.224 Z14.000 F600.000
G1 X-9.668 Y-85.361 Z14.000 F600.000
G2 X-11.202 Y-85.173 Z14.000 I2.355 J25.471 K0.000 F600.000
G1 X-16.482 Y-79.893 Z14.000 F600.000
G2 X-18.195 Y-79.525 Z14.000 I5.114 J27.986 K0.000 F600.000
G1 X-12.760 Y-84.960 Z14.000 F600.000
G2 X-14.370 Y-84.695 Z14.000 I3.576 J26.768 K0.000 F600.000
G1 X-19.964 Y-79.100 Z14.000 F600.000
G2 X-21.801 Y-78.609 Z14.000 I7.083 J30.140 K0.000 F600.000
G1 X-16.005 Y-84.404 Z14.000 F600.000
G1 X-17.684 Y-84.070 Z14.000 F600.000
G1 X-23.696 Y-78.058 Z14.000 F600.000
G2 X-25.661 Y-77.438 Z14.000 I9.055 J32.117 K0.000 F600.000
G1 X-19.417 Y-83.682 Z14.000 F600.000
G2 X-21.191 Y-83.253 Z14.000 I6.214 J29.570 K0.000 F600.000
G1 X-27.710 Y-76.734 Z14.000 F600.000
G1 X-29.872 Y-75.917 Z14.000 F600.000
G1 X-23.015 Y-82.774 Z14.000 F600.000
G2 X-24.921 Y-82.213 Z14.000 I8.322 J31.810 K0.000 F600.000
G1 X-32.158 Y-74.976 Z14.000 F600.000
G2 X-34.594 Y-73.885 Z14.000 I16.601 J40.339 K0.000 F600.000
G1 X-26.891 Y-81.588 Z14.000 F600.000
G2 X-28.939 Y-80.884 Z14.000 I10.612 J34.242 K0.000 F600.000
G1 X-37.234 Y-72.589 Z14.000 F600.000
G2 X-40.168 Y-71.001 Z14.000 I24.035 J47.886 K0.000 F600.000
G1 X-31.081 Y-80.088 Z14.000 F600.000
G2 X-33.337 Y-79.177 Z14.000 I13.946 J37.784 K0.000 F600.000
G1 X-43.492 Y-69.022 Z14.000 F600.000
G2 X-47.619 Y-66.240 Z14.000 I38.833 J62.060 K0.000 F600.000
G1 X-35.735 Y-78.123 Z14.000 F600.000
G2 X-38.314 Y-76.889 Z14.000 I19.134 J43.295 K0.000 F600.000
G1 X-54.534 Y-60.670 Z14.000 F600.000
G2 X-60.670 Y-54.534 Z14.000 I50.640 J56.776 K0.000 F600.000
G1 X-76.889 Y-38.314 Z14.000 F600.000
G3 X-75.419 Y-41.129 Z14.000 I47.311 J22.914 K0.000 F600.000
G1 X-41.129 Y-75.419 Z14.000 F600.000
G2 X-44.260 Y-73.634 Z14.000 I27.981 J52.694 K0.000 F600.000
G1 X-73.634 Y-44.260 Z14.000 F600.000
G3 X-71.257 Y-47.981 Z14.000 I58.355 J34.647 K0.000 F600.000
G1 X-47.981 Y-71.257 Z14.000 F600.000
G2 X-52.849 Y-67.734 Z14.000 I43.228 J64.856 K0.000 F600.000
G2 X-67.734 Y-52.849 Z14.000 I52.623 J67.508 K0.000 F600.000
G1 X-52.849 Y-67.734 Z14.000 F600.000
G0 X-52.849 Y-67.734 Z23.000
G0 X-52.850 Y-67.736 Z23.000
G0 X-52.850 Y-67.736 Z21.000
G1 X-54.429 Y-66.475 Z19.833 F600.000
G1 X-55.977 Y-65.176 Z18.667 F600.000
G1 X-57.494 Y-63.842 Z17.500 F600.000
G1 X-55.977 Y-65.176 Z16.333 F600.000
G1 X-54.429 Y-66.475 Z15.167 F600.000
G1 X-52.850 Y-67.736 Z14.000 F600.000
G2 X-85.915 Y0.000 Z14.000 I52.850 J67.736 K0.000 F600.000
G2 X85.915 Y0.000 Z14.000 I85.915 J-0.000 K0.000 F600.000
G2 X-52.850 Y-67.736 Z14.000 I-85.915 J0.000 K0.000 F600.000
G0 X-52.850 Y-67.736 Z23.000
G0 X-50.187 Y-64.322 Z23.000
G0 X-50.187 Y-64.322 Z21.000
G1 X-48.578 Y-65.546 Z19.833 F600.000
G1 X-46.940 Y-66.729 Z18.667 F600.000
G1 X-45.273 Y-67.871 Z17.500 F600.000
G1 X-46.940 Y-66.729 Z16.333 F600.000
G1 X-48.578 Y-65.546 Z15.167 F600.000
G1 X-50.187 Y-64.322 Z14.000 F600.000
G3 X81.585 Y0.000 Z14.000 I50.187 J64.322 K0.000 F600.000
G3 X-81.585 Y0.025 Z14.000 I-81.585 J0.000 K0.000 F600.000
G3 X-50.187 Y-64.322 Z14.000 I81.585 J-0.025 K0.000 F600.000
G0 X-50.187 Y-64.322 Z23.000
G0 X-76.889 Y-38.314 Z23.000
G0 X-76.889 Y-38.314 Z21.000
G1 X-72.603 Y-42.601 Z17.500 F600.000
G1 X-76.889 Y-38.314 Z14.000 F600.000
G1 X-60.670 Y-54.534 Z14.000 F600.000
G2 X-66.240 Y-47.619 Z14.000 I56.985 J51.603 K0.000 F600.000
G1 X-78.123 Y-35.735 Z14.000 F600.000
G2 X-79.177 Y-33.337 Z14.000 I39.157 J18.629 K0.000 F600.000
G1 X-69.022 Y-43.492 Z14.000 F600.000
G2 X-71.001 Y-40.168 Z14.000 I52.255 J33.365 K0.000 F600.000
G1 X-80.088 Y-31.081 Z14.000 F600.000
G2 X-80.884 Y-28.939 Z14.000 I35.039 J14.253 K0.000 F600.000
G1 X-72.589 Y-37.234 Z14.000 F600.000
G2 X-73.885 Y-34.594 Z14.000 I43.242 J22.859 K0.000 F600.000
G1 X-81.588 Y-26.891 Z14.000 F600.000
G2 X-82.213 Y-24.921 Z14.000 I32.295 J11.339 K0.000 F600.000
G1 X-74.976 Y-32.158 Z14.000 F600.000
G2 X-75.917 Y-29.872 Z14.000 I37.367 J16.719 K0.000 F600.000
G1 X-82.774 Y-23.015 Z14.000 F600.000
G1 X-83.253 Y-21.191 Z14.000 F600.000
G1 X-76.734 Y-27.710 Z14.000 F600.000
G2 X-77.438 Y-25.661 Z14.000 I35.137 J13.221 K0.000 F600.000
G1 X-83.682 Y-19.417 Z14.000 F600.000
G2 X-84.070 Y-17.684 Z14.000 I28.491 J7.297 K0.000 F600.000
G1 X-78.058 Y-23.696 Z14.000 F600.000
G2 X-78.609 Y-21.801 Z14.000 I30.264 J9.815 K0.000 F600.000
G1 X-84.404 Y-16.005 Z14.000 F600.000
G2 X-84.695 Y-14.370 Z14.000 I26.915 J5.623 K0.000 F600.000
G1 X-79.100 Y-19.964 Z14.000 F600.000
G1 X-79.525 Y-18.195 Z14.000 F600.000
G1 X-84.960 Y-12.760 Z14.000 F600.000
G1 X-85.173 Y-11.202 Z14.000 F600.000
G1 X-79.893 Y-16.482 Z14.000 F600.000
G2 X-80.224 Y-14.806 Z14.000 I26.990 J6.208 K0.000 F600.000
G1 X-85.361 Y-9.668 Z14.000 F600.000
G1 X-85.521 Y-8.164 Z14.000 F600.000
G1 X-80.509 Y-13.176 Z14.000 F600.000
G2 X-80.747 Y-11.593 Z14.000 I25.593 J4.667 K0.000 F600.000
G1 X-85.644 Y-6.696 Z14.000 F600.000
G1 X-85.754 Y-5.241 Z14.000 F600.000
G1 X-80.963 Y-10.032 Z14.000 F600.000
G1 X-81.130 Y-8.520 Z14.000 F600.000
G1 X-85.820 Y-3.830 Z14.000 F600.000
G2 X-85.878 Y-2.427 Z14.000 I23.194 J1.671 K0.000 F600.000
G1 X-81.274 Y-7.031 Z14.000 F600.000
G1 X-81.389 Y-5.571 Z14.000 F600.000
G1 X-85.899 Y-1.061 Z14.000 F600.000
G2 X-85.910 Y0.295 Z14.000 I22.440 J0.870 K0.000 F600.000
G1 X-81.470 Y-4.145 Z14.000 F600.000
G1 X-81.537 Y-2.734 Z14.000 F600.000
G1 X-85.890 Y1.620 Z14.000 F600.000
G2 X-85.860 Y2.935 Z14.000 I21.771 J0.159 K0.000 F600.000
G1 X-81.564 Y-1.362 Z14.000 F600.000
G2 X-81.585 Y0.004 Z14.000 I49.466 J1.450 K0.000 F600.000
G1 X-85.802 Y4.221 Z14.000 F600.000
G2 X-85.735 Y5.499 Z14.000 I21.173 J-0.476 K0.000 F600.000
G1 X-81.564 Y1.329 Z14.000 F600.000
G2 X-81.541 Y2.650 Z14.000 I22.771 J0.256 K0.000 F600.000
G1 X-85.640 Y6.749 Z14.000 F600.000
G2 X-85.539 Y7.993 Z14.000 I20.637 J-1.046 K0.000 F600.000
G1 X-81.480 Y3.934 Z14.000 F600.000
G2 X-81.417 Y5.216 Z14.000 I22.000 J-0.446 K0.000 F600.000
G1 X-85.410 Y9.209 Z14.000 F600.000
G2 X-85.279 Y10.423 Z14.000 I20.154 J-1.559 K0.000 F600.000
G1 X-81.319 Y6.463 Z14.000 F600.000
G2 X-81.220 Y7.709 Z14.000 I25.019 J-1.362 K0.000 F600.000
G1 X-85.117 Y11.606 Z14.000 F600.000
G1 X-84.956 Y12.789 Z14.000 F600.000
G1 X-81.086 Y8.920 Z14.000 F600.000
G1 X-80.952 Y10.131 Z14.000 F600.000
G1 X-84.766 Y13.945 Z14.000 F600.000
G1 X-84.573 Y15.097 Z14.000 F600.000
G1 X-80.787 Y11.311 Z14.000 F600.000
G1 X-80.620 Y12.488 Z14.000 F600.000
G1 X-84.360 Y16.229 Z14.000 F600.000
G1 X-84.137 Y17.350 Z14.000 F600.000
G1 X-80.427 Y13.641 Z14.000 F600.000
G1 X-80.228 Y14.786 Z14.000 F600.000
G1 X-83.902 Y18.461 Z14.000 F600.000
G1 X-83.650 Y19.554 Z14.000 F600.000
G1 X-80.010 Y15.914 Z14.000 F600.000
G1 X-79.780 Y17.028 Z14.000 F600.000
G1 X-83.396 Y20.645 Z14.000 F600.000
G1 X-83.117 Y21.710 Z14.000 F600.000
G1 X-79.540 Y18.133 Z14.000 F600.000
G1 X-79.279 Y19.217 Z14.000 F600.000
G1 X-82.837 Y22.775 Z14.000 F600.000
G2 X-82.538 Y23.821 Z14.000 I17.456 J-4.425 K0.000 F600.000
G1 X-79.019 Y20.302 Z14.000 F600.000
G2 X-78.730 Y21.358 Z14.000 I134.424 J-36.200 K0.000 F600.000
G1 X-82.231 Y24.859 Z14.000 F600.000
G2 X-81.917 Y25.889 Z14.000 I17.201 J-4.696 K0.000 F600.000
G1 X-78.441 Y22.414 Z14.000 F600.000
G2 X-78.134 Y23.451 Z14.000 I17.101 J-4.501 K0.000 F600.000
G1 X-81.584 Y26.902 Z14.000 F600.000
G1 X-81.252 Y27.914 Z14.000 F600.000
G1 X-77.817 Y24.480 Z14.000 F600.000
G2 X-77.493 Y25.501 Z14.000 I16.880 J-4.797 K0.000 F600.000
G1 X-80.897 Y28.905 Z14.000 F600.000
G1 X-80.540 Y29.892 Z14.000 F600.000
G1 X-77.150 Y26.503 Z14.000 F600.000
G1 X-76.807 Y27.504 Z14.000 F600.000
G1 X-80.172 Y30.869 Z14.000 F600.000
G1 X-79.790 Y31.832 Z14.000 F600.000
G1 X-76.442 Y28.484 Z14.000 F600.000
G1 X-76.073 Y29.460 Z14.000 F600.000
G1 X-79.408 Y32.795 Z14.000 F600.000
G2 X-79.004 Y33.736 Z14.000 I15.776 J-6.209 K0.000 F600.000
G1 X-75.694 Y30.426 Z14.000 F600.000
G1 X-75.300 Y31.377 Z14.000 F600.000
G1 X-78.598 Y34.676 Z14.000 F600.000
G2 X-78.184 Y35.606 Z14.000 I15.603 J-6.394 K0.000 F600.000
G1 X-74.906 Y32.328 Z14.000 F600.000
G2 X-74.489 Y33.256 Z14.000 I16.348 J-6.775 K0.000 F600.000
G1 X-77.755 Y36.522 Z14.000 F600.000
G1 X-77.326 Y37.438 Z14.000 F600.000
G1 X-74.071 Y34.183 Z14.000 F600.000
G2 X-73.643 Y35.100 Z14.000 I15.188 J-6.530 K0.000 F600.000
G1 X-76.879 Y38.335 Z14.000 F600.000
G1 X-76.427 Y39.229 Z14.000 F600.000
G1 X-73.201 Y36.002 Z14.000 F600.000
G1 X-72.758 Y36.905 Z14.000 F600.000
G1 X-75.970 Y40.117 Z14.000 F600.000
G1 X-75.496 Y40.988 Z14.000 F600.000
G1 X-72.296 Y37.788 Z14.000 F600.000
G1 X-71.831 Y38.667 Z14.000 F600.000
G1 X-75.022 Y41.859 Z14.000 F600.000
G2 X-74.535 Y42.716 Z14.000 I14.437 J-7.632 K0.000 F600.000
G1 X-71.359 Y39.540 Z14.000 F600.000
G1 X-70.870 Y40.397 Z14.000 F600.000
G1 X-74.039 Y43.565 Z14.000 F600.000
G1 X-73.543 Y44.414 Z14.000 F600.000
G1 X-70.382 Y41.253 Z14.000 F600.000
G2 X-69.878 Y42.094 Z14.000 I14.034 J-7.833 K0.000 F600.000
G1 X-73.027 Y45.243 Z14.000 F600.000
G1 X-72.509 Y46.070 Z14.000 F600.000
G1 X-69.367 Y42.928 Z14.000 F600.000
G2 X-68.855 Y43.761 Z14.000 I15.339 J-8.862 K0.000 F600.000
G1 X-71.985 Y46.891 Z14.000 F600.000
G1 X-71.447 Y47.697 Z14.000 F600.000
G1 X-68.322 Y44.573 Z14.000 F600.000
G1 X-67.789 Y45.384 Z14.000 F600.000
G1 X-70.908 Y48.504 Z14.000 F600.000
G2 X-70.356 Y49.297 Z14.000 I13.399 J-8.735 K0.000 F600.000
G1 X-67.246 Y46.187 Z14.000 F600.000
G1 X-66.691 Y46.977 Z14.000 F600.000
G1 X-69.796 Y50.082 Z14.000 F600.000
G1 X-69.237 Y50.867 Z14.000 F600.000
G1 X-66.136 Y47.767 Z14.000 F600.000
G2 X-65.564 Y48.540 Z14.000 I13.044 J-9.043 K0.000 F600.000
G1 X-68.658 Y51.633 Z14.000 F600.000
G1 X-68.077 Y52.397 Z14.000 F600.000
G1 X-64.988 Y49.308 Z14.000 F600.000
G2 X-64.409 Y50.074 Z14.000 I13.490 J-9.589 K0.000 F600.000
G1 X-67.492 Y53.157 Z14.000 F600.000
G1 X-66.891 Y53.901 Z14.000 F600.000
G1 X-63.811 Y50.821 Z14.000 F600.000
G1 X-63.212 Y51.568 Z14.000 F600.000
G1 X-66.290 Y54.645 Z14.000 F600.000
G2 X-65.678 Y55.378 Z14.000 I12.439 J-9.755 K0.000 F600.000
G1 X-62.605 Y52.305 Z14.000 F600.000
G1 X-61.986 Y53.031 Z14.000 F600.000
G1 X-65.056 Y56.101 Z14.000 F600.000
G1 X-64.435 Y56.825 Z14.000 F600.000
G1 X-61.366 Y53.756 Z14.000 F600.000
G2 X-60.731 Y54.466 Z14.000 I11.998 J-10.093 K0.000 F600.000
G1 X-63.797 Y57.532 Z14.000 F600.000
G1 X-63.155 Y58.235 Z14.000 F600.000
G1 X-60.091 Y55.170 Z14.000 F600.000
G2 X-59.449 Y55.874 Z14.000 I14.092 J-12.208 K0.000 F600.000
