(Exported by FreeCAD)
(Post Processor: grbl_post)
(Output Time:2024-12-05 15:00:26.727413)
(Begin preamble)
G17 G90
G21
(Begin operation: Fixture)
(Path: Fixture)
G54
(Finish operation: Fixture)
(Begin operation: endmill_compression_3175_spe001)
(Path: endmill_compression_3175_spe001)
(endmill_compression_3175_spe001)
(Begin toolchange)
( M6 T2 )
M3 S18000
(Finish operation: endmill_compression_3175_spe001)
(Begin operation: Cut Inner Pocket)
(Path: Cut Inner Pocket)
G0 X0.000 Y0.000 Z23.000
G0 X51.912 Y51.912 Z23.000
G0 X51.912 Y51.912 Z21.000
G1 X53.420 Y50.359 Z19.750 F1000.000
G1 X54.882 Y48.762 Z18.500 F1000.000
G1 X53.420 Y50.359 Z17.250 F1000.000
G1 X51.912 Y51.912 Z16.000 F1000.000
G2 X9.764 Y-72.763 Z16.000 I-51.912 J-51.912 K0.000 F1000.000
G3 X8.415 Y-74.330 Z16.000 I0.236 J-1.567 K0.000 F1000.000
G1 X8.415 Y-78.455 Z16.000 F1000.000
G2 X-0.000 Y-78.915 Z16.000 I-8.298 J74.702 K0.000 F1000.000
G2 X-8.415 Y-78.455 Z16.000 I-0.117 J75.161 K0.000 F1000.000
G1 X-8.415 Y-74.330 Z16.000 F1000.000
G3 X-9.763 Y-72.763 Z16.000 I-1.585 J0.000 K0.000 F1000.000
G2 X-10.109 Y72.715 Z16.000 I9.764 J72.763 K0.000 F1000.000
G2 X51.912 Y51.912 Z16.000 I10.109 J-72.716 K0.000 F1000.000
G0 X51.912 Y51.912 Z23.000
G0 X72.795 Y-9.502 Z23.000
G0 X72.795 Y-9.502 Z21.000
G1 X69.733 Y-12.564 Z18.500 F1000.000
G1 X72.795 Y-9.502 Z16.000 F1000.000
G1 X9.454 Y-72.842 Z16.000 F1000.000
G1 X9.764 Y-72.763 Z16.000 F1000.000
G1 X11.077 Y-72.565 Z16.000 F1000.000
G1 X72.568 Y-11.074 Z16.000 F1000.000
G2 X72.301 Y-12.685 Z16.000 I-25.352 J3.363 K0.000 F1000.000
G1 X12.683 Y-72.304 Z16.000 F1000.000
G1 X14.330 Y-72.001 Z16.000 F1000.000
G1 X71.997 Y-14.335 Z16.000 F1000.000
G1 X71.638 Y-16.039 Z16.000 F1000.000
G1 X16.044 Y-71.632 Z16.000 F1000.000
G3 X17.809 Y-71.212 Z16.000 I-5.691 J27.834 K0.000 F1000.000
G1 X71.214 Y-17.808 Z16.000 F1000.000
G2 X70.730 Y-19.636 Z16.000 I-28.859 J6.652 K0.000 F1000.000
G1 X19.634 Y-70.733 Z16.000 F1000.000
G3 X21.528 Y-70.183 Z16.000 I-7.660 J29.932 K0.000 F1000.000
G1 X70.177 Y-21.534 Z16.000 F1000.000
G2 X69.540 Y-23.516 Z16.000 I-31.339 J8.979 K0.000 F1000.000
G1 X23.507 Y-69.549 Z16.000 F1000.000
G1 X25.593 Y-68.808 Z16.000 F1000.000
G1 X68.802 Y-25.599 Z16.000 F1000.000
G2 X67.940 Y-27.806 Z16.000 I-34.979 J12.394 K0.000 F1000.000
G1 X27.799 Y-67.947 Z16.000 F1000.000
G3 X30.160 Y-66.931 Z16.000 I-13.753 J35.207 K0.000 F1000.000
G1 X66.921 Y-30.170 Z16.000 F1000.000
G2 X65.704 Y-32.732 Z16.000 I-40.718 J17.778 K0.000 F1000.000
G1 X32.728 Y-65.707 Z16.000 F1000.000
G3 X35.566 Y-64.215 Z16.000 I-21.942 J45.157 K0.000 F1000.000
G1 X64.223 Y-35.557 Z16.000 F1000.000
G2 X62.293 Y-38.833 Z16.000 I-40.003 J21.372 K0.000 F1000.000
G1 X38.827 Y-62.299 Z16.000 F1000.000
G3 X42.918 Y-59.552 Z16.000 I-31.837 J51.848 K0.000 F1000.000
G1 X59.550 Y-42.921 Z16.000 F1000.000
G2 X51.234 Y-52.581 Z16.000 I-58.570 J42.007 K0.000 F1000.000
G0 X51.234 Y-52.581 Z23.000
G0 X7.810 Y-78.522 Z23.000
G0 X7.810 Y-78.522 Z21.000
G1 X8.415 Y-78.455 Z20.649 F1000.000
G1 X8.415 Y-77.917 Z20.337 F1000.000
G1 X7.810 Y-78.522 Z19.843 F1000.000
G1 X7.074 Y-78.598 Z19.416 F1000.000
G1 X6.336 Y-78.651 Z18.989 F1000.000
G1 X6.935 Y-78.052 Z18.500 F1000.000
G1 X6.336 Y-78.651 Z18.011 F1000.000
G1 X7.074 Y-78.598 Z17.584 F1000.000
G1 X7.810 Y-78.522 Z17.157 F1000.000
G1 X8.415 Y-77.917 Z16.663 F1000.000
G1 X8.415 Y-78.455 Z16.351 F1000.000
G1 X7.810 Y-78.522 Z16.000 F1000.000
G1 X8.415 Y-78.455 Z16.000 F1000.000
G1 X8.415 Y-77.917 Z16.000 F1000.000
G1 X7.810 Y-78.522 Z16.000 F1000.000
G2 X6.336 Y-78.651 Z16.000 I-2.809 J23.598 K0.000 F1000.000
G1 X8.415 Y-76.572 Z16.000 F1000.000
G1 X8.415 Y-75.227 Z16.000 F1000.000
G1 X4.878 Y-78.763 Z16.000 F1000.000
G1 X3.467 Y-78.829 Z16.000 F1000.000
G1 X8.522 Y-73.775 Z16.000 F1000.000
G2 X9.454 Y-72.842 Z16.000 I1.461 J-0.529 K0.000 F1000.000
G1 X72.795 Y-9.502 Z16.000 F1000.000
G3 X72.971 Y-7.981 Z16.000 I-23.709 J3.507 K0.000 F1000.000
G1 X2.069 Y-78.883 Z16.000 F1000.000
G1 X0.703 Y-78.904 Z16.000 F1000.000
G1 X73.121 Y-6.486 Z16.000 F1000.000
G1 X73.238 Y-5.024 Z16.000 F1000.000
G1 X-0.643 Y-78.905 Z16.000 F1000.000
G1 X-1.967 Y-78.884 Z16.000 F1000.000
G1 X73.317 Y-3.600 Z16.000 F1000.000
G3 X73.380 Y-2.192 Z16.000 I-21.999 J1.684 K0.000 F1000.000
G1 X-3.267 Y-78.839 Z16.000 F1000.000
G1 X-4.551 Y-78.779 Z16.000 F1000.000
G1 X73.402 Y-0.826 Z16.000 F1000.000
G3 X73.406 Y0.524 Z16.000 I-21.020 J0.749 K0.000 F1000.000
G1 X-5.809 Y-78.692 Z16.000 F1000.000
G1 X-7.057 Y-78.594 Z16.000 F1000.000
G1 X73.385 Y1.848 Z16.000 F1000.000
G3 X73.339 Y3.146 Z16.000 I-20.156 J-0.065 K0.000 F1000.000
G1 X-8.278 Y-78.470 Z16.000 F1000.000
G1 X-8.415 Y-78.455 Z16.000 F1000.000
G1 X-8.415 Y-77.263 Z16.000 F1000.000
G1 X73.277 Y4.429 Z16.000 F1000.000
G3 X73.185 Y5.683 Z16.000 I-19.476 J-0.791 K0.000 F1000.000
G1 X-8.415 Y-75.918 Z16.000 F1000.000
G1 X-8.415 Y-74.573 Z16.000 F1000.000
G1 X73.085 Y6.927 Z16.000 F1000.000
G3 X72.953 Y8.140 Z16.000 I-18.866 J-1.442 K0.000 F1000.000
G1 X-8.668 Y-73.481 Z16.000 F1000.000
G3 X-9.400 Y-72.868 Z16.000 I-1.264 J-0.767 K0.000 F1000.000
G1 X72.816 Y9.348 Z16.000 F1000.000
G3 X72.647 Y10.524 Z16.000 I-18.316 J-2.028 K0.000 F1000.000
G1 X-10.525 Y-72.648 Z16.000 F1000.000
G1 X-11.694 Y-72.472 Z16.000 F1000.000
G1 X72.476 Y11.697 Z16.000 F1000.000
G3 X72.274 Y12.840 Z16.000 I-17.818 J-2.559 K0.000 F1000.000
G1 X-12.842 Y-72.275 Z16.000 F1000.000
G1 X-13.977 Y-72.066 Z16.000 F1000.000
G1 X72.069 Y13.981 Z16.000 F1000.000
G3 X71.837 Y15.094 Z16.000 I-17.365 J-3.043 K0.000 F1000.000
G1 X-15.095 Y-71.838 Z16.000 F1000.000
G1 X-16.200 Y-71.598 Z16.000 F1000.000
G1 X71.601 Y16.203 Z16.000 F1000.000
G3 X71.341 Y17.288 Z16.000 I-16.949 J-3.486 K0.000 F1000.000
G1 X-17.289 Y-71.343 Z16.000 F1000.000
G1 X-18.364 Y-71.073 Z16.000 F1000.000
G1 X71.075 Y18.366 Z16.000 F1000.000
G3 X70.790 Y19.426 Z16.000 I-16.567 J-3.894 K0.000 F1000.000
G1 X-19.428 Y-70.792 Z16.000 F1000.000
G1 X-20.474 Y-70.493 Z16.000 F1000.000
G1 X70.495 Y20.476 Z16.000 F1000.000
G3 X70.186 Y21.512 Z16.000 I-16.213 J-4.272 K0.000 F1000.000
G1 X-21.515 Y-70.189 Z16.000 F1000.000
G1 X-22.532 Y-69.861 Z16.000 F1000.000
G1 X69.862 Y22.533 Z16.000 F1000.000
G3 X69.531 Y23.547 Z16.000 I-15.884 J-4.622 K0.000 F1000.000
G1 X-23.550 Y-69.534 Z16.000 F1000.000
G2 X-24.542 Y-69.181 Z16.000 I4.976 J15.553 K0.000 F1000.000
G1 X69.181 Y24.542 Z16.000 F1000.000
G3 X68.830 Y25.536 Z16.000 I-15.578 J-4.949 K0.000 F1000.000
G1 X-25.533 Y-68.827 Z16.000 F1000.000
G2 X-26.505 Y-68.454 Z16.000 I5.290 J15.258 K0.000 F1000.000
G1 X68.453 Y26.504 Z16.000 F1000.000
G1 X68.077 Y27.473 Z16.000 F1000.000
G1 X-27.470 Y-68.074 Z16.000 F1000.000
G2 X-28.424 Y-67.683 Z16.000 I5.586 J14.981 K0.000 F1000.000
G1 X67.681 Y28.422 Z16.000 F1000.000
G1 X67.279 Y29.364 Z16.000 F1000.000
G1 X-29.363 Y-67.277 Z16.000 F1000.000
G2 X-30.299 Y-66.869 Z16.000 I5.864 J14.720 K0.000 F1000.000
G1 X66.866 Y30.296 Z16.000 F1000.000
G1 X66.439 Y31.214 Z16.000 F1000.000
G1 X-31.214 Y-66.438 Z16.000 F1000.000
G1 X-32.128 Y-66.008 Z16.000 F1000.000
G1 X66.009 Y32.129 Z16.000 F1000.000
G1 X65.558 Y33.023 Z16.000 F1000.000
G1 X-33.024 Y-65.559 Z16.000 F1000.000
G1 X-33.914 Y-65.104 Z16.000 F1000.000
G1 X65.107 Y33.917 Z16.000 F1000.000
G3 X64.638 Y34.792 Z16.000 I-13.811 J-6.833 K0.000 F1000.000
G1 X-34.795 Y-64.640 Z16.000 F1000.000
G1 X-35.661 Y-64.161 Z16.000 F1000.000
G1 X64.163 Y35.662 Z16.000 F1000.000
G3 X63.679 Y36.524 Z16.000 I-13.596 J-7.063 K0.000 F1000.000
G1 X-36.527 Y-63.683 Z16.000 F1000.000
G1 X-37.371 Y-63.181 Z16.000 F1000.000
G1 X63.181 Y37.370 Z16.000 F1000.000
G1 X62.682 Y38.217 Z16.000 F1000.000
G1 X-38.214 Y-62.679 Z16.000 F1000.000
G2 X-39.043 Y-62.164 Z16.000 I7.574 J13.117 K0.000 F1000.000
G1 X62.162 Y39.042 Z16.000 F1000.000
G1 X61.641 Y39.865 Z16.000 F1000.000
G1 X-39.864 Y-61.639 Z16.000 F1000.000
G2 X-40.680 Y-61.111 Z16.000 I7.782 J12.922 K0.000 F1000.000
G1 X61.108 Y40.677 Z16.000 F1000.000
G1 X60.564 Y41.478 Z16.000 F1000.000
G1 X-41.478 Y-60.563 Z16.000 F1000.000
G1 X-42.275 Y-60.016 Z16.000 F1000.000
G1 X60.018 Y42.277 Z16.000 F1000.000
G1 X59.452 Y43.056 Z16.000 F1000.000
G1 X-43.057 Y-59.453 Z16.000 F1000.000
G1 X-43.833 Y-58.883 Z16.000 F1000.000
G1 X58.886 Y43.835 Z16.000 F1000.000
G3 X58.306 Y44.600 Z16.000 I-12.147 J-8.608 K0.000 F1000.000
G1 X-44.602 Y-58.308 Z16.000 F1000.000
G1 X-45.356 Y-57.717 Z16.000 F1000.000
G1 X57.717 Y45.356 Z16.000 F1000.000
G3 X57.126 Y46.109 Z16.000 I-11.972 J-8.795 K0.000 F1000.000
G1 X-46.109 Y-57.125 Z16.000 F1000.000
G2 X-46.845 Y-56.516 Z16.000 I9.070 J11.714 K0.000 F1000.000
G1 X56.515 Y46.844 Z16.000 F1000.000
G1 X55.905 Y47.579 Z16.000 F1000.000
G1 X-47.576 Y-55.903 Z16.000 F1000.000
G2 X-48.301 Y-55.282 Z16.000 I9.252 J11.544 K0.000 F1000.000
G1 X55.280 Y48.299 Z16.000 F1000.000
G1 X54.648 Y49.011 Z16.000 F1000.000
G1 X-49.011 Y-54.647 Z16.000 F1000.000
G1 X-49.720 Y-54.012 Z16.000 F1000.000
G1 X54.012 Y49.720 Z16.000 F1000.000
G1 X53.358 Y50.411 Z16.000 F1000.000
G1 X-50.412 Y-53.359 Z16.000 F1000.000
G1 X-51.100 Y-52.702 Z16.000 F1000.000
G1 X52.704 Y51.102 Z16.000 F1000.000
G3 X52.035 Y51.778 Z16.000 I-10.812 J-10.033 K0.000 F1000.000
G1 X-51.780 Y-52.037 Z16.000 F1000.000
G1 X-52.447 Y-51.359 Z16.000 F1000.000
G1 X51.359 Y52.447 Z16.000 F1000.000
G3 X50.679 Y53.112 Z16.000 I-10.645 J-10.210 K0.000 F1000.000
G1 X-53.113 Y-50.680 Z16.000 F1000.000
G2 X-53.761 Y-49.983 Z16.000 I10.481 J10.391 K0.000 F1000.000
G1 X49.982 Y53.760 Z16.000 F1000.000
G1 X49.285 Y54.408 Z16.000 F1000.000
G1 X-54.405 Y-49.282 Z16.000 F1000.000
G2 X-55.042 Y-48.574 Z16.000 I10.660 J10.224 K0.000 F1000.000
G1 X48.572 Y55.040 Z16.000 F1000.000
G1 X47.853 Y55.665 Z16.000 F1000.000
G1 X-55.665 Y-47.852 Z16.000 F1000.000
G1 X-56.287 Y-47.130 Z16.000 F1000.000
G1 X47.129 Y56.286 Z16.000 F1000.000
G1 X46.388 Y56.890 Z16.000 F1000.000
G1 X-56.891 Y-46.388 Z16.000 F1000.000
G1 X-57.492 Y-45.644 Z16.000 F1000.000
G1 X45.647 Y57.494 Z16.000 F1000.000
G3 X44.889 Y58.082 Z16.000 I-9.483 J-11.451 K0.000 F1000.000
G1 X-58.084 Y-44.891 Z16.000 F1000.000
G1 X-58.663 Y-44.125 Z16.000 F1000.000
G1 X44.127 Y58.664 Z16.000 F1000.000
G3 X43.357 Y59.239 Z16.000 I-9.306 J-11.639 K0.000 F1000.000
G1 X-59.241 Y-43.359 Z16.000 F1000.000
G2 X-59.800 Y-42.573 Z16.000 I11.917 J9.044 K0.000 F1000.000
G1 X42.572 Y59.799 Z16.000 F1000.000
G1 X41.787 Y60.359 Z16.000 F1000.000
G1 X-60.356 Y-41.784 Z16.000 F1000.000
G2 X-60.902 Y-40.985 Z16.000 I12.114 J8.861 K0.000 F1000.000
G1 X40.983 Y60.900 Z16.000 F1000.000
G1 X40.176 Y61.438 Z16.000 F1000.000
G1 X-61.436 Y-40.174 Z16.000 F1000.000
G2 X-61.969 Y-39.363 Z16.000 I12.317 J8.671 K0.000 F1000.000
G1 X39.359 Y61.966 Z16.000 F1000.000
G1 X38.529 Y62.481 Z16.000 F1000.000
G1 X-62.481 Y-38.529 Z16.000 F1000.000
G1 X-62.992 Y-37.696 Z16.000 F1000.000
G1 X37.699 Y62.996 Z16.000 F1000.000
G3 X36.846 Y63.488 Z16.000 I-8.056 J-12.971 K0.000 F1000.000
G1 X-63.489 Y-36.848 Z16.000 F1000.000
G1 X-63.978 Y-35.991 Z16.000 F1000.000
G1 X35.993 Y63.980 Z16.000 F1000.000
G3 X35.127 Y64.458 Z16.000 I-7.847 J-13.195 K0.000 F1000.000
G1 X-64.461 Y-35.129 Z16.000 F1000.000
G1 X-64.925 Y-34.249 Z16.000 F1000.000
G1 X34.250 Y64.926 Z16.000 F1000.000
G3 X33.369 Y65.390 Z16.000 I-7.628 J-13.429 K0.000 F1000.000
G1 X-65.390 Y-33.369 Z16.000 F1000.000
G2 X-65.835 Y-32.469 Z16.000 I13.735 J7.341 K0.000 F1000.000
G1 X32.468 Y65.834 Z16.000 F1000.000
G1 X31.568 Y66.279 Z16.000 F1000.000
G1 X-66.276 Y-31.565 Z16.000 F1000.000
G2 X-66.704 Y-30.648 Z16.000 I13.987 J7.104 K0.000 F1000.000
G1 X30.647 Y66.703 Z16.000 F1000.000
G1 X29.722 Y67.122 Z16.000 F1000.000
G1 X-67.121 Y-29.720 Z16.000 F1000.000
G2 X-67.533 Y-28.787 Z16.000 I14.254 J6.855 K0.000 F1000.000
G1 X28.784 Y67.530 Z16.000 F1000.000
G1 X27.834 Y67.925 Z16.000 F1000.000
G1 X-67.924 Y-27.833 Z16.000 F1000.000
G1 X-68.315 Y-26.879 Z16.000 F1000.000
G1 X26.879 Y68.314 Z16.000 F1000.000
G1 X25.903 Y68.683 Z16.000 F1000.000
G1 X-68.684 Y-25.903 Z16.000 F1000.000
G1 X-69.049 Y-24.923 Z16.000 F1000.000
G1 X24.927 Y69.052 Z16.000 F1000.000
G3 X23.926 Y69.397 Z16.000 I-5.838 J-15.338 K0.000 F1000.000
G1 X-69.398 Y-23.928 Z16.000 F1000.000
G1 X-69.737 Y-22.921 Z16.000 F1000.000
G1 X22.924 Y69.739 Z16.000 F1000.000
G3 X21.903 Y70.063 Z16.000 I-5.525 J-15.672 K0.000 F1000.000
G1 X-70.065 Y-21.905 Z16.000 F1000.000
G1 X-70.376 Y-20.871 Z16.000 F1000.000
G1 X20.873 Y70.378 Z16.000 F1000.000
G3 X19.829 Y70.679 Z16.000 I-5.189 J-16.031 K0.000 F1000.000
G1 X-70.682 Y-19.832 Z16.000 F1000.000
G1 X-70.965 Y-18.770 Z16.000 F1000.000
G1 X18.771 Y70.966 Z16.000 F1000.000
G3 X17.703 Y71.243 Z16.000 I-4.826 J-16.417 K0.000 F1000.000
G1 X-71.247 Y-17.707 Z16.000 F1000.000
G1 X-71.500 Y-16.615 Z16.000 F1000.000
G1 X16.616 Y71.501 Z16.000 F1000.000
G3 X15.522 Y71.751 Z16.000 I-4.434 J-16.836 K0.000 F1000.000
G1 X-71.753 Y-15.524 Z16.000 F1000.000
G2 X-71.978 Y-14.404 Z16.000 I17.247 J4.048 K0.000 F1000.000
G1 X14.404 Y71.978 Z16.000 F1000.000
G3 X13.281 Y72.201 Z16.000 I-4.007 J-17.291 K0.000 F1000.000
G1 X-72.201 Y-13.281 Z16.000 F1000.000
G2 X-72.396 Y-12.132 Z16.000 I17.724 J3.602 K0.000 F1000.000
G1 X12.132 Y72.396 Z16.000 F1000.000
G3 X10.978 Y72.587 Z16.000 I-3.540 J-17.789 K0.000 F1000.000
G1 X-72.586 Y-10.977 Z16.000 F1000.000
G2 X-72.749 Y-9.795 Z16.000 I18.246 J3.112 K0.000 F1000.000
G1 X9.795 Y72.749 Z16.000 F1000.000
G3 X8.607 Y72.906 Z16.000 I-3.027 J-18.336 K0.000 F1000.000
G1 X-72.906 Y-8.607 Z16.000 F1000.000
G2 X-73.033 Y-7.389 Z16.000 I18.820 J2.574 K0.000 F1000.000
G1 X7.389 Y73.033 Z16.000 F1000.000
G3 X6.163 Y73.152 Z16.000 I-2.460 J-18.941 K0.000 F1000.000
G1 X-73.154 Y-6.165 Z16.000 F1000.000
G2 X-73.241 Y-4.907 Z16.000 I19.456 J1.978 K0.000 F1000.000
G1 X4.908 Y73.242 Z16.000 F1000.000
G3 X3.640 Y73.319 Z16.000 I-1.830 J-19.613 K0.000 F1000.000
G1 X-73.323 Y-3.644 Z16.000 F1000.000
G1 X-73.368 Y-2.344 Z16.000 F1000.000
G1 X2.346 Y73.370 Z16.000 F1000.000
G3 X1.031 Y73.400 Z16.000 I-1.125 J-20.365 K0.000 F1000.000
G1 X-73.403 Y-1.034 Z16.000 F1000.000
G1 X-73.406 Y0.307 Z16.000 F1000.000
G1 X-0.304 Y73.409 Z16.000 F1000.000
G3 X-1.672 Y73.386 Z16.000 I-0.332 J-21.212 K0.000 F1000.000
G1 X-73.388 Y1.670 Z16.000 F1000.000
G1 X-73.347 Y3.057 Z16.000 F1000.000
G1 X-3.052 Y73.351 Z16.000 F1000.000
G1 X-4.479 Y73.269 Z16.000 F1000.000
G1 X-73.268 Y4.480 Z16.000 F1000.000
G2 X-73.173 Y5.920 Z16.000 I22.373 J-0.758 K0.000 F1000.000
G1 X-5.925 Y73.169 Z16.000 F1000.000
G1 X-7.402 Y73.036 Z16.000 F1000.000
G1 X-73.032 Y7.406 Z16.000 F1000.000
G2 X-72.862 Y8.921 Z16.000 I23.572 J-1.881 K0.000 F1000.000
G1 X-8.922 Y72.861 Z16.000 F1000.000
G3 X-10.468 Y72.660 Z16.000 I2.349 J-24.071 K0.000 F1000.000
G1 X-72.665 Y10.463 Z16.000 F1000.000
G1 X-72.408 Y12.065 Z16.000 F1000.000
G1 X-12.061 Y72.412 Z16.000 F1000.000
G3 X-13.703 Y72.115 Z16.000 I3.782 J-25.600 K0.000 F1000.000
G1 X-72.115 Y13.702 Z16.000 F1000.000
G2 X-71.781 Y15.381 Z16.000 I26.193 J-4.338 K0.000 F1000.000
G1 X-15.386 Y71.777 Z16.000 F1000.000
G3 X-17.117 Y71.391 Z16.000 I5.116 J-27.022 K0.000 F1000.000
G1 X-71.386 Y17.122 Z16.000 F1000.000
G2 X-70.924 Y18.929 Z16.000 I28.243 J-6.261 K0.000 F1000.000
G1 X-18.925 Y70.927 Z16.000 F1000.000
G3 X-20.800 Y70.397 Z16.000 I7.279 J-29.330 K0.000 F1000.000
G1 X-70.396 Y20.801 Z16.000 F1000.000
G2 X-69.792 Y22.751 Z16.000 I30.524 J-8.399 K0.000 F1000.000
G1 X-22.752 Y69.790 Z16.000 F1000.000
G3 X-24.797 Y69.091 Z16.000 I9.823 J-32.043 K0.000 F1000.000
G1 X-69.094 Y24.794 Z16.000 F1000.000
G2 X-68.282 Y26.950 Z16.000 I33.838 J-11.505 K0.000 F1000.000
G1 X-26.954 Y68.278 Z16.000 F1000.000
G3 X-29.252 Y67.325 Z16.000 I13.621 J-36.094 K0.000 F1000.000
G1 X-67.328 Y29.249 Z16.000 F1000.000
G2 X-66.195 Y31.728 Z16.000 I38.991 J-16.337 K0.000 F1000.000
G1 X-31.727 Y66.195 Z16.000 F1000.000
G3 X-34.434 Y64.833 Z16.000 I19.748 J-42.630 K0.000 F1000.000
G1 X-64.826 Y34.441 Z16.000 F1000.000
G2 X-63.101 Y37.510 Z16.000 I39.782 J-20.331 K0.000 F1000.000
G1 X-37.518 Y63.094 Z16.000 F1000.000
G3 X-41.200 Y60.757 Z16.000 I24.162 J-42.136 K0.000 F1000.000
G1 X-60.774 Y41.182 Z16.000 F1000.000
G2 X-56.815 Y46.487 Z16.000 I57.134 J-38.518 K0.000 F1000.000
G1 X-46.458 Y56.843 Z16.000 F1000.000
G3 X-56.815 Y46.487 Z16.000 I46.023 J-56.380 K0.000 F1000.000
G1 X-55.704 Y47.815 Z15.000 F1000.000
G1 X-56.815 Y46.487 Z14.000 F1000.000
G2 X-46.458 Y56.843 Z14.000 I56.380 J-46.023 K0.000 F1000.000
G1 X-56.815 Y46.487 Z14.000 F1000.000
G3 X-60.774 Y41.182 Z14.000 I53.175 J-43.823 K0.000 F1000.000
G1 X-41.200 Y60.757 Z14.000 F1000.000
G2 X-37.518 Y63.094 Z14.000 I27.843 J-39.799 K0.000 F1000.000
G1 X-63.101 Y37.510 Z14.000 F1000.000
G3 X-64.826 Y34.441 Z14.000 I38.057 J-23.401 K0.000 F1000.000
G1 X-34.434 Y64.833 Z14.000 F1000.000
G2 X-31.727 Y66.195 Z14.000 I22.454 J-41.268 K0.000 F1000.000
G1 X-66.195 Y31.728 Z14.000 F1000.000
G3 X-67.328 Y29.249 Z14.000 I37.857 J-18.815 K0.000 F1000.000
G1 X-29.252 Y67.325 Z14.000 F1000.000
G2 X-26.954 Y68.278 Z14.000 I15.918 J-35.141 K0.000 F1000.000
G1 X-68.282 Y26.950 Z14.000 F1000.000
G3 X-69.094 Y24.794 Z14.000 I33.026 J-13.662 K0.000 F1000.000
G1 X-24.797 Y69.091 Z14.000 F1000.000
G2 X-22.752 Y69.790 Z14.000 I11.867 J-31.343 K0.000 F1000.000
G1 X-69.792 Y22.751 Z14.000 F1000.000
G3 X-70.396 Y20.801 Z14.000 I29.919 J-10.348 K0.000 F1000.000
G1 X-20.800 Y70.397 Z14.000 F1000.000
G2 X-18.925 Y70.927 Z14.000 I9.154 J-28.800 K0.000 F1000.000
G1 X-70.924 Y18.929 Z14.000 F1000.000
G3 X-71.386 Y17.122 Z14.000 I27.781 J-8.068 K0.000 F1000.000
G1 X-17.117 Y71.391 Z14.000 F1000.000
G2 X-15.386 Y71.777 Z14.000 I6.846 J-26.636 K0.000 F1000.000
G1 X-71.781 Y15.381 Z14.000 F1000.000
G3 X-72.115 Y13.702 Z14.000 I25.859 J-6.017 K0.000 F1000.000
G1 X-13.703 Y72.115 Z14.000 F1000.000
G2 X-12.061 Y72.412 Z14.000 I5.424 J-25.303 K0.000 F1000.000
G1 X-72.408 Y12.065 Z14.000 F1000.000
G1 X-72.665 Y10.463 Z14.000 F1000.000
G1 X-10.468 Y72.660 Z14.000 F1000.000
G2 X-8.922 Y72.861 Z14.000 I3.896 J-23.870 K0.000 F1000.000
G1 X-72.862 Y8.921 Z14.000 F1000.000
G3 X-73.032 Y7.406 Z14.000 I23.402 J-3.396 K0.000 F1000.000
G1 X-7.402 Y73.036 Z14.000 F1000.000
G1 X-5.925 Y73.169 Z14.000 F1000.000
G1 X-73.173 Y5.920 Z14.000 F1000.000
G3 X-73.268 Y4.480 Z14.000 I22.278 J-2.198 K0.000 F1000.000
G1 X-4.479 Y73.269 Z14.000 F1000.000
G1 X-3.052 Y73.351 Z14.000 F1000.000
G1 X-73.347 Y3.057 Z14.000 F1000.000
G1 X-73.388 Y1.670 Z14.000 F1000.000
G1 X-1.672 Y73.386 Z14.000 F1000.000
G2 X-0.304 Y73.409 Z14.000 I1.036 J-21.189 K0.000 F1000.000
G1 X-73.406 Y0.307 Z14.000 F1000.000
G1 X-73.403 Y-1.034 Z14.000 F1000.000
G1 X1.031 Y73.400 Z14.000 F1000.000
G2 X2.346 Y73.370 Z14.000 I0.190 J-20.395 K0.000 F1000.000
G1 X-73.368 Y-2.344 Z14.000 F1000.000
G1 X-73.323 Y-3.644 Z14.000 F1000.000
G1 X3.640 Y73.319 Z14.000 F1000.000
G2 X4.908 Y73.242 Z14.000 I-0.562 J-19.690 K0.000 F1000.000
G1 X-73.241 Y-4.907 Z14.000 F1000.000
G3 X-73.154 Y-6.165 Z14.000 I19.543 J0.720 K0.000 F1000.000
G1 X6.163 Y73.152 Z14.000 F1000.000
G2 X7.389 Y73.033 Z14.000 I-1.235 J-19.060 K0.000 F1000.000
G1 X-73.033 Y-7.389 Z14.000 F1000.000
G3 X-72.906 Y-8.607 Z14.000 I18.947 J1.356 K0.000 F1000.000
G1 X8.607 Y72.906 Z14.000 F1000.000
G2 X9.795 Y72.749 Z14.000 I-1.839 J-18.493 K0.000 F1000.000
G1 X-72.749 Y-9.795 Z14.000 F1000.000
G3 X-72.586 Y-10.977 Z14.000 I18.408 J1.930 K0.000 F1000.000
G1 X10.978 Y72.587 Z14.000 F1000.000
G2 X12.132 Y72.396 Z14.000 I-2.387 J-17.980 K0.000 F1000.000
G1 X-72.396 Y-12.132 Z14.000 F1000.000
G3 X-72.201 Y-13.281 Z14.000 I17.919 J2.452 K0.000 F1000.000
G1 X13.281 Y72.201 Z14.000 F1000.000
G2 X14.404 Y71.978 Z14.000 I-2.885 J-17.513 K0.000 F1000.000
G1 X-71.978 Y-14.404 Z14.000 F1000.000
G3 X-71.753 Y-15.524 Z14.000 I17.472 J2.928 K0.000 F1000.000
G1 X15.522 Y71.751 Z14.000 F1000.000
G2 X16.616 Y71.501 Z14.000 I-3.340 J-17.086 K0.000 F1000.000
G1 X-71.500 Y-16.615 Z14.000 F1000.000
G1 X-71.247 Y-17.707 Z14.000 F1000.000
G1 X17.703 Y71.243 Z14.000 F1000.000
G2 X18.771 Y70.966 Z14.000 I-3.758 J-16.694 K0.000 F1000.000
G1 X-70.965 Y-18.770 Z14.000 F1000.000
G1 X-70.682 Y-19.832 Z14.000 F1000.000
G1 X19.829 Y70.679 Z14.000 F1000.000
G2 X20.873 Y70.378 Z14.000 I-4.145 J-16.332 K0.000 F1000.000
G1 X-70.376 Y-20.871 Z14.000 F1000.000
G1 X-70.065 Y-21.905 Z14.000 F1000.000
G1 X21.903 Y70.063 Z14.000 F1000.000
G2 X22.924 Y69.739 Z14.000 I-4.503 J-15.996 K0.000 F1000.000
G1 X-69.737 Y-22.921 Z14.000 F1000.000
G1 X-69.398 Y-23.928 Z14.000 F1000.000
G1 X23.926 Y69.397 Z14.000 F1000.000
G2 X24.927 Y69.052 Z14.000 I-4.837 J-15.683 K0.000 F1000.000
G1 X-69.049 Y-24.923 Z14.000 F1000.000
G1 X-68.684 Y-25.903 Z14.000 F1000.000
G1 X25.903 Y68.683 Z14.000 F1000.000
G1 X26.879 Y68.314 Z14.000 F1000.000
G1 X-68.315 Y-26.879 Z14.000 F1000.000
G1 X-67.924 Y-27.833 Z14.000 F1000.000
G1 X27.834 Y67.925 Z14.000 F1000.000
G1 X28.784 Y67.530 Z14.000 F1000.000
G1 X-67.533 Y-28.787 Z14.000 F1000.000
G3 X-67.121 Y-29.720 Z14.000 I14.666 J5.922 K0.000 F1000.000
G1 X29.722 Y67.122 Z14.000 F1000.000
G1 X30.647 Y66.703 Z14.000 F1000.000
G1 X-66.704 Y-30.648 Z14.000 F1000.000
G3 X-66.276 Y-31.565 Z14.000 I14.416 J6.188 K0.000 F1000.000
G1 X31.568 Y66.279 Z14.000 F1000.000
G1 X32.468 Y65.834 Z14.000 F1000.000
G1 X-65.835 Y-32.469 Z14.000 F1000.000
G3 X-65.390 Y-33.369 Z14.000 I14.179 J6.441 K0.000 F1000.000
G1 X33.369 Y65.390 Z14.000 F1000.000
G2 X34.250 Y64.926 Z14.000 I-6.747 J-13.892 K0.000 F1000.000
G1 X-64.925 Y-34.249 Z14.000 F1000.000
G1 X-64.461 Y-35.129 Z14.000 F1000.000
G1 X35.127 Y64.458 Z14.000 F1000.000
G2 X35.993 Y63.980 Z14.000 I-6.980 J-13.673 K0.000 F1000.000
G1 X-63.978 Y-35.991 Z14.000 F1000.000
G1 X-63.489 Y-36.848 Z14.000 F1000.000
G1 X36.846 Y63.488 Z14.000 F1000.000
G2 X37.699 Y62.996 Z14.000 I-7.203 J-13.463 K0.000 F1000.000
G1 X-62.992 Y-37.696 Z14.000 F1000.000
G1 X-62.481 Y-38.529 Z14.000 F1000.000
G1 X38.529 Y62.481 Z14.000 F1000.000
G1 X39.359 Y61.966 Z14.000 F1000.000
G1 X-61.969 Y-39.363 Z14.000 F1000.000
G3 X-61.436 Y-40.174 Z14.000 I12.850 J7.860 K0.000 F1000.000
G1 X40.176 Y61.438 Z14.000 F1000.000
G1 X40.983 Y60.900 Z14.000 F1000.000
G1 X-60.902 Y-40.985 Z14.000 F1000.000
G3 X-60.356 Y-41.784 Z14.000 I12.660 J8.062 K0.000 F1000.000
G1 X41.787 Y60.359 Z14.000 F1000.000
G1 X42.572 Y59.799 Z14.000 F1000.000
G1 X-59.800 Y-42.573 Z14.000 F1000.000
G3 X-59.241 Y-43.359 Z14.000 I12.475 J8.258 K0.000 F1000.000
G1 X43.357 Y59.239 Z14.000 F1000.000
G2 X44.127 Y58.664 Z14.000 I-8.537 J-12.215 K0.000 F1000.000
G1 X-58.663 Y-44.125 Z14.000 F1000.000
G1 X-58.084 Y-44.891 Z14.000 F1000.000
G1 X44.889 Y58.082 Z14.000 F1000.000
G2 X45.647 Y57.494 Z14.000 I-8.725 J-12.038 K0.000 F1000.000
G1 X-57.492 Y-45.644 Z14.000 F1000.000
G1 X-56.891 Y-46.388 Z14.000 F1000.000
G1 X46.388 Y56.890 Z14.000 F1000.000
G1 X47.129 Y56.286 Z14.000 F1000.000
G1 X-56.287 Y-47.130 Z14.000 F1000.000
G1 X-55.665 Y-47.852 Z14.000 F1000.000
G1 X47.853 Y55.665 Z14.000 F1000.000
G1 X48.572 Y55.040 Z14.000 F1000.000
G1 X-55.042 Y-48.574 Z14.000 F1000.000
G3 X-54.405 Y-49.282 Z14.000 I11.296 J9.516 K0.000 F1000.000
G1 X49.285 Y54.408 Z14.000 F1000.000
G1 X49.982 Y53.760 Z14.000 F1000.000
G1 X-53.761 Y-49.983 Z14.000 F1000.000
G3 X-53.113 Y-50.680 Z14.000 I11.129 J9.694 K0.000 F1000.000
G1 X50.679 Y53.112 Z14.000 F1000.000
G2 X51.359 Y52.447 Z14.000 I-9.965 J-10.875 K0.000 F1000.000
G1 X-52.447 Y-51.359 Z14.000 F1000.000
G1 X-51.780 Y-52.037 Z14.000 F1000.000
G1 X52.035 Y51.778 Z14.000 F1000.000
G2 X52.704 Y51.102 Z14.000 I-10.143 J-10.709 K0.000 F1000.000
G1 X-51.100 Y-52.702 Z14.000 F1000.000
G1 X-50.412 Y-53.359 Z14.000 F1000.000
G1 X53.358 Y50.411 Z14.000 F1000.000
G1 X54.012 Y49.720 Z14.000 F1000.000
G1 X-49.720 Y-54.012 Z14.000 F1000.000
G1 X-49.011 Y-54.647 Z14.000 F1000.000
G1 X54.648 Y49.011 Z14.000 F1000.000
G1 X55.280 Y48.299 Z14.000 F1000.000
G1 X-48.301 Y-55.282 Z14.000 F1000.000
G3 X-47.576 Y-55.903 Z14.000 I9.977 J10.924 K0.000 F1000.000
G1 X55.905 Y47.579 Z14.000 F1000.000
G1 X56.515 Y46.844 Z14.000 F1000.000
G1 X-46.845 Y-56.516 Z14.000 F1000.000
G3 X-46.109 Y-57.125 Z14.000 I9.806 J11.106 K0.000 F1000.000
G1 X57.126 Y46.109 Z14.000 F1000.000
G2 X57.717 Y45.356 Z14.000 I-11.380 J-9.549 K0.000 F1000.000
G1 X-45.356 Y-57.717 Z14.000 F1000.000
G1 X-44.602 Y-58.308 Z14.000 F1000.000
G1 X58.306 Y44.600 Z14.000 F1000.000
G2 X58.886 Y43.835 Z14.000 I-11.567 J-9.373 K0.000 F1000.000
G1 X-43.833 Y-58.883 Z14.000 F1000.000
G1 X-43.057 Y-59.453 Z14.000 F1000.000
G1 X59.452 Y43.056 Z14.000 F1000.000
G1 X60.018 Y42.277 Z14.000 F1000.000
G1 X-42.275 Y-60.016 Z14.000 F1000.000
G1 X-41.478 Y-60.563 Z14.000 F1000.000
G1 X60.564 Y41.478 Z14.000 F1000.000
G1 X61.108 Y40.677 Z14.000 F1000.000
G1 X-40.680 Y-61.111 Z14.000 F1000.000
G3 X-39.864 Y-61.639 Z14.000 I8.599 J12.393 K0.000 F1000.000
G1 X61.641 Y39.865 Z14.000 F1000.000
G1 X62.162 Y39.042 Z14.000 F1000.000
G1 X-39.043 Y-62.164 Z14.000 F1000.000
G3 X-38.214 Y-62.679 Z14.000 I8.404 J12.601 K0.000 F1000.000
G1 X62.682 Y38.217 Z14.000 F1000.000
G1 X63.181 Y37.370 Z14.000 F1000.000
G1 X-37.371 Y-63.181 Z14.000 F1000.000
G1 X-36.527 Y-63.683 Z14.000 F1000.000
G1 X63.679 Y36.524 Z14.000 F1000.000
G2 X64.163 Y35.662 Z14.000 I-13.112 J-7.925 K0.000 F1000.000
G1 X-35.661 Y-64.161 Z14.000 F1000.000
G1 X-34.795 Y-64.640 Z14.000 F1000.000
G1 X64.638 Y34.792 Z14.000 F1000.000
G2 X65.107 Y33.917 Z14.000 I-13.342 J-7.709 K0.000 F1000.000
G1 X-33.914 Y-65.104 Z14.000 F1000.000
G1 X-33.024 Y-65.559 Z14.000 F1000.000
G1 X65.558 Y33.023 Z14.000 F1000.000
G1 X66.009 Y32.129 Z14.000 F1000.000
G1 X-32.128 Y-66.008 Z14.000 F1000.000
G1 X-31.214 Y-66.438 Z14.000 F1000.000
G1 X66.439 Y31.214 Z14.000 F1000.000
G1 X66.866 Y30.296 Z14.000 F1000.000
G1 X-30.299 Y-66.869 Z14.000 F1000.000
G3 X-29.363 Y-67.277 Z14.000 I6.800 J14.312 K0.000 F1000.000
G1 X67.279 Y29.364 Z14.000 F1000.000
G1 X67.681 Y28.422 Z14.000 F1000.000
G1 X-28.424 Y-67.683 Z14.000 F1000.000
G3 X-27.470 Y-68.074 Z14.000 I6.539 J14.590 K0.000 F1000.000
G1 X68.077 Y27.473 Z14.000 F1000.000
G1 X68.453 Y26.504 Z14.000 F1000.000
G1 X-26.505 Y-68.454 Z14.000 F1000.000
G3 X-25.533 Y-68.827 Z14.000 I6.263 J14.885 K0.000 F1000.000
G1 X68.830 Y25.536 Z14.000 F1000.000
G2 X69.181 Y24.542 Z14.000 I-15.227 J-5.943 K0.000 F1000.000
G1 X-24.542 Y-69.181 Z14.000 F1000.000
G3 X-23.550 Y-69.534 Z14.000 I5.968 J15.200 K0.000 F1000.000
G1 X69.531 Y23.547 Z14.000 F1000.000
G2 X69.862 Y22.533 Z14.000 I-15.554 J-5.636 K0.000 F1000.000
G1 X-22.532 Y-69.861 Z14.000 F1000.000
G1 X-21.515 Y-70.189 Z14.000 F1000.000
G1 X70.186 Y21.512 Z14.000 F1000.000
G2 X70.495 Y20.476 Z14.000 I-15.904 J-5.308 K0.000 F1000.000
G1 X-20.474 Y-70.493 Z14.000 F1000.000
G1 X-19.428 Y-70.792 Z14.000 F1000.000
G1 X70.790 Y19.426 Z14.000 F1000.000
G2 X71.075 Y18.366 Z14.000 I-16.281 J-4.954 K0.000 F1000.000
G1 X-18.364 Y-71.073 Z14.000 F1000.000
G1 X-17.289 Y-71.343 Z14.000 F1000.000
G1 X71.341 Y17.288 Z14.000 F1000.000
G2 X71.601 Y16.203 Z14.000 I-16.689 J-4.571 K0.000 F1000.000
G1 X-16.200 Y-71.598 Z14.000 F1000.000
G1 X-15.095 Y-71.838 Z14.000 F1000.000
G1 X71.837 Y15.094 Z14.000 F1000.000
G2 X72.069 Y13.981 Z14.000 I-17.132 J-4.156 K0.000 F1000.000
G1 X-13.977 Y-72.066 Z14.000 F1000.000
G1 X-12.842 Y-72.275 Z14.000 F1000.000
G1 X72.274 Y12.840 Z14.000 F1000.000
G2 X72.476 Y11.697 Z14.000 I-17.616 J-3.702 K0.000 F1000.000
G1 X-11.694 Y-72.472 Z14.000 F1000.000
G1 X-10.525 Y-72.648 Z14.000 F1000.000
G1 X72.647 Y10.524 Z14.000 F1000.000
G2 X72.816 Y9.348 Z14.000 I-18.147 J-3.204 K0.000 F1000.000
G1 X-9.400 Y-72.868 Z14.000 F1000.000
G2 X-8.668 Y-73.481 Z14.000 I-0.532 J-1.380 K0.000 F1000.000
G1 X72.953 Y8.140 Z14.000 F1000.000
G2 X73.085 Y6.927 Z14.000 I-18.734 J-2.655 K0.000 F1000.000
G1 X-8.415 Y-74.573 Z14.000 F1000.000
G1 X-8.415 Y-75.918 Z14.000 F1000.000
G1 X73.185 Y5.683 Z14.000 F1000.000
G2 X73.277 Y4.429 Z14.000 I-19.384 J-2.045 K0.000 F1000.000
G1 X-8.415 Y-77.263 Z14.000 F1000.000
G1 X-8.415 Y-78.455 Z14.000 F1000.000
G1 X-8.278 Y-78.470 Z14.000 F1000.000
G1 X73.339 Y3.146 Z14.000 F1000.000
G2 X73.385 Y1.848 Z14.000 I-20.110 J-1.364 K0.000 F1000.000
G1 X-7.057 Y-78.594 Z14.000 F1000.000
G1 X-5.809 Y-78.692 Z14.000 F1000.000
G1 X73.406 Y0.524 Z14.000 F1000.000
G2 X73.402 Y-0.826 Z14.000 I-21.025 J-0.601 K0.000 F1000.000
G1 X-4.551 Y-78.779 Z14.000 F1000.000
G1 X-3.267 Y-78.839 Z14.000 F1000.000
G1 X73.380 Y-2.192 Z14.000 F1000.000
G2 X73.317 Y-3.600 Z14.000 I-22.062 J0.276 K0.000 F1000.000
G1 X-1.967 Y-78.884 Z14.000 F1000.000
G1 X-0.643 Y-78.905 Z14.000 F1000.000
G1 X73.238 Y-5.024 Z14.000 F1000.000
G1 X73.121 Y-6.486 Z14.000 F1000.000
G1 X0.703 Y-78.904 Z14.000 F1000.000
G1 X2.069 Y-78.883 Z14.000 F1000.000
G1 X72.971 Y-7.981 Z14.000 F1000.000
G2 X72.795 Y-9.502 Z14.000 I-23.885 J1.987 K0.000 F1000.000
G1 X9.454 Y-72.842 Z14.000 F1000.000
G3 X8.522 Y-73.775 Z14.000 I0.529 J-1.461 K0.000 F1000.000
G1 X3.467 Y-78.829 Z14.000 F1000.000
G1 X4.878 Y-78.763 Z14.000 F1000.000
G1 X8.415 Y-75.227 Z14.000 F1000.000
G1 X8.415 Y-76.572 Z14.000 F1000.000
G1 X6.336 Y-78.651 Z14.000 F1000.000
G3 X7.810 Y-78.522 Z14.000 I-1.335 J23.727 K0.000 F1000.000
G1 X8.415 Y-77.917 Z14.000 F1000.000
G1 X8.415 Y-78.455 Z14.000 F1000.000
G1 X7.810 Y-78.522 Z14.000 F1000.000
G0 X7.810 Y-78.522 Z23.000
G0 X7.810 Y-78.520 Z23.000
G0 X7.810 Y-78.520 Z21.000
G1 X5.797 Y-78.700 Z19.833 F1000.000
G1 X3.780 Y-78.826 Z18.667 F1000.000
G1 X1.761 Y-78.897 Z17.500 F1000.000
G1 X3.780 Y-78.826 Z16.333 F1000.000
G1 X5.797 Y-78.700 Z15.167 F1000.000
G1 X7.810 Y-78.520 Z14.000 F1000.000
G2 X-0.000 Y-78.915 Z14.000 I-7.693 J74.767 K0.000 F1000.000
G2 X-8.415 Y-78.455 Z14.000 I-0.117 J75.161 K0.000 F1000.000
G1 X-8.415 Y-74.330 Z14.000 F1000.000
G3 X-9.763 Y-72.763 Z14.000 I-1.585 J0.000 K0.000 F1000.000
G2 X-10.109 Y72.715 Z14.000 I9.764 J72.763 K0.000 F1000.000
G2 X72.739 Y9.936 Z14.000 I10.109 J-72.716 K0.000 F1000.000
G2 X9.764 Y-72.763 Z14.000 I-72.739 J-9.936 K0.000 F1000.000
G3 X8.415 Y-74.330 Z14.000 I0.236 J-1.567 K0.000 F1000.000
G1 X8.415 Y-78.455 Z14.000 F1000.000
G2 X7.810 Y-78.520 Z14.000 I-8.298 J74.702 K0.000 F1000.000
G0 X7.810 Y-78.520 Z23.000
G0 X51.234 Y-52.581 Z23.000
G0 X51.234 Y-52.581 Z21.000
G1 X52.663 Y-51.152 Z19.833 F1000.000
G1 X54.051 Y-49.684 Z18.667 F1000.000
G1 X55.397 Y-48.177 Z17.500 F1000.000
G1 X54.051 Y-49.684 Z16.333 F1000.000
G1 X52.663 Y-51.152 Z15.167 F1000.000
G1 X51.234 Y-52.581 Z14.000 F1000.000
G3 X59.550 Y-42.921 Z14.000 I-50.255 J51.668 K0.000 F1000.000
G1 X42.918 Y-59.552 Z14.000 F1000.000
G2 X38.827 Y-62.299 Z14.000 I-35.928 J49.101 K0.000 F1000.000
G1 X62.293 Y-38.833 Z14.000 F1000.000
G3 X64.223 Y-35.557 Z14.000 I-38.072 J24.648 K0.000 F1000.000
G1 X35.566 Y-64.215 Z14.000 F1000.000
G2 X32.728 Y-65.707 Z14.000 I-24.779 J43.665 K0.000 F1000.000
G1 X65.704 Y-32.732 Z14.000 F1000.000
G3 X66.921 Y-30.170 Z14.000 I-39.500 J20.341 K0.000 F1000.000
G1 X30.160 Y-66.931 Z14.000 F1000.000
G2 X27.799 Y-67.947 Z14.000 I-16.114 J34.191 K0.000 F1000.000
G1 X67.940 Y-27.806 Z14.000 F1000.000
G3 X68.802 Y-25.599 Z14.000 I-34.117 J14.601 K0.000 F1000.000
G1 X25.593 Y-68.808 Z14.000 F1000.000
G1 X23.507 Y-69.549 Z14.000 F1000.000
G1 X69.540 Y-23.516 Z14.000 F1000.000
G3 X70.177 Y-21.534 Z14.000 I-30.702 J10.961 K0.000 F1000.000
G1 X21.528 Y-70.183 Z14.000 F1000.000
G2 X19.634 Y-70.733 Z14.000 I-9.555 J29.382 K0.000 F1000.000
G1 X70.730 Y-19.636 Z14.000 F1000.000
G3 X71.214 Y-17.808 Z14.000 I-28.375 J8.481 K0.000 F1000.000
G1 X17.809 Y-71.212 Z14.000 F1000.000
G2 X16.044 Y-71.632 Z14.000 I-7.456 J27.414 K0.000 F1000.000
G1 X71.638 Y-16.039 Z14.000 F1000.000
G1 X71.997 Y-14.335 Z14.000 F1000.000
G1 X14.330 Y-72.001 Z14.000 F1000.000
G1 X12.683 Y-72.304 Z14.000 F1000.000
G1 X72.301 Y-12.685 Z14.000 F1000.000
G3 X72.568 Y-11.074 Z14.000 I-25.085 J4.974 K0.000 F1000.000
G1 X11.077 Y-72.565 Z14.000 F1000.000
G1 X9.764 Y-72.763 Z14.000 F1000.000
G1 X9.454 Y-72.842 Z14.000 F1000.000
G1 X72.795 Y-9.502 Z14.000 F1000.000
G1 X72.183 Y-10.114 Z13.500 F1000.000
G1 X72.795 Y-9.502 Z13.000 F1000.000
G1 X9.454 Y-72.842 Z13.000 F1000.000
G1 X9.764 Y-72.763 Z13.000 F1000.000
G1 X11.077 Y-72.565 Z13.000 F1000.000
G1 X72.568 Y-11.074 Z13.000 F1000.000
G2 X72.301 Y-12.685 Z13.000 I-25.352 J3.363 K0.000 F1000.000
G1 X12.683 Y-72.304 Z13.000 F1000.000
G1 X14.330 Y-72.001 Z13.000 F1000.000
G1 X71.997 Y-14.335 Z13.000 F1000.000
G1 X71.638 Y-16.039 Z13.000 F1000.000
G1 X16.044 Y-71.632 Z13.000 F1000.000
G3 X17.809 Y-71.212 Z13.000 I-5.691 J27.834 K0.000 F1000.000
G1 X71.214 Y-17.808 Z13.000 F1000.000
G2 X70.730 Y-19.636 Z13.000 I-28.859 J6.652 K0.000 F1000.000
G1 X19.634 Y-70.733 Z13.000 F1000.000
G3 X21.528 Y-70.183 Z13.000 I-7.660 J29.932 K0.000 F1000.000
G1 X70.177 Y-21.534 Z13.000 F1000.000
G2 X69.540 Y-23.516 Z13.000 I-31.339 J8.979 K0.000 F1000.000
G1 X23.507 Y-69.549 Z13.000 F1000.000
G1 X25.593 Y-68.808 Z13.000 F1000.000
G1 X68.802 Y-25.599 Z13.000 F1000.000
G2 X67.940 Y-27.806 Z13.000 I-34.979 J12.394 K0.000 F1000.000
G1 X27.799 Y-67.947 Z13.000 F1000.000
G3 X30.160 Y-66.931 Z13.000 I-13.753 J35.207 K0.000 F1000.000
G1 X66.921 Y-30.170 Z13.000 F1000.000
G2 X65.704 Y-32.732 Z13.000 I-40.718 J17.778 K0.000 F1000.000
G1 X32.728 Y-65.707 Z13.000 F1000.000
G3 X35.566 Y-64.215 Z13.000 I-21.942 J45.157 K0.000 F1000.000
G1 X64.223 Y-35.557 Z13.000 F1000.000
G2 X62.293 Y-38.833 Z13.000 I-40.003 J21.372 K0.000 F1000.000
G1 X38.827 Y-62.299 Z13.000 F1000.000
G3 X42.918 Y-59.552 Z13.000 I-31.837 J51.848 K0.000 F1000.000
G1 X59.550 Y-42.921 Z13.000 F1000.000
G2 X51.234 Y-52.581 Z13.000 I-58.570 J42.007 K0.000 F1000.000
G0 X51.234 Y-52.581 Z23.000
G0 X51.235 Y-52.581 Z23.000
G0 X51.235 Y-52.581 Z21.000
G1 X49.555 Y-54.167 Z19.667 F1000.000
G1 X47.827 Y-55.698 Z18.333 F1000.000
G1 X46.052 Y-57.175 Z17.000 F1000.000
G1 X47.827 Y-55.698 Z15.667 F1000.000
G1 X49.555 Y-54.167 Z14.333 F1000.000
G1 X51.235 Y-52.581 Z13.000 F1000.000
G2 X9.764 Y-72.763 Z13.000 I-51.235 J52.581 K0.000 F1000.000
G3 X8.415 Y-74.330 Z13.000 I0.236 J-1.567 K0.000 F1000.000
G1 X8.415 Y-78.455 Z13.000 F1000.000
G2 X-0.000 Y-78.915 Z13.000 I-8.298 J74.702 K0.000 F1000.000
G2 X-8.415 Y-78.455 Z13.000 I-0.117 J75.161 K0.000 F1000.000
G1 X-8.415 Y-74.330 Z13.000 F1000.000
G3 X-9.763 Y-72.763 Z13.000 I-1.585 J0.000 K0.000 F1000.000
G2 X-10.109 Y72.715 Z13.000 I9.764 J72.763 K0.000 F1000.000
G2 X51.235 Y-52.581 Z13.000 I10.109 J-72.716 K0.000 F1000.000
G0 X51.235 Y-52.581 Z23.000
G0 X7.810 Y-78.522 Z23.000
G0 X7.810 Y-78.522 Z21.000
G1 X8.415 Y-78.455 Z20.649 F1000.000
G1 X8.415 Y-77.917 Z20.337 F1000.000
G1 X7.810 Y-78.522 Z19.843 F1000.000
G1 X7.074 Y-78.598 Z19.416 F1000.000
G1 X6.336 Y-78.651 Z18.989 F1000.000
G1 X8.415 Y-76.572 Z17.291 F1000.000
G1 X8.415 Y-76.067 Z17.000 F1000.000
G1 X8.415 Y-76.572 Z16.709 F1000.000
G1 X6.336 Y-78.651 Z15.011 F1000.000
G1 X7.074 Y-78.598 Z14.584 F1000.000
G1 X7.810 Y-78.522 Z14.157 F1000.000
G1 X8.415 Y-77.917 Z13.663 F1000.000
G1 X8.415 Y-78.455 Z13.351 F1000.000
G1 X7.810 Y-78.522 Z13.000 F1000.000
G1 X8.415 Y-78.455 Z13.000 F1000.000
G1 X8.415 Y-77.917 Z13.000 F1000.000
G1 X7.810 Y-78.522 Z13.000 F1000.000
G2 X6.336 Y-78.651 Z13.000 I-2.809 J23.598 K0.000 F1000.000
G1 X8.415 Y-76.572 Z13.000 F1000.000
G1 X8.415 Y-75.227 Z13.000 F1000.000
G1 X4.878 Y-78.763 Z13.000 F1000.000
G1 X3.467 Y-78.829 Z13.000 F1000.000
G1 X8.522 Y-73.775 Z13.000 F1000.000
G2 X9.454 Y-72.842 Z13.000 I1.461 J-0.529 K0.000 F1000.000
G1 X72.795 Y-9.502 Z13.000 F1000.000
G3 X72.971 Y-7.981 Z13.000 I-23.709 J3.507 K0.000 F1000.000
G1 X2.069 Y-78.883 Z13.000 F1000.000
G1 X0.703 Y-78.904 Z13.000 F1000.000
G1 X73.121 Y-6.486 Z13.000 F1000.000
G1 X73.238 Y-5.024 Z13.000 F1000.000
G1 X-0.643 Y-78.905 Z13.000 F1000.000
G1 X-1.967 Y-78.884 Z13.000 F1000.000
G1 X73.317 Y-3.600 Z13.000 F1000.000
G3 X73.380 Y-2.192 Z13.000 I-21.999 J1.684 K0.000 F1000.000
G1 X-3.267 Y-78.839 Z13.000 F1000.000
G1 X-4.551 Y-78.779 Z13.000 F1000.000
G1 X73.402 Y-0.826 Z13.000 F1000.000
G3 X73.406 Y0.524 Z13.000 I-21.020 J0.749 K0.000 F1000.000
G1 X-5.809 Y-78.692 Z13.000 F1000.000
G1 X-7.057 Y-78.594 Z13.000 F1000.000
G1 X73.385 Y1.848 Z13.000 F1000.000
G3 X73.339 Y3.146 Z13.000 I-20.156 J-0.065 K0.000 F1000.000
G1 X-8.278 Y-78.470 Z13.000 F1000.000
G1 X-8.415 Y-78.455 Z13.000 F1000.000
G1 X-8.415 Y-77.263 Z13.000 F1000.000
G1 X73.277 Y4.429 Z13.000 F1000.000
G3 X73.185 Y5.683 Z13.000 I-19.476 J-0.791 K0.000 F1000.000
G1 X-8.415 Y-75.918 Z13.000 F1000.000
G1 X-8.415 Y-74.573 Z13.000 F1000.000
G1 X73.085 Y6.927 Z13.000 F1000.000
G3 X72.953 Y8.140 Z13.000 I-18.866 J-1.442 K0.000 F1000.000
G1 X-8.668 Y-73.481 Z13.000 F1000.000
G3 X-9.400 Y-72.868 Z13.000 I-1.264 J-0.767 K0.000 F1000.000
G1 X72.816 Y9.348 Z13.000 F1000.000
G3 X72.647 Y10.524 Z13.000 I-18.316 J-2.028 K0.000 F1000.000
G1 X-10.525 Y-72.648 Z13.000 F1000.000
G1 X-11.694 Y-72.472 Z13.000 F1000.000
G1 X72.476 Y11.697 Z13.000 F1000.000
G3 X72.274 Y12.840 Z13.000 I-17.818 J-2.559 K0.000 F1000.000
G1 X-12.842 Y-72.275 Z13.000 F1000.000
G1 X-13.977 Y-72.066 Z13.000 F1000.000
G1 X72.069 Y13.981 Z13.000 F1000.000
G3 X71.837 Y15.094 Z13.000 I-17.365 J-3.043 K0.000 F1000.000
G1 X-15.095 Y-71.838 Z13.000 F1000.000
G1 X-16.200 Y-71.598 Z13.000 F1000.000
G1 X71.601 Y16.203 Z13.000 F1000.000
G3 X71.341 Y17.288 Z13.000 I-16.949 J-3.486 K0.000 F1000.000
G1 X-17.289 Y-71.343 Z13.000 F1000.000
G1 X-18.364 Y-71.073 Z13.000 F1000.000
G1 X71.075 Y18.366 Z13.000 F1000.000
G3 X70.790 Y19.426 Z13.000 I-16.567 J-3.894 K0.000 F1000.000
G1 X-19.428 Y-70.792 Z13.000 F1000.000
G1 X-20.474 Y-70.493 Z13.000 F1000.000
G1 X70.495 Y20.476 Z13.000 F1000.000
G3 X70.186 Y21.512 Z13.000 I-16.213 J-4.272 K0.000 F1000.000
G1 X-21.515 Y-70.189 Z13.000 F1000.000
G1 X-22.532 Y-69.861 Z13.000 F1000.000
G1 X69.862 Y22.533 Z13.000 F1000.000
G3 X69.531 Y23.547 Z13.000 I-15.884 J-4.622 K0.000 F1000.000
G1 X-23.550 Y-69.534 Z13.000 F1000.000
G2 X-24.542 Y-69.181 Z13.000 I4.976 J15.553 K0.000 F1000.000
G1 X69.181 Y24.542 Z13.000 F1000.000
G3 X68.830 Y25.536 Z13.000 I-15.578 J-4.949 K0.000 F1000.000
G1 X-25.533 Y-68.827 Z13.000 F1000.000
G2 X-26.505 Y-68.454 Z13.000 I5.290 J15.258 K0.000 F1000.000
G1 X68.453 Y26.504 Z13.000 F1000.000
G1 X68.077 Y27.473 Z13.000 F1000.000
G1 X-27.470 Y-68.074 Z13.000 F1000.000
G2 X-28.424 Y-67.683 Z13.000 I5.586 J14.981 K0.000 F1000.000
G1 X67.681 Y28.422 Z13.000 F1000.000
G1 X67.279 Y29.364 Z13.000 F1000.000
G1 X-29.363 Y-67.277 Z13.000 F1000.000
G2 X-30.299 Y-66.869 Z13.000 I5.864 J14.720 K0.000 F1000.000
G1 X66.866 Y30.296 Z13.000 F1000.000
G1 X66.439 Y31.214 Z13.000 F1000.000
G1 X-31.214 Y-66.438 Z13.000 F1000.000
G1 X-32.128 Y-66.008 Z13.000 F1000.000
G1 X66.009 Y32.129 Z13.000 F1000.000
G1 X65.558 Y33.023 Z13.000 F1000.000
G1 X-33.024 Y-65.559 Z13.000 F1000.000
G1 X-33.914 Y-65.104 Z13.000 F1000.000
G1 X65.107 Y33.917 Z13.000 F1000.000
G3 X64.638 Y34.792 Z13.000 I-13.811 J-6.833 K0.000 F1000.000
G1 X-34.795 Y-64.640 Z13.000 F1000.000
G1 X-35.661 Y-64.161 Z13.000 F1000.000
G1 X64.163 Y35.662 Z13.000 F1000.000
G3 X63.679 Y36.524 Z13.000 I-13.596 J-7.063 K0.000 F1000.000
G1 X-36.527 Y-63.683 Z13.000 F1000.000
G1 X-37.371 Y-63.181 Z13.000 F1000.000
G1 X63.181 Y37.370 Z13.000 F1000.000
G1 X62.682 Y38.217 Z13.000 F1000.000
G1 X-38.214 Y-62.679 Z13.000 F1000.000
G2 X-39.043 Y-62.164 Z13.000 I7.574 J13.117 K0.000 F1000.000
G1 X62.162 Y39.042 Z13.000 F1000.000
G1 X61.641 Y39.865 Z13.000 F1000.000
G1 X-39.864 Y-61.639 Z13.000 F1000.000
G2 X-40.680 Y-61.111 Z13.000 I7.782 J12.922 K0.000 F1000.000
G1 X61.108 Y40.677 Z13.000 F1000.000
G1 X60.564 Y41.478 Z13.000 F1000.000
G1 X-41.478 Y-60.563 Z13.000 F1000.000
G1 X-42.275 Y-60.016 Z13.000 F1000.000
G1 X60.018 Y42.277 Z13.000 F1000.000
G1 X59.452 Y43.056 Z13.000 F1000.000
G1 X-43.057 Y-59.453 Z13.000 F1000.000
G1 X-43.833 Y-58.883 Z13.000 F1000.000
G1 X58.886 Y43.835 Z13.000 F1000.000
G3 X58.306 Y44.600 Z13.000 I-12.147 J-8.608 K0.000 F1000.000
G1 X-44.602 Y-58.308 Z13.000 F1000.000
G1 X-45.356 Y-57.717 Z13.000 F1000.000
G1 X57.717 Y45.356 Z13.000 F1000.000
G3 X57.126 Y46.109 Z13.000 I-11.972 J-8.795 K0.000 F1000.000
G1 X-46.109 Y-57.125 Z13.000 F1000.000
G2 X-46.845 Y-56.516 Z13.000 I9.070 J11.714 K0.000 F1000.000
G1 X56.515 Y46.844 Z13.000 F1000.000
G1 X55.905 Y47.579 Z13.000 F1000.000
G1 X-47.576 Y-55.903 Z13.000 F1000.000
G2 X-48.301 Y-55.282 Z13.000 I9.252 J11.544 K0.000 F1000.000
G1 X55.280 Y48.299 Z13.000 F1000.000
G1 X54.648 Y49.011 Z13.000 F1000.000
G1 X-49.011 Y-54.647 Z13.000 F1000.000
G1 X-49.720 Y-54.012 Z13.000 F1000.000
G1 X54.012 Y49.720 Z13.000 F1000.000
G1 X53.358 Y50.411 Z13.000 F1000.000
G1 X-50.412 Y-53.359 Z13.000 F1000.000
G1 X-51.100 Y-52.702 Z13.000 F1000.000
G1 X52.704 Y51.102 Z13.000 F1000.000
G3 X52.035 Y51.778 Z13.000 I-10.812 J-10.033 K0.000 F1000.000
G1 X-51.780 Y-52.037 Z13.000 F1000.000
G1 X-52.447 Y-51.359 Z13.000 F1000.000
G1 X51.359 Y52.447 Z13.000 F1000.000
G3 X50.679 Y53.112 Z13.000 I-10.645 J-10.210 K0.000 F1000.000
G1 X-53.113 Y-50.680 Z13.000 F1000.000
G2 X-53.761 Y-49.983 Z13.000 I10.481 J10.391 K0.000 F1000.000
G1 X49.982 Y53.760 Z13.000 F1000.000
G1 X49.285 Y54.408 Z13.000 F1000.000
G1 X-54.405 Y-49.282 Z13.000 F1000.000
G2 X-55.042 Y-48.574 Z13.000 I10.660 J10.224 K0.000 F1000.000
G1 X48.572 Y55.040 Z13.000 F1000.000
G1 X47.853 Y55.665 Z13.000 F1000.000
G1 X-55.665 Y-47.852 Z13.000 F1000.000
G1 X-56.287 Y-47.130 Z13.000 F1000.000
G1 X47.129 Y56.286 Z13.000 F1000.000
G1 X46.388 Y56.890 Z13.000 F1000.000
G1 X-56.891 Y-46.388 Z13.000 F1000.000
G1 X-57.492 Y-45.644 Z13.000 F1000.000
G1 X45.647 Y57.494 Z13.000 F1000.000
G3 X44.889 Y58.082 Z13.000 I-9.483 J-11.451 K0.000 F1000.000
G1 X-58.084 Y-44.891 Z13.000 F1000.000
G1 X-58.663 Y-44.125 Z13.000 F1000.000
G1 X44.127 Y58.664 Z13.000 F1000.000
G3 X43.357 Y59.239 Z13.000 I-9.306 J-11.639 K0.000 F1000.000
G1 X-59.241 Y-43.359 Z13.000 F1000.000
G2 X-59.800 Y-42.573 Z13.000 I11.917 J9.044 K0.000 F1000.000
G1 X42.572 Y59.799 Z13.000 F1000.000
G1 X41.787 Y60.359 Z13.000 F1000.000
G1 X-60.356 Y-41.784 Z13.000 F1000.000
G2 X-60.902 Y-40.985 Z13.000 I12.114 J8.861 K0.000 F1000.000
G1 X40.983 Y60.900 Z13.000 F1000.000
G1 X40.176 Y61.438 Z13.000 F1000.000
G1 X-61.436 Y-40.174 Z13.000 F1000.000
G2 X-61.969 Y-39.363 Z13.000 I12.317 J8.671 K0.000 F1000.000
G1 X39.359 Y61.966 Z13.000 F1000.000
G1 X38.529 Y62.481 Z13.000 F1000.000
G1 X-62.481 Y-38.529 Z13.000 F1000.000
G1 X-62.992 Y-37.696 Z13.000 F1000.000
G1 X37.699 Y62.996 Z13.000 F1000.000
G3 X36.846 Y63.488 Z13.000 I-8.056 J-12.971 K0.000 F1000.000
G1 X-63.489 Y-36.848 Z13.000 F1000.000
G1 X-63.978 Y-35.991 Z13.000 F1000.000
G1 X35.993 Y63.980 Z13.000 F1000.000
G3 X35.127 Y64.458 Z13.000 I-7.847 J-13.195 K0.000 F1000.000
G1 X-64.461 Y-35.129 Z13.000 F1000.000
G1 X-64.925 Y-34.249 Z13.000 F1000.000
G1 X34.250 Y64.926 Z13.000 F1000.000
G3 X33.369 Y65.390 Z13.000 I-7.628 J-13.429 K0.000 F1000.000
G1 X-65.390 Y-33.369 Z13.000 F1000.000
G2 X-65.835 Y-32.469 Z13.000 I13.735 J7.341 K0.000 F1000.000
G1 X32.468 Y65.834 Z13.000 F1000.000
G1 X31.568 Y66.279 Z13.000 F1000.000
G1 X-66.276 Y-31.565 Z13.000 F1000.000
G2 X-66.704 Y-30.648 Z13.000 I13.987 J7.104 K0.000 F1000.000
G1 X30.647 Y66.703 Z13.000 F1000.000
G1 X29.722 Y67.122 Z13.000 F1000.000
G1 X-67.121 Y-29.720 Z13.000 F1000.000
G2 X-67.533 Y-28.787 Z13.000 I14.254 J6.855 K0.000 F1000.000
G1 X28.784 Y67.530 Z13.000 F1000.000
G1 X27.834 Y67.925 Z13.000 F1000.000
G1 X-67.924 Y-27.833 Z13.000 F1000.000
G1 X-68.315 Y-26.879 Z13.000 F1000.000
G1 X26.879 Y68.314 Z13.000 F1000.000
G1 X25.903 Y68.683 Z13.000 F1000.000
G1 X-68.684 Y-25.903 Z13.000 F1000.000
G1 X-69.049 Y-24.923 Z13.000 F1000.000
G1 X24.927 Y69.052 Z13.000 F1000.000
G3 X23.926 Y69.397 Z13.000 I-5.838 J-15.338 K0.000 F1000.000
G1 X-69.398 Y-23.928 Z13.000 F1000.000
G1 X-69.737 Y-22.921 Z13.000 F1000.000
G1 X22.924 Y69.739 Z13.000 F1000.000
G3 X21.903 Y70.063 Z13.000 I-5.525 J-15.672 K0.000 F1000.000
G1 X-70.065 Y-21.905 Z13.000 F1000.000
G1 X-70.376 Y-20.871 Z13.000 F1000.000
G1 X20.873 Y70.378 Z13.000 F1000.000
G3 X19.829 Y70.679 Z13.000 I-5.189 J-16.031 K0.000 F1000.000
G1 X-70.682 Y-19.832 Z13.000 F1000.000
G1 X-70.965 Y-18.770 Z13.000 F1000.000
G1 X18.771 Y70.966 Z13.000 F1000.000
G3 X17.703 Y71.243 Z13.000 I-4.826 J-16.417 K0.000 F1000.000
G1 X-71.247 Y-17.707 Z13.000 F1000.000
G1 X-71.500 Y-16.615 Z13.000 F1000.000
G1 X16.616 Y71.501 Z13.000 F1000.000
G3 X15.522 Y71.751 Z13.000 I-4.434 J-16.836 K0.000 F1000.000
G1 X-71.753 Y-15.524 Z13.000 F1000.000
G2 X-71.978 Y-14.404 Z13.000 I17.247 J4.048 K0.000 F1000.000
G1 X14.404 Y71.978 Z13.000 F1000.000
G3 X13.281 Y72.201 Z13.000 I-4.007 J-17.291 K0.000 F1000.000
G1 X-72.201 Y-13.281 Z13.000 F1000.000
G2 X-72.396 Y-12.132 Z13.000 I17.724 J3.602 K0.000 F1000.000
G1 X12.132 Y72.396 Z13.000 F1000.000
G3 X10.978 Y72.587 Z13.000 I-3.540 J-17.789 K0.000 F1000.000
G1 X-72.586 Y-10.977 Z13.000 F1000.000
G2 X-72.749 Y-9.795 Z13.000 I18.246 J3.112 K0.000 F1000.000
G1 X9.795 Y72.749 Z13.000 F1000.000
G3 X8.607 Y72.906 Z13.000 I-3.027 J-18.336 K0.000 F1000.000
G1 X-72.906 Y-8.607 Z13.000 F1000.000
G2 X-73.033 Y-7.389 Z13.000 I18.820 J2.574 K0.000 F1000.000
G1 X7.389 Y73.033 Z13.000 F1000.000
G3 X6.163 Y73.152 Z13.000 I-2.460 J-18.941 K0.000 F1000.000
G1 X-73.154 Y-6.165 Z13.000 F1000.000
G2 X-73.241 Y-4.907 Z13.000 I19.456 J1.978 K0.000 F1000.000
G1 X4.908 Y73.242 Z13.000 F1000.000
G3 X3.640 Y73.319 Z13.000 I-1.830 J-19.613 K0.000 F1000.000
G1 X-73.323 Y-3.644 Z13.000 F1000.000
G1 X-73.368 Y-2.344 Z13.000 F1000.000
G1 X2.346 Y73.370 Z13.000 F1000.000
G3 X1.031 Y73.400 Z13.000 I-1.125 J-20.365 K0.000 F1000.000
G1 X-73.403 Y-1.034 Z13.000 F1000.000
G1 X-73.406 Y0.307 Z13.000 F1000.000
G1 X-0.304 Y73.409 Z13.000 F1000.000
G3 X-1.672 Y73.386 Z13.000 I-0.332 J-21.212 K0.000 F1000.000
G1 X-73.388 Y1.670 Z13.000 F1000.000
G1 X-73.347 Y3.057 Z13.000 F1000.000
G1 X-3.052 Y73.351 Z13.000 F1000.000
G1 X-4.479 Y73.269 Z13.000 F1000.000
G1 X-73.268 Y4.480 Z13.000 F1000.000
G2 X-73.173 Y5.920 Z13.000 I22.373 J-0.758 K0.000 F1000.000
G1 X-5.925 Y73.169 Z13.000 F1000.000
G1 X-7.402 Y73.036 Z13.000 F1000.000
G1 X-73.032 Y7.406 Z13.000 F1000.000
G2 X-72.862 Y8.921 Z13.000 I23.572 J-1.881 K0.000 F1000.000
G1 X-8.922 Y72.861 Z13.000 F1000.000
G3 X-10.468 Y72.660 Z13.000 I2.349 J-24.071 K0.000 F1000.000
G1 X-72.665 Y10.463 Z13.000 F1000.000
G1 X-72.408 Y12.065 Z13.000 F1000.000
G1 X-12.061 Y72.412 Z13.000 F1000.000
G3 X-13.703 Y72.115 Z13.000 I3.782 J-25.600 K0.000 F1000.000
G1 X-72.115 Y13.702 Z13.000 F1000.000
G2 X-71.781 Y15.381 Z13.000 I26.193 J-4.338 K0.000 F1000.000
G1 X-15.386 Y71.777 Z13.000 F1000.000
G3 X-17.117 Y71.391 Z13.000 I5.116 J-27.022 K0.000 F1000.000
G1 X-71.386 Y17.122 Z13.000 F1000.000
G2 X-70.924 Y18.929 Z13.000 I28.243 J-6.261 K0.000 F1000.000
G1 X-18.925 Y70.927 Z13.000 F1000.000
G3 X-20.800 Y70.397 Z13.000 I7.279 J-29.330 K0.000 F1000.000
G1 X-70.396 Y20.801 Z13.000 F1000.000
G2 X-69.792 Y22.751 Z13.000 I30.524 J-8.399 K0.000 F1000.000
G1 X-22.752 Y69.790 Z13.000 F1000.000
G3 X-24.797 Y69.091 Z13.000 I9.823 J-32.043 K0.000 F1000.000
G1 X-69.094 Y24.794 Z13.000 F1000.000
G2 X-68.282 Y26.950 Z13.000 I33.838 J-11.505 K0.000 F1000.000
G1 X-26.954 Y68.278 Z13.000 F1000.000
G3 X-29.252 Y67.325 Z13.000 I13.621 J-36.094 K0.000 F1000.000
G1 X-67.328 Y29.249 Z13.000 F1000.000
G2 X-66.195 Y31.728 Z13.000 I38.991 J-16.337 K0.000 F1000.000
G1 X-31.727 Y66.195 Z13.000 F1000.000
G3 X-34.434 Y64.833 Z13.000 I19.748 J-42.630 K0.000 F1000.000
G1 X-64.826 Y34.441 Z13.000 F1000.000
G2 X-63.101 Y37.510 Z13.000 I39.782 J-20.331 K0.000 F1000.000
G1 X-37.518 Y63.094 Z13.000 F1000.000
G3 X-41.200 Y60.757 Z13.000 I24.162 J-42.136 K0.000 F1000.000
G1 X-60.774 Y41.182 Z13.000 F1000.000
G2 X-56.815 Y46.487 Z13.000 I57.134 J-38.518 K0.000 F1000.000
G1 X-46.458 Y56.843 Z13.000 F1000.000
G3 X-56.815 Y46.487 Z13.000 I46.023 J-56.380 K0.000 F1000.000
G0 X-56.815 Y46.487 Z23.000
(Finish operation: Cut Inner Pocket)
(Begin operation: Profile Inner pocket with overcut001)
(Path: Profile Inner pocket with overcut001)
(Profile Inner pocket with overcut)
(Compensated Tool Path. Diameter: 3.17)
G0 X49.961 Y53.326 Z23.000
G0 Z21.000
G1 Z16.000 F1000.000
G2 X53.326 Y53.326 Z16.000 I1.683 J-1.683 K-0.000 F1000.000
G1 X53.326 Y53.326 Z16.000 F1000.000
G2 X75.258 Y4.867 Z16.000 I-53.326 J-53.326 K0.000 F1000.000
G2 X10.415 Y-74.687 Z16.000 I-75.249 J-4.870 K0.000 F1000.000
G1 X10.415 Y-79.876 Z16.000 F1000.000
G2 X10.045 Y-80.289 Z16.000 I-0.415 J0.000 K0.000 F1000.000
G2 X-10.045 Y-80.289 Z16.000 I-10.045 J80.289 K0.000 F1000.000
G2 X-10.415 Y-79.876 Z16.000 I0.045 J0.413 K0.000 F1000.000
G1 X-10.415 Y-74.687 Z16.000 F1000.000
G2 X-75.237 Y-5.184 Z16.000 I10.404 J74.683 K0.000 F1000.000
G2 X53.326 Y53.326 Z16.000 I75.237 J5.184 K0.000 F1000.000
G0 Z23.000
G0 X49.961 Y53.326 Z23.000
G0 Z21.000
G1 Z14.000 F1000.000
G2 X53.326 Y53.326 Z14.000 I1.683 J-1.683 K-0.000 F1000.000
G1 X53.326 Y53.326 Z14.000 F1000.000
G2 X75.258 Y4.867 Z14.000 I-53.326 J-53.326 K0.000 F1000.000
G2 X10.415 Y-74.687 Z14.000 I-75.249 J-4.870 K0.000 F1000.000
G1 X10.415 Y-79.876 Z14.000 F1000.000
G2 X10.045 Y-80.289 Z14.000 I-0.415 J0.000 K0.000 F1000.000
G2 X-10.045 Y-80.289 Z14.000 I-10.045 J80.289 K0.000 F1000.000
G2 X-10.415 Y-79.876 Z14.000 I0.045 J0.413 K0.000 F1000.000
G1 X-10.415 Y-74.687 Z14.000 F1000.000
G2 X-75.237 Y-5.184 Z14.000 I10.404 J74.683 K0.000 F1000.000
G2 X53.326 Y53.326 Z14.000 I75.237 J5.184 K0.000 F1000.000
G0 Z23.000
G0 X49.961 Y53.326 Z23.000
G0 Z21.000
G1 Z13.000 F1000.000
G2 X53.326 Y53.326 Z13.000 I1.683 J-1.683 K-0.000 F1000.000
G1 X53.326 Y53.326 Z13.000 F1000.000
G2 X75.258 Y4.867 Z13.000 I-53.326 J-53.326 K0.000 F1000.000
G2 X10.415 Y-74.687 Z13.000 I-75.249 J-4.870 K0.000 F1000.000
G1 X10.415 Y-79.876 Z13.000 F1000.000
G2 X10.045 Y-80.289 Z13.000 I-0.415 J0.000 K0.000 F1000.000
G2 X-10.045 Y-80.289 Z13.000 I-10.045 J80.289 K0.000 F1000.000
G2 X-10.415 Y-79.876 Z13.000 I0.045 J0.413 K0.000 F1000.000
G1 X-10.415 Y-74.687 Z13.000 F1000.000
G2 X-75.237 Y-5.184 Z13.000 I10.404 J74.683 K0.000 F1000.000
G2 X53.326 Y53.326 Z13.000 I75.237 J5.184 K0.000 F1000.000
G0 Z23.000
(Finish operation: Profile Inner pocket with overcut001)
(Begin operation: Cut Lip)
(Path: Cut Lip)
G0 X0.000 Y0.000 Z23.000
G0 X61.027 Y61.105 Z23.000
G0 X61.027 Y61.105 Z21.000
G1 X62.538 Y59.555 Z19.750 F1000.000
G1 X64.011 Y57.967 Z18.500 F1000.000
G1 X62.538 Y59.555 Z17.250 F1000.000
G1 X61.027 Y61.105 Z16.000 F1000.000
G2 X86.337 Y0.000 Z16.000 I-61.105 J-61.105 K0.000 F1000.000
G2 X-86.493 Y-0.000 Z16.000 I-86.415 J0.000 K0.000 F1000.000
G2 X61.027 Y61.105 Z16.000 I86.415 J-0.000 K0.000 F1000.000
G0 X61.027 Y61.105 Z23.000
G0 X61.482 Y60.646 Z23.000
G0 X61.482 Y60.646 Z21.000
G1 X59.944 Y62.170 Z19.750 F1000.000
G1 X58.368 Y63.654 Z18.500 F1000.000
G1 X59.944 Y62.170 Z17.250 F1000.000
G1 X61.482 Y60.646 Z16.000 F1000.000
G3 X51.331 Y69.452 Z16.000 I-60.740 J-59.762 K0.000 F1000.000
G1 X69.365 Y51.418 Z16.000 F1000.000
G2 X72.414 Y47.024 Z16.000 I-58.059 J-43.542 K0.000 F1000.000
G1 X46.948 Y72.490 Z16.000 F1000.000
G3 X43.443 Y74.650 Z16.000 I-37.847 J-57.483 K0.000 F1000.000
G1 X74.561 Y43.532 Z16.000 F1000.000
G2 X76.251 Y40.497 Z16.000 I-49.857 J-29.751 K0.000 F1000.000
G1 X40.414 Y76.334 Z16.000 F1000.000
G3 X37.688 Y77.716 Z16.000 I-24.450 J-44.864 K0.000 F1000.000
G1 X51.480 Y63.923 Z16.000 F1000.000
G3 X46.235 Y67.824 Z16.000 I-48.250 J-59.407 K0.000 F1000.000
G1 X35.169 Y78.889 Z16.000 F1000.000
G3 X32.813 Y79.900 Z16.000 I-18.067 J-38.852 K0.000 F1000.000
G1 X42.494 Y70.220 Z16.000 F1000.000
G3 X39.315 Y72.054 Z16.000 I-26.776 J-42.743 K0.000 F1000.000
G1 X30.587 Y80.781 Z16.000 F1000.000
G3 X28.467 Y81.557 Z16.000 I-14.012 J-35.033 K0.000 F1000.000
G1 X36.519 Y73.504 Z16.000 F1000.000
G3 X33.958 Y74.721 Z16.000 I-20.824 J-40.534 K0.000 F1000.000
G1 X26.434 Y82.245 Z16.000 F1000.000
G1 X24.489 Y82.844 Z16.000 F1000.000
G1 X31.575 Y75.759 Z16.000 F1000.000
G3 X29.334 Y76.655 Z16.000 I-15.535 J-35.599 K0.000 F1000.000
G1 X22.617 Y83.372 Z16.000 F1000.000
G3 X20.797 Y83.847 Z16.000 I-8.836 J-30.158 K0.000 F1000.000
G1 X27.206 Y77.437 Z16.000 F1000.000
G3 X25.172 Y78.127 Z16.000 I-12.380 J-33.166 K0.000 F1000.000
G1 X19.024 Y84.275 Z16.000 F1000.000
G1 X17.316 Y84.638 Z16.000 F1000.000
G1 X23.229 Y78.725 Z16.000 F1000.000
G3 X21.362 Y79.247 Z16.000 I-9.424 J-30.110 K0.000 F1000.000
G1 X15.646 Y84.963 Z16.000 F1000.000
G3 X14.006 Y85.258 Z16.000 I-5.756 J-27.256 K0.000 F1000.000
G1 X19.551 Y79.714 Z16.000 F1000.000
G3 X17.786 Y80.133 Z16.000 I-7.944 J-29.480 K0.000 F1000.000
G1 X12.422 Y85.497 Z16.000 F1000.000
G3 X10.862 Y85.712 Z16.000 I-4.372 J-25.953 K0.000 F1000.000
G1 X16.090 Y80.484 Z16.000 F1000.000
G3 X14.433 Y80.797 Z16.000 I-5.874 J-26.615 K0.000 F1000.000
G1 X9.334 Y85.896 Z16.000 F1000.000
G3 X7.843 Y86.042 Z16.000 I-3.178 J-24.828 K0.000 F1000.000
G1 X12.805 Y81.080 Z16.000 F1000.000
G1 X11.237 Y81.303 Z16.000 F1000.000
G1 X6.366 Y86.174 Z16.000 F1000.000
G1 X4.935 Y86.260 Z16.000 F1000.000
G1 X9.691 Y81.504 Z16.000 F1000.000
G1 X8.179 Y81.671 Z16.000 F1000.000
G1 X3.513 Y86.336 Z16.000 F1000.000
G1 X2.127 Y86.378 Z16.000 F1000.000
G1 X6.704 Y81.801 Z16.000 F1000.000
G1 X5.244 Y81.916 Z16.000 F1000.000
G1 X0.755 Y86.405 Z16.000 F1000.000
G1 X-0.590 Y86.405 Z16.000 F1000.000
G1 X3.829 Y81.986 Z16.000 F1000.000
G3 X2.423 Y82.047 Z16.000 I-1.727 J-23.401 K0.000 F1000.000
G1 X-1.919 Y86.389 Z16.000 F1000.000
G1 X-3.224 Y86.350 Z16.000 F1000.000
G1 X1.057 Y82.069 Z16.000 F1000.000
G3 X-0.300 Y82.080 Z16.000 I-0.873 J-22.172 K0.000 F1000.000
G1 X-4.514 Y86.294 Z16.000 F1000.000
G1 X-5.783 Y86.218 Z16.000 F1000.000
G1 X-1.624 Y82.060 Z16.000 F1000.000
G3 X-2.937 Y82.028 Z16.000 I-0.136 J-21.417 K0.000 F1000.000
G1 X-7.038 Y86.128 Z16.000 F1000.000
G1 X-8.271 Y86.017 Z16.000 F1000.000
G1 X-4.222 Y81.967 Z16.000 F1000.000
G3 X-5.496 Y81.896 Z16.000 I0.519 J-20.823 K0.000 F1000.000
G1 X-9.495 Y85.895 Z16.000 F1000.000
G1 X-10.695 Y85.751 Z16.000 F1000.000
G1 X-6.742 Y81.798 Z16.000 F1000.000
G3 X-7.982 Y81.693 Z16.000 I1.114 J-20.388 K0.000 F1000.000
G1 X-11.890 Y85.601 Z16.000 F1000.000
G1 X-13.059 Y85.425 Z16.000 F1000.000
G1 X-9.193 Y81.559 Z16.000 F1000.000
G3 X-10.401 Y81.422 Z16.000 I1.715 J-20.520 K0.000 F1000.000
G1 X-14.227 Y85.248 Z16.000 F1000.000
G3 X-15.366 Y85.042 Z16.000 I2.879 J-19.125 K0.000 F1000.000
G1 X-11.578 Y81.254 Z16.000 F1000.000
G1 X-12.756 Y81.087 Z16.000 F1000.000
G1 X-16.504 Y84.835 Z16.000 F1000.000
G3 X-17.620 Y84.607 Z16.000 I3.263 J-18.761 K0.000 F1000.000
G1 X-13.903 Y80.889 Z16.000 F1000.000
G1 X-15.048 Y80.689 Z16.000 F1000.000
G1 X-18.730 Y84.371 Z16.000 F1000.000
G3 X-19.825 Y84.122 Z16.000 I3.616 J-18.430 K0.000 F1000.000
G1 X-16.171 Y80.468 Z16.000 F1000.000
G1 X-17.285 Y80.237 Z16.000 F1000.000
G1 X-20.906 Y83.858 Z16.000 F1000.000
G3 X-21.983 Y83.590 Z16.000 I3.940 J-18.124 K0.000 F1000.000
G1 X-18.386 Y79.993 Z16.000 F1000.000
G1 X-19.471 Y79.733 Z16.000 F1000.000
G1 X-23.037 Y83.299 Z16.000 F1000.000
G1 X-24.091 Y83.008 Z16.000 F1000.000
G1 X-20.552 Y79.469 Z16.000 F1000.000
G1 X-21.608 Y79.180 Z16.000 F1000.000
G1 X-25.125 Y82.696 Z16.000 F1000.000
G1 X-26.152 Y82.379 Z16.000 F1000.000
G1 X-22.664 Y78.891 Z16.000 F1000.000
G3 X-23.699 Y78.581 Z16.000 I4.586 J-17.176 K0.000 F1000.000
G1 X-27.171 Y82.052 Z16.000 F1000.000
G1 X-28.173 Y81.710 Z16.000 F1000.000
G1 X-24.727 Y78.264 Z16.000 F1000.000
G3 X-25.745 Y77.938 Z16.000 I4.818 J-16.779 K0.000 F1000.000
G1 X-29.176 Y81.368 Z16.000 F1000.000
G3 X-30.155 Y81.002 Z16.000 I5.620 J-16.542 K0.000 F1000.000
G1 X-26.747 Y77.595 Z16.000 F1000.000
G1 X-27.749 Y77.252 Z16.000 F1000.000
G1 X-31.133 Y80.635 Z16.000 F1000.000
G3 X-32.099 Y80.257 Z16.000 I5.837 J-16.337 K0.000 F1000.000
G1 X-28.727 Y76.884 Z16.000 F1000.000
G1 X-29.703 Y76.515 Z16.000 F1000.000
G1 X-33.053 Y79.866 Z16.000 F1000.000
G1 X-34.007 Y79.475 Z16.000 F1000.000
G1 X-30.667 Y76.135 Z16.000 F1000.000
G1 X-31.618 Y75.741 Z16.000 F1000.000
G1 X-34.939 Y79.061 Z16.000 F1000.000
G1 X-35.869 Y78.647 Z16.000 F1000.000
G1 X-32.569 Y75.347 Z16.000 F1000.000
G3 X-33.496 Y74.929 Z16.000 I7.768 J-18.489 K0.000 F1000.000
G1 X-36.790 Y78.223 Z16.000 F1000.000
G1 X-37.698 Y77.786 Z16.000 F1000.000
G1 X-34.423 Y74.511 Z16.000 F1000.000
G3 X-35.339 Y74.082 Z16.000 I6.538 J-15.168 K0.000 F1000.000
G1 X-38.606 Y77.348 Z16.000 F1000.000
G3 X-39.494 Y76.892 Z16.000 I7.180 J-15.072 K0.000 F1000.000
G1 X-36.242 Y73.640 Z16.000 F1000.000
G1 X-37.145 Y73.198 Z16.000 F1000.000
G1 X-40.379 Y76.433 Z16.000 F1000.000
G3 X-41.259 Y75.967 Z16.000 I7.335 J-14.926 K0.000 F1000.000
G1 X-38.027 Y72.735 Z16.000 F1000.000
G1 X-38.906 Y72.270 Z16.000 F1000.000
G1 X-42.122 Y75.486 Z16.000 F1000.000
G1 X-42.986 Y75.004 Z16.000 F1000.000
G1 X-39.780 Y71.798 Z16.000 F1000.000
G1 X-40.636 Y71.309 Z16.000 F1000.000
G1 X-43.835 Y74.509 Z16.000 F1000.000
G1 X-44.677 Y74.006 Z16.000 F1000.000
G1 X-41.492 Y70.821 Z16.000 F1000.000
G3 X-42.334 Y70.318 Z16.000 I7.819 J-14.030 K0.000 F1000.000
G1 X-45.519 Y73.502 Z16.000 F1000.000
G1 X-46.339 Y72.978 Z16.000 F1000.000
G1 X-43.168 Y69.807 Z16.000 F1000.000
G3 X-44.001 Y69.295 Z16.000 I10.846 J-18.605 K0.000 F1000.000
G1 X-47.160 Y72.454 Z16.000 F1000.000
G3 X-47.973 Y71.922 Z16.000 I8.479 J-13.849 K0.000 F1000.000
G1 X-44.813 Y68.762 Z16.000 F1000.000
G1 X-45.625 Y68.229 Z16.000 F1000.000
G1 X-48.773 Y71.377 Z16.000 F1000.000
G1 X-49.572 Y70.832 Z16.000 F1000.000
G1 X-46.428 Y67.687 Z16.000 F1000.000
G1 X-47.218 Y67.132 Z16.000 F1000.000
G1 X-50.358 Y70.272 Z16.000 F1000.000
G1 X-51.137 Y69.706 Z16.000 F1000.000
G1 X-48.008 Y66.577 Z16.000 F1000.000
G3 X-48.783 Y66.007 Z16.000 I8.970 J-13.000 K0.000 F1000.000
G1 X-51.916 Y69.140 Z16.000 F1000.000
G1 X-52.674 Y68.553 Z16.000 F1000.000
G1 X-49.551 Y65.430 Z16.000 F1000.000
G3 X-50.319 Y64.853 Z16.000 I18.420 J-25.311 K0.000 F1000.000
G1 X-53.433 Y67.967 Z16.000 F1000.000
G3 X-54.185 Y67.374 Z16.000 I9.527 J-12.862 K0.000 F1000.000
G1 X-51.066 Y64.255 Z16.000 F1000.000
G1 X-51.812 Y63.657 Z16.000 F1000.000
G1 X-54.923 Y66.767 Z16.000 F1000.000
G1 X-55.661 Y66.161 Z16.000 F1000.000
G1 X-52.552 Y63.052 Z16.000 F1000.000
G1 X-53.278 Y62.432 Z16.000 F1000.000
G1 X-56.387 Y65.541 Z16.000 F1000.000
G1 X-57.104 Y64.914 Z16.000 F1000.000
G1 X-54.003 Y61.813 Z16.000 F1000.000
G3 X-54.715 Y61.180 Z16.000 I9.993 J-11.971 K0.000 F1000.000
G1 X-57.822 Y64.287 Z16.000 F1000.000
G3 X-58.522 Y63.642 Z16.000 I10.427 J-12.014 K0.000 F1000.000
G1 X-55.420 Y60.540 Z16.000 F1000.000
G1 X-56.124 Y59.899 Z16.000 F1000.000
G1 X-59.220 Y62.995 Z16.000 F1000.000
G3 X-59.914 Y62.344 Z16.000 I10.525 J-11.921 K0.000 F1000.000
G1 X-56.809 Y59.239 Z16.000 F1000.000
G1 X-57.492 Y58.577 Z16.000 F1000.000
G1 X-60.591 Y61.677 Z16.000 F1000.000
G1 X-61.269 Y61.009 Z16.000 F1000.000
G1 X-58.171 Y57.911 Z16.000 F1000.000
G1 X-58.833 Y57.228 Z16.000 F1000.000
G1 X-61.937 Y60.333 Z16.000 F1000.000
G1 X-62.594 Y59.645 Z16.000 F1000.000
G1 X-59.495 Y56.545 Z16.000 F1000.000
G3 X-60.146 Y55.852 Z16.000 I11.000 J-10.995 K0.000 F1000.000
G1 X-63.252 Y58.957 Z16.000 F1000.000
G3 X-63.894 Y58.255 Z16.000 I11.414 J-11.085 K0.000 F1000.000
G1 X-60.787 Y55.148 Z16.000 F1000.000
G1 X-61.428 Y54.444 Z16.000 F1000.000
G1 X-64.532 Y57.547 Z16.000 F1000.000
G3 X-65.168 Y56.839 Z16.000 I11.512 J-10.991 K0.000 F1000.000
G1 X-62.052 Y53.723 Z16.000 F1000.000
G1 X-62.672 Y52.998 Z16.000 F1000.000
G1 X-65.785 Y56.111 Z16.000 F1000.000
G1 X-66.402 Y55.383 Z16.000 F1000.000
G1 X-63.290 Y52.271 Z16.000 F1000.000
G1 X-63.888 Y51.524 Z16.000 F1000.000
G1 X-67.013 Y54.649 Z16.000 F1000.000
G1 X-67.610 Y53.901 Z16.000 F1000.000
G1 X-64.486 Y50.777 Z16.000 F1000.000
G3 X-65.076 Y50.023 Z16.000 I12.055 J-10.035 K0.000 F1000.000
G1 X-68.206 Y53.153 Z16.000 F1000.000
G3 X-68.790 Y52.392 Z16.000 I12.417 J-10.140 K0.000 F1000.000
G1 X-65.653 Y49.254 Z16.000 F1000.000
G1 X-66.230 Y48.486 Z16.000 F1000.000
G1 X-69.367 Y51.623 Z16.000 F1000.000
G1 X-69.943 Y50.855 Z16.000 F1000.000
G1 X-66.792 Y47.703 Z16.000 F1000.000
G1 X-67.347 Y46.913 Z16.000 F1000.000
G1 X-70.500 Y50.067 Z16.000 F1000.000
G1 X-71.056 Y49.278 Z16.000 F1000.000
G1 X-67.901 Y46.123 Z16.000 F1000.000
G3 X-68.435 Y45.311 Z16.000 I103.461 J-68.546 K0.000 F1000.000
G1 X-71.606 Y48.483 Z16.000 F1000.000
G1 X-72.141 Y47.673 Z16.000 F1000.000
G1 X-68.968 Y44.500 Z16.000 F1000.000
G3 X-69.493 Y43.680 Z16.000 I13.151 J-9.002 K0.000 F1000.000
G1 X-72.676 Y46.863 Z16.000 F1000.000
G3 X-73.199 Y46.041 Z16.000 I13.477 J-9.141 K0.000 F1000.000
G1 X-70.004 Y42.846 Z16.000 F1000.000
G1 X-70.515 Y42.012 Z16.000 F1000.000
G1 X-73.712 Y45.209 Z16.000 F1000.000
G1 X-74.226 Y44.378 Z16.000 F1000.000
G1 X-71.010 Y41.162 Z16.000 F1000.000
G1 X-71.498 Y40.305 Z16.000 F1000.000
G1 X-74.720 Y43.527 Z16.000 F1000.000
G1 X-75.212 Y42.674 Z16.000 F1000.000
G1 X-71.984 Y39.446 Z16.000 F1000.000
G1 X-72.450 Y38.567 Z16.000 F1000.000
G1 X-75.697 Y41.815 Z16.000 F1000.000
G1 X-76.168 Y40.941 Z16.000 F1000.000
G1 X-72.915 Y37.688 Z16.000 F1000.000
G3 X-73.369 Y36.796 Z16.000 I14.320 J-7.845 K0.000 F1000.000
G1 X-76.639 Y40.066 Z16.000 F1000.000
G3 X-77.093 Y39.176 Z16.000 I14.640 J-8.046 K0.000 F1000.000
G1 X-73.811 Y35.893 Z16.000 F1000.000
G1 X-74.253 Y34.991 Z16.000 F1000.000
G1 X-77.542 Y38.280 Z16.000 F1000.000
G3 X-77.987 Y37.380 Z16.000 I14.802 J-7.894 K0.000 F1000.000
G1 X-74.672 Y34.065 Z16.000 F1000.000
G1 X-75.091 Y33.139 Z16.000 F1000.000
G1 X-78.413 Y36.461 Z16.000 F1000.000
G1 X-78.839 Y35.542 Z16.000 F1000.000
G1 X-75.499 Y32.202 Z16.000 F1000.000
G1 X-75.893 Y31.251 Z16.000 F1000.000
G1 X-79.252 Y34.610 Z16.000 F1000.000
G1 X-79.654 Y33.668 Z16.000 F1000.000
G1 X-76.287 Y30.300 Z16.000 F1000.000
G3 X-76.658 Y29.326 Z16.000 I16.590 J-6.878 K0.000 F1000.000
G1 X-80.056 Y32.724 Z16.000 F1000.000
G1 X-80.435 Y31.758 Z16.000 F1000.000
G1 X-77.027 Y28.350 Z16.000 F1000.000
G3 X-77.384 Y27.362 Z16.000 I15.919 J-6.320 K0.000 F1000.000
G1 X-80.814 Y30.793 Z16.000 F1000.000
G3 X-81.180 Y29.813 Z16.000 I16.179 J-6.597 K0.000 F1000.000
G1 X-77.727 Y26.361 Z16.000 F1000.000
G3 X-78.070 Y25.358 Z16.000 I33.879 J-12.147 K0.000 F1000.000
G1 X-81.534 Y28.823 Z16.000 F1000.000
G3 X-81.887 Y27.831 Z16.000 I16.406 J-6.383 K0.000 F1000.000
G1 X-78.386 Y24.330 Z16.000 F1000.000
G1 X-78.703 Y23.301 Z16.000 F1000.000
G1 X-82.217 Y26.815 Z16.000 F1000.000
G1 X-82.546 Y25.800 Z16.000 F1000.000
G1 X-79.002 Y22.256 Z16.000 F1000.000
G1 X-79.291 Y21.200 Z16.000 F1000.000
G1 X-82.859 Y24.768 Z16.000 F1000.000
G1 X-83.163 Y23.727 Z16.000 F1000.000
G1 X-79.573 Y20.137 Z16.000 F1000.000
G1 X-79.833 Y19.052 Z16.000 F1000.000
G1 X-83.459 Y22.678 Z16.000 F1000.000
G1 X-83.737 Y21.611 Z16.000 F1000.000
G1 X-80.094 Y17.968 Z16.000 F1000.000
G3 X-80.326 Y16.855 Z16.000 I19.646 J-4.685 K0.000 F1000.000
G1 X-84.014 Y20.544 Z16.000 F1000.000
G3 X-84.266 Y19.450 Z16.000 I18.143 J-4.746 K0.000 F1000.000
G1 X-80.557 Y15.741 Z16.000 F1000.000
G3 X-80.767 Y14.606 Z16.000 I18.415 J-3.991 K0.000 F1000.000
G1 X-84.516 Y18.355 Z16.000 F1000.000
G3 X-84.747 Y17.242 Z16.000 I18.486 J-4.424 K0.000 F1000.000
G1 X-80.966 Y13.461 Z16.000 F1000.000
G3 X-81.151 Y12.301 Z16.000 I18.763 J-3.588 K0.000 F1000.000
G1 X-84.968 Y16.118 Z16.000 F1000.000
G3 X-85.178 Y14.983 Z16.000 I18.859 J-4.072 K0.000 F1000.000
G1 X-81.319 Y11.124 Z16.000 F1000.000
G3 X-81.477 Y9.937 Z16.000 I19.294 J-3.168 K0.000 F1000.000
G1 X-85.370 Y13.829 Z16.000 F1000.000
G3 X-85.556 Y12.671 Z16.000 I19.267 J-3.688 K0.000 F1000.000
G1 X-81.610 Y8.725 Z16.000 F1000.000
G3 X-81.738 Y7.508 Z16.000 I20.004 J-2.711 K0.000 F1000.000
G1 X-85.716 Y11.486 Z16.000 F1000.000
G3 X-85.876 Y10.301 Z16.000 I19.716 J-3.266 K0.000 F1000.000
G1 X-81.836 Y6.261 Z16.000 F1000.000
G3 X-81.930 Y5.010 Z16.000 I20.878 J-2.196 K0.000 F1000.000
G1 X-86.004 Y9.084 Z16.000 F1000.000
G1 X-86.132 Y7.867 Z16.000 F1000.000
G1 X-81.991 Y3.726 Z16.000 F1000.000
G3 X-82.047 Y2.437 Z16.000 I21.542 J-1.587 K0.000 F1000.000
G1 X-86.229 Y6.619 Z16.000 F1000.000
G1 X-86.323 Y5.368 Z16.000 F1000.000
G1 X-82.068 Y1.113 Z16.000 F1000.000
G3 X-82.082 Y-0.218 Z16.000 I21.916 J-0.897 K0.000 F1000.000
G1 X-86.386 Y4.087 Z16.000 F1000.000
G1 X-86.444 Y2.800 Z16.000 F1000.000
G1 X-82.060 Y-1.584 Z16.000 F1000.000
G3 X-82.027 Y-2.963 Z16.000 I22.456 J-0.140 K0.000 F1000.000
G1 X-86.470 Y1.481 Z16.000 F1000.000
G1 X-86.490 Y0.156 Z16.000 F1000.000
G1 X-81.960 Y-4.374 Z16.000 F1000.000
G3 X-81.872 Y-5.807 Z16.000 I23.251 J0.712 K0.000 F1000.000
G1 X-86.475 Y-1.205 Z16.000 F1000.000
G1 X-86.454 Y-2.570 Z16.000 F1000.000
G1 X-81.757 Y-7.267 Z16.000 F1000.000
G3 X-81.606 Y-8.763 Z16.000 I24.343 J1.696 K0.000 F1000.000
G1 X-86.391 Y-3.978 Z16.000 F1000.000
G3 X-86.321 Y-5.393 Z16.000 I23.678 J0.467 K0.000 F1000.000
G1 X-81.439 Y-10.275 Z16.000 F1000.000
G3 X-81.217 Y-11.842 Z16.000 I48.686 J6.115 K0.000 F1000.000
G1 X-86.212 Y-6.847 Z16.000 F1000.000
G3 X-86.084 Y-8.319 Z16.000 I24.665 J1.396 K0.000 F1000.000
G1 X-80.971 Y-13.432 Z16.000 F1000.000
G1 X-80.687 Y-15.062 Z16.000 F1000.000
G1 X-85.926 Y-9.822 Z16.000 F1000.000
G3 X-85.733 Y-11.360 Z16.000 I25.795 J2.461 K0.000 F1000.000
G1 X-80.349 Y-16.745 Z16.000 F1000.000
G3 X-79.974 Y-18.464 Z16.000 I27.991 J5.196 K0.000 F1000.000
G1 X-85.521 Y-12.917 Z16.000 F1000.000
G1 X-85.253 Y-14.530 Z16.000 F1000.000
G1 X-79.549 Y-20.234 Z16.000 F1000.000
G3 X-79.051 Y-22.077 Z16.000 I30.710 J7.312 K0.000 F1000.000
G1 X-84.958 Y-16.170 Z16.000 F1000.000
G1 X-84.628 Y-17.845 Z16.000 F1000.000
G1 X-78.494 Y-23.979 Z16.000 F1000.000
G3 X-77.867 Y-25.951 Z16.000 I32.144 J9.134 K0.000 F1000.000
G1 X-84.235 Y-19.583 Z16.000 F1000.000
G3 X-83.802 Y-21.362 Z16.000 I29.930 J6.356 K0.000 F1000.000
G1 X-77.156 Y-28.007 Z16.000 F1000.000
G1 X-76.339 Y-30.169 Z16.000 F1000.000
G1 X-83.321 Y-23.187 Z16.000 F1000.000
G1 X-82.766 Y-25.087 Z16.000 F1000.000
G1 X-75.391 Y-32.462 Z16.000 F1000.000
G3 X-74.294 Y-34.904 Z16.000 I41.203 J17.049 K0.000 F1000.000
G1 X-82.137 Y-27.061 Z16.000 F1000.000
G3 X-81.431 Y-29.112 Z16.000 I34.613 J10.766 K0.000 F1000.000
G1 X-72.983 Y-37.560 Z16.000 F1000.000
G3 X-71.386 Y-40.502 Z16.000 I47.997 J24.148 K0.000 F1000.000
G1 X-80.633 Y-31.255 Z16.000 F1000.000
G3 X-79.721 Y-33.512 Z16.000 I38.151 J14.099 K0.000 F1000.000
G1 X-69.398 Y-43.835 Z16.000 F1000.000
G3 X-66.596 Y-47.982 Z16.000 I64.061 J40.266 K0.000 F1000.000
G1 X-78.670 Y-35.908 Z16.000 F1000.000
G3 X-77.441 Y-38.482 Z16.000 I43.610 J19.240 K0.000 F1000.000
G1 X-60.911 Y-55.012 Z16.000 F1000.000
G3 X-55.012 Y-60.911 Z16.000 I56.202 J50.303 K0.000 F1000.000
G1 X-38.545 Y-77.378 Z16.000 F1000.000
G2 X-41.352 Y-75.915 Z16.000 I21.335 J44.380 K0.000 F1000.000
G1 X-75.983 Y-41.285 Z16.000 F1000.000
G3 X-74.212 Y-44.400 Z16.000 I42.198 J21.921 K0.000 F1000.000
G1 X-44.502 Y-74.111 Z16.000 F1000.000
G2 X-48.168 Y-71.789 Z16.000 I27.741 J47.867 K0.000 F1000.000
G1 X-71.863 Y-48.094 Z16.000 F1000.000
G3 X-68.430 Y-52.872 Z16.000 I67.226 J44.682 K0.000 F1000.000
G1 X-53.003 Y-68.299 Z16.000 F1000.000
G1 X-68.430 Y-52.872 Z16.000 F1000.000
G3 X-53.003 Y-68.299 Z16.000 I67.916 J52.489 K0.000 F1000.000
G0 X-53.003 Y-68.299 Z23.000
G0 X-50.325 Y-64.848 Z23.000
G0 X-50.325 Y-64.848 Z21.000
G1 X-48.597 Y-66.153 Z19.750 F1000.000
G1 X-46.836 Y-67.412 Z18.500 F1000.000
G1 X-48.597 Y-66.153 Z17.250 F1000.000
G1 X-50.325 Y-64.848 Z16.000 F1000.000
G3 X82.085 Y0.000 Z16.000 I50.325 J64.848 K0.000 F1000.000
G3 X-82.085 Y0.025 Z16.000 I-82.085 J0.000 K0.000 F1000.000
G3 X-50.325 Y-64.848 Z16.000 I82.085 J-0.025 K0.000 F1000.000
G0 X-50.325 Y-64.848 Z23.000
G0 X-38.545 Y-77.378 Z23.000
G0 X-38.545 Y-77.378 Z21.000
G1 X-41.607 Y-74.316 Z18.500 F1000.000
G1 X-38.545 Y-77.378 Z16.000 F1000.000
G1 X-55.012 Y-60.911 Z16.000 F1000.000
G3 X-47.982 Y-66.596 Z16.000 I52.127 J57.269 K0.000 F1000.000
G1 X-35.980 Y-78.597 Z16.000 F1000.000
G3 X-33.585 Y-79.648 Z16.000 I18.744 J39.489 K0.000 F1000.000
G1 X-43.835 Y-69.398 Z16.000 F1000.000
G3 X-40.502 Y-71.386 Z16.000 I33.513 J52.397 K0.000 F1000.000
G1 X-31.325 Y-80.563 Z16.000 F1000.000
G3 X-29.175 Y-81.368 Z16.000 I14.526 J35.517 K0.000 F1000.000
G1 X-37.560 Y-72.983 Z16.000 F1000.000
G3 X-34.904 Y-74.294 Z16.000 I23.290 J43.837 K0.000 F1000.000
G1 X-27.132 Y-82.066 Z16.000 F1000.000
G3 X-25.171 Y-82.682 Z16.000 I11.283 J32.463 K0.000 F1000.000
G1 X-32.462 Y-75.391 Z16.000 F1000.000
G3 X-30.169 Y-76.339 Z16.000 I18.320 J41.064 K0.000 F1000.000
G1 X-23.275 Y-83.233 Z16.000 F1000.000
G3 X-21.434 Y-83.729 Z16.000 I9.201 J30.502 K0.000 F1000.000
G1 X-28.007 Y-77.156 Z16.000 F1000.000
G3 X-25.951 Y-77.867 Z16.000 I12.716 J33.440 K0.000 F1000.000
G1 X-19.655 Y-84.163 Z16.000 F1000.000
G3 X-17.933 Y-84.540 Z16.000 I7.158 J28.578 K0.000 F1000.000
G1 X-23.979 Y-78.494 Z16.000 F1000.000
G3 X-22.077 Y-79.051 Z16.000 I9.929 J30.375 K0.000 F1000.000
G1 X-16.246 Y-84.882 Z16.000 F1000.000
G1 X-14.603 Y-85.180 Z16.000 F1000.000
G1 X-20.234 Y-79.549 Z16.000 F1000.000
G1 X-18.464 Y-79.974 Z16.000 F1000.000
G1 X-13.006 Y-85.432 Z16.000 F1000.000
G3 X-11.431 Y-85.662 Z16.000 I4.627 J26.194 K0.000 F1000.000
G1 X-16.745 Y-80.349 Z16.000 F1000.000
G3 X-15.062 Y-80.687 Z16.000 I6.352 J27.258 K0.000 F1000.000
G1 X-9.903 Y-85.846 Z16.000 F1000.000
G3 X-8.398 Y-86.006 Z16.000 I3.414 J25.051 K0.000 F1000.000
G1 X-13.432 Y-80.971 Z16.000 F1000.000
G3 X-11.842 Y-81.217 Z16.000 I4.765 J25.605 K0.000 F1000.000
G1 X-6.920 Y-86.139 Z16.000 F1000.000
G3 X-5.477 Y-86.237 Z16.000 I2.359 J24.057 K0.000 F1000.000
G1 X-10.275 Y-81.439 Z16.000 F1000.000
G3 X-8.763 Y-81.606 Z16.000 I10.019 J83.793 K0.000 F1000.000
G1 X-4.047 Y-86.322 Z16.000 F1000.000
G3 X-2.658 Y-86.367 Z16.000 I1.435 J23.187 K0.000 F1000.000
G1 X-7.267 Y-81.757 Z16.000 F1000.000
G1 X-5.807 Y-81.872 Z16.000 F1000.000
G1 X-1.274 Y-86.405 Z16.000 F1000.000
G1 X0.071 Y-86.405 Z16.000 F1000.000
G1 X-4.374 Y-81.960 Z16.000 F1000.000
G1 X-2.963 Y-82.027 Z16.000 F1000.000
G1 X1.410 Y-86.399 Z16.000 F1000.000
G1 X2.716 Y-86.360 Z16.000 F1000.000
G1 X-1.584 Y-82.060 Z16.000 F1000.000
G1 X-0.218 Y-82.082 Z16.000 F1000.000
G1 X4.015 Y-86.315 Z16.000 F1000.000
G1 X5.284 Y-86.239 Z16.000 F1000.000
G1 X1.113 Y-82.068 Z16.000 F1000.000
G1 X2.437 Y-82.047 Z16.000 F1000.000
G1 X6.548 Y-86.158 Z16.000 F1000.000
G1 X7.782 Y-86.047 Z16.000 F1000.000
G1 X3.726 Y-81.991 Z16.000 F1000.000
G1 X5.010 Y-81.930 Z16.000 F1000.000
G1 X9.014 Y-85.934 Z16.000 F1000.000
G1 X10.215 Y-85.790 Z16.000 F1000.000
G1 X6.261 Y-81.836 Z16.000 F1000.000
G1 X7.508 Y-81.738 Z16.000 F1000.000
G1 X11.415 Y-85.646 Z16.000 F1000.000
G3 X12.587 Y-85.472 Z16.000 I-2.310 J19.659 K0.000 F1000.000
G1 X8.725 Y-81.610 Z16.000 F1000.000
G1 X9.937 Y-81.477 Z16.000 F1000.000
G1 X13.756 Y-85.296 Z16.000 F1000.000
G3 X14.903 Y-85.098 Z16.000 I-2.737 J19.257 K0.000 F1000.000
G1 X11.124 Y-81.319 Z16.000 F1000.000
G1 X12.301 Y-81.151 Z16.000 F1000.000
G1 X16.041 Y-84.891 Z16.000 F1000.000
G3 X17.165 Y-84.670 Z16.000 I-3.128 J18.889 K0.000 F1000.000
G1 X13.461 Y-80.966 Z16.000 F1000.000
G1 X14.606 Y-80.767 Z16.000 F1000.000
G1 X18.274 Y-84.435 Z16.000 F1000.000
G3 X19.377 Y-84.193 Z16.000 I-3.485 J18.553 K0.000 F1000.000
G1 X15.741 Y-80.557 Z16.000 F1000.000
G1 X16.855 Y-80.326 Z16.000 F1000.000
G1 X20.459 Y-83.929 Z16.000 F1000.000
G1 X21.540 Y-83.665 Z16.000 F1000.000
G1 X17.968 Y-80.094 Z16.000 F1000.000
G1 X19.052 Y-79.833 Z16.000 F1000.000
G1 X22.597 Y-83.378 Z16.000 F1000.000
G1 X23.651 Y-83.087 Z16.000 F1000.000
G1 X20.137 Y-79.573 Z16.000 F1000.000
G3 X21.200 Y-79.291 Z16.000 I-4.085 J17.573 K0.000 F1000.000
G1 X24.691 Y-82.782 Z16.000 F1000.000
G1 X25.719 Y-82.465 Z16.000 F1000.000
G1 X22.256 Y-79.002 Z16.000 F1000.000
G3 X23.301 Y-78.703 Z16.000 I-4.362 J17.193 K0.000 F1000.000
G1 X26.744 Y-82.145 Z16.000 F1000.000
G1 X27.746 Y-81.803 Z16.000 F1000.000
G1 X24.330 Y-78.386 Z16.000 F1000.000
G3 X25.358 Y-78.070 Z16.000 I-25.297 J84.028 K0.000 F1000.000
G1 X28.749 Y-81.460 Z16.000 F1000.000
G3 X29.735 Y-81.101 Z16.000 I-5.506 J16.649 K0.000 F1000.000
G1 X26.361 Y-77.727 Z16.000 F1000.000
G1 X27.362 Y-77.384 Z16.000 F1000.000
G1 X30.713 Y-80.734 Z16.000 F1000.000
G3 X31.686 Y-80.362 Z16.000 I-5.726 J16.442 K0.000 F1000.000
G1 X28.350 Y-77.027 Z16.000 F1000.000
G1 X29.326 Y-76.658 Z16.000 F1000.000
G1 X32.640 Y-79.971 Z16.000 F1000.000
G1 X33.594 Y-79.580 Z16.000 F1000.000
G1 X30.300 Y-76.287 Z16.000 F1000.000
G1 X31.251 Y-75.893 Z16.000 F1000.000
G1 X34.531 Y-79.173 Z16.000 F1000.000
G1 X35.462 Y-78.759 Z16.000 F1000.000
G1 X32.202 Y-75.499 Z16.000 F1000.000
G3 X33.139 Y-75.091 Z16.000 I-6.192 J15.491 K0.000 F1000.000
G1 X36.389 Y-78.341 Z16.000 F1000.000
G1 X37.297 Y-77.904 Z16.000 F1000.000
G1 X34.065 Y-74.672 Z16.000 F1000.000
G3 X34.991 Y-74.253 Z16.000 I-7.335 J17.416 K0.000 F1000.000
G1 X38.205 Y-77.467 Z16.000 F1000.000
G3 X39.099 Y-77.016 Z16.000 I-7.076 J15.170 K0.000 F1000.000
G1 X35.893 Y-73.811 Z16.000 F1000.000
G1 X36.796 Y-73.369 Z16.000 F1000.000
G1 X39.984 Y-76.557 Z16.000 F1000.000
G1 X40.870 Y-76.097 Z16.000 F1000.000
G1 X37.688 Y-72.915 Z16.000 F1000.000
G1 X38.567 Y-72.450 Z16.000 F1000.000
G1 X41.733 Y-75.616 Z16.000 F1000.000
G1 X42.597 Y-75.134 Z16.000 F1000.000
G1 X39.446 Y-71.984 Z16.000 F1000.000
G3 X40.305 Y-71.498 Z16.000 I-7.822 J14.829 K0.000 F1000.000
G1 X43.452 Y-74.645 Z16.000 F1000.000
G1 X44.294 Y-74.142 Z16.000 F1000.000
G1 X41.162 Y-71.010 Z16.000 F1000.000
G3 X42.012 Y-70.515 Z16.000 I-7.705 J14.223 K0.000 F1000.000
G1 X45.136 Y-73.639 Z16.000 F1000.000
G3 X45.962 Y-73.120 Z16.000 I-8.256 J14.060 K0.000 F1000.000
G1 X42.846 Y-70.004 Z16.000 F1000.000
G1 X43.680 Y-69.493 Z16.000 F1000.000
G1 X46.783 Y-72.596 Z16.000 F1000.000
G3 X47.601 Y-72.069 Z16.000 I-8.381 J13.941 K0.000 F1000.000
G1 X44.500 Y-68.968 Z16.000 F1000.000
G1 X45.311 Y-68.435 Z16.000 F1000.000
G1 X48.401 Y-71.524 Z16.000 F1000.000
G1 X49.201 Y-70.979 Z16.000 F1000.000
G1 X46.123 Y-67.901 Z16.000 F1000.000
G3 X46.913 Y-67.347 Z16.000 I-12.172 J18.182 K0.000 F1000.000
G1 X49.992 Y-70.425 Z16.000 F1000.000
G1 X50.771 Y-69.859 Z16.000 F1000.000
G1 X47.703 Y-66.792 Z16.000 F1000.000
G3 X48.486 Y-66.230 Z16.000 I-8.826 J13.130 K0.000 F1000.000
G1 X51.550 Y-69.293 Z16.000 F1000.000
G3 X52.313 Y-68.712 Z16.000 I-9.325 J13.052 K0.000 F1000.000
G1 X49.254 Y-65.653 Z16.000 F1000.000
G1 X50.023 Y-65.076 Z16.000 F1000.000
G1 X53.072 Y-68.126 Z16.000 F1000.000
G3 X53.830 Y-67.538 Z16.000 I-9.432 J12.951 K0.000 F1000.000
G1 X50.777 Y-64.486 Z16.000 F1000.000
G1 X51.524 Y-63.888 Z16.000 F1000.000
G1 X54.568 Y-66.931 Z16.000 F1000.000
G1 X55.306 Y-66.325 Z16.000 F1000.000
G1 X52.271 Y-63.290 Z16.000 F1000.000
G3 X52.998 Y-62.672 Z16.000 I-10.560 J13.157 K0.000 F1000.000
G1 X56.037 Y-65.711 Z16.000 F1000.000
G1 X56.755 Y-65.084 Z16.000 F1000.000
G1 X53.723 Y-62.052 Z16.000 F1000.000
G3 X54.444 Y-61.428 Z16.000 I-9.958 J12.221 K0.000 F1000.000
G1 X57.473 Y-64.457 Z16.000 F1000.000
G3 X58.178 Y-63.817 Z16.000 I-10.333 J12.102 K0.000 F1000.000
G1 X55.148 Y-60.787 Z16.000 F1000.000
G1 X55.852 Y-60.146 Z16.000 F1000.000
G1 X58.875 Y-63.170 Z16.000 F1000.000
G1 X59.573 Y-62.523 Z16.000 F1000.000
G1 X56.545 Y-59.495 Z16.000 F1000.000
G1 X57.228 Y-58.833 Z16.000 F1000.000
G1 X60.253 Y-61.857 Z16.000 F1000.000
G1 X60.930 Y-61.190 Z16.000 F1000.000
G1 X57.911 Y-58.171 Z16.000 F1000.000
G3 X58.577 Y-57.492 Z16.000 I-10.943 J11.400 K0.000 F1000.000
G1 X61.604 Y-60.518 Z16.000 F1000.000
G1 X62.261 Y-59.831 Z16.000 F1000.000
G1 X59.239 Y-56.809 Z16.000 F1000.000
G3 X59.899 Y-56.124 Z16.000 I-11.460 J11.699 K0.000 F1000.000
G1 X62.919 Y-59.143 Z16.000 F1000.000
G3 X63.566 Y-58.446 Z16.000 I-11.320 J11.173 K0.000 F1000.000
G1 X60.540 Y-55.420 Z16.000 F1000.000
G1 X61.180 Y-54.715 Z16.000 F1000.000
G1 X64.204 Y-57.739 Z16.000 F1000.000
G1 X64.841 Y-57.031 Z16.000 F1000.000
G1 X61.813 Y-54.003 Z16.000 F1000.000
G1 X62.432 Y-53.278 Z16.000 F1000.000
G1 X65.463 Y-56.308 Z16.000 F1000.000
G1 X66.080 Y-55.580 Z16.000 F1000.000
G1 X63.052 Y-52.552 Z16.000 F1000.000
G3 X63.657 Y-51.812 Z16.000 I-11.837 J10.294 K0.000 F1000.000
G1 X66.696 Y-54.851 Z16.000 F1000.000
G1 X67.293 Y-54.103 Z16.000 F1000.000
G1 X64.255 Y-51.066 Z16.000 F1000.000
G3 X64.853 Y-50.319 Z16.000 I-75.560 J61.139 K0.000 F1000.000
G1 X67.889 Y-53.355 Z16.000 F1000.000
G3 X68.479 Y-52.600 Z16.000 I-12.322 J10.229 K0.000 F1000.000
G1 X65.430 Y-49.551 Z16.000 F1000.000
G1 X66.007 Y-48.783 Z16.000 F1000.000
G1 X69.055 Y-51.831 Z16.000 F1000.000
G1 X69.632 Y-51.062 Z16.000 F1000.000
G1 X66.577 Y-48.008 Z16.000 F1000.000
G1 X67.132 Y-47.218 Z16.000 F1000.000
G1 X70.194 Y-50.280 Z16.000 F1000.000
G1 X70.750 Y-49.491 Z16.000 F1000.000
G1 X67.687 Y-46.428 Z16.000 F1000.000
G3 X68.229 Y-45.625 Z16.000 I-12.881 J9.258 K0.000 F1000.000
G1 X71.306 Y-48.702 Z16.000 F1000.000
G3 X71.841 Y-47.892 Z16.000 I-13.258 J9.349 K0.000 F1000.000
G1 X68.762 Y-44.813 Z16.000 F1000.000
G3 X69.295 Y-44.001 Z16.000 I-103.545 J68.595 K0.000 F1000.000
G1 X72.376 Y-47.082 Z16.000 F1000.000
G3 X72.904 Y-46.265 Z16.000 I-13.379 J9.234 K0.000 F1000.000
G1 X69.807 Y-43.168 Z16.000 F1000.000
G1 X70.318 Y-42.334 Z16.000 F1000.000
G1 X73.418 Y-45.434 Z16.000 F1000.000
G1 X73.931 Y-44.603 Z16.000 F1000.000
G1 X70.821 Y-41.492 Z16.000 F1000.000
G1 X71.309 Y-40.636 Z16.000 F1000.000
G1 X74.431 Y-43.757 Z16.000 F1000.000
G1 X74.923 Y-42.905 Z16.000 F1000.000
G1 X71.798 Y-39.780 Z16.000 F1000.000
G3 X72.270 Y-38.906 Z16.000 I-14.109 J8.190 K0.000 F1000.000
G1 X75.415 Y-42.051 Z16.000 F1000.000
G1 X75.885 Y-41.177 Z16.000 F1000.000
G1 X72.735 Y-38.027 Z16.000 F1000.000
G3 X73.198 Y-37.145 Z16.000 I-14.600 J8.214 K0.000 F1000.000
G1 X76.356 Y-40.303 Z16.000 F1000.000
G3 X76.817 Y-39.419 Z16.000 I-14.537 J8.143 K0.000 F1000.000
G1 X73.640 Y-36.242 Z16.000 F1000.000
G1 X74.082 Y-35.339 Z16.000 F1000.000
G1 X77.265 Y-38.522 Z16.000 F1000.000
G1 X77.713 Y-37.626 Z16.000 F1000.000
G1 X74.511 Y-34.423 Z16.000 F1000.000
G1 X74.929 Y-33.496 Z16.000 F1000.000
G1 X78.143 Y-36.710 Z16.000 F1000.000
G1 X78.568 Y-35.791 Z16.000 F1000.000
G1 X75.347 Y-32.569 Z16.000 F1000.000
G1 X75.741 Y-31.618 Z16.000 F1000.000
G1 X78.987 Y-34.865 Z16.000 F1000.000
G1 X79.390 Y-33.922 Z16.000 F1000.000
G1 X76.135 Y-30.667 Z16.000 F1000.000
G3 X76.515 Y-29.703 Z16.000 I-15.530 J6.689 K0.000 F1000.000
G1 X79.793 Y-32.980 Z16.000 F1000.000
G3 X80.177 Y-32.020 Z16.000 I-15.856 J6.901 K0.000 F1000.000
G1 X76.884 Y-28.727 Z16.000 F1000.000
G3 X77.252 Y-27.749 Z16.000 I-17.319 J7.067 K0.000 F1000.000
G1 X80.556 Y-31.054 Z16.000 F1000.000
G3 X80.928 Y-30.081 Z16.000 I-16.066 J6.703 K0.000 F1000.000
G1 X77.595 Y-26.747 Z16.000 F1000.000
G1 X77.938 Y-25.745 Z16.000 F1000.000
G1 X81.283 Y-29.091 Z16.000 F1000.000
G1 X81.638 Y-28.101 Z16.000 F1000.000
G1 X78.264 Y-24.727 Z16.000 F1000.000
G1 X78.581 Y-23.699 Z16.000 F1000.000
G1 X81.972 Y-27.090 Z16.000 F1000.000
G1 X82.302 Y-26.075 Z16.000 F1000.000
G1 X78.891 Y-22.664 Z16.000 F1000.000
G1 X79.180 Y-21.608 Z16.000 F1000.000
G1 X82.621 Y-25.049 Z16.000 F1000.000
G1 X82.925 Y-24.008 Z16.000 F1000.000
G1 X79.469 Y-20.552 Z16.000 F1000.000
G3 X79.733 Y-19.471 Z16.000 I-17.968 J4.963 K0.000 F1000.000
G1 X83.229 Y-22.967 Z16.000 F1000.000
G1 X83.506 Y-21.900 Z16.000 F1000.000
G1 X79.993 Y-18.386 Z16.000 F1000.000
G3 X80.237 Y-17.285 Z16.000 I-17.798 J4.519 K0.000 F1000.000
G1 X83.784 Y-20.832 Z16.000 F1000.000
G3 X84.043 Y-19.746 Z16.000 I-18.015 J4.867 K0.000 F1000.000
G1 X80.468 Y-16.171 Z16.000 F1000.000
G3 X80.689 Y-15.048 Z16.000 I-18.239 J4.184 K0.000 F1000.000
G1 X84.292 Y-18.651 Z16.000 F1000.000
G3 X84.532 Y-17.545 Z16.000 I-18.353 J4.549 K0.000 F1000.000
G1 X80.889 Y-13.903 Z16.000 F1000.000
G3 X81.087 Y-12.756 Z16.000 I-19.701 J3.982 K0.000 F1000.000
G1 X84.753 Y-16.422 Z16.000 F1000.000
G3 X84.971 Y-15.295 Z16.000 I-18.721 J4.203 K0.000 F1000.000
G1 X81.254 Y-11.578 Z16.000 F1000.000
G1 X81.422 Y-10.401 Z16.000 F1000.000
G1 X85.162 Y-14.141 Z16.000 F1000.000
G1 X85.354 Y-12.988 Z16.000 F1000.000
G1 X81.559 Y-9.193 Z16.000 F1000.000
G1 X81.693 Y-7.982 Z16.000 F1000.000
G1 X85.517 Y-11.806 Z16.000 F1000.000
G1 X85.678 Y-10.622 Z16.000 F1000.000
G1 X81.798 Y-6.742 Z16.000 F1000.000
G1 X81.896 Y-5.496 Z16.000 F1000.000
G1 X85.814 Y-9.413 Z16.000 F1000.000
G1 X85.942 Y-8.196 Z16.000 F1000.000
G1 X81.967 Y-4.222 Z16.000 F1000.000
G1 X82.028 Y-2.937 Z16.000 F1000.000
G1 X86.048 Y-6.958 Z16.000 F1000.000
G1 X86.142 Y-5.707 Z16.000 F1000.000
G1 X82.060 Y-1.624 Z16.000 F1000.000
G1 X82.080 Y-0.300 Z16.000 F1000.000
G1 X86.215 Y-4.435 Z16.000 F1000.000
G1 X86.273 Y-3.148 Z16.000 F1000.000
G1 X82.069 Y1.057 Z16.000 F1000.000
G1 X82.047 Y2.423 Z16.000 F1000.000
G1 X86.310 Y-1.839 Z16.000 F1000.000
G1 X86.329 Y-0.514 Z16.000 F1000.000
G1 X81.986 Y3.829 Z16.000 F1000.000
G3 X81.916 Y5.244 Z16.000 I-24.336 J-0.487 K0.000 F1000.000
G1 X86.325 Y0.835 Z16.000 F1000.000
G1 X86.304 Y2.201 Z16.000 F1000.000
G1 X81.801 Y6.704 Z16.000 F1000.000
G3 X81.671 Y8.179 Z16.000 I-24.012 J-1.381 K0.000 F1000.000
G1 X86.253 Y3.597 Z16.000 F1000.000
G1 X86.190 Y5.005 Z16.000 F1000.000
G1 X81.504 Y9.691 Z16.000 F1000.000
G3 X81.303 Y11.237 Z16.000 I-25.117 J-2.479 K0.000 F1000.000
G1 X86.086 Y6.454 Z16.000 F1000.000
G3 X85.972 Y7.913 Z16.000 I-24.437 J-1.181 K0.000 F1000.000
G1 X81.080 Y12.805 Z16.000 F1000.000
G3 X80.797 Y14.433 Z16.000 I-31.518 J-4.640 K0.000 F1000.000
G1 X85.814 Y9.416 Z16.000 F1000.000
G3 X85.635 Y10.940 Z16.000 I-25.550 J-2.230 K0.000 F1000.000
G1 X80.484 Y16.090 Z16.000 F1000.000
G1 X80.133 Y17.786 Z16.000 F1000.000
G1 X85.424 Y12.495 Z16.000 F1000.000
G3 X85.170 Y14.094 Z16.000 I-26.834 J-3.439 K0.000 F1000.000
G1 X79.714 Y19.551 Z16.000 F1000.000
G3 X79.247 Y21.362 Z16.000 I-29.447 J-6.620 K0.000 F1000.000
G1 X84.892 Y15.717 Z16.000 F1000.000
G1 X84.562 Y17.392 Z16.000 F1000.000
G1 X78.725 Y23.229 Z16.000 F1000.000
G1 X78.127 Y25.172 Z16.000 F1000.000
G1 X84.187 Y19.112 Z16.000 F1000.000
G3 X83.774 Y20.870 Z16.000 I-29.583 J-6.028 K0.000 F1000.000
G1 X77.437 Y27.206 Z16.000 F1000.000
G3 X76.655 Y29.334 Z16.000 I-34.711 J-11.562 K0.000 F1000.000
G1 X83.301 Y22.687 Z16.000 F1000.000
G3 X82.760 Y24.574 Z16.000 I-31.783 J-8.101 K0.000 F1000.000
G1 X75.759 Y31.575 Z16.000 F1000.000
G3 X74.721 Y33.958 Z16.000 I-38.798 J-15.478 K0.000 F1000.000
G1 X82.156 Y26.522 Z16.000 F1000.000
G3 X81.479 Y28.545 Z16.000 I-34.130 J-10.311 K0.000 F1000.000
G1 X73.504 Y36.519 Z16.000 F1000.000
G3 X72.054 Y39.315 Z16.000 I-45.660 J-21.919 K0.000 F1000.000
G1 X80.712 Y30.656 Z16.000 F1000.000
G3 X79.837 Y32.876 Z16.000 I-37.522 J-13.507 K0.000 F1000.000
G1 X70.220 Y42.494 Z16.000 F1000.000
G3 X67.824 Y46.235 Z16.000 I-58.992 J-35.147 K0.000 F1000.000
G1 X78.828 Y35.230 Z16.000 F1000.000
G3 X77.649 Y37.754 Z16.000 I-42.750 J-18.430 K0.000 F1000.000
G1 X63.923 Y51.480 Z16.000 F1000.000
G1 X65.148 Y50.256 Z15.000 F1000.000
G1 X63.923 Y51.480 Z14.000 F1000.000
G1 X77.649 Y37.754 Z14.000 F1000.000
G2 X78.828 Y35.230 Z14.000 I-41.571 J-20.954 K0.000 F1000.000
G1 X67.824 Y46.235 Z14.000 F1000.000
G2 X70.220 Y42.494 Z14.000 I-56.596 J-38.888 K0.000 F1000.000
G1 X79.837 Y32.876 Z14.000 F1000.000
G2 X80.712 Y30.656 Z14.000 I-36.648 J-15.726 K0.000 F1000.000
G1 X72.054 Y39.315 Z14.000 F1000.000
G2 X73.504 Y36.519 Z14.000 I-44.210 J-24.715 K0.000 F1000.000
G1 X81.479 Y28.545 Z14.000 F1000.000
G2 X82.156 Y26.522 Z14.000 I-33.452 J-12.334 K0.000 F1000.000
G1 X74.721 Y33.958 Z14.000 F1000.000
G2 X75.759 Y31.575 Z14.000 I-37.761 J-17.861 K0.000 F1000.000
G1 X82.760 Y24.574 Z14.000 F1000.000
G2 X83.301 Y22.687 Z14.000 I-31.242 J-9.987 K0.000 F1000.000
G1 X76.655 Y29.334 Z14.000 F1000.000
G2 X77.437 Y27.206 Z14.000 I-33.928 J-13.689 K0.000 F1000.000
G1 X83.774 Y20.870 Z14.000 F1000.000
G2 X84.187 Y19.112 Z14.000 I-29.169 J-7.787 K0.000 F1000.000
G1 X78.127 Y25.172 Z14.000 F1000.000
G1 X78.725 Y23.229 Z14.000 F1000.000
G1 X84.562 Y17.392 Z14.000 F1000.000
G1 X84.892 Y15.717 Z14.000 F1000.000
G1 X79.247 Y21.362 Z14.000 F1000.000
G2 X79.714 Y19.551 Z14.000 I-28.980 J-8.432 K0.000 F1000.000
G1 X85.170 Y14.094 Z14.000 F1000.000
G2 X85.424 Y12.495 Z14.000 I-26.580 J-5.038 K0.000 F1000.000
G1 X80.133 Y17.786 Z14.000 F1000.000
G1 X80.484 Y16.090 Z14.000 F1000.000
G1 X85.635 Y10.940 Z14.000 F1000.000
G2 X85.814 Y9.416 Z14.000 I-25.371 J-3.754 K0.000 F1000.000
G1 X80.797 Y14.433 Z14.000 F1000.000
G2 X81.080 Y12.805 Z14.000 I-31.235 J-6.268 K0.000 F1000.000
G1 X85.972 Y7.913 Z14.000 F1000.000
G2 X86.086 Y6.454 Z14.000 I-24.323 J-2.641 K0.000 F1000.000
G1 X81.303 Y11.237 Z14.000 F1000.000
G2 X81.504 Y9.691 Z14.000 I-24.916 J-4.025 K0.000 F1000.000
G1 X86.190 Y5.005 Z14.000 F1000.000
G1 X86.253 Y3.597 Z14.000 F1000.000
G1 X81.671 Y8.179 Z14.000 F1000.000
G2 X81.801 Y6.704 Z14.000 I-23.881 J-2.856 K0.000 F1000.000
G1 X86.304 Y2.201 Z14.000 F1000.000
G1 X86.325 Y0.835 Z14.000 F1000.000
G1 X81.916 Y5.244 Z14.000 F1000.000
G2 X81.986 Y3.829 Z14.000 I-24.267 J-1.902 K0.000 F1000.000
G1 X86.329 Y-0.514 Z14.000 F1000.000
G1 X86.310 Y-1.839 Z14.000 F1000.000
G1 X82.047 Y2.423 Z14.000 F1000.000
G1 X82.069 Y1.057 Z14.000 F1000.000
G1 X86.273 Y-3.148 Z14.000 F1000.000
G1 X86.215 Y-4.435 Z14.000 F1000.000
G1 X82.080 Y-0.300 Z14.000 F1000.000
G1 X82.060 Y-1.624 Z14.000 F1000.000
G1 X86.142 Y-5.707 Z14.000 F1000.000
G1 X86.048 Y-6.958 Z14.000 F1000.000
G1 X82.028 Y-2.937 Z14.000 F1000.000
G1 X81.967 Y-4.222 Z14.000 F1000.000
G1 X85.942 Y-8.196 Z14.000 F1000.000
G1 X85.814 Y-9.413 Z14.000 F1000.000
G1 X81.896 Y-5.496 Z14.000 F1000.000
G1 X81.798 Y-6.742 Z14.000 F1000.000
G1 X85.678 Y-10.622 Z14.000 F1000.000
G1 X85.517 Y-11.806 Z14.000 F1000.000
G1 X81.693 Y-7.982 Z14.000 F1000.000
G1 X81.559 Y-9.193 Z14.000 F1000.000
G1 X85.354 Y-12.988 Z14.000 F1000.000
G1 X85.162 Y-14.141 Z14.000 F1000.000
G1 X81.422 Y-10.401 Z14.000 F1000.000
G1 X81.254 Y-11.578 Z14.000 F1000.000
G1 X84.971 Y-15.295 Z14.000 F1000.000
G2 X84.753 Y-16.422 Z14.000 I-18.939 J3.075 K0.000 F1000.000
G1 X81.087 Y-12.756 Z14.000 F1000.000
G2 X80.889 Y-13.903 Z14.000 I-19.898 J2.834 K0.000 F1000.000
G1 X84.532 Y-17.545 Z14.000 F1000.000
G2 X84.292 Y-18.651 Z14.000 I-18.592 J3.443 K0.000 F1000.000
G1 X80.689 Y-15.048 Z14.000 F1000.000
G2 X80.468 Y-16.171 Z14.000 I-18.461 J3.061 K0.000 F1000.000
G1 X84.043 Y-19.746 Z14.000 F1000.000
G2 X83.784 Y-20.832 Z14.000 I-18.274 J3.781 K0.000 F1000.000
G1 X80.237 Y-17.285 Z14.000 F1000.000
G2 X79.993 Y-18.386 Z14.000 I-18.042 J3.418 K0.000 F1000.000
G1 X83.506 Y-21.900 Z14.000 F1000.000
G1 X83.229 Y-22.967 Z14.000 F1000.000
G1 X79.733 Y-19.471 Z14.000 F1000.000
G2 X79.469 Y-20.552 Z14.000 I-18.232 J3.882 K0.000 F1000.000
G1 X82.925 Y-24.008 Z14.000 F1000.000
G1 X82.621 Y-25.049 Z14.000 F1000.000
G1 X79.180 Y-21.608 Z14.000 F1000.000
G1 X78.891 Y-22.664 Z14.000 F1000.000
G1 X82.302 Y-26.075 Z14.000 F1000.000
G1 X81.972 Y-27.090 Z14.000 F1000.000
G1 X78.581 Y-23.699 Z14.000 F1000.000
G1 X78.264 Y-24.727 Z14.000 F1000.000
G1 X81.638 Y-28.101 Z14.000 F1000.000
G1 X81.283 Y-29.091 Z14.000 F1000.000
G1 X77.938 Y-25.745 Z14.000 F1000.000
G1 X77.595 Y-26.747 Z14.000 F1000.000
G1 X80.928 Y-30.081 Z14.000 F1000.000
G2 X80.556 Y-31.054 Z14.000 I-16.438 J5.730 K0.000 F1000.000
G1 X77.252 Y-27.749 Z14.000 F1000.000
G2 X76.884 Y-28.727 Z14.000 I-17.686 J6.089 K0.000 F1000.000
G1 X80.177 Y-32.020 Z14.000 F1000.000
G2 X79.793 Y-32.980 Z14.000 I-16.240 J5.940 K0.000 F1000.000
G1 X76.515 Y-29.703 Z14.000 F1000.000
G2 X76.135 Y-30.667 Z14.000 I-15.911 J5.724 K0.000 F1000.000
G1 X79.390 Y-33.922 Z14.000 F1000.000
G1 X78.987 Y-34.865 Z14.000 F1000.000
G1 X75.741 Y-31.618 Z14.000 F1000.000
G1 X75.347 Y-32.569 Z14.000 F1000.000
G1 X78.568 Y-35.791 Z14.000 F1000.000
G1 X78.143 Y-36.710 Z14.000 F1000.000
G1 X74.929 Y-33.496 Z14.000 F1000.000
G1 X74.511 Y-34.423 Z14.000 F1000.000
G1 X77.713 Y-37.626 Z14.000 F1000.000
G1 X77.265 Y-38.522 Z14.000 F1000.000
G1 X74.082 Y-35.339 Z14.000 F1000.000
G1 X73.640 Y-36.242 Z14.000 F1000.000
G1 X76.817 Y-39.419 Z14.000 F1000.000
G2 X76.356 Y-40.303 Z14.000 I-14.998 J7.259 K0.000 F1000.000
G1 X73.198 Y-37.145 Z14.000 F1000.000
G2 X72.735 Y-38.027 Z14.000 I-15.063 J7.331 K0.000 F1000.000
G1 X75.885 Y-41.177 Z14.000 F1000.000
G1 X75.415 Y-42.051 Z14.000 F1000.000
G1 X72.270 Y-38.906 Z14.000 F1000.000
G2 X71.798 Y-39.780 Z14.000 I-14.581 J7.316 K0.000 F1000.000
G1 X74.923 Y-42.905 Z14.000 F1000.000
G1 X74.431 Y-43.757 Z14.000 F1000.000
G1 X71.309 Y-40.636 Z14.000 F1000.000
G1 X70.821 Y-41.492 Z14.000 F1000.000
G1 X73.931 Y-44.603 Z14.000 F1000.000
G1 X73.418 Y-45.434 Z14.000 F1000.000
G1 X70.318 Y-42.334 Z14.000 F1000.000
G1 X69.807 Y-43.168 Z14.000 F1000.000
G1 X72.904 Y-46.265 Z14.000 F1000.000
G2 X72.376 Y-47.082 Z14.000 I-13.907 J8.417 K0.000 F1000.000
G1 X69.295 Y-44.001 Z14.000 F1000.000
G2 X68.762 Y-44.813 Z14.000 I-104.078 J67.783 K0.000 F1000.000
G1 X71.841 Y-47.892 Z14.000 F1000.000
G2 X71.306 Y-48.702 Z14.000 I-13.793 J8.540 K0.000 F1000.000
G1 X68.229 Y-45.625 Z14.000 F1000.000
G2 X67.687 Y-46.428 Z14.000 I-13.422 J8.455 K0.000 F1000.000
G1 X70.750 Y-49.491 Z14.000 F1000.000
G1 X70.194 Y-50.280 Z14.000 F1000.000
G1 X67.132 Y-47.218 Z14.000 F1000.000
G1 X66.577 Y-48.008 Z14.000 F1000.000
G1 X69.632 Y-51.062 Z14.000 F1000.000
G1 X69.055 Y-51.831 Z14.000 F1000.000
G1 X66.007 Y-48.783 Z14.000 F1000.000
G1 X65.430 Y-49.551 Z14.000 F1000.000
G1 X68.479 Y-52.600 Z14.000 F1000.000
G2 X67.889 Y-53.355 Z14.000 I-12.911 J9.474 K0.000 F1000.000
G1 X64.853 Y-50.319 Z14.000 F1000.000
G2 X64.255 Y-51.066 Z14.000 I-76.158 J60.392 K0.000 F1000.000
G1 X67.293 Y-54.103 Z14.000 F1000.000
G1 X66.696 Y-54.851 Z14.000 F1000.000
G1 X63.657 Y-51.812 Z14.000 F1000.000
G2 X63.052 Y-52.552 Z14.000 I-12.442 J9.554 K0.000 F1000.000
G1 X66.080 Y-55.580 Z14.000 F1000.000
G1 X65.463 Y-56.308 Z14.000 F1000.000
G1 X62.432 Y-53.278 Z14.000 F1000.000
G1 X61.813 Y-54.003 Z14.000 F1000.000
G1 X64.841 Y-57.031 Z14.000 F1000.000
G1 X64.204 Y-57.739 Z14.000 F1000.000
G1 X61.180 Y-54.715 Z14.000 F1000.000
G1 X60.540 Y-55.420 Z14.000 F1000.000
G1 X63.566 Y-58.446 Z14.000 F1000.000
G2 X62.919 Y-59.143 Z14.000 I-11.968 J10.476 K0.000 F1000.000
G1 X59.899 Y-56.124 Z14.000 F1000.000
G2 X59.239 Y-56.809 Z14.000 I-12.120 J11.014 K0.000 F1000.000
G1 X62.261 Y-59.831 Z14.000 F1000.000
G1 X61.604 Y-60.518 Z14.000 F1000.000
G1 X58.577 Y-57.492 Z14.000 F1000.000
G2 X57.911 Y-58.171 Z14.000 I-11.609 J10.721 K0.000 F1000.000
G1 X60.930 Y-61.190 Z14.000 F1000.000
G1 X60.253 Y-61.857 Z14.000 F1000.000
G1 X57.228 Y-58.833 Z14.000 F1000.000
G1 X56.545 Y-59.495 Z14.000 F1000.000
G1 X59.573 Y-62.523 Z14.000 F1000.000
G1 X58.875 Y-63.170 Z14.000 F1000.000
G1 X55.852 Y-60.146 Z14.000 F1000.000
G1 X55.148 Y-60.787 Z14.000 F1000.000
G1 X58.178 Y-63.817 Z14.000 F1000.000
G2 X57.473 Y-64.457 Z14.000 I-11.039 J11.463 K0.000 F1000.000
G1 X54.444 Y-61.428 Z14.000 F1000.000
G2 X53.723 Y-62.052 Z14.000 I-10.679 J11.597 K0.000 F1000.000
G1 X56.755 Y-65.084 Z14.000 F1000.000
G1 X56.037 Y-65.711 Z14.000 F1000.000
G1 X52.998 Y-62.672 Z14.000 F1000.000
G2 X52.271 Y-63.290 Z14.000 I-11.287 J12.539 K0.000 F1000.000
G1 X55.306 Y-66.325 Z14.000 F1000.000
G1 X54.568 Y-66.931 Z14.000 F1000.000
G1 X51.524 Y-63.888 Z14.000 F1000.000
G1 X50.777 Y-64.486 Z14.000 F1000.000
G1 X53.830 Y-67.538 Z14.000 F1000.000
G2 X53.072 Y-68.126 Z14.000 I-10.190 J12.364 K0.000 F1000.000
G1 X50.023 Y-65.076 Z14.000 F1000.000
G1 X49.254 Y-65.653 Z14.000 F1000.000
G1 X52.313 Y-68.712 Z14.000 F1000.000
G2 X51.550 Y-69.293 Z14.000 I-10.089 J12.471 K0.000 F1000.000
G1 X48.486 Y-66.230 Z14.000 F1000.000
G2 X47.703 Y-66.792 Z14.000 I-9.609 J12.568 K0.000 F1000.000
G1 X50.771 Y-69.859 Z14.000 F1000.000
G1 X49.992 Y-70.425 Z14.000 F1000.000
G1 X46.913 Y-67.347 Z14.000 F1000.000
G2 X46.123 Y-67.901 Z14.000 I-12.962 J17.628 K0.000 F1000.000
G1 X49.201 Y-70.979 Z14.000 F1000.000
G1 X48.401 Y-71.524 Z14.000 F1000.000
G1 X45.311 Y-68.435 Z14.000 F1000.000
G1 X44.500 Y-68.968 Z14.000 F1000.000
G1 X47.601 Y-72.069 Z14.000 F1000.000
G2 X46.783 Y-72.596 Z14.000 I-9.200 J13.415 K0.000 F1000.000
G1 X43.680 Y-69.493 Z14.000 F1000.000
G1 X42.846 Y-70.004 Z14.000 F1000.000
G1 X45.962 Y-73.120 Z14.000 F1000.000
G2 X45.136 Y-73.639 Z14.000 I-9.082 J13.541 K0.000 F1000.000
G1 X42.012 Y-70.515 Z14.000 F1000.000
G2 X41.162 Y-71.010 Z14.000 I-8.555 J13.729 K0.000 F1000.000
G1 X44.294 Y-74.142 Z14.000 F1000.000
G1 X43.452 Y-74.645 Z14.000 F1000.000
G1 X40.305 Y-71.498 Z14.000 F1000.000
G2 X39.446 Y-71.984 Z14.000 I-8.681 J14.343 K0.000 F1000.000
G1 X42.597 Y-75.134 Z14.000 F1000.000
G1 X41.733 Y-75.616 Z14.000 F1000.000
G1 X38.567 Y-72.450 Z14.000 F1000.000
G1 X37.688 Y-72.915 Z14.000 F1000.000
G1 X40.870 Y-76.097 Z14.000 F1000.000
G1 X39.984 Y-76.557 Z14.000 F1000.000
G1 X36.796 Y-73.369 Z14.000 F1000.000
G1 X35.893 Y-73.811 Z14.000 F1000.000
G1 X39.099 Y-77.016 Z14.000 F1000.000
G2 X38.205 Y-77.467 Z14.000 I-7.971 J14.720 K0.000 F1000.000
G1 X34.991 Y-74.253 Z14.000 F1000.000
G2 X34.065 Y-74.672 Z14.000 I-8.261 J16.997 K0.000 F1000.000
G1 X37.297 Y-77.904 Z14.000 F1000.000
G1 X36.389 Y-78.341 Z14.000 F1000.000
G1 X33.139 Y-75.091 Z14.000 F1000.000
G2 X32.202 Y-75.499 Z14.000 I-7.128 J15.083 K0.000 F1000.000
G1 X35.462 Y-78.759 Z14.000 F1000.000
G1 X34.531 Y-79.173 Z14.000 F1000.000
G1 X31.251 Y-75.893 Z14.000 F1000.000
G1 X30.300 Y-76.287 Z14.000 F1000.000
G1 X33.594 Y-79.580 Z14.000 F1000.000
G1 X32.640 Y-79.971 Z14.000 F1000.000
G1 X29.326 Y-76.658 Z14.000 F1000.000
G1 X28.350 Y-77.027 Z14.000 F1000.000
G1 X31.686 Y-80.362 Z14.000 F1000.000
G2 X30.713 Y-80.734 Z14.000 I-6.699 J16.070 K0.000 F1000.000
G1 X27.362 Y-77.384 Z14.000 F1000.000
G1 X26.361 Y-77.727 Z14.000 F1000.000
G1 X29.735 Y-81.101 Z14.000 F1000.000
G2 X28.749 Y-81.460 Z14.000 I-6.492 J16.290 K0.000 F1000.000
G1 X25.358 Y-78.070 Z14.000 F1000.000
G2 X24.330 Y-78.386 Z14.000 I-26.325 J83.712 K0.000 F1000.000
G1 X27.746 Y-81.803 Z14.000 F1000.000
G1 X26.744 Y-82.145 Z14.000 F1000.000
G1 X23.301 Y-78.703 Z14.000 F1000.000
G2 X22.256 Y-79.002 Z14.000 I-5.408 J16.894 K0.000 F1000.000
G1 X25.719 Y-82.465 Z14.000 F1000.000
G1 X24.691 Y-82.782 Z14.000 F1000.000
G1 X21.200 Y-79.291 Z14.000 F1000.000
G2 X20.137 Y-79.573 Z14.000 I-5.148 J17.291 K0.000 F1000.000
G1 X23.651 Y-83.087 Z14.000 F1000.000
G1 X22.597 Y-83.378 Z14.000 F1000.000
G1 X19.052 Y-79.833 Z14.000 F1000.000
G1 X17.968 Y-80.094 Z14.000 F1000.000
G1 X21.540 Y-83.665 Z14.000 F1000.000
G1 X20.459 Y-83.929 Z14.000 F1000.000
G1 X16.855 Y-80.326 Z14.000 F1000.000
G1 X15.741 Y-80.557 Z14.000 F1000.000
G1 X19.377 Y-84.193 Z14.000 F1000.000
G2 X18.274 Y-84.435 Z14.000 I-4.588 J18.311 K0.000 F1000.000
G1 X14.606 Y-80.767 Z14.000 F1000.000
G1 X13.461 Y-80.966 Z14.000 F1000.000
G1 X17.165 Y-84.670 Z14.000 F1000.000
G2 X16.041 Y-84.891 Z14.000 I-4.252 J18.669 K0.000 F1000.000
G1 X12.301 Y-81.151 Z14.000 F1000.000
G1 X11.124 Y-81.319 Z14.000 F1000.000
G1 X14.903 Y-85.098 Z14.000 F1000.000
G2 X13.756 Y-85.296 Z14.000 I-3.884 J19.059 K0.000 F1000.000
G1 X9.937 Y-81.477 Z14.000 F1000.000
G1 X8.725 Y-81.610 Z14.000 F1000.000
G1 X12.587 Y-85.472 Z14.000 F1000.000
G2 X11.415 Y-85.646 Z14.000 I-3.482 J19.486 K0.000 F1000.000
G1 X7.508 Y-81.738 Z14.000 F1000.000
G1 X6.261 Y-81.836 Z14.000 F1000.000
G1 X10.215 Y-85.790 Z14.000 F1000.000
G1 X9.014 Y-85.934 Z14.000 F1000.000
G1 X5.010 Y-81.930 Z14.000 F1000.000
G1 X3.726 Y-81.991 Z14.000 F1000.000
G1 X7.782 Y-86.047 Z14.000 F1000.000
G1 X6.548 Y-86.158 Z14.000 F1000.000
G1 X2.437 Y-82.047 Z14.000 F1000.000
G1 X1.113 Y-82.068 Z14.000 F1000.000
G1 X5.284 Y-86.239 Z14.000 F1000.000
G1 X4.015 Y-86.315 Z14.000 F1000.000
G1 X-0.218 Y-82.082 Z14.000 F1000.000
G1 X-1.584 Y-82.060 Z14.000 F1000.000
G1 X2.716 Y-86.360 Z14.000 F1000.000
G1 X1.410 Y-86.399 Z14.000 F1000.000
G1 X-2.963 Y-82.027 Z14.000 F1000.000
G1 X-4.374 Y-81.960 Z14.000 F1000.000
G1 X0.071 Y-86.405 Z14.000 F1000.000
G1 X-1.274 Y-86.405 Z14.000 F1000.000
G1 X-5.807 Y-81.872 Z14.000 F1000.000
G1 X-7.267 Y-81.757 Z14.000 F1000.000
G1 X-2.658 Y-86.367 Z14.000 F1000.000
G2 X-4.047 Y-86.322 Z14.000 I0.046 J23.231 K0.000 F1000.000
G1 X-8.763 Y-81.606 Z14.000 F1000.000
G2 X-10.275 Y-81.439 Z14.000 I8.507 J83.960 K0.000 F1000.000
G1 X-5.477 Y-86.237 Z14.000 F1000.000
G2 X-6.920 Y-86.139 Z14.000 I0.916 J24.155 K0.000 F1000.000
G1 X-11.842 Y-81.217 Z14.000 F1000.000
G2 X-13.432 Y-80.971 Z14.000 I3.175 J25.850 K0.000 F1000.000
G1 X-8.398 Y-86.006 Z14.000 F1000.000
G2 X-9.903 Y-85.846 Z14.000 I1.910 J25.210 K0.000 F1000.000
G1 X-15.062 Y-80.687 Z14.000 F1000.000
G2 X-16.745 Y-80.349 Z14.000 I4.669 J27.597 K0.000 F1000.000
G1 X-11.431 Y-85.662 Z14.000 F1000.000
G2 X-13.006 Y-85.432 Z14.000 I3.053 J26.424 K0.000 F1000.000
G1 X-18.464 Y-79.974 Z14.000 F1000.000
G1 X-20.234 Y-79.549 Z14.000 F1000.000
G1 X-14.603 Y-85.180 Z14.000 F1000.000
G1 X-16.246 Y-84.882 Z14.000 F1000.000
G1 X-22.077 Y-79.051 Z14.000 F1000.000
G2 X-23.979 Y-78.494 Z14.000 I8.027 J30.932 K0.000 F1000.000
G1 X-17.933 Y-84.540 Z14.000 F1000.000
G2 X-19.655 Y-84.163 Z14.000 I5.437 J28.955 K0.000 F1000.000
G1 X-25.951 Y-77.867 Z14.000 F1000.000
G2 X-28.007 Y-77.156 Z14.000 I10.660 J34.151 K0.000 F1000.000
G1 X-21.434 Y-83.729 Z14.000 F1000.000
G2 X-23.275 Y-83.233 Z14.000 I7.361 J30.998 K0.000 F1000.000
G1 X-30.169 Y-76.339 Z14.000 F1000.000
G2 X-32.462 Y-75.391 Z14.000 I16.027 J42.012 K0.000 F1000.000
G1 X-25.171 Y-82.682 Z14.000 F1000.000
G2 X-27.132 Y-82.066 Z14.000 I9.322 J33.079 K0.000 F1000.000
G1 X-34.904 Y-74.294 Z14.000 F1000.000
G2 X-37.560 Y-72.983 Z14.000 I20.634 J45.148 K0.000 F1000.000
G1 X-29.175 Y-81.368 Z14.000 F1000.000
G2 X-31.325 Y-80.563 Z14.000 I12.376 J36.322 K0.000 F1000.000
G1 X-40.502 Y-71.386 Z14.000 F1000.000
G2 X-43.835 Y-69.398 Z14.000 I30.180 J54.385 K0.000 F1000.000
G1 X-33.585 Y-79.648 Z14.000 F1000.000
G2 X-35.980 Y-78.597 Z14.000 I16.348 J40.540 K0.000 F1000.000
G1 X-47.982 Y-66.596 Z14.000 F1000.000
G2 X-55.012 Y-60.911 Z14.000 I45.097 J62.954 K0.000 F1000.000
G1 X-38.545 Y-77.378 Z14.000 F1000.000
G0 X-38.545 Y-77.378 Z23.000
G0 X-38.546 Y-77.380 Z23.000
G0 X-38.546 Y-77.380 Z21.000
G1 X-40.345 Y-76.460 Z19.833 F1000.000
G1 X-42.121 Y-75.497 Z18.667 F1000.000
G1 X-43.875 Y-74.494 Z17.500 F1000.000
G1 X-42.121 Y-75.497 Z16.333 F1000.000
G1 X-40.345 Y-76.460 Z15.167 F1000.000
G1 X-38.546 Y-77.380 Z14.000 F1000.000
G2 X-86.493 Y0.000 Z14.000 I38.468 J77.380 K0.000 F1000.000
G2 X86.337 Y0.000 Z14.000 I86.415 J-0.000 K0.000 F1000.000
G2 X-38.546 Y-77.380 Z14.000 I-86.415 J0.000 K0.000 F1000.000
G0 X-38.546 Y-77.380 Z23.000
G0 X-36.600 Y-73.474 Z23.000
G0 X-36.600 Y-73.474 Z21.000
G1 X-34.780 Y-74.352 Z19.833 F1000.000
G1 X-32.940 Y-75.186 Z18.667 F1000.000
G1 X-31.079 Y-75.974 Z17.500 F1000.000
G1 X-32.940 Y-75.186 Z16.333 F1000.000
G1 X-34.780 Y-74.352 Z15.167 F1000.000
G1 X-36.600 Y-73.474 Z14.000 F1000.000
G3 X82.085 Y0.000 Z14.000 I36.600 J73.474 K0.000 F1000.000
G3 X-82.085 Y0.025 Z14.000 I-82.085 J0.000 K0.000 F1000.000
G3 X-36.600 Y-73.474 Z14.000 I82.085 J-0.025 K0.000 F1000.000
G0 X-36.600 Y-73.474 Z23.000
G0 X-53.003 Y-68.299 Z23.000
G0 X-53.003 Y-68.299 Z21.000
G1 X-57.290 Y-64.013 Z17.500 F1000.000
G1 X-53.003 Y-68.299 Z14.000 F1000.000
G1 X-68.430 Y-52.872 Z14.000 F1000.000
G2 X-71.863 Y-48.094 Z14.000 I63.792 J49.461 K0.000 F1000.000
G1 X-48.168 Y-71.789 Z14.000 F1000.000
G3 X-44.502 Y-74.111 Z14.000 I31.408 J45.546 K0.000 F1000.000
G1 X-74.212 Y-44.400 Z14.000 F1000.000
G2 X-75.983 Y-41.285 Z14.000 I40.427 J25.036 K0.000 F1000.000
G1 X-41.352 Y-75.915 Z14.000 F1000.000
G3 X-38.545 Y-77.378 Z14.000 I24.143 J42.918 K0.000 F1000.000
G1 X-55.012 Y-60.911 Z14.000 F1000.000
G2 X-60.911 Y-55.012 Z14.000 I50.303 J56.202 K0.000 F1000.000
G1 X-77.441 Y-38.482 Z14.000 F1000.000
G2 X-78.670 Y-35.908 Z14.000 I42.381 J21.814 K0.000 F1000.000
G1 X-66.596 Y-47.982 Z14.000 F1000.000
G2 X-69.398 Y-43.835 Z14.000 I61.258 J44.413 K0.000 F1000.000
G1 X-79.721 Y-33.512 Z14.000 F1000.000
G2 X-80.633 Y-31.255 Z14.000 I37.240 J16.355 K0.000 F1000.000
G1 X-71.386 Y-40.502 Z14.000 F1000.000
G2 X-72.983 Y-37.560 Z14.000 I46.400 J27.089 K0.000 F1000.000
G1 X-81.431 Y-29.112 Z14.000 F1000.000
G2 X-82.137 Y-27.061 Z14.000 I33.907 J12.817 K0.000 F1000.000
G1 X-74.294 Y-34.904 Z14.000 F1000.000
G2 X-75.391 Y-32.462 Z14.000 I40.105 J19.492 K0.000 F1000.000
G1 X-82.766 Y-25.087 Z14.000 F1000.000
G1 X-83.321 Y-23.187 Z14.000 F1000.000
G1 X-76.339 Y-30.169 Z14.000 F1000.000
G1 X-77.156 Y-28.007 Z14.000 F1000.000
G1 X-83.802 Y-21.362 Z14.000 F1000.000
G2 X-84.235 Y-19.583 Z14.000 I29.497 J8.134 K0.000 F1000.000
G1 X-77.867 Y-25.951 Z14.000 F1000.000
G2 X-78.494 Y-23.979 Z14.000 I31.517 J11.106 K0.000 F1000.000
G1 X-84.628 Y-17.845 Z14.000 F1000.000
G1 X-84.958 Y-16.170 Z14.000 F1000.000
G1 X-79.051 Y-22.077 Z14.000 F1000.000
