(Exported by FreeCAD)
(Post Processor: grbl_post)
(Output Time:2024-11-19 15:41:03.337136)
(Begin preamble)
G17 G90
G21
(Begin operation: Fixture)
(Path: Fixture)
G54
(Finish operation: Fixture)
(Begin operation: eigthinchendmill001)
(Path: eigthinchendmill001)
(eigthinchendmill001)
(Begin toolchange)
( M6 T2 )
M3 S18000
(Finish operation: eigthinchendmill001)
(Begin operation: Pocket_Shape)
(Path: Pocket_Shape)
(Pocket_Shape)
G0 Z32.712
G0 X173.942 Y173.804
G0 Z30.712
G1 X173.942 Y173.804 Z24.712 F1400.000
G3 X7.500 Y104.861 Z24.712 I-68.942 J-68.944 K0.000 F1400.000
G3 X202.500 Y104.861 Z24.712 I97.500 J0.000 K0.000 F1400.000
G3 X173.942 Y173.804 Z24.712 I-97.500 J0.000 K0.000 F1400.000
G0 Z32.712
G0 X199.409 Y129.214 Z32.712
G0 X199.409 Y129.214 Z30.712
G1 X199.409 Y129.214 Z24.712 F1400.000
G3 X191.087 Y150.615 Z24.712 I-93.632 J-24.093 K0.000 F1400.000
G1 X202.433 Y108.270 Z24.712 F1400.000
G2 X202.321 Y99.030 Z24.712 I-92.378 J-3.499 K0.000 F1400.000
G1 X186.368 Y158.566 Z24.712 F1400.000
G3 X182.227 Y164.362 Z24.712 I-73.017 J-47.790 K0.000 F1400.000
G1 X201.632 Y91.940 Z24.712 F1400.000
G2 X200.648 Y85.955 Z24.712 I-88.833 J11.543 K0.000 F1400.000
G1 X178.385 Y169.041 Z24.712 F1400.000
G3 X174.740 Y172.983 Z24.712 I-56.854 J-48.904 K0.000 F1400.000
G1 X199.462 Y80.723 Z24.712 F1400.000
G2 X198.131 Y76.029 Z24.712 I-78.478 J19.714 K0.000 F1400.000
G1 X171.239 Y176.393 Z24.712 F1400.000
G3 X167.844 Y179.404 Z24.712 I-40.373 J-42.110 K0.000 F1400.000
G1 X196.692 Y71.739 Z24.712 F1400.000
G2 X195.167 Y67.773 Z24.712 I-71.454 J25.198 K0.000 F1400.000
G1 X164.546 Y182.053 Z24.712 F1400.000
G3 X161.315 Y184.450 Z24.712 I-34.518 J-43.149 K0.000 F1400.000
G1 X193.562 Y64.103 Z24.712 F1400.000
G2 X191.897 Y60.658 Z24.712 I-62.215 J27.954 K0.000 F1400.000
G1 X158.155 Y186.585 Z24.712 F1400.000
G3 X155.046 Y188.529 Z24.712 I-36.186 J-54.431 K0.000 F1400.000
G1 X190.176 Y57.421 Z24.712 F1400.000
G2 X188.403 Y54.379 Z24.712 I-55.097 J30.077 K0.000 F1400.000
G1 X151.986 Y190.289 Z24.712 F1400.000
G3 X148.974 Y191.872 Z24.712 I-29.706 J-52.888 K0.000 F1400.000
G1 X186.588 Y51.495 Z24.712 F1400.000
G2 X184.734 Y48.755 Z24.712 I-49.749 J31.672 K0.000 F1400.000
G1 X146.000 Y193.310 Z24.712 F1400.000
G3 X143.062 Y194.615 Z24.712 I-24.727 J-51.703 K0.000 F1400.000
G1 X182.842 Y46.154 Z24.712 F1400.000
G2 X180.915 Y43.688 Z24.712 I-44.897 J33.119 K0.000 F1400.000
G1 X140.158 Y195.796 Z24.712 F1400.000
G3 X137.285 Y196.859 Z24.712 I-20.384 J-50.669 K0.000 F1400.000
G1 X178.956 Y41.338 Z24.712 F1400.000
G2 X176.969 Y39.097 Z24.712 I-40.941 J34.299 K0.000 F1400.000
G1 X134.443 Y197.806 Z24.712 F1400.000
G3 X131.629 Y198.649 Z24.712 I-16.423 J-49.726 K0.000 F1400.000
G1 X174.954 Y36.958 Z24.712 F1400.000
G2 X172.913 Y34.916 Z24.712 I-37.401 J35.355 K0.000 F1400.000
G1 X128.841 Y199.395 Z24.712 F1400.000
G3 X126.077 Y200.048 Z24.712 I-13.025 J-48.916 K0.000 F1400.000
G1 X170.846 Y32.968 Z24.712 F1400.000
G2 X168.757 Y31.108 Z24.712 I-34.188 J36.313 K0.000 F1400.000
G1 X123.338 Y200.613 Z24.712 F1400.000
G3 X120.621 Y201.093 Z24.712 I-9.920 J-48.177 K0.000 F1400.000
G1 X166.644 Y29.333 Z24.712 F1400.000
G2 X164.509 Y27.640 Z24.712 I-31.238 J37.193 K0.000 F1400.000
G1 X117.926 Y201.492 Z24.712 F1400.000
G3 X115.252 Y201.813 Z24.712 I-7.048 J-47.493 K0.000 F1400.000
G1 X162.354 Y26.026 Z24.712 F1400.000
G2 X160.178 Y24.488 Z24.712 I-28.495 J38.011 K0.000 F1400.000
G1 X112.598 Y202.057 Z24.712 F1400.000
G3 X109.964 Y202.228 Z24.712 I-4.362 J-46.854 K0.000 F1400.000
G1 X157.982 Y23.024 Z24.712 F1400.000
G2 X155.767 Y21.632 Z24.712 I-25.919 J38.779 K0.000 F1400.000
G1 X107.349 Y202.327 Z24.712 F1400.000
G3 X104.753 Y202.357 Z24.712 I-1.824 J-46.249 K0.000 F1400.000
G1 X153.533 Y20.309 Z24.712 F1400.000
G2 X151.281 Y19.055 Z24.712 I-23.473 J39.508 K0.000 F1400.000
G1 X102.175 Y202.318 Z24.712 F1400.000
G1 X99.616 Y202.211 Z24.712 F1400.000
G1 X149.010 Y17.868 Z24.712 F1400.000
G2 X146.723 Y16.747 Z24.712 I-21.128 J40.208 K0.000 F1400.000
G1 X97.075 Y202.034 Z24.712 F1400.000
G3 X94.551 Y201.793 Z24.712 I3.032 J-45.094 K0.000 F1400.000
G1 X144.418 Y15.690 Z24.712 F1400.000
G2 X142.096 Y14.697 Z24.712 I-18.859 J40.885 K0.000 F1400.000
G1 X92.045 Y201.489 Z24.712 F1400.000
G3 X89.555 Y201.121 Z24.712 I5.311 J-44.551 K0.000 F1400.000
G1 X139.757 Y13.767 Z24.712 F1400.000
G1 X137.399 Y12.904 Z24.712 F1400.000
G1 X87.082 Y200.690 Z24.712 F1400.000
G3 X84.626 Y200.198 Z24.712 I7.545 J-44.019 K0.000 F1400.000
G1 X135.026 Y12.105 Z24.712 F1400.000
G2 X132.635 Y11.367 Z24.712 I-14.347 J42.230 K0.000 F1400.000
G1 X82.186 Y199.644 Z24.712 F1400.000
G3 X79.763 Y199.029 Z24.712 I9.755 J-43.492 K0.000 F1400.000
G1 X130.228 Y10.690 Z24.712 F1400.000
G2 X127.805 Y10.075 Z24.712 I-12.174 J42.878 K0.000 F1400.000
G1 X77.356 Y198.352 Z24.712 F1400.000
G3 X74.966 Y197.614 Z24.712 I11.961 J-42.967 K0.000 F1400.000
G1 X125.365 Y9.521 Z24.712 F1400.000
G2 X122.909 Y9.029 Z24.712 I-9.997 J43.528 K0.000 F1400.000
G1 X72.592 Y196.814 Z24.712 F1400.000
G1 X70.235 Y195.952 Z24.712 F1400.000
G1 X120.436 Y8.599 Z24.712 F1400.000
G2 X117.946 Y8.232 Z24.712 I-7.796 J44.184 K0.000 F1400.000
G1 X67.896 Y195.021 Z24.712 F1400.000
G3 X65.574 Y194.028 Z24.712 I16.542 J-41.877 K0.000 F1400.000
G1 X115.439 Y7.927 Z24.712 F1400.000
G2 X112.916 Y7.686 Z24.712 I-5.551 J44.854 K0.000 F1400.000
G1 X63.269 Y192.971 Z24.712 F1400.000
G3 X60.981 Y191.849 Z24.712 I18.845 J-41.328 K0.000 F1400.000
G1 X110.375 Y7.510 Z24.712 F1400.000
G1 X107.815 Y7.403 Z24.712 F1400.000
G1 X58.711 Y190.662 Z24.712 F1400.000
G3 X56.459 Y189.408 Z24.712 I21.226 J-40.761 K0.000 F1400.000
G1 X105.238 Y7.364 Z24.712 F1400.000
G2 X102.641 Y7.394 Z24.712 I-0.768 J46.280 K0.000 F1400.000
G1 X54.225 Y188.085 Z24.712 F1400.000
G3 X52.010 Y186.692 Z24.712 I23.709 J-40.170 K0.000 F1400.000
G1 X100.026 Y7.494 Z24.712 F1400.000
G2 X97.392 Y7.665 Z24.712 I1.733 J47.026 K0.000 F1400.000
G1 X49.814 Y185.228 Z24.712 F1400.000
G3 X47.638 Y183.690 Z24.712 I26.324 J-39.547 K0.000 F1400.000
G1 X94.739 Y7.909 Z24.712 F1400.000
G2 X92.065 Y8.230 Z24.712 I4.379 J47.815 K0.000 F1400.000
G1 X45.483 Y182.075 Z24.712 F1400.000
G3 X43.348 Y180.382 Z24.712 I29.108 J-38.884 K0.000 F1400.000
G1 X89.369 Y8.629 Z24.712 F1400.000
G2 X86.652 Y9.110 Z24.712 I7.208 J48.659 K0.000 F1400.000
G1 X41.236 Y178.607 Z24.712 F1400.000
G3 X39.146 Y176.747 Z24.712 I32.104 J-38.171 K0.000 F1400.000
G1 X83.913 Y9.676 Z24.712 F1400.000
G2 X81.149 Y10.329 Z24.712 I10.267 J49.571 K0.000 F1400.000
G1 X37.080 Y174.798 Z24.712 F1400.000
G3 X35.039 Y172.756 Z24.712 I35.365 J-37.395 K0.000 F1400.000
G1 X78.361 Y11.075 Z24.712 F1400.000
G2 X75.547 Y11.918 Z24.712 I13.614 J50.570 K0.000 F1400.000
G1 X33.024 Y170.617 Z24.712 F1400.000
G3 X31.037 Y168.375 Z24.712 I38.960 J-36.539 K0.000 F1400.000
G1 X72.705 Y12.866 Z24.712 F1400.000
G2 X69.832 Y13.930 Z24.712 I17.518 J51.734 K0.000 F1400.000
G1 X29.078 Y166.024 Z24.712 F1400.000
G3 X27.151 Y163.559 Z24.712 I42.977 J-35.582 K0.000 F1400.000
G1 X66.927 Y15.111 Z24.712 F1400.000
G2 X63.989 Y16.416 Z24.712 I21.796 J53.010 K0.000 F1400.000
G1 X25.260 Y160.957 Z24.712 F1400.000
G3 X23.406 Y158.217 Z24.712 I47.902 J-34.410 K0.000 F1400.000
G1 X61.015 Y17.855 Z24.712 F1400.000
G2 X58.003 Y19.438 Z24.712 I26.702 J54.473 K0.000 F1400.000
G1 X21.591 Y155.331 Z24.712 F1400.000
G3 X19.818 Y152.289 Z24.712 I53.333 J-33.117 K0.000 F1400.000
G1 X54.943 Y21.199 Z24.712 F1400.000
G2 X51.834 Y23.143 Z24.712 I33.086 J56.377 K0.000 F1400.000
G1 X18.097 Y149.051 Z24.712 F1400.000
G3 X16.432 Y145.606 Z24.712 I60.560 J-31.396 K0.000 F1400.000
G1 X48.673 Y25.279 Z24.712 F1400.000
G2 X45.443 Y27.677 Z24.712 I39.476 J56.560 K0.000 F1400.000
G1 X14.827 Y141.935 Z24.712 F1400.000
G3 X13.302 Y137.967 Z24.712 I69.941 J-29.162 K0.000 F1400.000
G1 X42.144 Y30.327 Z24.712 F1400.000
G2 X38.749 Y33.339 Z24.712 I50.800 J60.685 K0.000 F1400.000
G1 X11.864 Y133.676 Z24.712 F1400.000
G3 X10.534 Y128.981 Z24.712 I58.634 J-19.146 K0.000 F1400.000
G1 X35.247 Y36.752 Z24.712 F1400.000
G2 X31.601 Y40.696 Z24.712 I49.664 J49.551 K0.000 F1400.000
G1 X9.349 Y123.745 Z24.712 F1400.000
G3 X8.365 Y117.758 Z24.712 I71.242 J-14.781 K0.000 F1400.000
G1 X27.759 Y45.378 Z24.712 F1400.000
G2 X23.616 Y51.180 Z24.712 I68.804 J53.505 K0.000 F1400.000
G1 X7.677 Y110.664 Z24.712 F1400.000
G3 X7.569 Y101.410 Z24.712 I91.776 J-5.704 K0.000 F1400.000
G1 X18.895 Y59.141 Z24.712 F1400.000
G2 X7.569 Y101.410 Z24.712 I85.791 J45.639 K0.000 F1400.000
G1 X7.569 Y101.410 Z21.712 F1400.000
G3 X18.895 Y59.141 Z21.712 I97.117 J3.371 K0.000 F1400.000
G1 X7.569 Y101.410 Z21.712 F1400.000
G2 X7.677 Y110.664 Z21.712 I91.885 J3.550 K0.000 F1400.000
G1 X23.616 Y51.180 Z21.712 F1400.000
G3 X27.759 Y45.378 Z21.712 I72.947 J47.703 K0.000 F1400.000
G1 X8.365 Y117.758 Z21.712 F1400.000
G2 X9.349 Y123.745 Z21.712 I72.226 J-8.793 K0.000 F1400.000
G1 X31.601 Y40.696 Z21.712 F1400.000
G3 X35.247 Y36.752 Z21.712 I53.309 J45.606 K0.000 F1400.000
G1 X10.534 Y128.981 Z21.712 F1400.000
G2 X11.864 Y133.676 Z21.712 I59.964 J-14.451 K0.000 F1400.000
G1 X38.749 Y33.339 Z21.712 F1400.000
G3 X42.144 Y30.327 Z21.712 I54.196 J57.673 K0.000 F1400.000
G1 X13.302 Y137.967 Z21.712 F1400.000
G2 X14.827 Y141.935 Z21.712 I71.466 J-25.195 K0.000 F1400.000
G1 X45.443 Y27.677 Z21.712 F1400.000
G3 X48.673 Y25.279 Z21.712 I42.707 J54.162 K0.000 F1400.000
G1 X16.432 Y145.606 Z21.712 F1400.000
G2 X18.097 Y149.051 Z21.712 I62.225 J-27.951 K0.000 F1400.000
G1 X51.834 Y23.143 Z21.712 F1400.000
G3 X54.943 Y21.199 Z21.712 I36.195 J54.433 K0.000 F1400.000
G1 X19.818 Y152.289 Z21.712 F1400.000
G2 X21.591 Y155.331 Z21.712 I55.106 J-30.074 K0.000 F1400.000
G1 X58.003 Y19.438 Z21.712 F1400.000
G3 X61.015 Y17.855 Z21.712 I29.714 J52.890 K0.000 F1400.000
G1 X23.406 Y158.217 Z21.712 F1400.000
G2 X25.260 Y160.957 Z21.712 I49.756 J-31.670 K0.000 F1400.000
G1 X63.989 Y16.416 Z21.712 F1400.000
G3 X66.927 Y15.111 Z21.712 I24.734 J51.704 K0.000 F1400.000
G1 X27.151 Y163.559 Z21.712 F1400.000
G2 X29.078 Y166.024 Z21.712 I44.904 J-33.117 K0.000 F1400.000
G1 X69.832 Y13.930 Z21.712 F1400.000
G3 X72.705 Y12.866 Z21.712 I20.391 J50.670 K0.000 F1400.000
G1 X31.037 Y168.375 Z21.712 F1400.000
G2 X33.024 Y170.617 Z21.712 I40.948 J-34.297 K0.000 F1400.000
G1 X75.547 Y11.918 Z21.712 F1400.000
G3 X78.361 Y11.075 Z21.712 I16.428 J49.727 K0.000 F1400.000
G1 X35.039 Y172.756 Z21.712 F1400.000
G2 X37.080 Y174.798 Z21.712 I37.406 J-35.353 K0.000 F1400.000
G1 X81.149 Y10.329 Z21.712 F1400.000
G3 X83.913 Y9.676 Z21.712 I13.030 J48.918 K0.000 F1400.000
G1 X39.146 Y176.747 Z21.712 F1400.000
G2 X41.236 Y178.607 Z21.712 I34.194 J-36.311 K0.000 F1400.000
G1 X86.652 Y9.110 Z21.712 F1400.000
G3 X89.369 Y8.629 Z21.712 I9.925 J48.178 K0.000 F1400.000
G1 X43.348 Y180.382 Z21.712 F1400.000
G2 X45.483 Y182.075 Z21.712 I31.243 J-37.191 K0.000 F1400.000
G1 X92.065 Y8.230 Z21.712 F1400.000
G3 X94.739 Y7.909 Z21.712 I7.053 J47.494 K0.000 F1400.000
G1 X47.638 Y183.690 Z21.712 F1400.000
G2 X49.814 Y185.228 Z21.712 I28.500 J-38.009 K0.000 F1400.000
G1 X97.392 Y7.665 Z21.712 F1400.000
G3 X100.026 Y7.494 Z21.712 I4.367 J46.855 K0.000 F1400.000
G1 X52.010 Y186.692 Z21.712 F1400.000
G2 X54.225 Y188.085 Z21.712 I25.924 J-38.778 K0.000 F1400.000
G1 X102.641 Y7.394 Z21.712 F1400.000
G3 X105.238 Y7.364 Z21.712 I1.828 J46.251 K0.000 F1400.000
G1 X56.459 Y189.408 Z21.712 F1400.000
G2 X58.711 Y190.662 Z21.712 I23.478 J-39.507 K0.000 F1400.000
G1 X107.815 Y7.403 Z21.712 F1400.000
G1 X110.375 Y7.510 Z21.712 F1400.000
G1 X60.981 Y191.849 Z21.712 F1400.000
G2 X63.269 Y192.971 Z21.712 I21.133 J-40.206 K0.000 F1400.000
G1 X112.916 Y7.686 Z21.712 F1400.000
G3 X115.439 Y7.927 Z21.712 I-3.027 J45.094 K0.000 F1400.000
G1 X65.574 Y194.028 Z21.712 F1400.000
G2 X67.896 Y195.021 Z21.712 I18.864 J-40.883 K0.000 F1400.000
G1 X117.946 Y8.232 Z21.712 F1400.000
G3 X120.436 Y8.599 Z21.712 I-5.306 J44.552 K0.000 F1400.000
G1 X70.235 Y195.952 Z21.712 F1400.000
G1 X72.592 Y196.814 Z21.712 F1400.000
G1 X122.909 Y9.029 Z21.712 F1400.000
G3 X125.365 Y9.521 Z21.712 I-7.541 J44.020 K0.000 F1400.000
G1 X74.966 Y197.614 Z21.712 F1400.000
G2 X77.356 Y198.352 Z21.712 I14.352 J-42.229 K0.000 F1400.000
G1 X127.805 Y10.075 Z21.712 F1400.000
G3 X130.228 Y10.690 Z21.712 I-9.751 J43.493 K0.000 F1400.000
G1 X79.763 Y199.029 Z21.712 F1400.000
G2 X82.186 Y199.644 Z21.712 I12.179 J-42.877 K0.000 F1400.000
G1 X132.635 Y11.367 Z21.712 F1400.000
G3 X135.026 Y12.105 Z21.712 I-11.957 J42.968 K0.000 F1400.000
G1 X84.626 Y200.198 Z21.712 F1400.000
G2 X87.082 Y200.690 Z21.712 I10.002 J-43.526 K0.000 F1400.000
G1 X137.399 Y12.904 Z21.712 F1400.000
G1 X139.757 Y13.767 Z21.712 F1400.000
G1 X89.555 Y201.121 Z21.712 F1400.000
G2 X92.045 Y201.489 Z21.712 I7.800 J-44.183 K0.000 F1400.000
G1 X142.096 Y14.697 Z21.712 F1400.000
G3 X144.418 Y15.690 Z21.712 I-16.537 J41.878 K0.000 F1400.000
G1 X94.551 Y201.793 Z21.712 F1400.000
G2 X97.075 Y202.034 Z21.712 I5.555 J-44.853 K0.000 F1400.000
G1 X146.723 Y16.747 Z21.712 F1400.000
G3 X149.010 Y17.868 Z21.712 I-18.841 J41.329 K0.000 F1400.000
G1 X99.616 Y202.211 Z21.712 F1400.000
G1 X102.175 Y202.318 Z21.712 F1400.000
G1 X151.281 Y19.055 Z21.712 F1400.000
G3 X153.533 Y20.309 Z21.712 I-21.221 J40.762 K0.000 F1400.000
G1 X104.753 Y202.357 Z21.712 F1400.000
G2 X107.349 Y202.327 Z21.712 I0.773 J-46.279 K0.000 F1400.000
G1 X155.767 Y21.632 Z21.712 F1400.000
G3 X157.982 Y23.024 Z21.712 I-23.704 J40.171 K0.000 F1400.000
G1 X109.964 Y202.228 Z21.712 F1400.000
G2 X112.598 Y202.057 Z21.712 I-1.728 J-47.025 K0.000 F1400.000
G1 X160.178 Y24.488 Z21.712 F1400.000
G3 X162.354 Y26.026 Z21.712 I-26.319 J39.548 K0.000 F1400.000
G1 X115.252 Y201.813 Z21.712 F1400.000
G2 X117.926 Y201.492 Z21.712 I-4.374 J-47.814 K0.000 F1400.000
G1 X164.509 Y27.640 Z21.712 F1400.000
G3 X166.644 Y29.333 Z21.712 I-29.103 J38.886 K0.000 F1400.000
G1 X120.621 Y201.093 Z21.712 F1400.000
G2 X123.338 Y200.613 Z21.712 I-7.203 J-48.658 K0.000 F1400.000
G1 X168.757 Y31.108 Z21.712 F1400.000
G3 X170.846 Y32.968 Z21.712 I-32.099 J38.172 K0.000 F1400.000
G1 X126.077 Y200.048 Z21.712 F1400.000
G2 X128.841 Y199.395 Z21.712 I-10.262 J-49.570 K0.000 F1400.000
G1 X172.913 Y34.916 Z21.712 F1400.000
G3 X174.954 Y36.958 Z21.712 I-35.359 J37.396 K0.000 F1400.000
G1 X131.629 Y198.649 Z21.712 F1400.000
G2 X134.443 Y197.806 Z21.712 I-13.609 J-50.568 K0.000 F1400.000
G1 X176.969 Y39.097 Z21.712 F1400.000
G3 X178.956 Y41.338 Z21.712 I-38.954 J36.540 K0.000 F1400.000
G1 X137.285 Y196.859 Z21.712 F1400.000
G2 X140.158 Y195.796 Z21.712 I-17.511 J-51.732 K0.000 F1400.000
G1 X180.915 Y43.688 Z21.712 F1400.000
G3 X182.842 Y46.154 Z21.712 I-42.970 J35.584 K0.000 F1400.000
G1 X143.062 Y194.615 Z21.712 F1400.000
G2 X146.000 Y193.310 Z21.712 I-21.789 J-53.008 K0.000 F1400.000
G1 X184.734 Y48.755 Z21.712 F1400.000
G3 X186.588 Y51.495 Z21.712 I-47.895 J34.411 K0.000 F1400.000
G1 X148.974 Y191.872 Z21.712 F1400.000
G2 X151.986 Y190.289 Z21.712 I-26.694 J-54.471 K0.000 F1400.000
G1 X188.403 Y54.379 Z21.712 F1400.000
G3 X190.176 Y57.421 Z21.712 I-53.324 J33.119 K0.000 F1400.000
G1 X155.046 Y188.529 Z21.712 F1400.000
G2 X158.155 Y186.585 Z21.712 I-33.077 J-56.374 K0.000 F1400.000
G1 X191.897 Y60.658 Z21.712 F1400.000
G3 X193.562 Y64.103 Z21.712 I-60.550 J31.398 K0.000 F1400.000
G1 X161.315 Y184.450 Z21.712 F1400.000
G2 X164.546 Y182.053 Z21.712 I-31.288 J-45.546 K0.000 F1400.000
G1 X195.167 Y67.773 Z21.712 F1400.000
G3 X196.692 Y71.739 Z21.712 I-69.928 J29.165 K0.000 F1400.000
G1 X167.844 Y179.404 Z21.712 F1400.000
G2 X171.239 Y176.393 Z21.712 I-36.979 J-45.120 K0.000 F1400.000
G1 X198.131 Y76.029 Z21.712 F1400.000
G3 X199.462 Y80.723 Z21.712 I-77.147 J24.407 K0.000 F1400.000
G1 X174.740 Y172.983 Z21.712 F1400.000
G2 X178.385 Y169.041 Z21.712 I-53.210 J-52.847 K0.000 F1400.000
G1 X200.648 Y85.955 Z21.712 F1400.000
G3 X201.632 Y91.940 Z21.712 I-87.848 J17.527 K0.000 F1400.000
G1 X182.227 Y164.362 Z21.712 F1400.000
G2 X186.368 Y158.566 Z21.712 I-68.876 J-53.586 K0.000 F1400.000
G1 X202.321 Y99.030 Z21.712 F1400.000
G3 X202.433 Y108.270 Z21.712 I-92.266 J5.741 K0.000 F1400.000
G1 X191.087 Y150.615 Z21.712 F1400.000
G2 X199.409 Y129.214 Z21.712 I-85.310 J-45.495 K0.000 F1400.000
G1 X199.409 Y129.214 Z21.712 F1400.000
G3 X7.500 Y104.861 Z21.712 I-94.409 J-24.353 K0.000 F1400.000
G3 X202.500 Y104.861 Z21.712 I97.500 J0.000 K0.000 F1400.000
G3 X199.409 Y129.214 Z21.712 I-97.500 J0.000 K0.000 F1400.000
G0 Z32.712
G0 Z32.712
(Finish operation: Pocket_Shape)
(Begin operation: DressupTag)
(Path: DressupTag)
G0 Z32.712
G0 X181.014 Y180.874 Z32.712
G0 X181.014 Y180.874 Z30.712
G1 X181.014 Y180.874 Z24.712 F1400.000
G2 X110.956 Y-2.474 Z24.712 I-76.014 J-76.014 K0.000 F1400.000
G2 X-2.335 Y98.904 Z24.712 I-5.956 J107.335 K0.000 F1400.000
G2 X99.044 Y212.195 Z24.712 I107.335 J5.956 K0.000 F1400.000
G2 X181.014 Y180.874 Z24.712 I5.956 J-107.335 K0.000 F1400.000
G1 X181.014 Y180.874 Z21.712 F1400.000
G2 X110.956 Y-2.474 Z21.712 I-76.014 J-76.014 K0.000 F1400.000
G2 X-2.335 Y98.904 Z21.712 I-5.956 J107.335 K0.000 F1400.000
G2 X99.044 Y212.195 Z21.712 I107.335 J5.956 K0.000 F1400.000
G2 X181.014 Y180.874 Z21.712 I5.956 J-107.335 K0.000 F1400.000
G1 X181.014 Y180.874 Z18.712 F1400.000
G2 X110.956 Y-2.474 Z18.712 I-76.014 J-76.014 K0.000 F1400.000
G2 X-2.335 Y98.904 Z18.712 I-5.956 J107.335 K0.000 F1400.000
G2 X99.044 Y212.195 Z18.712 I107.335 J5.956 K0.000 F1400.000
G2 X181.014 Y180.874 Z18.712 I5.956 J-107.335 K0.000 F1400.000
G1 X181.014 Y180.874 Z15.712 F1400.000
G2 X110.956 Y-2.474 Z15.712 I-76.014 J-76.014 K0.000 F1400.000
G2 X-2.335 Y98.904 Z15.712 I-5.956 J107.335 K0.000 F1400.000
G2 X99.044 Y212.195 Z15.712 I107.335 J5.956 K0.000 F1400.000
G2 X181.014 Y180.874 Z15.712 I5.956 J-107.335 K0.000 F1400.000
G1 X181.014 Y180.874 Z12.712 F1400.000
G2 X110.956 Y-2.474 Z12.712 I-76.014 J-76.014 K0.000 F1400.000
G2 X-2.335 Y98.904 Z12.712 I-5.956 J107.335 K0.000 F1400.000
G2 X99.044 Y212.195 Z12.712 I107.335 J5.956 K0.000 F1400.000
G2 X181.014 Y180.874 Z12.712 I5.956 J-107.335 K0.000 F1400.000
G1 X181.014 Y180.874 Z9.712 F1400.000
G2 X110.956 Y-2.474 Z9.712 I-76.014 J-76.014 K0.000 F1400.000
G2 X-2.335 Y98.904 Z9.712 I-5.956 J107.335 K0.000 F1400.000
G2 X99.044 Y212.195 Z9.712 I107.335 J5.956 K0.000 F1400.000
G2 X181.014 Y180.874 Z9.712 I5.956 J-107.335 K0.000 F1400.000
G1 X181.014 Y180.874 Z6.712 F1400.000
G2 X110.956 Y-2.474 Z6.712 I-76.014 J-76.014 K0.000 F1400.000
G2 X-2.335 Y98.904 Z6.712 I-5.956 J107.335 K0.000 F1400.000
G2 X99.044 Y212.195 Z6.712 I107.335 J5.956 K0.000 F1400.000
G2 X181.014 Y180.874 Z6.712 I5.956 J-107.335 K0.000 F1400.000
G1 X181.014 Y180.874 Z3.712 F1400.000
G2 X110.956 Y-2.474 Z3.712 I-76.014 J-76.014 K0.000 F1400.000
G2 X-2.335 Y98.904 Z3.712 I-5.956 J107.335 K0.000 F1400.000
G2 X99.044 Y212.195 Z3.712 I107.335 J5.956 K0.000 F1400.000
G2 X181.014 Y180.874 Z3.712 I5.956 J-107.335 K0.000 F1400.000
G1 X181.014 Y180.874 Z0.712 F1400.000
G2 X110.956 Y-2.474 Z0.712 I-76.014 J-76.014 K0.000 F1400.000
G2 X-2.335 Y98.904 Z0.712 I-5.956 J107.335 K0.000 F1400.000
G2 X99.044 Y212.195 Z0.712 I107.335 J5.956 K0.000 F1400.000
G2 X181.014 Y180.874 Z0.712 I5.956 J-107.335 K0.000 F1400.000
G1 X181.014 Y180.874 Z0.000 F1400.000
G2 X110.956 Y-2.474 Z0.000 I-76.014 J-76.014 K0.000 F1400.000
G2 X-2.335 Y98.904 Z0.000 I-5.956 J107.335 K0.000 F1400.000
G2 X99.044 Y212.195 Z0.000 I107.335 J5.956 K0.000 F1400.000
G2 X181.014 Y180.874 Z0.000 I5.956 J-107.335 K0.000 F1400.000
G0 X181.014 Y180.874 Z32.712
(Finish operation: DressupTag)
(Begin postamble)
M5
G17 G90
M2
