(Exported by FreeCAD)
(Post Processor: grbl_post)
(Output Time:2024-12-11 13:50:29.149792)
(Begin preamble)
G17 G90
G21
(Begin operation: Fixture)
(Path: Fixture)
G54
(Finish operation: Fixture)
(Begin operation: endmill_compression_3175_spe001)
(Path: endmill_compression_3175_spe001)
(endmill_compression_3175_spe001)
(Begin toolchange)
( M6 T2 )
M3 S18000
(Finish operation: endmill_compression_3175_spe001)
(Begin operation: Cut Inner Pocket)
(Path: Cut Inner Pocket)
G0 X0.000 Y0.000 Z23.000
G0 X48.377 Y48.376 Z23.000
G0 X48.377 Y48.376 Z21.000
G1 X49.883 Y46.822 Z19.750 F600.000
G1 X51.339 Y45.220 Z18.500 F600.000
G1 X49.883 Y46.822 Z17.250 F600.000
G1 X48.377 Y48.376 Z16.000 F600.000
G2 X9.748 Y-67.717 Z16.000 I-48.377 J-48.377 K0.000 F600.000
G3 X8.415 Y-69.282 Z16.000 I0.252 J-1.565 K0.000 F600.000
G1 X8.415 Y-82.980 Z16.000 F600.000
G2 X-0.000 Y-83.415 Z16.000 I-8.298 J79.007 K0.000 F600.000
G2 X-8.415 Y-82.980 Z16.000 I-0.117 J79.442 K0.000 F600.000
G1 X-8.415 Y-69.282 Z16.000 F600.000
G3 X-9.747 Y-67.717 Z16.000 I-1.585 J0.000 K0.000 F600.000
G2 X-9.723 Y67.720 Z16.000 I9.748 J67.717 K0.000 F600.000
G2 X48.377 Y48.376 Z16.000 I9.722 J-67.721 K0.000 F600.000
G0 X48.377 Y48.376 Z23.000
G0 X67.627 Y-10.291 Z23.000
G0 X67.627 Y-10.291 Z21.000
G1 X64.565 Y-13.353 Z18.500 F600.000
G1 X67.627 Y-10.291 Z16.000 F600.000
G1 X10.288 Y-67.630 Z16.000 F600.000
G1 X11.892 Y-67.371 Z16.000 F600.000
G1 X67.365 Y-11.898 Z16.000 F600.000
G2 X67.060 Y-13.548 Z16.000 I-24.995 J3.768 K0.000 F600.000
G1 X13.558 Y-67.050 Z16.000 F600.000
G3 X15.275 Y-66.678 Z16.000 I-4.734 J26.028 K0.000 F600.000
G1 X66.682 Y-15.271 Z16.000 F600.000
G2 X66.246 Y-17.051 Z16.000 I-27.028 J5.670 K0.000 F600.000
G1 X17.049 Y-66.249 Z16.000 F600.000
G3 X18.892 Y-65.751 Z16.000 I-6.575 J27.995 K0.000 F600.000
G1 X65.743 Y-18.900 Z16.000 F600.000
G2 X65.158 Y-20.829 Z16.000 I-29.342 J7.836 K0.000 F600.000
G1 X20.817 Y-65.171 Z16.000 F600.000
G3 X22.848 Y-64.485 Z16.000 I-9.314 J30.921 K0.000 F600.000
G1 X64.476 Y-22.856 Z16.000 F600.000
G2 X63.674 Y-25.003 Z16.000 I-32.725 J11.001 K0.000 F600.000
G1 X24.993 Y-63.684 Z16.000 F600.000
G3 X27.286 Y-62.736 Z16.000 I-12.591 J33.709 K0.000 F600.000
G1 X62.722 Y-27.300 Z16.000 F600.000
G2 X61.579 Y-29.788 Z16.000 I-38.035 J15.969 K0.000 F600.000
G1 X29.784 Y-61.584 Z16.000 F600.000
G3 X32.543 Y-60.169 Z16.000 I-19.921 J42.257 K0.000 F600.000
G1 X60.185 Y-32.528 Z16.000 F600.000
G2 X58.341 Y-35.716 Z16.000 I-36.367 J18.901 K0.000 F600.000
G1 X35.708 Y-58.349 Z16.000 F600.000
G3 X39.680 Y-55.722 Z16.000 I-29.808 J49.385 K0.000 F600.000
G1 X55.721 Y-39.681 Z16.000 F600.000
G2 X47.826 Y-48.921 Z16.000 I-54.822 J38.849 K0.000 F600.000
G0 X47.826 Y-48.921 Z23.000
G0 X8.415 Y-82.952 Z23.000
G0 X8.415 Y-82.952 Z21.000
G1 X8.413 Y-82.982 Z20.981 F600.000
G1 X8.384 Y-82.984 Z20.962 F600.000
G1 X8.415 Y-82.952 Z20.937 F600.000
G1 X8.415 Y-81.607 Z20.160 F600.000
G1 X6.899 Y-83.123 Z18.922 F600.000
G1 X6.170 Y-83.177 Z18.500 F600.000
G1 X6.899 Y-83.123 Z18.078 F600.000
G1 X8.415 Y-81.607 Z16.840 F600.000
G1 X8.415 Y-82.952 Z16.063 F600.000
G1 X8.384 Y-82.984 Z16.038 F600.000
G1 X8.413 Y-82.982 Z16.019 F600.000
G1 X8.415 Y-82.952 Z16.000 F600.000
G2 X8.384 Y-82.984 Z16.000 I-0.017 J-0.014 K0.000 F600.000
G1 X8.415 Y-82.952 Z16.000 F600.000
G1 X8.415 Y-81.607 Z16.000 F600.000
G1 X6.899 Y-83.123 Z16.000 F600.000
G1 X5.447 Y-83.231 Z16.000 F600.000
G1 X8.415 Y-80.262 Z16.000 F600.000
G1 X8.415 Y-78.917 Z16.000 F600.000
G1 X4.023 Y-83.309 Z16.000 F600.000
G1 X2.616 Y-83.372 Z16.000 F600.000
G1 X8.415 Y-77.573 Z16.000 F600.000
G1 X8.415 Y-76.228 Z16.000 F600.000
G1 X1.246 Y-83.396 Z16.000 F600.000
G2 X-0.115 Y-83.413 Z16.000 I-0.963 J23.078 K0.000 F600.000
G1 X8.415 Y-74.883 Z16.000 F600.000
G1 X8.415 Y-73.538 Z16.000 F600.000
G1 X-1.441 Y-83.394 Z16.000 F600.000
G2 X-2.757 Y-83.365 Z16.000 I-0.180 J22.340 K0.000 F600.000
G1 X8.415 Y-72.193 Z16.000 F600.000
G1 X8.415 Y-70.848 Z16.000 F600.000
G1 X-4.045 Y-83.308 Z16.000 F600.000
G2 X-5.322 Y-83.240 Z16.000 I0.523 J21.677 K0.000 F600.000
G1 X8.415 Y-69.503 Z16.000 F600.000
G2 X9.748 Y-67.717 Z16.000 I1.601 J0.195 K0.000 F600.000
G1 X10.288 Y-67.630 Z16.000 F600.000
G1 X67.627 Y-10.291 Z16.000 F600.000
G3 X67.852 Y-8.721 Z16.000 I-23.523 J4.171 K0.000 F600.000
G1 X-6.574 Y-83.147 Z16.000 F600.000
G2 X-7.814 Y-83.043 Z16.000 I1.157 J21.079 K0.000 F600.000
G1 X68.030 Y-7.199 Z16.000 F600.000
G3 X68.166 Y-5.717 Z16.000 I-22.237 J2.796 K0.000 F600.000
G1 X-8.415 Y-82.298 Z16.000 F600.000
G1 X-8.415 Y-80.953 Z16.000 F600.000
G1 X68.278 Y-4.260 Z16.000 F600.000
G1 X68.348 Y-2.845 Z16.000 F600.000
G1 X-8.415 Y-79.608 Z16.000 F600.000
G1 X-8.415 Y-78.264 Z16.000 F600.000
G1 X68.391 Y-1.458 Z16.000 F600.000
G1 X68.413 Y-0.090 Z16.000 F600.000
G1 X-8.415 Y-76.919 Z16.000 F600.000
G1 X-8.415 Y-75.574 Z16.000 F600.000
G1 X68.394 Y1.235 Z16.000 F600.000
G3 X68.363 Y2.550 Z16.000 I-19.569 J0.203 K0.000 F600.000
G1 X-8.415 Y-74.229 Z16.000 F600.000
G1 X-8.415 Y-72.884 Z16.000 F600.000
G1 X68.299 Y3.830 Z16.000 F600.000
G3 X68.218 Y5.094 Z16.000 I-18.849 J-0.568 K0.000 F600.000
G1 X-8.415 Y-71.539 Z16.000 F600.000
G1 X-8.415 Y-70.194 Z16.000 F600.000
G1 X68.114 Y6.335 Z16.000 F600.000
G3 X67.988 Y7.554 Z16.000 I-18.205 J-1.256 K0.000 F600.000
G1 X-8.467 Y-68.901 Z16.000 F600.000
G3 X-8.985 Y-68.074 Z16.000 I-1.428 J-0.318 K0.000 F600.000
G1 X67.846 Y8.757 Z16.000 F600.000
G3 X67.681 Y9.936 Z16.000 I-17.627 J-1.875 K0.000 F600.000
G1 X-9.942 Y-67.686 Z16.000 F600.000
G1 X-11.099 Y-67.499 Z16.000 F600.000
G1 X67.503 Y11.103 Z16.000 F600.000
G3 X67.301 Y12.246 Z16.000 I-17.104 J-2.434 K0.000 F600.000
G1 X-12.251 Y-67.306 Z16.000 F600.000
G1 X-13.375 Y-67.085 Z16.000 F600.000
G1 X67.089 Y13.379 Z16.000 F600.000
G3 X66.854 Y14.489 Z16.000 I-16.628 J-2.943 K0.000 F600.000
G1 X-14.494 Y-66.859 Z16.000 F600.000
G1 X-15.586 Y-66.606 Z16.000 F600.000
G1 X66.610 Y15.590 Z16.000 F600.000
G3 X66.344 Y16.669 Z16.000 I-16.193 J-3.409 K0.000 F600.000
G1 X-16.675 Y-66.349 Z16.000 F600.000
G1 X-17.736 Y-66.066 Z16.000 F600.000
G1 X66.069 Y17.739 Z16.000 F600.000
G3 X65.776 Y18.791 Z16.000 I-15.792 J-3.837 K0.000 F600.000
G1 X-18.796 Y-65.781 Z16.000 F600.000
G1 X-19.828 Y-65.468 Z16.000 F600.000
G1 X65.470 Y19.830 Z16.000 F600.000
G3 X65.151 Y20.856 Z16.000 I-15.422 J-4.233 K0.000 F600.000
G1 X-20.860 Y-65.155 Z16.000 F600.000
G2 X-21.866 Y-64.816 Z16.000 I4.539 J15.136 K0.000 F600.000
G1 X64.817 Y21.867 Z16.000 F600.000
G3 X64.474 Y22.869 Z16.000 I-15.078 J-4.601 K0.000 F600.000
G1 X-22.870 Y-64.475 Z16.000 F600.000
G2 X-23.852 Y-64.113 Z16.000 I4.893 J14.805 K0.000 F600.000
G1 X64.112 Y23.852 Z16.000 F600.000
G3 X63.747 Y24.832 Z16.000 I-14.757 J-4.945 K0.000 F600.000
G1 X-24.828 Y-63.744 Z16.000 F600.000
G2 X-25.790 Y-63.360 Z16.000 I5.225 J14.495 K0.000 F600.000
G1 X63.358 Y25.788 Z16.000 F600.000
G1 X62.969 Y26.744 Z16.000 F600.000
G1 X-26.739 Y-62.964 Z16.000 F600.000
G2 X-27.680 Y-62.560 Z16.000 I5.537 J14.203 K0.000 F600.000
G1 X62.557 Y27.676 Z16.000 F600.000
G1 X62.142 Y28.606 Z16.000 F600.000
G1 X-28.603 Y-62.138 Z16.000 F600.000
G2 X-29.525 Y-61.715 Z16.000 I5.831 J13.928 K0.000 F600.000
G1 X61.710 Y29.519 Z16.000 F600.000
G1 X61.269 Y30.423 Z16.000 F600.000
G1 X-30.422 Y-61.268 Z16.000 F600.000
G1 X-31.320 Y-60.821 Z16.000 F600.000
G1 X60.820 Y31.319 Z16.000 F600.000
G1 X60.354 Y32.198 Z16.000 F600.000
G1 X-32.199 Y-60.355 Z16.000 F600.000
G1 X-33.071 Y-59.882 Z16.000 F600.000
G1 X59.887 Y33.076 Z16.000 F600.000
G1 X59.397 Y33.931 Z16.000 F600.000
G1 X-33.933 Y-59.400 Z16.000 F600.000
G1 X-34.782 Y-58.903 Z16.000 F600.000
G1 X58.907 Y34.785 Z16.000 F600.000
G3 X58.399 Y35.623 Z16.000 I-12.714 J-7.130 K0.000 F600.000
G1 X-35.628 Y-58.404 Z16.000 F600.000
G1 X-36.452 Y-57.884 Z16.000 F600.000
G1 X57.885 Y36.453 Z16.000 F600.000
G3 X57.362 Y37.276 Z16.000 I-12.492 J-7.367 K0.000 F600.000
G1 X-37.276 Y-57.363 Z16.000 F600.000
G2 X-38.083 Y-56.825 Z16.000 I7.598 J12.276 K0.000 F600.000
G1 X56.824 Y38.083 Z16.000 F600.000
G1 X56.286 Y38.890 Z16.000 F600.000
G1 X-38.884 Y-56.281 Z16.000 F600.000
G2 X-39.677 Y-55.729 Z16.000 I7.823 J12.065 K0.000 F600.000
G1 X55.725 Y39.673 Z16.000 F600.000
G1 X55.164 Y40.457 Z16.000 F600.000
G1 X-40.454 Y-55.161 Z16.000 F600.000
G1 X-41.232 Y-54.594 Z16.000 F600.000
G1 X54.589 Y41.227 Z16.000 F600.000
G1 X54.004 Y41.987 Z16.000 F600.000
G1 X-41.987 Y-54.004 Z16.000 F600.000
G1 X-42.741 Y-53.413 Z16.000 F600.000
G1 X53.415 Y42.743 Z16.000 F600.000
G1 X52.808 Y43.481 Z16.000 F600.000
G1 X-43.483 Y-52.810 Z16.000 F600.000
G1 X-44.214 Y-52.197 Z16.000 F600.000
G1 X52.201 Y44.218 Z16.000 F600.000
G3 X51.575 Y44.938 Z16.000 I-11.015 J-8.947 K0.000 F600.000
G1 X-44.942 Y-51.580 Z16.000 F600.000
G1 X-45.651 Y-50.944 Z16.000 F600.000
G1 X50.945 Y45.653 Z16.000 F600.000
G3 X50.306 Y46.359 Z16.000 I-10.823 J-9.152 K0.000 F600.000
G1 X-46.360 Y-50.308 Z16.000 F600.000
G2 X-47.052 Y-49.655 Z16.000 I9.369 J10.621 K0.000 F600.000
G1 X49.654 Y47.051 Z16.000 F600.000
G1 X49.001 Y47.743 Z16.000 F600.000
G1 X-47.738 Y-48.996 Z16.000 F600.000
G2 X-48.417 Y-48.330 Z16.000 I9.572 J10.431 K0.000 F600.000
G1 X48.326 Y48.414 Z16.000 F600.000
G1 X47.651 Y49.083 Z16.000 F600.000
G1 X-49.081 Y-47.648 Z16.000 F600.000
G1 X-49.744 Y-46.967 Z16.000 F600.000
G1 X46.963 Y49.740 Z16.000 F600.000
G1 X46.265 Y50.387 Z16.000 F600.000
G1 X-50.387 Y-46.265 Z16.000 F600.000
G1 X-51.028 Y-45.561 Z16.000 F600.000
G1 X45.564 Y51.031 Z16.000 F600.000
G1 X44.844 Y51.656 Z16.000 F600.000
G1 X-51.658 Y-44.846 Z16.000 F600.000
G1 X-52.276 Y-44.120 Z16.000 F600.000
G1 X44.123 Y52.280 Z16.000 F600.000
G3 X43.386 Y52.888 Z16.000 I-9.409 J-10.664 K0.000 F600.000
G1 X-52.892 Y-43.391 Z16.000 F600.000
G1 X-53.488 Y-42.642 Z16.000 F600.000
G1 X42.643 Y53.489 Z16.000 F600.000
G3 X41.892 Y54.083 Z16.000 I-9.213 J-10.874 K0.000 F600.000
G1 X-54.084 Y-41.892 Z16.000 F600.000
G2 X-54.663 Y-41.127 Z16.000 I11.095 J9.006 K0.000 F600.000
G1 X41.126 Y54.662 Z16.000 F600.000
G1 X40.360 Y55.241 Z16.000 F600.000
G1 X-55.236 Y-40.355 Z16.000 F600.000
G2 X-55.801 Y-39.575 Z16.000 I11.312 J8.804 K0.000 F600.000
G1 X39.572 Y55.798 Z16.000 F600.000
G1 X38.782 Y56.353 Z16.000 F600.000
G1 X-56.351 Y-38.780 Z16.000 F600.000
G1 X-56.900 Y-37.984 Z16.000 F600.000
G1 X37.980 Y56.896 Z16.000 F600.000
G1 X37.167 Y57.428 Z16.000 F600.000
G1 X-57.428 Y-37.167 Z16.000 F600.000
G1 X-57.954 Y-36.348 Z16.000 F600.000
G1 X36.350 Y57.956 Z16.000 F600.000
G1 X35.513 Y58.464 Z16.000 F600.000
G1 X-58.466 Y-35.515 Z16.000 F600.000
G1 X-58.968 Y-34.672 Z16.000 F600.000
G1 X34.677 Y58.973 Z16.000 F600.000
G3 X33.820 Y59.461 Z16.000 I-7.689 J-12.504 K0.000 F600.000
G1 X-59.465 Y-33.824 Z16.000 F600.000
G1 X-59.942 Y-32.957 Z16.000 F600.000
G1 X32.959 Y59.945 Z16.000 F600.000
G3 X32.086 Y60.416 Z16.000 I-7.452 J-12.757 K0.000 F600.000
G1 X-60.420 Y-32.090 Z16.000 F600.000
G2 X-60.876 Y-31.200 Z16.000 I13.004 J7.221 K0.000 F600.000
G1 X31.201 Y60.876 Z16.000 F600.000
G3 X30.310 Y61.330 Z16.000 I-7.205 J-13.022 K0.000 F600.000
G1 X-61.329 Y-30.309 Z16.000 F600.000
G2 X-61.767 Y-29.401 Z16.000 I13.276 J6.967 K0.000 F600.000
G1 X29.400 Y61.765 Z16.000 F600.000
G1 X28.489 Y62.200 Z16.000 F600.000
G1 X-62.194 Y-28.484 Z16.000 F600.000
G2 X-62.613 Y-27.559 Z16.000 I13.563 J6.699 K0.000 F600.000
G1 X27.555 Y62.610 Z16.000 F600.000
G1 X26.619 Y63.019 Z16.000 F600.000
G1 X-63.015 Y-26.615 Z16.000 F600.000
G2 X-63.415 Y-25.670 Z16.000 I13.866 J6.416 K0.000 F600.000
G1 X25.665 Y63.410 Z16.000 F600.000
G1 X24.702 Y63.792 Z16.000 F600.000
G1 X-63.790 Y-24.700 Z16.000 F600.000
G1 X-64.165 Y-23.731 Z16.000 F600.000
G1 X23.727 Y64.162 Z16.000 F600.000
G1 X22.737 Y64.517 Z16.000 F600.000
G1 X-64.516 Y-22.737 Z16.000 F600.000
G1 X-64.864 Y-21.740 Z16.000 F600.000
G1 X21.740 Y64.864 Z16.000 F600.000
G1 X20.722 Y65.191 Z16.000 F600.000
G1 X-65.192 Y-20.723 Z16.000 F600.000
G1 X-65.511 Y-19.697 Z16.000 F600.000
G1 X19.700 Y65.515 Z16.000 F600.000
G1 X18.654 Y65.813 Z16.000 F600.000
G1 X-65.814 Y-18.655 Z16.000 F600.000
G1 X-66.104 Y-17.600 Z16.000 F600.000
G1 X17.606 Y66.110 Z16.000 F600.000
G1 X16.529 Y66.378 Z16.000 F600.000
G1 X-66.381 Y-16.531 Z16.000 F600.000
G1 X-66.640 Y-15.446 Z16.000 F600.000
G1 X15.452 Y66.646 Z16.000 F600.000
G3 X14.345 Y66.884 Z16.000 I-4.096 J-16.347 K0.000 F600.000
G1 X-66.887 Y-14.348 Z16.000 F600.000
G1 X-67.115 Y-13.231 Z16.000 F600.000
G1 X13.237 Y67.121 Z16.000 F600.000
G3 X12.098 Y67.327 Z16.000 I-3.638 J-16.836 K0.000 F600.000
G1 X-67.330 Y-12.101 Z16.000 F600.000
G1 X-67.524 Y-10.951 Z16.000 F600.000
G1 X10.957 Y67.530 Z16.000 F600.000
G3 X9.783 Y67.702 Z16.000 I-3.137 J-17.372 K0.000 F600.000
G1 X-67.705 Y-9.786 Z16.000 F600.000
G1 X-67.864 Y-8.601 Z16.000 F600.000
G1 X8.608 Y67.871 Z16.000 F600.000
G1 X7.396 Y68.004 Z16.000 F600.000
G1 X-68.006 Y-7.398 Z16.000 F600.000
G1 X-68.129 Y-6.176 Z16.000 F600.000
G1 X6.180 Y68.133 Z16.000 F600.000
G1 X4.930 Y68.228 Z16.000 F600.000
G1 X-68.228 Y-4.930 Z16.000 F600.000
G1 X-68.313 Y-3.669 Z16.000 F600.000
G1 X3.668 Y68.311 Z16.000 F600.000
G1 X2.378 Y68.366 Z16.000 F600.000
G1 X-68.364 Y-2.376 Z16.000 F600.000
G2 X-68.406 Y-1.073 Z16.000 I19.369 J1.271 K0.000 F600.000
G1 X1.066 Y68.398 Z16.000 F600.000
G1 X-0.268 Y68.410 Z16.000 F600.000
G1 X-68.405 Y0.273 Z16.000 F600.000
G2 X-68.389 Y1.634 Z16.000 I20.254 J0.443 K0.000 F600.000
G1 X-1.637 Y68.386 Z16.000 F600.000
G3 X-3.022 Y68.345 Z16.000 I-0.096 J-20.626 K0.000 F600.000
G1 X-68.342 Y3.026 Z16.000 F600.000
G2 X-68.260 Y4.452 Z16.000 I21.262 J-0.499 K0.000 F600.000
G1 X-4.451 Y68.262 Z16.000 F600.000
G3 X-5.907 Y68.151 Z16.000 I0.921 J-21.713 K0.000 F600.000
G1 X-68.158 Y5.900 Z16.000 F600.000
G1 X-68.006 Y7.397 Z16.000 F600.000
G1 X-7.389 Y68.014 Z16.000 F600.000
G3 X-8.926 Y67.821 Z16.000 I2.097 J-22.970 K0.000 F600.000
G1 X-67.821 Y8.927 Z16.000 F600.000
G2 X-67.603 Y10.489 Z16.000 I23.350 J-2.452 K0.000 F600.000
G1 X-10.496 Y67.596 Z16.000 F600.000
G3 X-12.103 Y67.334 Z16.000 I3.098 J-24.041 K0.000 F600.000
G1 X-67.328 Y12.109 Z16.000 F600.000
G2 X-67.003 Y13.779 Z16.000 I25.006 J-4.000 K0.000 F600.000
G1 X-13.775 Y67.007 Z16.000 F600.000
G3 X-15.501 Y66.626 Z16.000 I4.811 J-25.873 K0.000 F600.000
G1 X-66.628 Y15.499 Z16.000 F600.000
G2 X-66.194 Y17.278 Z16.000 I26.682 J-5.567 K0.000 F600.000
G1 X-17.286 Y66.186 Z16.000 F600.000
G3 X-19.141 Y65.676 Z16.000 I6.650 J-27.841 K0.000 F600.000
G1 X-65.682 Y19.135 Z16.000 F600.000
G2 X-65.079 Y21.083 Z16.000 I29.270 J-7.987 K0.000 F600.000
G1 X-21.078 Y65.084 Z16.000 F600.000
G3 X-23.116 Y64.391 Z16.000 I9.297 J-30.671 K0.000 F600.000
G1 X-64.380 Y23.127 Z16.000 F600.000
G2 X-63.561 Y25.291 Z16.000 I32.597 J-11.097 K0.000 F600.000
G1 X-25.279 Y63.572 Z16.000 F600.000
G3 X-27.601 Y62.596 Z16.000 I13.365 J-35.022 K0.000 F600.000
G1 X-62.594 Y27.603 Z16.000 F600.000
G2 X-61.429 Y30.112 Z16.000 I33.632 J-14.083 K0.000 F600.000
G1 X-30.126 Y61.415 Z16.000 F600.000
G3 X-32.924 Y59.962 Z16.000 I20.214 J-42.348 K0.000 F600.000
G1 X-59.959 Y32.928 Z16.000 F600.000
G2 X-58.082 Y36.149 Z16.000 I36.169 J-18.913 K0.000 F600.000
G1 X-36.170 Y58.062 Z16.000 F600.000
G3 X-40.310 Y55.267 Z16.000 I27.663 J-45.438 K0.000 F600.000
G1 X-55.279 Y40.298 Z16.000 F600.000
G2 X-40.310 Y55.267 Z16.000 I54.786 J-39.817 K0.000 F600.000
G1 X-41.698 Y54.230 Z15.000 F600.000
G1 X-40.310 Y55.267 Z14.000 F600.000
G3 X-55.279 Y40.298 Z14.000 I39.817 J-54.786 K0.000 F600.000
G1 X-40.310 Y55.267 Z14.000 F600.000
G2 X-36.170 Y58.062 Z14.000 I31.803 J-42.643 K0.000 F600.000
G1 X-58.082 Y36.149 Z14.000 F600.000
G3 X-59.959 Y32.928 Z14.000 I34.292 J-22.135 K0.000 F600.000
G1 X-32.924 Y59.962 Z14.000 F600.000
G2 X-30.126 Y61.415 Z14.000 I23.012 J-40.895 K0.000 F600.000
G1 X-61.429 Y30.112 Z14.000 F600.000
G3 X-62.594 Y27.603 Z14.000 I32.468 J-16.593 K0.000 F600.000
G1 X-27.601 Y62.596 Z14.000 F600.000
G2 X-25.279 Y63.572 Z14.000 I15.686 J-34.046 K0.000 F600.000
G1 X-63.561 Y25.291 Z14.000 F600.000
G3 X-64.380 Y23.127 Z14.000 I31.778 J-13.261 K0.000 F600.000
G1 X-23.116 Y64.391 Z14.000 F600.000
G2 X-21.078 Y65.084 Z14.000 I11.335 J-29.978 K0.000 F600.000
G1 X-65.079 Y21.083 Z14.000 F600.000
G3 X-65.682 Y19.135 Z14.000 I28.668 J-9.934 K0.000 F600.000
G1 X-19.141 Y65.676 Z14.000 F600.000
G2 X-17.286 Y66.186 Z14.000 I8.505 J-27.331 K0.000 F600.000
G1 X-66.194 Y17.278 Z14.000 F600.000
G3 X-66.628 Y15.499 Z14.000 I26.248 J-7.346 K0.000 F600.000
G1 X-15.501 Y66.626 Z14.000 F600.000
G2 X-13.775 Y67.007 Z14.000 I6.537 J-25.492 K0.000 F600.000
G1 X-67.003 Y13.779 Z14.000 F600.000
G3 X-67.328 Y12.109 Z14.000 I24.681 J-5.670 K0.000 F600.000
G1 X-12.103 Y67.334 Z14.000 F600.000
G2 X-10.496 Y67.596 Z14.000 I4.705 J-23.779 K0.000 F600.000
G1 X-67.603 Y10.489 Z14.000 F600.000
G3 X-67.821 Y8.927 Z14.000 I23.133 J-4.014 K0.000 F600.000
G1 X-8.926 Y67.821 Z14.000 F600.000
G2 X-7.389 Y68.014 Z14.000 I3.634 J-22.778 K0.000 F600.000
G1 X-68.006 Y7.397 Z14.000 F600.000
G1 X-68.158 Y5.900 Z14.000 F600.000
G1 X-5.907 Y68.151 Z14.000 F600.000
G2 X-4.451 Y68.262 Z14.000 I2.377 J-21.602 K0.000 F600.000
G1 X-68.260 Y4.452 Z14.000 F600.000
G3 X-68.342 Y3.026 Z14.000 I21.180 J-1.926 K0.000 F600.000
G1 X-3.022 Y68.345 Z14.000 F600.000
G2 X-1.637 Y68.386 Z14.000 I1.290 J-20.585 K0.000 F600.000
G1 X-68.389 Y1.634 Z14.000 F600.000
G3 X-68.405 Y0.273 Z14.000 I20.238 J-0.917 K0.000 F600.000
G1 X-0.268 Y68.410 Z14.000 F600.000
G1 X1.066 Y68.398 Z14.000 F600.000
G1 X-68.406 Y-1.073 Z14.000 F600.000
G3 X-68.364 Y-2.376 Z14.000 I19.410 J-0.033 K0.000 F600.000
G1 X2.378 Y68.366 Z14.000 F600.000
G1 X3.668 Y68.311 Z14.000 F600.000
G1 X-68.313 Y-3.669 Z14.000 F600.000
G1 X-68.228 Y-4.930 Z14.000 F600.000
G1 X4.930 Y68.228 Z14.000 F600.000
G1 X6.180 Y68.133 Z14.000 F600.000
G1 X-68.129 Y-6.176 Z14.000 F600.000
G1 X-68.006 Y-7.398 Z14.000 F600.000
G1 X7.396 Y68.004 Z14.000 F600.000
G1 X8.608 Y67.871 Z14.000 F600.000
G1 X-67.864 Y-8.601 Z14.000 F600.000
G1 X-67.705 Y-9.786 Z14.000 F600.000
G1 X9.783 Y67.702 Z14.000 F600.000
G2 X10.957 Y67.530 Z14.000 I-1.964 J-17.544 K0.000 F600.000
G1 X-67.524 Y-10.951 Z14.000 F600.000
G1 X-67.330 Y-12.101 Z14.000 F600.000
G1 X12.098 Y67.327 Z14.000 F600.000
G2 X13.237 Y67.121 Z14.000 I-2.500 J-17.043 K0.000 F600.000
G1 X-67.115 Y-13.231 Z14.000 F600.000
G1 X-66.887 Y-14.348 Z14.000 F600.000
G1 X14.345 Y66.884 Z14.000 F600.000
G2 X15.452 Y66.646 Z14.000 I-2.989 J-16.585 K0.000 F600.000
G1 X-66.640 Y-15.446 Z14.000 F600.000
G1 X-66.381 Y-16.531 Z14.000 F600.000
G1 X16.529 Y66.378 Z14.000 F600.000
G1 X17.606 Y66.110 Z14.000 F600.000
G1 X-66.104 Y-17.600 Z14.000 F600.000
G1 X-65.814 Y-18.655 Z14.000 F600.000
G1 X18.654 Y65.813 Z14.000 F600.000
G1 X19.700 Y65.515 Z14.000 F600.000
G1 X-65.511 Y-19.697 Z14.000 F600.000
G1 X-65.192 Y-20.723 Z14.000 F600.000
G1 X20.722 Y65.191 Z14.000 F600.000
G1 X21.740 Y64.864 Z14.000 F600.000
G1 X-64.864 Y-21.740 Z14.000 F600.000
G1 X-64.516 Y-22.737 Z14.000 F600.000
G1 X22.737 Y64.517 Z14.000 F600.000
G1 X23.727 Y64.162 Z14.000 F600.000
G1 X-64.165 Y-23.731 Z14.000 F600.000
G1 X-63.790 Y-24.700 Z14.000 F600.000
G1 X24.702 Y63.792 Z14.000 F600.000
G1 X25.665 Y63.410 Z14.000 F600.000
G1 X-63.415 Y-25.670 Z14.000 F600.000
G3 X-63.015 Y-26.615 Z14.000 I14.265 J5.470 K0.000 F600.000
G1 X26.619 Y63.019 Z14.000 F600.000
G1 X27.555 Y62.610 Z14.000 F600.000
G1 X-62.613 Y-27.559 Z14.000 F600.000
G3 X-62.194 Y-28.484 Z14.000 I13.982 J5.773 K0.000 F600.000
G1 X28.489 Y62.200 Z14.000 F600.000
G1 X29.400 Y61.765 Z14.000 F600.000
G1 X-61.767 Y-29.401 Z14.000 F600.000
G3 X-61.329 Y-30.309 Z14.000 I13.714 J6.060 K0.000 F600.000
G1 X30.310 Y61.330 Z14.000 F600.000
G2 X31.201 Y60.876 Z14.000 I-6.314 J-13.476 K0.000 F600.000
G1 X-60.876 Y-31.200 Z14.000 F600.000
G3 X-60.420 Y-32.090 Z14.000 I13.459 J6.332 K0.000 F600.000
G1 X32.086 Y60.416 Z14.000 F600.000
G2 X32.959 Y59.945 Z14.000 I-6.579 J-13.229 K0.000 F600.000
G1 X-59.942 Y-32.957 Z14.000 F600.000
G1 X-59.465 Y-33.824 Z14.000 F600.000
G1 X33.820 Y59.461 Z14.000 F600.000
G2 X34.677 Y58.973 Z14.000 I-6.832 J-12.992 K0.000 F600.000
G1 X-58.968 Y-34.672 Z14.000 F600.000
G1 X-58.466 Y-35.515 Z14.000 F600.000
G1 X35.513 Y58.464 Z14.000 F600.000
G1 X36.350 Y57.956 Z14.000 F600.000
G1 X-57.954 Y-36.348 Z14.000 F600.000
G1 X-57.428 Y-37.167 Z14.000 F600.000
G1 X37.167 Y57.428 Z14.000 F600.000
G1 X37.980 Y56.896 Z14.000 F600.000
G1 X-56.900 Y-37.984 Z14.000 F600.000
G1 X-56.351 Y-38.780 Z14.000 F600.000
G1 X38.782 Y56.353 Z14.000 F600.000
G1 X39.572 Y55.798 Z14.000 F600.000
G1 X-55.801 Y-39.575 Z14.000 F600.000
G3 X-55.236 Y-40.355 Z14.000 I11.877 J8.024 K0.000 F600.000
G1 X40.360 Y55.241 Z14.000 F600.000
G1 X41.126 Y54.662 Z14.000 F600.000
G1 X-54.663 Y-41.127 Z14.000 F600.000
G3 X-54.084 Y-41.892 Z14.000 I11.675 J8.241 K0.000 F600.000
G1 X41.892 Y54.083 Z14.000 F600.000
G2 X42.643 Y53.489 Z14.000 I-8.462 J-11.468 K0.000 F600.000
G1 X-53.488 Y-42.642 Z14.000 F600.000
G1 X-52.892 Y-43.391 Z14.000 F600.000
G1 X43.386 Y52.888 Z14.000 F600.000
G2 X44.123 Y52.280 Z14.000 I-8.672 J-11.272 K0.000 F600.000
G1 X-52.276 Y-44.120 Z14.000 F600.000
G1 X-51.658 Y-44.846 Z14.000 F600.000
G1 X44.844 Y51.656 Z14.000 F600.000
G1 X45.564 Y51.031 Z14.000 F600.000
G1 X-51.028 Y-45.561 Z14.000 F600.000
G1 X-50.387 Y-46.265 Z14.000 F600.000
G1 X46.265 Y50.387 Z14.000 F600.000
G1 X46.963 Y49.740 Z14.000 F600.000
G1 X-49.744 Y-46.967 Z14.000 F600.000
G1 X-49.081 Y-47.648 Z14.000 F600.000
G1 X47.651 Y49.083 Z14.000 F600.000
G1 X48.326 Y48.414 Z14.000 F600.000
G1 X-48.417 Y-48.330 Z14.000 F600.000
G3 X-47.738 Y-48.996 Z14.000 I10.250 J9.765 K0.000 F600.000
G1 X49.001 Y47.743 Z14.000 F600.000
G1 X49.654 Y47.051 Z14.000 F600.000
G1 X-47.052 Y-49.655 Z14.000 F600.000
G3 X-46.360 Y-50.308 Z14.000 I10.060 J9.968 K0.000 F600.000
G1 X50.306 Y46.359 Z14.000 F600.000
G2 X50.945 Y45.653 Z14.000 I-10.184 J-9.858 K0.000 F600.000
G1 X-45.651 Y-50.944 Z14.000 F600.000
G1 X-44.942 Y-51.580 Z14.000 F600.000
G1 X51.575 Y44.938 Z14.000 F600.000
G2 X52.201 Y44.218 Z14.000 I-10.389 J-9.666 K0.000 F600.000
G1 X-44.214 Y-52.197 Z14.000 F600.000
G1 X-43.483 Y-52.810 Z14.000 F600.000
G1 X52.808 Y43.481 Z14.000 F600.000
G1 X53.415 Y42.743 Z14.000 F600.000
G1 X-42.741 Y-53.413 Z14.000 F600.000
G1 X-41.987 Y-54.004 Z14.000 F600.000
G1 X54.004 Y41.987 Z14.000 F600.000
G1 X54.589 Y41.227 Z14.000 F600.000
G1 X-41.232 Y-54.594 Z14.000 F600.000
G1 X-40.454 Y-55.161 Z14.000 F600.000
G1 X55.164 Y40.457 Z14.000 F600.000
G1 X55.725 Y39.673 Z14.000 F600.000
G1 X-39.677 Y-55.729 Z14.000 F600.000
G3 X-38.884 Y-56.281 Z14.000 I8.615 J11.513 K0.000 F600.000
G1 X56.286 Y38.890 Z14.000 F600.000
G1 X56.824 Y38.083 Z14.000 F600.000
G1 X-38.083 Y-56.825 Z14.000 F600.000
G3 X-37.276 Y-57.363 Z14.000 I8.405 J11.738 K0.000 F600.000
G1 X57.362 Y37.276 Z14.000 F600.000
G2 X57.885 Y36.453 Z14.000 I-11.969 J-8.189 K0.000 F600.000
G1 X-36.452 Y-57.884 Z14.000 F600.000
G1 X-35.628 Y-58.404 Z14.000 F600.000
G1 X58.399 Y35.623 Z14.000 F600.000
G2 X58.907 Y34.785 Z14.000 I-12.207 J-7.967 K0.000 F600.000
G1 X-34.782 Y-58.903 Z14.000 F600.000
G1 X-33.933 Y-59.400 Z14.000 F600.000
G1 X59.397 Y33.931 Z14.000 F600.000
G1 X59.887 Y33.076 Z14.000 F600.000
G1 X-33.071 Y-59.882 Z14.000 F600.000
G1 X-32.199 Y-60.355 Z14.000 F600.000
G1 X60.354 Y32.198 Z14.000 F600.000
G1 X60.820 Y31.319 Z14.000 F600.000
G1 X-31.320 Y-60.821 Z14.000 F600.000
G1 X-30.422 Y-61.268 Z14.000 F600.000
G1 X61.269 Y30.423 Z14.000 F600.000
G1 X61.710 Y29.519 Z14.000 F600.000
G1 X-29.525 Y-61.715 Z14.000 F600.000
G3 X-28.603 Y-62.138 Z14.000 I6.753 J13.505 K0.000 F600.000
G1 X62.142 Y28.606 Z14.000 F600.000
G1 X62.557 Y27.676 Z14.000 F600.000
G1 X-27.680 Y-62.560 Z14.000 F600.000
G3 X-26.739 Y-62.964 Z14.000 I6.478 J13.800 K0.000 F600.000
G1 X62.969 Y26.744 Z14.000 F600.000
G1 X63.358 Y25.788 Z14.000 F600.000
G1 X-25.790 Y-63.360 Z14.000 F600.000
G3 X-24.828 Y-63.744 Z14.000 I6.186 J14.111 K0.000 F600.000
G1 X63.747 Y24.832 Z14.000 F600.000
G2 X64.112 Y23.852 Z14.000 I-14.391 J-5.924 K0.000 F600.000
G1 X-23.852 Y-64.113 Z14.000 F600.000
G3 X-22.870 Y-64.475 Z14.000 I5.876 J14.443 K0.000 F600.000
G1 X64.474 Y22.869 Z14.000 F600.000
G2 X64.817 Y21.867 Z14.000 I-14.735 J-5.603 K0.000 F600.000
G1 X-21.866 Y-64.816 Z14.000 F600.000
G3 X-20.860 Y-65.155 Z14.000 I5.545 J14.797 K0.000 F600.000
G1 X65.151 Y20.856 Z14.000 F600.000
G2 X65.470 Y19.830 Z14.000 I-15.103 J-5.259 K0.000 F600.000
G1 X-19.828 Y-65.468 Z14.000 F600.000
G1 X-18.796 Y-65.781 Z14.000 F600.000
G1 X65.776 Y18.791 Z14.000 F600.000
G2 X66.069 Y17.739 Z14.000 I-15.499 J-4.889 K0.000 F600.000
G1 X-17.736 Y-66.066 Z14.000 F600.000
G1 X-16.675 Y-66.349 Z14.000 F600.000
G1 X66.344 Y16.669 Z14.000 F600.000
G2 X66.610 Y15.590 Z14.000 I-15.927 J-4.488 K0.000 F600.000
G1 X-15.586 Y-66.606 Z14.000 F600.000
G1 X-14.494 Y-66.859 Z14.000 F600.000
G1 X66.854 Y14.489 Z14.000 F600.000
G2 X67.089 Y13.379 Z14.000 I-16.393 J-4.053 K0.000 F600.000
G1 X-13.375 Y-67.085 Z14.000 F600.000
G1 X-12.251 Y-67.306 Z14.000 F600.000
G1 X67.301 Y12.246 Z14.000 F600.000
G2 X67.503 Y11.103 Z14.000 I-16.902 J-3.577 K0.000 F600.000
G1 X-11.099 Y-67.499 Z14.000 F600.000
G1 X-9.942 Y-67.686 Z14.000 F600.000
G1 X67.681 Y9.936 Z14.000 F600.000
G2 X67.846 Y8.757 Z14.000 I-17.461 J-3.054 K0.000 F600.000
G1 X-8.985 Y-68.074 Z14.000 F600.000
G2 X-8.467 Y-68.901 Z14.000 I-0.910 J-1.145 K0.000 F600.000
G1 X67.988 Y7.554 Z14.000 F600.000
G2 X68.114 Y6.335 Z14.000 I-18.080 J-2.476 K0.000 F600.000
G1 X-8.415 Y-70.194 Z14.000 F600.000
G1 X-8.415 Y-71.539 Z14.000 F600.000
G1 X68.218 Y5.094 Z14.000 F600.000
G2 X68.299 Y3.830 Z14.000 I-18.768 J-1.832 K0.000 F600.000
G1 X-8.415 Y-72.884 Z14.000 F600.000
G1 X-8.415 Y-74.229 Z14.000 F600.000
G1 X68.363 Y2.550 Z14.000 F600.000
G2 X68.394 Y1.235 Z14.000 I-19.539 J-1.112 K0.000 F600.000
G1 X-8.415 Y-75.574 Z14.000 F600.000
G1 X-8.415 Y-76.919 Z14.000 F600.000
G1 X68.413 Y-0.090 Z14.000 F600.000
G1 X68.391 Y-1.458 Z14.000 F600.000
G1 X-8.415 Y-78.264 Z14.000 F600.000
G1 X-8.415 Y-79.608 Z14.000 F600.000
G1 X68.348 Y-2.845 Z14.000 F600.000
G1 X68.278 Y-4.260 Z14.000 F600.000
G1 X-8.415 Y-80.953 Z14.000 F600.000
G1 X-8.415 Y-82.298 Z14.000 F600.000
G1 X68.166 Y-5.717 Z14.000 F600.000
G2 X68.030 Y-7.199 Z14.000 I-22.373 J1.315 K0.000 F600.000
G1 X-7.814 Y-83.043 Z14.000 F600.000
G3 X-6.574 Y-83.147 Z14.000 I2.398 J20.974 K0.000 F600.000
G1 X67.852 Y-8.721 Z14.000 F600.000
G2 X67.627 Y-10.291 Z14.000 I-23.748 J2.601 K0.000 F600.000
G1 X10.288 Y-67.630 Z14.000 F600.000
G1 X9.748 Y-67.717 Z14.000 F600.000
G3 X8.415 Y-69.503 Z14.000 I0.269 J-1.591 K0.000 F600.000
G1 X-5.322 Y-83.240 Z14.000 F600.000
G3 X-4.045 Y-83.308 Z14.000 I1.800 J21.608 K0.000 F600.000
G1 X8.415 Y-70.848 Z14.000 F600.000
G1 X8.415 Y-72.193 Z14.000 F600.000
G1 X-2.757 Y-83.365 Z14.000 F600.000
G3 X-1.441 Y-83.394 Z14.000 I1.137 J22.311 K0.000 F600.000
G1 X8.415 Y-73.538 Z14.000 F600.000
G1 X8.415 Y-74.883 Z14.000 F600.000
G1 X-0.115 Y-83.413 Z14.000 F600.000
G3 X1.246 Y-83.396 Z14.000 I0.398 J23.095 K0.000 F600.000
G1 X8.415 Y-76.228 Z14.000 F600.000
G1 X8.415 Y-77.573 Z14.000 F600.000
G1 X2.616 Y-83.372 Z14.000 F600.000
G1 X4.023 Y-83.309 Z14.000 F600.000
G1 X8.415 Y-78.917 Z14.000 F600.000
G1 X8.415 Y-80.262 Z14.000 F600.000
G1 X5.447 Y-83.231 Z14.000 F600.000
G1 X6.899 Y-83.123 Z14.000 F600.000
G1 X8.415 Y-81.607 Z14.000 F600.000
G1 X8.415 Y-82.952 Z14.000 F600.000
G1 X8.384 Y-82.984 Z14.000 F600.000
G3 X8.415 Y-82.952 Z14.000 I0.014 J0.017 K0.000 F600.000
G1 X8.415 Y-82.980 Z14.000 F600.000
G2 X-0.000 Y-83.415 Z14.000 I-8.298 J79.007 K0.000 F600.000
G2 X-8.415 Y-82.980 Z14.000 I-0.117 J79.442 K0.000 F600.000
G1 X-8.415 Y-69.282 Z14.000 F600.000
G3 X-9.747 Y-67.717 Z14.000 I-1.585 J0.000 K0.000 F600.000
G2 X-9.723 Y67.720 Z14.000 I9.748 J67.717 K0.000 F600.000
G2 X9.748 Y-67.717 Z14.000 I9.722 J-67.721 K0.000 F600.000
G3 X8.415 Y-69.282 Z14.000 I0.252 J-1.565 K0.000 F600.000
G1 X8.415 Y-82.952 Z14.000 F600.000
G0 X8.415 Y-82.952 Z23.000
G0 X47.826 Y-48.921 Z23.000
G0 X47.826 Y-48.921 Z21.000
G1 X49.251 Y-47.488 Z19.833 F600.000
G1 X50.632 Y-46.013 Z18.667 F600.000
G1 X51.968 Y-44.497 Z17.500 F600.000
G1 X50.632 Y-46.013 Z16.333 F600.000
G1 X49.251 Y-47.488 Z15.167 F600.000
G1 X47.826 Y-48.921 Z14.000 F600.000
G3 X55.721 Y-39.681 Z14.000 I-46.927 J48.089 K0.000 F600.000
G1 X39.680 Y-55.722 Z14.000 F600.000
G2 X35.708 Y-58.349 Z14.000 I-33.780 J46.758 K0.000 F600.000
G1 X58.341 Y-35.716 Z14.000 F600.000
G3 X60.185 Y-32.528 Z14.000 I-34.523 J22.089 K0.000 F600.000
G1 X32.543 Y-60.169 Z14.000 F600.000
G2 X29.784 Y-61.584 Z14.000 I-22.680 J40.843 K0.000 F600.000
G1 X61.579 Y-29.788 Z14.000 F600.000
G3 X62.722 Y-27.300 Z14.000 I-36.891 J18.458 K0.000 F600.000
G1 X27.286 Y-62.736 Z14.000 F600.000
G2 X24.993 Y-63.684 Z14.000 I-14.884 J32.761 K0.000 F600.000
G1 X63.674 Y-25.003 Z14.000 F600.000
G3 X64.476 Y-22.856 Z14.000 I-31.923 J13.148 K0.000 F600.000
G1 X22.848 Y-64.485 Z14.000 F600.000
G2 X20.817 Y-65.171 Z14.000 I-11.345 J30.235 K0.000 F600.000
G1 X65.158 Y-20.829 Z14.000 F600.000
G3 X65.743 Y-18.900 Z14.000 I-28.758 J9.765 K0.000 F600.000
G1 X18.892 Y-65.751 Z14.000 F600.000
G2 X17.049 Y-66.249 Z14.000 I-8.418 J27.497 K0.000 F600.000
G1 X66.246 Y-17.051 Z14.000 F600.000
G3 X66.682 Y-15.271 Z14.000 I-26.592 J7.451 K0.000 F600.000
G1 X15.275 Y-66.678 Z14.000 F600.000
G2 X13.558 Y-67.050 Z14.000 I-6.451 J25.656 K0.000 F600.000
G1 X67.060 Y-13.548 Z14.000 F600.000
G3 X67.365 Y-11.898 Z14.000 I-24.690 J5.418 K0.000 F600.000
G1 X11.892 Y-67.371 Z14.000 F600.000
G1 X10.288 Y-67.630 Z14.000 F600.000
G1 X67.627 Y-10.291 Z14.000 F600.000
G1 X67.015 Y-10.904 Z13.500 F600.000
G1 X67.627 Y-10.291 Z13.000 F600.000
G1 X10.288 Y-67.630 Z13.000 F600.000
G1 X11.892 Y-67.371 Z13.000 F600.000
G1 X67.365 Y-11.898 Z13.000 F600.000
G2 X67.060 Y-13.548 Z13.000 I-24.995 J3.768 K0.000 F600.000
G1 X13.558 Y-67.050 Z13.000 F600.000
G3 X15.275 Y-66.678 Z13.000 I-4.734 J26.028 K0.000 F600.000
G1 X66.682 Y-15.271 Z13.000 F600.000
G2 X66.246 Y-17.051 Z13.000 I-27.028 J5.670 K0.000 F600.000
G1 X17.049 Y-66.249 Z13.000 F600.000
G3 X18.892 Y-65.751 Z13.000 I-6.575 J27.995 K0.000 F600.000
G1 X65.743 Y-18.900 Z13.000 F600.000
G2 X65.158 Y-20.829 Z13.000 I-29.342 J7.836 K0.000 F600.000
G1 X20.817 Y-65.171 Z13.000 F600.000
G3 X22.848 Y-64.485 Z13.000 I-9.314 J30.921 K0.000 F600.000
G1 X64.476 Y-22.856 Z13.000 F600.000
G2 X63.674 Y-25.003 Z13.000 I-32.725 J11.001 K0.000 F600.000
G1 X24.993 Y-63.684 Z13.000 F600.000
G3 X27.286 Y-62.736 Z13.000 I-12.591 J33.709 K0.000 F600.000
G1 X62.722 Y-27.300 Z13.000 F600.000
G2 X61.579 Y-29.788 Z13.000 I-38.035 J15.969 K0.000 F600.000
G1 X29.784 Y-61.584 Z13.000 F600.000
G3 X32.543 Y-60.169 Z13.000 I-19.921 J42.257 K0.000 F600.000
G1 X60.185 Y-32.528 Z13.000 F600.000
G2 X58.341 Y-35.716 Z13.000 I-36.367 J18.901 K0.000 F600.000
G1 X35.708 Y-58.349 Z13.000 F600.000
G3 X39.680 Y-55.722 Z13.000 I-29.808 J49.385 K0.000 F600.000
G1 X55.721 Y-39.681 Z13.000 F600.000
G2 X47.826 Y-48.921 Z13.000 I-54.822 J38.849 K0.000 F600.000
G0 X47.826 Y-48.921 Z23.000
G0 X47.826 Y-48.921 Z23.000
G0 X47.826 Y-48.921 Z21.000
G1 X46.148 Y-50.507 Z19.667 F600.000
G1 X44.417 Y-52.036 Z18.333 F600.000
G1 X42.636 Y-53.505 Z17.000 F600.000
G1 X44.417 Y-52.036 Z15.667 F600.000
G1 X46.148 Y-50.507 Z14.333 F600.000
G1 X47.826 Y-48.921 Z13.000 F600.000
G2 X9.748 Y-67.717 Z13.000 I-47.826 J48.921 K0.000 F600.000
G3 X8.415 Y-69.282 Z13.000 I0.252 J-1.565 K0.000 F600.000
G1 X8.415 Y-82.980 Z13.000 F600.000
G2 X-0.000 Y-83.415 Z13.000 I-8.298 J79.007 K0.000 F600.000
G2 X-8.415 Y-82.980 Z13.000 I-0.117 J79.442 K0.000 F600.000
G1 X-8.415 Y-69.282 Z13.000 F600.000
G3 X-9.747 Y-67.717 Z13.000 I-1.585 J0.000 K0.000 F600.000
G2 X-9.723 Y67.720 Z13.000 I9.748 J67.717 K0.000 F600.000
G2 X47.826 Y-48.921 Z13.000 I9.722 J-67.721 K0.000 F600.000
G0 X47.826 Y-48.921 Z23.000
G0 X8.415 Y-82.952 Z23.000
G0 X8.415 Y-82.952 Z21.000
G1 X8.413 Y-82.982 Z20.981 F600.000
G1 X8.384 Y-82.984 Z20.962 F600.000
G1 X8.415 Y-82.952 Z20.937 F600.000
G1 X8.415 Y-81.607 Z20.160 F600.000
G1 X6.899 Y-83.123 Z18.922 F600.000
G1 X5.447 Y-83.231 Z18.082 F600.000
G1 X6.771 Y-81.906 Z17.000 F600.000
G1 X5.447 Y-83.231 Z15.918 F600.000
G1 X6.899 Y-83.123 Z15.078 F600.000
G1 X8.415 Y-81.607 Z13.840 F600.000
G1 X8.415 Y-82.952 Z13.063 F600.000
G1 X8.384 Y-82.984 Z13.038 F600.000
G1 X8.413 Y-82.982 Z13.019 F600.000
G1 X8.415 Y-82.952 Z13.000 F600.000
G2 X8.384 Y-82.984 Z13.000 I-0.017 J-0.014 K0.000 F600.000
G1 X8.415 Y-82.952 Z13.000 F600.000
G1 X8.415 Y-81.607 Z13.000 F600.000
G1 X6.899 Y-83.123 Z13.000 F600.000
G1 X5.447 Y-83.231 Z13.000 F600.000
G1 X8.415 Y-80.262 Z13.000 F600.000
G1 X8.415 Y-78.917 Z13.000 F600.000
G1 X4.023 Y-83.309 Z13.000 F600.000
G1 X2.616 Y-83.372 Z13.000 F600.000
G1 X8.415 Y-77.573 Z13.000 F600.000
G1 X8.415 Y-76.228 Z13.000 F600.000
G1 X1.246 Y-83.396 Z13.000 F600.000
G2 X-0.115 Y-83.413 Z13.000 I-0.963 J23.078 K0.000 F600.000
G1 X8.415 Y-74.883 Z13.000 F600.000
G1 X8.415 Y-73.538 Z13.000 F600.000
G1 X-1.441 Y-83.394 Z13.000 F600.000
G2 X-2.757 Y-83.365 Z13.000 I-0.180 J22.340 K0.000 F600.000
G1 X8.415 Y-72.193 Z13.000 F600.000
G1 X8.415 Y-70.848 Z13.000 F600.000
G1 X-4.045 Y-83.308 Z13.000 F600.000
G2 X-5.322 Y-83.240 Z13.000 I0.523 J21.677 K0.000 F600.000
G1 X8.415 Y-69.503 Z13.000 F600.000
G2 X9.748 Y-67.717 Z13.000 I1.601 J0.195 K0.000 F600.000
G1 X10.288 Y-67.630 Z13.000 F600.000
G1 X67.627 Y-10.291 Z13.000 F600.000
G3 X67.852 Y-8.721 Z13.000 I-23.523 J4.171 K0.000 F600.000
G1 X-6.574 Y-83.147 Z13.000 F600.000
G2 X-7.814 Y-83.043 Z13.000 I1.157 J21.079 K0.000 F600.000
G1 X68.030 Y-7.199 Z13.000 F600.000
G3 X68.166 Y-5.717 Z13.000 I-22.237 J2.796 K0.000 F600.000
G1 X-8.415 Y-82.298 Z13.000 F600.000
G1 X-8.415 Y-80.953 Z13.000 F600.000
G1 X68.278 Y-4.260 Z13.000 F600.000
G1 X68.348 Y-2.845 Z13.000 F600.000
G1 X-8.415 Y-79.608 Z13.000 F600.000
G1 X-8.415 Y-78.264 Z13.000 F600.000
G1 X68.391 Y-1.458 Z13.000 F600.000
G1 X68.413 Y-0.090 Z13.000 F600.000
G1 X-8.415 Y-76.919 Z13.000 F600.000
G1 X-8.415 Y-75.574 Z13.000 F600.000
G1 X68.394 Y1.235 Z13.000 F600.000
G3 X68.363 Y2.550 Z13.000 I-19.569 J0.203 K0.000 F600.000
G1 X-8.415 Y-74.229 Z13.000 F600.000
G1 X-8.415 Y-72.884 Z13.000 F600.000
G1 X68.299 Y3.830 Z13.000 F600.000
G3 X68.218 Y5.094 Z13.000 I-18.849 J-0.568 K0.000 F600.000
G1 X-8.415 Y-71.539 Z13.000 F600.000
G1 X-8.415 Y-70.194 Z13.000 F600.000
G1 X68.114 Y6.335 Z13.000 F600.000
G3 X67.988 Y7.554 Z13.000 I-18.205 J-1.256 K0.000 F600.000
G1 X-8.467 Y-68.901 Z13.000 F600.000
G3 X-8.985 Y-68.074 Z13.000 I-1.428 J-0.318 K0.000 F600.000
G1 X67.846 Y8.757 Z13.000 F600.000
G3 X67.681 Y9.936 Z13.000 I-17.627 J-1.875 K0.000 F600.000
G1 X-9.942 Y-67.686 Z13.000 F600.000
G1 X-11.099 Y-67.499 Z13.000 F600.000
G1 X67.503 Y11.103 Z13.000 F600.000
G3 X67.301 Y12.246 Z13.000 I-17.104 J-2.434 K0.000 F600.000
G1 X-12.251 Y-67.306 Z13.000 F600.000
G1 X-13.375 Y-67.085 Z13.000 F600.000
G1 X67.089 Y13.379 Z13.000 F600.000
G3 X66.854 Y14.489 Z13.000 I-16.628 J-2.943 K0.000 F600.000
G1 X-14.494 Y-66.859 Z13.000 F600.000
G1 X-15.586 Y-66.606 Z13.000 F600.000
G1 X66.610 Y15.590 Z13.000 F600.000
G3 X66.344 Y16.669 Z13.000 I-16.193 J-3.409 K0.000 F600.000
G1 X-16.675 Y-66.349 Z13.000 F600.000
G1 X-17.736 Y-66.066 Z13.000 F600.000
G1 X66.069 Y17.739 Z13.000 F600.000
G3 X65.776 Y18.791 Z13.000 I-15.792 J-3.837 K0.000 F600.000
G1 X-18.796 Y-65.781 Z13.000 F600.000
G1 X-19.828 Y-65.468 Z13.000 F600.000
G1 X65.470 Y19.830 Z13.000 F600.000
G3 X65.151 Y20.856 Z13.000 I-15.422 J-4.233 K0.000 F600.000
G1 X-20.860 Y-65.155 Z13.000 F600.000
G2 X-21.866 Y-64.816 Z13.000 I4.539 J15.136 K0.000 F600.000
G1 X64.817 Y21.867 Z13.000 F600.000
G3 X64.474 Y22.869 Z13.000 I-15.078 J-4.601 K0.000 F600.000
G1 X-22.870 Y-64.475 Z13.000 F600.000
G2 X-23.852 Y-64.113 Z13.000 I4.893 J14.805 K0.000 F600.000
G1 X64.112 Y23.852 Z13.000 F600.000
G3 X63.747 Y24.832 Z13.000 I-14.757 J-4.945 K0.000 F600.000
G1 X-24.828 Y-63.744 Z13.000 F600.000
G2 X-25.790 Y-63.360 Z13.000 I5.225 J14.495 K0.000 F600.000
G1 X63.358 Y25.788 Z13.000 F600.000
G1 X62.969 Y26.744 Z13.000 F600.000
G1 X-26.739 Y-62.964 Z13.000 F600.000
G2 X-27.680 Y-62.560 Z13.000 I5.537 J14.203 K0.000 F600.000
G1 X62.557 Y27.676 Z13.000 F600.000
G1 X62.142 Y28.606 Z13.000 F600.000
G1 X-28.603 Y-62.138 Z13.000 F600.000
G2 X-29.525 Y-61.715 Z13.000 I5.831 J13.928 K0.000 F600.000
G1 X61.710 Y29.519 Z13.000 F600.000
G1 X61.269 Y30.423 Z13.000 F600.000
G1 X-30.422 Y-61.268 Z13.000 F600.000
G1 X-31.320 Y-60.821 Z13.000 F600.000
G1 X60.820 Y31.319 Z13.000 F600.000
G1 X60.354 Y32.198 Z13.000 F600.000
G1 X-32.199 Y-60.355 Z13.000 F600.000
G1 X-33.071 Y-59.882 Z13.000 F600.000
G1 X59.887 Y33.076 Z13.000 F600.000
G1 X59.397 Y33.931 Z13.000 F600.000
G1 X-33.933 Y-59.400 Z13.000 F600.000
G1 X-34.782 Y-58.903 Z13.000 F600.000
G1 X58.907 Y34.785 Z13.000 F600.000
G3 X58.399 Y35.623 Z13.000 I-12.714 J-7.130 K0.000 F600.000
G1 X-35.628 Y-58.404 Z13.000 F600.000
G1 X-36.452 Y-57.884 Z13.000 F600.000
G1 X57.885 Y36.453 Z13.000 F600.000
G3 X57.362 Y37.276 Z13.000 I-12.492 J-7.367 K0.000 F600.000
G1 X-37.276 Y-57.363 Z13.000 F600.000
G2 X-38.083 Y-56.825 Z13.000 I7.598 J12.276 K0.000 F600.000
G1 X56.824 Y38.083 Z13.000 F600.000
G1 X56.286 Y38.890 Z13.000 F600.000
G1 X-38.884 Y-56.281 Z13.000 F600.000
G2 X-39.677 Y-55.729 Z13.000 I7.823 J12.065 K0.000 F600.000
G1 X55.725 Y39.673 Z13.000 F600.000
G1 X55.164 Y40.457 Z13.000 F600.000
G1 X-40.454 Y-55.161 Z13.000 F600.000
G1 X-41.232 Y-54.594 Z13.000 F600.000
G1 X54.589 Y41.227 Z13.000 F600.000
G1 X54.004 Y41.987 Z13.000 F600.000
G1 X-41.987 Y-54.004 Z13.000 F600.000
G1 X-42.741 Y-53.413 Z13.000 F600.000
G1 X53.415 Y42.743 Z13.000 F600.000
G1 X52.808 Y43.481 Z13.000 F600.000
G1 X-43.483 Y-52.810 Z13.000 F600.000
G1 X-44.214 Y-52.197 Z13.000 F600.000
G1 X52.201 Y44.218 Z13.000 F600.000
G3 X51.575 Y44.938 Z13.000 I-11.015 J-8.947 K0.000 F600.000
G1 X-44.942 Y-51.580 Z13.000 F600.000
G1 X-45.651 Y-50.944 Z13.000 F600.000
G1 X50.945 Y45.653 Z13.000 F600.000
G3 X50.306 Y46.359 Z13.000 I-10.823 J-9.152 K0.000 F600.000
G1 X-46.360 Y-50.308 Z13.000 F600.000
G2 X-47.052 Y-49.655 Z13.000 I9.369 J10.621 K0.000 F600.000
G1 X49.654 Y47.051 Z13.000 F600.000
G1 X49.001 Y47.743 Z13.000 F600.000
G1 X-47.738 Y-48.996 Z13.000 F600.000
G2 X-48.417 Y-48.330 Z13.000 I9.572 J10.431 K0.000 F600.000
G1 X48.326 Y48.414 Z13.000 F600.000
G1 X47.651 Y49.083 Z13.000 F600.000
G1 X-49.081 Y-47.648 Z13.000 F600.000
G1 X-49.744 Y-46.967 Z13.000 F600.000
G1 X46.963 Y49.740 Z13.000 F600.000
G1 X46.265 Y50.387 Z13.000 F600.000
G1 X-50.387 Y-46.265 Z13.000 F600.000
G1 X-51.028 Y-45.561 Z13.000 F600.000
G1 X45.564 Y51.031 Z13.000 F600.000
G1 X44.844 Y51.656 Z13.000 F600.000
G1 X-51.658 Y-44.846 Z13.000 F600.000
G1 X-52.276 Y-44.120 Z13.000 F600.000
G1 X44.123 Y52.280 Z13.000 F600.000
G3 X43.386 Y52.888 Z13.000 I-9.409 J-10.664 K0.000 F600.000
G1 X-52.892 Y-43.391 Z13.000 F600.000
G1 X-53.488 Y-42.642 Z13.000 F600.000
G1 X42.643 Y53.489 Z13.000 F600.000
G3 X41.892 Y54.083 Z13.000 I-9.213 J-10.874 K0.000 F600.000
G1 X-54.084 Y-41.892 Z13.000 F600.000
G2 X-54.663 Y-41.127 Z13.000 I11.095 J9.006 K0.000 F600.000
G1 X41.126 Y54.662 Z13.000 F600.000
G1 X40.360 Y55.241 Z13.000 F600.000
G1 X-55.236 Y-40.355 Z13.000 F600.000
G2 X-55.801 Y-39.575 Z13.000 I11.312 J8.804 K0.000 F600.000
G1 X39.572 Y55.798 Z13.000 F600.000
G1 X38.782 Y56.353 Z13.000 F600.000
G1 X-56.351 Y-38.780 Z13.000 F600.000
G1 X-56.900 Y-37.984 Z13.000 F600.000
G1 X37.980 Y56.896 Z13.000 F600.000
G1 X37.167 Y57.428 Z13.000 F600.000
G1 X-57.428 Y-37.167 Z13.000 F600.000
G1 X-57.954 Y-36.348 Z13.000 F600.000
G1 X36.350 Y57.956 Z13.000 F600.000
G1 X35.513 Y58.464 Z13.000 F600.000
G1 X-58.466 Y-35.515 Z13.000 F600.000
G1 X-58.968 Y-34.672 Z13.000 F600.000
G1 X34.677 Y58.973 Z13.000 F600.000
G3 X33.820 Y59.461 Z13.000 I-7.689 J-12.504 K0.000 F600.000
G1 X-59.465 Y-33.824 Z13.000 F600.000
G1 X-59.942 Y-32.957 Z13.000 F600.000
G1 X32.959 Y59.945 Z13.000 F600.000
G3 X32.086 Y60.416 Z13.000 I-7.452 J-12.757 K0.000 F600.000
G1 X-60.420 Y-32.090 Z13.000 F600.000
G2 X-60.876 Y-31.200 Z13.000 I13.004 J7.221 K0.000 F600.000
G1 X31.201 Y60.876 Z13.000 F600.000
G3 X30.310 Y61.330 Z13.000 I-7.205 J-13.022 K0.000 F600.000
G1 X-61.329 Y-30.309 Z13.000 F600.000
G2 X-61.767 Y-29.401 Z13.000 I13.276 J6.967 K0.000 F600.000
G1 X29.400 Y61.765 Z13.000 F600.000
G1 X28.489 Y62.200 Z13.000 F600.000
G1 X-62.194 Y-28.484 Z13.000 F600.000
G2 X-62.613 Y-27.559 Z13.000 I13.563 J6.699 K0.000 F600.000
G1 X27.555 Y62.610 Z13.000 F600.000
G1 X26.619 Y63.019 Z13.000 F600.000
G1 X-63.015 Y-26.615 Z13.000 F600.000
G2 X-63.415 Y-25.670 Z13.000 I13.866 J6.416 K0.000 F600.000
G1 X25.665 Y63.410 Z13.000 F600.000
G1 X24.702 Y63.792 Z13.000 F600.000
G1 X-63.790 Y-24.700 Z13.000 F600.000
G1 X-64.165 Y-23.731 Z13.000 F600.000
G1 X23.727 Y64.162 Z13.000 F600.000
G1 X22.737 Y64.517 Z13.000 F600.000
G1 X-64.516 Y-22.737 Z13.000 F600.000
G1 X-64.864 Y-21.740 Z13.000 F600.000
G1 X21.740 Y64.864 Z13.000 F600.000
G1 X20.722 Y65.191 Z13.000 F600.000
G1 X-65.192 Y-20.723 Z13.000 F600.000
G1 X-65.511 Y-19.697 Z13.000 F600.000
G1 X19.700 Y65.515 Z13.000 F600.000
G1 X18.654 Y65.813 Z13.000 F600.000
G1 X-65.814 Y-18.655 Z13.000 F600.000
G1 X-66.104 Y-17.600 Z13.000 F600.000
G1 X17.606 Y66.110 Z13.000 F600.000
G1 X16.529 Y66.378 Z13.000 F600.000
G1 X-66.381 Y-16.531 Z13.000 F600.000
G1 X-66.640 Y-15.446 Z13.000 F600.000
G1 X15.452 Y66.646 Z13.000 F600.000
G3 X14.345 Y66.884 Z13.000 I-4.096 J-16.347 K0.000 F600.000
G1 X-66.887 Y-14.348 Z13.000 F600.000
G1 X-67.115 Y-13.231 Z13.000 F600.000
G1 X13.237 Y67.121 Z13.000 F600.000
G3 X12.098 Y67.327 Z13.000 I-3.638 J-16.836 K0.000 F600.000
G1 X-67.330 Y-12.101 Z13.000 F600.000
G1 X-67.524 Y-10.951 Z13.000 F600.000
G1 X10.957 Y67.530 Z13.000 F600.000
G3 X9.783 Y67.702 Z13.000 I-3.137 J-17.372 K0.000 F600.000
G1 X-67.705 Y-9.786 Z13.000 F600.000
G1 X-67.864 Y-8.601 Z13.000 F600.000
G1 X8.608 Y67.871 Z13.000 F600.000
G1 X7.396 Y68.004 Z13.000 F600.000
G1 X-68.006 Y-7.398 Z13.000 F600.000
G1 X-68.129 Y-6.176 Z13.000 F600.000
G1 X6.180 Y68.133 Z13.000 F600.000
G1 X4.930 Y68.228 Z13.000 F600.000
G1 X-68.228 Y-4.930 Z13.000 F600.000
G1 X-68.313 Y-3.669 Z13.000 F600.000
G1 X3.668 Y68.311 Z13.000 F600.000
G1 X2.378 Y68.366 Z13.000 F600.000
G1 X-68.364 Y-2.376 Z13.000 F600.000
G2 X-68.406 Y-1.073 Z13.000 I19.369 J1.271 K0.000 F600.000
G1 X1.066 Y68.398 Z13.000 F600.000
G1 X-0.268 Y68.410 Z13.000 F600.000
G1 X-68.405 Y0.273 Z13.000 F600.000
G2 X-68.389 Y1.634 Z13.000 I20.254 J0.443 K0.000 F600.000
G1 X-1.637 Y68.386 Z13.000 F600.000
G3 X-3.022 Y68.345 Z13.000 I-0.096 J-20.626 K0.000 F600.000
G1 X-68.342 Y3.026 Z13.000 F600.000
G2 X-68.260 Y4.452 Z13.000 I21.262 J-0.499 K0.000 F600.000
G1 X-4.451 Y68.262 Z13.000 F600.000
G3 X-5.907 Y68.151 Z13.000 I0.921 J-21.713 K0.000 F600.000
G1 X-68.158 Y5.900 Z13.000 F600.000
G1 X-68.006 Y7.397 Z13.000 F600.000
G1 X-7.389 Y68.014 Z13.000 F600.000
G3 X-8.926 Y67.821 Z13.000 I2.097 J-22.970 K0.000 F600.000
G1 X-67.821 Y8.927 Z13.000 F600.000
G2 X-67.603 Y10.489 Z13.000 I23.350 J-2.452 K0.000 F600.000
G1 X-10.496 Y67.596 Z13.000 F600.000
G3 X-12.103 Y67.334 Z13.000 I3.098 J-24.041 K0.000 F600.000
G1 X-67.328 Y12.109 Z13.000 F600.000
G2 X-67.003 Y13.779 Z13.000 I25.006 J-4.000 K0.000 F600.000
G1 X-13.775 Y67.007 Z13.000 F600.000
G3 X-15.501 Y66.626 Z13.000 I4.811 J-25.873 K0.000 F600.000
G1 X-66.628 Y15.499 Z13.000 F600.000
G2 X-66.194 Y17.278 Z13.000 I26.682 J-5.567 K0.000 F600.000
G1 X-17.286 Y66.186 Z13.000 F600.000
G3 X-19.141 Y65.676 Z13.000 I6.650 J-27.841 K0.000 F600.000
G1 X-65.682 Y19.135 Z13.000 F600.000
G2 X-65.079 Y21.083 Z13.000 I29.270 J-7.987 K0.000 F600.000
G1 X-21.078 Y65.084 Z13.000 F600.000
G3 X-23.116 Y64.391 Z13.000 I9.297 J-30.671 K0.000 F600.000
G1 X-64.380 Y23.127 Z13.000 F600.000
G2 X-63.561 Y25.291 Z13.000 I32.597 J-11.097 K0.000 F600.000
G1 X-25.279 Y63.572 Z13.000 F600.000
G3 X-27.601 Y62.596 Z13.000 I13.365 J-35.022 K0.000 F600.000
G1 X-62.594 Y27.603 Z13.000 F600.000
G2 X-61.429 Y30.112 Z13.000 I33.632 J-14.083 K0.000 F600.000
G1 X-30.126 Y61.415 Z13.000 F600.000
G3 X-32.924 Y59.962 Z13.000 I20.214 J-42.348 K0.000 F600.000
G1 X-59.959 Y32.928 Z13.000 F600.000
G2 X-58.082 Y36.149 Z13.000 I36.169 J-18.913 K0.000 F600.000
G1 X-36.170 Y58.062 Z13.000 F600.000
G3 X-40.310 Y55.267 Z13.000 I27.663 J-45.438 K0.000 F600.000
G1 X-55.279 Y40.298 Z13.000 F600.000
G2 X-40.310 Y55.267 Z13.000 I54.786 J-39.817 K0.000 F600.000
G0 X-40.310 Y55.267 Z23.000
(Finish operation: Cut Inner Pocket)
(Begin operation: Profile Inner pocket with overcut001)
(Path: Profile Inner pocket with overcut001)
(Profile Inner pocket with overcut)
(Compensated Tool Path. Diameter: 3.17)
G0 X46.425 Y49.791 Z23.000
G0 Z21.000
G1 Z16.000 F600.000
G2 X49.791 Y49.791 Z16.000 I1.683 J-1.683 K-0.000 F600.000
G1 X49.791 Y49.791 Z16.000 F600.000
G2 X70.291 Y4.178 Z16.000 I-49.791 J-49.791 K0.000 F600.000
G2 X10.415 Y-69.635 Z16.000 I-70.281 J-4.181 K0.000 F600.000
G1 X10.415 Y-84.410 Z16.000 F600.000
G2 X10.043 Y-84.823 Z16.000 I-0.415 J0.000 K0.000 F600.000
G2 X-10.043 Y-84.823 Z16.000 I-10.043 J84.823 K0.000 F600.000
G2 X-10.415 Y-84.410 Z16.000 I0.043 J0.413 K0.000 F600.000
G1 X-10.415 Y-69.635 Z16.000 F600.000
G2 X-70.327 Y-3.527 Z16.000 I10.404 J69.631 K0.000 F600.000
G2 X49.791 Y49.791 Z16.000 I70.327 J3.527 K0.000 F600.000
G0 Z23.000
G0 X46.425 Y49.791 Z23.000
G0 Z21.000
G1 Z14.000 F600.000
G2 X49.791 Y49.791 Z14.000 I1.683 J-1.683 K-0.000 F600.000
G1 X49.791 Y49.791 Z14.000 F600.000
G2 X70.291 Y4.178 Z14.000 I-49.791 J-49.791 K0.000 F600.000
G2 X10.415 Y-69.635 Z14.000 I-70.281 J-4.181 K0.000 F600.000
G1 X10.415 Y-84.410 Z14.000 F600.000
G2 X10.043 Y-84.823 Z14.000 I-0.415 J0.000 K0.000 F600.000
G2 X-10.043 Y-84.823 Z14.000 I-10.043 J84.823 K0.000 F600.000
G2 X-10.415 Y-84.410 Z14.000 I0.043 J0.413 K0.000 F600.000
G1 X-10.415 Y-69.635 Z14.000 F600.000
G2 X-70.327 Y-3.527 Z14.000 I10.404 J69.631 K0.000 F600.000
G2 X49.791 Y49.791 Z14.000 I70.327 J3.527 K0.000 F600.000
G0 Z23.000
G0 X46.425 Y49.791 Z23.000
G0 Z21.000
G1 Z13.000 F600.000
G2 X49.791 Y49.791 Z13.000 I1.683 J-1.683 K-0.000 F600.000
G1 X49.791 Y49.791 Z13.000 F600.000
G2 X70.291 Y4.178 Z13.000 I-49.791 J-49.791 K0.000 F600.000
G2 X10.415 Y-69.635 Z13.000 I-70.281 J-4.181 K0.000 F600.000
G1 X10.415 Y-84.410 Z13.000 F600.000
G2 X10.043 Y-84.823 Z13.000 I-0.415 J0.000 K0.000 F600.000
G2 X-10.043 Y-84.823 Z13.000 I-10.043 J84.823 K0.000 F600.000
G2 X-10.415 Y-84.410 Z13.000 I0.043 J0.413 K0.000 F600.000
G1 X-10.415 Y-69.635 Z13.000 F600.000
G2 X-70.327 Y-3.527 Z13.000 I10.404 J69.631 K0.000 F600.000
G2 X49.791 Y49.791 Z13.000 I70.327 J3.527 K0.000 F600.000
G0 Z23.000
(Finish operation: Profile Inner pocket with overcut001)
(Begin operation: Cut Lip)
(Path: Cut Lip)
G0 X0.000 Y0.000 Z23.000
G0 X64.287 Y64.286 Z23.000
G0 X64.287 Y64.286 Z21.000
G1 X65.800 Y62.737 Z19.750 F600.000
G1 X67.275 Y61.152 Z18.500 F600.000
G1 X65.800 Y62.737 Z17.250 F600.000
G1 X64.287 Y64.286 Z16.000 F600.000
G2 X90.915 Y-0.000 Z16.000 I-64.287 J-64.286 K0.000 F600.000
G2 X-0.000 Y-90.915 Z16.000 I-90.915 J-0.000 K0.000 F600.000
G2 X-90.915 Y-0.000 Z16.000 I0.000 J90.915 K0.000 F600.000
G2 X64.287 Y64.286 Z16.000 I90.915 J0.000 K0.000 F600.000
G0 X64.287 Y64.286 Z23.000
G0 X63.813 Y64.757 Z23.000
G0 X63.813 Y64.757 Z21.000
G1 X62.254 Y66.259 Z19.750 F600.000
G1 X60.659 Y67.723 Z18.500 F600.000
G1 X62.254 Y66.259 Z17.250 F600.000
G1 X63.813 Y64.757 Z16.000 F600.000
G3 X54.369 Y72.855 Z16.000 I-62.111 J-62.871 K0.000 F600.000
G1 X72.871 Y54.354 Z16.000 F600.000
G2 X76.006 Y49.874 Z16.000 I-50.913 J-38.965 K0.000 F600.000
G1 X49.878 Y76.002 Z16.000 F600.000
G3 X46.305 Y78.229 Z16.000 I-32.889 J-48.767 K0.000 F600.000
G1 X78.235 Y46.300 Z16.000 F600.000
G2 X79.991 Y43.199 Z16.000 I-44.357 J-27.166 K0.000 F600.000
G1 X43.211 Y79.979 Z16.000 F600.000
G3 X40.413 Y81.432 Z16.000 I-26.137 J-46.909 K0.000 F600.000
G1 X54.846 Y66.999 Z16.000 F600.000
G3 X49.406 Y71.094 Z16.000 I-51.932 J-63.326 K0.000 F600.000
G1 X37.838 Y82.662 Z16.000 F600.000
G3 X35.435 Y83.720 Z16.000 I-19.204 J-40.371 K0.000 F600.000
G1 X45.499 Y73.656 Z16.000 F600.000
G3 X42.228 Y75.582 Z16.000 I-33.399 J-52.984 K0.000 F600.000
G1 X33.169 Y84.641 Z16.000 F600.000
G3 X31.013 Y85.452 Z16.000 I-14.888 J-36.301 K0.000 F600.000
G1 X39.330 Y77.136 Z16.000 F600.000
G3 X36.706 Y78.414 Z16.000 I-22.651 J-43.145 K0.000 F600.000
G1 X28.947 Y86.173 Z16.000 F600.000
G3 X26.956 Y86.819 Z16.000 I-11.993 J-33.571 K0.000 F600.000
G1 X34.264 Y79.511 Z16.000 F600.000
G3 X31.966 Y80.464 Z16.000 I-17.176 J-38.160 K0.000 F600.000
G1 X25.029 Y87.402 Z16.000 F600.000
G1 X23.185 Y87.901 Z16.000 F600.000
G1 X29.785 Y81.300 Z16.000 F600.000
G3 X27.719 Y82.022 Z16.000 I-15.299 J-40.484 K0.000 F600.000
G1 X21.387 Y88.354 Z16.000 F600.000
G3 X19.628 Y88.767 Z16.000 I-7.923 J-29.734 K0.000 F600.000
G1 X25.733 Y82.663 Z16.000 F600.000
G3 X23.815 Y83.236 Z16.000 I-10.467 J-31.532 K0.000 F600.000
G1 X17.929 Y89.122 Z16.000 F600.000
G3 X16.268 Y89.438 Z16.000 I-6.221 J-28.128 K0.000 F600.000
G1 X21.954 Y83.752 Z16.000 F600.000
G1 X20.163 Y84.198 Z16.000 F600.000
G1 X14.631 Y89.730 Z16.000 F600.000
G3 X13.053 Y89.963 Z16.000 I-4.771 J-26.761 K0.000 F600.000
G1 X18.424 Y84.592 Z16.000 F600.000
G3 X16.720 Y84.951 Z16.000 I-6.865 J-28.373 K0.000 F600.000
G1 X11.491 Y90.180 Z16.000 F600.000
G1 X9.967 Y90.360 Z16.000 F600.000
G1 X15.070 Y85.256 Z16.000 F600.000
G3 X13.458 Y85.523 Z16.000 I-5.251 J-26.703 K0.000 F600.000
G1 X8.471 Y90.511 Z16.000 F600.000
G1 X6.995 Y90.641 Z16.000 F600.000
G1 X11.869 Y85.767 Z16.000 F600.000
G3 X10.335 Y85.956 Z16.000 I-5.835 J-41.089 K0.000 F600.000
G1 X5.556 Y90.735 Z16.000 F600.000
G1 X4.127 Y90.819 Z16.000 F600.000
G1 X8.817 Y86.130 Z16.000 F600.000
G1 X7.336 Y86.266 Z16.000 F600.000
G1 X2.738 Y90.864 Z16.000 F600.000
G1 X1.352 Y90.905 Z16.000 F600.000
G1 X5.879 Y86.377 Z16.000 F600.000
G1 X4.447 Y86.465 Z16.000 F600.000
G1 X0.007 Y90.905 Z16.000 F600.000
G3 X-1.338 Y90.905 Z16.000 I-0.671 J-22.892 K0.000 F600.000
G1 X3.044 Y86.523 Z16.000 F600.000
G1 X1.657 Y86.565 Z16.000 F600.000
G1 X-2.645 Y90.867 Z16.000 F600.000
G1 X-3.951 Y90.828 Z16.000 F600.000
G1 X0.302 Y86.575 Z16.000 F600.000
G1 X-1.043 Y86.575 Z16.000 F600.000
G1 X-5.223 Y90.755 Z16.000 F600.000
G1 X-6.493 Y90.680 Z16.000 F600.000
G1 X-2.356 Y86.544 Z16.000 F600.000
G1 X-3.661 Y86.504 Z16.000 F600.000
G1 X-7.734 Y90.576 Z16.000 F600.000
G1 X-8.969 Y90.467 Z16.000 F600.000
G1 X-4.937 Y86.435 Z16.000 F600.000
G1 X-6.205 Y86.357 Z16.000 F600.000
G1 X-10.182 Y90.334 Z16.000 F600.000
G1 X-11.385 Y90.192 Z16.000 F600.000
G1 X-7.448 Y86.255 Z16.000 F600.000
G1 X-8.680 Y86.142 Z16.000 F600.000
G1 X-12.572 Y90.035 Z16.000 F600.000
G1 X-13.743 Y89.861 Z16.000 F600.000
G1 X-9.893 Y86.010 Z16.000 F600.000
G1 X-11.091 Y85.864 Z16.000 F600.000
G1 X-14.908 Y89.680 Z16.000 F600.000
G1 X-16.049 Y89.477 Z16.000 F600.000
G1 X-12.277 Y85.705 Z16.000 F600.000
G1 X-13.443 Y85.526 Z16.000 F600.000
G1 X-17.191 Y89.274 Z16.000 F600.000
G3 X-18.305 Y89.043 Z16.000 I3.369 J-19.086 K0.000 F600.000
G1 X-14.604 Y85.342 Z16.000 F600.000
G1 X-15.739 Y85.132 Z16.000 F600.000
G1 X-19.418 Y88.811 Z16.000 F600.000
G3 X-20.514 Y88.563 Z16.000 I3.687 J-18.786 K0.000 F600.000
G1 X-16.874 Y84.922 Z16.000 F600.000
G3 X-17.984 Y84.687 Z16.000 I3.453 J-19.054 K0.000 F600.000
G1 X-21.600 Y88.303 Z16.000 F600.000
G3 X-22.679 Y88.037 Z16.000 I3.978 J-18.512 K0.000 F600.000
G1 X-19.089 Y84.448 Z16.000 F600.000
G3 X-20.180 Y84.194 Z16.000 I3.710 J-18.399 K0.000 F600.000
G1 X-23.738 Y87.751 Z16.000 F600.000
G1 X-24.796 Y87.465 Z16.000 F600.000
G1 X-21.257 Y83.926 Z16.000 F600.000
G3 X-22.330 Y83.654 Z16.000 I4.148 J-18.650 K0.000 F600.000
G1 X-25.835 Y87.158 Z16.000 F600.000
G1 X-26.867 Y86.846 Z16.000 F600.000
G1 X-23.380 Y83.359 Z16.000 F600.000
G1 X-24.429 Y83.063 Z16.000 F600.000
G1 X-27.892 Y86.526 Z16.000 F600.000
G1 X-28.900 Y86.189 Z16.000 F600.000
G1 X-25.460 Y82.749 Z16.000 F600.000
G1 X-26.483 Y82.427 Z16.000 F600.000
G1 X-29.908 Y85.852 Z16.000 F600.000
G3 X-30.896 Y85.495 Z16.000 I5.575 J-17.006 K0.000 F600.000
G1 X-27.499 Y82.099 Z16.000 F600.000
G1 X-28.497 Y81.751 Z16.000 F600.000
G1 X-31.879 Y85.134 Z16.000 F600.000
G3 X-32.857 Y84.766 Z16.000 I5.765 J-16.827 K0.000 F600.000
G1 X-29.494 Y81.403 Z16.000 F600.000
G3 X-30.473 Y81.037 Z16.000 I5.697 J-16.718 K0.000 F600.000
G1 X-33.817 Y84.381 Z16.000 F600.000
G1 X-34.776 Y83.996 Z16.000 F600.000
G1 X-31.445 Y80.664 Z16.000 F600.000
G3 X-32.412 Y80.287 Z16.000 I5.936 J-16.632 K0.000 F600.000
G1 X-35.721 Y83.595 Z16.000 F600.000
G1 X-36.657 Y83.187 Z16.000 F600.000
G1 X-33.360 Y79.890 Z16.000 F600.000
G1 X-34.308 Y79.493 Z16.000 F600.000
G1 X-37.593 Y82.778 Z16.000 F600.000
G1 X-38.507 Y82.347 Z16.000 F600.000
G1 X-35.241 Y79.081 Z16.000 F600.000
G1 X-36.165 Y78.660 Z16.000 F600.000
G1 X-39.421 Y81.916 Z16.000 F600.000
G3 X-40.326 Y81.476 Z16.000 I7.036 J-15.628 K0.000 F600.000
G1 X-37.089 Y78.239 Z16.000 F600.000
G1 X-37.990 Y77.795 Z16.000 F600.000
G1 X-41.218 Y81.023 Z16.000 F600.000
G1 X-42.110 Y80.570 Z16.000 F600.000
G1 X-38.891 Y77.351 Z16.000 F600.000
G3 X-39.783 Y76.898 Z16.000 I7.167 J-15.221 K0.000 F600.000
G1 X-42.986 Y80.102 Z16.000 F600.000
G1 X-43.857 Y79.627 Z16.000 F600.000
G1 X-40.662 Y76.432 Z16.000 F600.000
G1 X-41.540 Y75.966 Z16.000 F600.000
G1 X-44.726 Y79.151 Z16.000 F600.000
G1 X-45.575 Y78.656 Z16.000 F600.000
G1 X-42.402 Y75.483 Z16.000 F600.000
G1 X-43.259 Y74.994 Z16.000 F600.000
G1 X-46.424 Y78.160 Z16.000 F600.000
G3 X-47.266 Y77.657 Z16.000 I8.139 J-14.588 K0.000 F600.000
G1 X-44.113 Y74.504 Z16.000 F600.000
G1 X-44.948 Y73.993 Z16.000 F600.000
G1 X-48.095 Y77.140 Z16.000 F600.000
G1 X-48.923 Y76.624 Z16.000 F600.000
G1 X-45.782 Y73.483 Z16.000 F600.000
G3 X-46.609 Y72.964 Z16.000 I8.316 J-14.172 K0.000 F600.000
G1 X-49.739 Y76.094 Z16.000 F600.000
G1 X-50.546 Y75.557 Z16.000 F600.000
G1 X-47.421 Y72.432 Z16.000 F600.000
G1 X-48.234 Y71.900 Z16.000 F600.000
G1 X-51.354 Y75.020 Z16.000 F600.000
G3 X-52.144 Y74.465 Z16.000 I9.049 J-13.730 K0.000 F600.000
G1 X-49.033 Y71.354 Z16.000 F600.000
G1 X-49.825 Y70.801 Z16.000 F600.000
G1 X-52.931 Y73.907 Z16.000 F600.000
G3 X-53.716 Y73.348 Z16.000 I9.132 J-13.652 K0.000 F600.000
G1 X-50.617 Y70.248 Z16.000 F600.000
G3 X-51.389 Y69.675 Z16.000 I9.876 J-14.125 K0.000 F600.000
G1 X-54.483 Y72.769 Z16.000 F600.000
G1 X-55.250 Y72.191 Z16.000 F600.000
G1 X-52.159 Y69.101 Z16.000 F600.000
G3 X-52.926 Y68.523 Z16.000 I9.526 J-13.439 K0.000 F600.000
G1 X-56.011 Y71.607 Z16.000 F600.000
G1 X-56.758 Y71.009 Z16.000 F600.000
G1 X-53.676 Y67.928 Z16.000 F600.000
G1 X-54.426 Y67.332 Z16.000 F600.000
G1 X-57.504 Y70.411 Z16.000 F600.000
G3 X-58.241 Y69.803 Z16.000 I9.988 J-12.845 K0.000 F600.000
G1 X-55.167 Y66.729 Z16.000 F600.000
G1 X-55.896 Y66.113 Z16.000 F600.000
G1 X-58.968 Y69.185 Z16.000 F600.000
G1 X-59.695 Y68.567 Z16.000 F600.000
G1 X-56.625 Y65.497 Z16.000 F600.000
G3 X-57.341 Y64.868 Z16.000 I10.249 J-12.378 K0.000 F600.000
G1 X-60.407 Y67.934 Z16.000 F600.000
G1 X-61.115 Y67.297 Z16.000 F600.000
G1 X-58.049 Y64.231 Z16.000 F600.000
G1 X-58.757 Y63.595 Z16.000 F600.000
G1 X-61.822 Y66.659 Z16.000 F600.000
G3 X-62.511 Y66.003 Z16.000 I10.822 J-12.058 K0.000 F600.000
G1 X-59.448 Y62.940 Z16.000 F600.000
G1 X-60.136 Y62.283 Z16.000 F600.000
G1 X-63.198 Y65.345 Z16.000 F600.000
G3 X-63.883 Y64.685 Z16.000 I10.889 J-11.995 K0.000 F600.000
G1 X-60.821 Y61.624 Z16.000 F600.000
G1 X-61.489 Y60.946 Z16.000 F600.000
G1 X-64.551 Y64.008 Z16.000 F600.000
G1 X-65.218 Y63.331 Z16.000 F600.000
G1 X-62.156 Y60.269 Z16.000 F600.000
G3 X-62.817 Y59.585 Z16.000 I11.219 J-11.496 K0.000 F600.000
G1 X-65.880 Y62.647 Z16.000 F600.000
G1 X-66.527 Y61.950 Z16.000 F600.000
G1 X-63.464 Y58.886 Z16.000 F600.000
G1 X-64.111 Y58.188 Z16.000 F600.000
G1 X-67.175 Y61.253 Z16.000 F600.000
G3 X-67.813 Y60.546 Z16.000 I11.716 J-11.215 K0.000 F600.000
G1 X-64.746 Y57.479 Z16.000 F600.000
G1 X-65.372 Y56.760 Z16.000 F600.000
G1 X-68.441 Y59.829 Z16.000 F600.000
G1 X-69.069 Y59.112 Z16.000 F600.000
G1 X-65.999 Y56.042 Z16.000 F600.000
G3 X-66.609 Y55.307 Z16.000 I12.190 J-10.746 K0.000 F600.000
G1 X-69.683 Y58.382 Z16.000 F600.000
G1 X-70.291 Y57.645 Z16.000 F600.000
G1 X-67.214 Y54.568 Z16.000 F600.000
G3 X-67.820 Y53.828 Z16.000 I19.298 J-16.411 K0.000 F600.000
G1 X-70.900 Y56.908 Z16.000 F600.000
G3 X-71.490 Y56.153 Z16.000 I12.555 J-10.424 K0.000 F600.000
G1 X-68.404 Y53.068 Z16.000 F600.000
G1 X-68.989 Y52.308 Z16.000 F600.000
G1 X-72.078 Y55.396 Z16.000 F600.000
G3 X-72.664 Y54.637 Z16.000 I12.630 J-10.353 K0.000 F600.000
G1 X-69.569 Y51.542 Z16.000 F600.000
G1 X-70.133 Y50.761 Z16.000 F600.000
G1 X-73.232 Y53.860 Z16.000 F600.000
G1 X-73.800 Y53.083 Z16.000 F600.000
G1 X-70.696 Y49.980 Z16.000 F600.000
G3 X-71.249 Y49.188 Z16.000 I13.037 J-9.690 K0.000 F600.000
G1 X-74.361 Y52.299 Z16.000 F600.000
G1 X-74.908 Y51.502 Z16.000 F600.000
G1 X-71.792 Y48.386 Z16.000 F600.000
G1 X-72.335 Y47.584 Z16.000 F600.000
G1 X-75.456 Y50.705 Z16.000 F600.000
G3 X-75.992 Y49.896 Z16.000 I13.509 J-9.525 K0.000 F600.000
G1 X-72.860 Y46.764 Z16.000 F600.000
G1 X-73.382 Y45.941 Z16.000 F600.000
G1 X-76.519 Y49.078 Z16.000 F600.000
G1 X-77.046 Y48.260 Z16.000 F600.000
G1 X-73.901 Y45.115 Z16.000 F600.000
G1 X-74.401 Y44.270 Z16.000 F600.000
G1 X-77.556 Y47.425 Z16.000 F600.000
G1 X-78.062 Y46.586 Z16.000 F600.000
G1 X-74.900 Y43.425 Z16.000 F600.000
G3 X-75.391 Y42.571 Z16.000 I14.119 J-8.685 K0.000 F600.000
G1 X-78.566 Y45.745 Z16.000 F600.000
G1 X-79.051 Y44.886 Z16.000 F600.000
G1 X-75.869 Y41.703 Z16.000 F600.000
G1 X-76.346 Y40.836 Z16.000 F600.000
G1 X-79.536 Y44.026 Z16.000 F600.000
G3 X-80.013 Y43.157 Z16.000 I14.548 J-8.545 K0.000 F600.000
G1 X-76.808 Y39.952 Z16.000 F600.000
G1 X-77.263 Y39.063 Z16.000 F600.000
G1 X-80.476 Y42.276 Z16.000 F600.000
G1 X-80.940 Y41.395 Z16.000 F600.000
G1 X-77.716 Y38.171 Z16.000 F600.000
G1 X-78.148 Y37.258 Z16.000 F600.000
G1 X-81.388 Y40.498 Z16.000 F600.000
G1 X-81.830 Y39.595 Z16.000 F600.000
G1 X-78.580 Y36.345 Z16.000 F600.000
G3 X-79.002 Y35.422 Z16.000 I15.297 J-7.535 K0.000 F600.000
G1 X-82.270 Y38.690 Z16.000 F600.000
G1 X-82.690 Y37.765 Z16.000 F600.000
G1 X-79.410 Y34.486 Z16.000 F600.000
G1 X-79.819 Y33.550 Z16.000 F600.000
G1 X-83.109 Y36.840 Z16.000 F600.000
G3 X-83.519 Y35.904 Z16.000 I15.722 J-7.438 K0.000 F600.000
G1 X-80.207 Y32.592 Z16.000 F600.000
G1 X-80.592 Y31.632 Z16.000 F600.000
G1 X-83.916 Y34.956 Z16.000 F600.000
G1 X-84.312 Y34.008 Z16.000 F600.000
G1 X-80.969 Y30.664 Z16.000 F600.000
G1 X-81.329 Y29.679 Z16.000 F600.000
G1 X-84.689 Y33.040 Z16.000 F600.000
G1 X-85.063 Y32.069 Z16.000 F600.000
G1 X-81.689 Y28.695 Z16.000 F600.000
G3 X-82.029 Y27.690 Z16.000 I16.943 J-6.287 K0.000 F600.000
G1 X-85.429 Y31.090 Z16.000 F600.000
G1 X-85.779 Y30.095 Z16.000 F600.000
G1 X-82.364 Y26.680 Z16.000 F600.000
G3 X-82.690 Y25.661 Z16.000 I16.965 J-5.998 K0.000 F600.000
G1 X-86.128 Y29.099 Z16.000 F600.000
G3 X-86.459 Y28.085 Z16.000 I17.098 J-6.140 K0.000 F600.000
G1 X-82.999 Y24.625 Z16.000 F600.000
G1 X-83.308 Y23.589 Z16.000 F600.000
G1 X-86.784 Y27.065 Z16.000 F600.000
G3 X-87.102 Y26.039 Z16.000 I17.320 J-5.931 K0.000 F600.000
G1 X-83.593 Y22.529 Z16.000 F600.000
G1 X-83.875 Y21.466 Z16.000 F600.000
G1 X-87.402 Y24.993 Z16.000 F600.000
G1 X-87.701 Y23.948 Z16.000 F600.000
G1 X-84.143 Y20.390 Z16.000 F600.000
G1 X-84.397 Y19.299 Z16.000 F600.000
G1 X-87.979 Y22.881 Z16.000 F600.000
G1 X-88.253 Y21.809 Z16.000 F600.000
G1 X-84.648 Y18.204 Z16.000 F600.000
G1 X-84.873 Y17.084 Z16.000 F600.000
G1 X-88.515 Y20.727 Z16.000 F600.000
G1 X-88.761 Y19.628 Z16.000 F600.000
G1 X-85.098 Y15.964 Z16.000 F600.000
G3 X-85.298 Y14.820 Z16.000 I19.336 J-3.975 K0.000 F600.000
G1 X-89.006 Y18.528 Z16.000 F600.000
G1 X-89.224 Y17.401 Z16.000 F600.000
G1 X-85.493 Y13.670 Z16.000 F600.000
G3 X-85.670 Y12.502 Z16.000 I19.450 J-3.552 K0.000 F600.000
G1 X-89.442 Y16.274 Z16.000 F600.000
G3 X-89.639 Y15.126 Z16.000 I19.440 J-3.932 K0.000 F600.000
G1 X-85.833 Y11.320 Z16.000 F600.000
G3 X-85.986 Y10.128 Z16.000 I19.919 J-3.145 K0.000 F600.000
G1 X-89.828 Y13.970 Z16.000 F600.000
G3 X-90.003 Y12.800 Z16.000 I19.820 J-3.573 K0.000 F600.000
G1 X-86.116 Y8.913 Z16.000 F600.000
G3 X-86.240 Y7.692 Z16.000 I20.637 J-2.714 K0.000 F600.000
G1 X-90.161 Y11.613 Z16.000 F600.000
G3 X-90.313 Y10.420 Z16.000 I20.239 J-3.178 K0.000 F600.000
G1 X-86.335 Y6.443 Z16.000 F600.000
G3 X-86.428 Y5.191 Z16.000 I22.106 J-2.271 K0.000 F600.000
G1 X-90.438 Y9.201 Z16.000 F600.000
G3 X-90.564 Y7.981 Z16.000 I20.701 J-2.743 K0.000 F600.000
G1 X-86.487 Y3.905 Z16.000 F600.000
G3 X-86.545 Y2.618 Z16.000 I28.594 J-1.938 K0.000 F600.000
G1 X-90.656 Y6.728 Z16.000 F600.000
G1 X-90.748 Y5.476 Z16.000 F600.000
G1 X-86.565 Y1.293 Z16.000 F600.000
G3 X-86.585 Y-0.033 Z16.000 I26.827 J-1.052 K0.000 F600.000
G1 X-90.809 Y4.191 Z16.000 F600.000
G1 X-90.865 Y2.903 Z16.000 F600.000
G1 X-86.564 Y-1.398 Z16.000 F600.000
G3 X-86.539 Y-2.768 Z16.000 I23.696 J-0.256 K0.000 F600.000
G1 X-90.892 Y1.585 Z16.000 F600.000
G1 X-90.911 Y0.259 Z16.000 F600.000
G1 X-86.475 Y-4.177 Z16.000 F600.000
G3 X-86.400 Y-5.597 Z16.000 I23.885 J0.546 K0.000 F600.000
G1 X-90.899 Y-1.098 Z16.000 F600.000
G1 X-90.879 Y-2.463 Z16.000 F600.000
G1 X-86.289 Y-7.053 Z16.000 F600.000
G3 X-86.157 Y-8.530 Z16.000 I24.679 J1.459 K0.000 F600.000
G1 X-90.823 Y-3.864 Z16.000 F600.000
G1 X-90.761 Y-5.271 Z16.000 F600.000
G1 X-85.995 Y-10.036 Z16.000 F600.000
G3 X-85.798 Y-11.579 Z16.000 I25.833 J2.524 K0.000 F600.000
G1 X-90.656 Y-6.720 Z16.000 F600.000
G3 X-90.544 Y-8.178 Z16.000 I24.868 J1.187 K0.000 F600.000
G1 X-85.582 Y-13.139 Z16.000 F600.000
G3 X-85.309 Y-14.758 Z16.000 I50.090 J7.635 K0.000 F600.000
G1 X-90.389 Y-9.677 Z16.000 F600.000
G3 X-90.217 Y-11.195 Z16.000 I25.922 J2.180 K0.000 F600.000
G1 X-85.010 Y-16.401 Z16.000 F600.000
G1 X-84.672 Y-18.084 Z16.000 F600.000
G1 X-90.010 Y-12.746 Z16.000 F600.000
G3 X-89.768 Y-14.333 Z16.000 I27.136 J3.325 K0.000 F600.000
G1 X-84.275 Y-19.827 Z16.000 F600.000
G3 X-83.837 Y-21.609 Z16.000 I29.836 J6.377 K0.000 F600.000
G1 X-89.507 Y-15.940 Z16.000 F600.000
G1 X-89.184 Y-17.606 Z16.000 F600.000
G1 X-83.352 Y-23.439 Z16.000 F600.000
G3 X-82.782 Y-25.354 Z16.000 I38.902 J10.535 K0.000 F600.000
G1 X-88.834 Y-19.302 Z16.000 F600.000
G1 X-88.446 Y-21.035 Z16.000 F600.000
G1 X-82.147 Y-27.334 Z16.000 F600.000
G3 X-81.434 Y-29.391 Z16.000 I34.462 J10.784 K0.000 F600.000
G1 X-87.991 Y-22.834 Z16.000 F600.000
G3 X-87.492 Y-24.679 Z16.000 I31.651 J7.582 K0.000 F600.000
G1 X-80.628 Y-31.543 Z16.000 F600.000
G3 X-79.706 Y-33.810 Z16.000 I38.290 J14.253 K0.000 F600.000
G1 X-86.940 Y-26.575 Z16.000 F600.000
G1 X-86.312 Y-28.549 Z16.000 F600.000
G1 X-78.639 Y-36.221 Z16.000 F600.000
G3 X-77.388 Y-38.817 Z16.000 I43.687 J19.453 K0.000 F600.000
G1 X-85.600 Y-30.606 Z16.000 F600.000
G3 X-84.801 Y-32.749 Z16.000 I36.888 J12.520 K0.000 F600.000
G1 X-75.896 Y-41.655 Z16.000 F600.000
G3 X-74.077 Y-44.819 Z16.000 I53.124 J28.437 K0.000 F600.000
G1 X-83.899 Y-34.997 Z16.000 F600.000
G3 X-82.868 Y-37.372 Z16.000 I40.962 J16.362 K0.000 F600.000
G1 X-71.662 Y-48.579 Z16.000 F600.000
G3 X-68.029 Y-53.556 Z16.000 I64.051 J42.931 K0.000 F600.000
G1 X-81.676 Y-39.909 Z16.000 F600.000
G0 X-81.676 Y-39.909 Z23.000
G0 X-77.795 Y-38.012 Z23.000
G0 X-77.795 Y-38.012 Z21.000
G1 X-76.820 Y-39.945 Z19.750 F600.000
G1 X-75.797 Y-41.854 Z18.500 F600.000
G1 X-76.820 Y-39.945 Z17.250 F600.000
G1 X-77.795 Y-38.012 Z16.000 F600.000
G3 X86.585 Y-0.000 Z16.000 I77.795 J38.012 K0.000 F600.000
G3 X-86.585 Y0.024 Z16.000 I-86.585 J0.000 K0.000 F600.000
G3 X-77.795 Y-38.012 Z16.000 I86.585 J-0.024 K0.000 F600.000
G0 X-77.795 Y-38.012 Z23.000
G0 X-68.164 Y-60.145 Z23.000
G0 X-68.164 Y-60.145 Z21.000
G1 X-65.102 Y-63.207 Z18.500 F600.000
G1 X-68.164 Y-60.145 Z16.000 F600.000
G1 X-60.077 Y-68.232 Z16.000 F600.000
G2 X-68.164 Y-60.145 Z16.000 I57.270 J65.357 K0.000 F600.000
G2 X-73.577 Y-53.388 Z16.000 I62.349 J55.487 K0.000 F600.000
G1 X-53.366 Y-73.598 Z16.000 F600.000
G3 X-49.118 Y-76.502 Z16.000 I48.897 J66.988 K0.000 F600.000
G1 X-76.477 Y-49.143 Z16.000 F600.000
G2 X-78.613 Y-45.662 Z16.000 I54.216 J35.664 K0.000 F600.000
G1 X-45.681 Y-78.594 Z16.000 F600.000
G3 X-42.639 Y-80.291 Z16.000 I30.410 J50.937 K0.000 F600.000
G1 X-80.279 Y-42.651 Z16.000 F600.000
G2 X-81.676 Y-39.909 Z16.000 I45.981 J25.153 K0.000 F600.000
G1 X-68.029 Y-53.556 Z16.000 F600.000
G3 X-53.585 Y-68.000 Z16.000 I67.363 J52.920 K0.000 F600.000
G1 X-39.890 Y-81.695 Z16.000 F600.000
G3 X-37.359 Y-82.881 Z16.000 I21.461 J42.499 K0.000 F600.000
G1 X-48.543 Y-71.697 Z16.000 F600.000
G3 X-44.829 Y-74.066 Z16.000 I41.367 J60.760 K0.000 F600.000
G1 X-34.982 Y-83.913 Z16.000 F600.000
G1 X-32.735 Y-84.815 Z16.000 F600.000
G1 X-41.634 Y-75.916 Z16.000 F600.000
G3 X-38.818 Y-77.388 Z16.000 I25.804 J45.953 K0.000 F600.000
G1 X-30.602 Y-85.603 Z16.000 F600.000
G3 X-28.557 Y-86.304 Z16.000 I12.950 J34.474 K0.000 F600.000
G1 X-36.229 Y-78.631 Z16.000 F600.000
G3 X-33.817 Y-79.698 Z16.000 I18.874 J39.401 K0.000 F600.000
G1 X-26.584 Y-86.932 Z16.000 F600.000
G3 X-24.673 Y-87.498 Z16.000 I10.601 J32.258 K0.000 F600.000
G1 X-31.545 Y-80.626 Z16.000 F600.000
G3 X-29.385 Y-81.441 Z16.000 I14.695 J35.668 K0.000 F600.000
G1 X-22.829 Y-87.997 Z16.000 F600.000
G3 X-21.045 Y-88.435 Z16.000 I8.357 J30.142 K0.000 F600.000
G1 X-27.320 Y-82.161 Z16.000 F600.000
G3 X-25.354 Y-82.782 Z16.000 I12.240 J35.325 K0.000 F600.000
G1 X-19.300 Y-88.836 Z16.000 F600.000
G1 X-17.601 Y-89.190 Z16.000 F600.000
G1 X-23.453 Y-83.338 Z16.000 F600.000
G3 X-21.608 Y-83.838 Z16.000 I9.245 J30.439 K0.000 F600.000
G1 X-15.952 Y-89.495 Z16.000 F600.000
G3 X-14.326 Y-89.775 Z16.000 I5.589 J27.533 K0.000 F600.000
G1 X-19.817 Y-84.284 Z16.000 F600.000
G3 X-18.092 Y-84.664 Z16.000 I7.319 J29.131 K0.000 F600.000
G1 X-12.748 Y-90.008 Z16.000 F600.000
G3 X-11.197 Y-90.215 Z16.000 I4.283 J26.301 K0.000 F600.000
G1 X-16.401 Y-85.010 Z16.000 F600.000
G1 X-14.751 Y-85.315 Z16.000 F600.000
G1 X-9.672 Y-90.394 Z16.000 F600.000
G3 X-8.186 Y-90.536 Z16.000 I3.153 J25.235 K0.000 F600.000
G1 X-13.151 Y-85.570 Z16.000 F600.000
G3 X-11.572 Y-85.805 Z16.000 I4.731 J26.463 K0.000 F600.000
G1 X-6.710 Y-90.666 Z16.000 F600.000
G3 X-5.280 Y-90.752 Z16.000 I2.168 J24.307 K0.000 F600.000
G1 X-10.039 Y-85.993 Z16.000 F600.000
G3 X-8.531 Y-86.156 Z16.000 I3.477 J25.041 K0.000 F600.000
G1 X-3.856 Y-90.831 Z16.000 F600.000
G1 X-2.470 Y-90.872 Z16.000 F600.000
G1 X-7.050 Y-86.292 Z16.000 F600.000
G3 X-5.603 Y-86.394 Z16.000 I2.434 J24.134 K0.000 F600.000
G1 X-1.092 Y-90.905 Z16.000 F600.000
G1 X0.253 Y-90.905 Z16.000 F600.000
G1 X-4.170 Y-86.482 Z16.000 F600.000
G3 X-2.776 Y-86.531 Z16.000 I1.527 J23.617 K0.000 F600.000
G1 X1.590 Y-90.898 Z16.000 F600.000
G1 X2.897 Y-90.859 Z16.000 F600.000
G1 X-1.389 Y-86.573 Z16.000 F600.000
G3 X-0.042 Y-86.575 Z16.000 I0.711 J24.329 K0.000 F600.000
G1 X4.198 Y-90.815 Z16.000 F600.000
G1 X5.468 Y-90.741 Z16.000 F600.000
G1 X1.303 Y-86.575 Z16.000 F600.000
G3 X2.608 Y-86.536 Z16.000 I-0.268 J30.648 K0.000 F600.000
G1 X6.737 Y-90.664 Z16.000 F600.000
G1 X7.972 Y-90.555 Z16.000 F600.000
G1 X3.914 Y-86.496 Z16.000 F600.000
G3 X5.182 Y-86.420 Z16.000 I-0.807 J24.075 K0.000 F600.000
G1 X9.208 Y-90.446 Z16.000 F600.000
G3 X10.414 Y-90.307 Z16.000 I-1.760 J20.603 K0.000 F600.000
G1 X6.450 Y-86.343 Z16.000 F600.000
G3 X7.686 Y-86.234 Z16.000 I-1.255 J21.305 K0.000 F600.000
G1 X11.617 Y-90.165 Z16.000 F600.000
G3 X12.798 Y-90.001 Z16.000 I-2.200 J20.189 K0.000 F600.000
G1 X8.918 Y-86.121 Z16.000 F600.000
G3 X10.124 Y-85.982 Z16.000 I-1.726 J20.374 K0.000 F600.000
G1 X13.970 Y-89.828 Z16.000 F600.000
G3 X15.128 Y-89.641 Z16.000 I-2.599 J19.812 K0.000 F600.000
G1 X11.322 Y-85.835 Z16.000 F600.000
G3 X12.502 Y-85.670 Z16.000 I-2.171 J19.824 K0.000 F600.000
G1 X16.270 Y-89.438 Z16.000 F600.000
G3 X17.407 Y-89.230 Z16.000 I-2.962 J19.469 K0.000 F600.000
G1 X13.668 Y-85.491 Z16.000 F600.000
G3 X14.824 Y-85.302 Z16.000 I-2.597 J19.497 K0.000 F600.000
G1 X18.520 Y-88.998 Z16.000 F600.000
G1 X19.633 Y-88.766 Z16.000 F600.000
G1 X15.959 Y-85.092 Z16.000 F600.000
G3 X17.092 Y-84.881 Z16.000 I-3.544 J22.188 K0.000 F600.000
G1 X20.724 Y-88.512 Z16.000 F600.000
G1 X21.809 Y-88.253 Z16.000 F600.000
G1 X18.198 Y-84.641 Z16.000 F600.000
G1 X19.303 Y-84.401 Z16.000 F600.000
G1 X22.884 Y-87.982 Z16.000 F600.000
G1 X23.942 Y-87.696 Z16.000 F600.000
G1 X20.388 Y-84.142 Z16.000 F600.000
G1 X21.465 Y-83.874 Z16.000 F600.000
G1 X25.001 Y-87.409 Z16.000 F600.000
G3 X26.034 Y-87.098 Z16.000 I-4.786 J17.750 K0.000 F600.000
G1 X22.533 Y-83.597 Z16.000 F600.000
G1 X23.583 Y-83.301 Z16.000 F600.000
G1 X27.067 Y-86.786 Z16.000 F600.000
G3 X28.087 Y-86.461 Z16.000 I-5.017 J17.532 K0.000 F600.000
G1 X24.632 Y-83.006 Z16.000 F600.000
G3 X25.658 Y-82.687 Z16.000 I-5.058 J18.050 K0.000 F600.000
G1 X29.095 Y-86.124 Z16.000 F600.000
G1 X30.102 Y-85.786 Z16.000 F600.000
G1 X26.680 Y-82.365 Z16.000 F600.000
G3 X27.692 Y-82.031 Z16.000 I-5.084 J17.139 K0.000 F600.000
G1 X31.086 Y-85.425 Z16.000 F600.000
G1 X32.069 Y-85.064 Z16.000 F600.000
G1 X28.689 Y-81.684 Z16.000 F600.000
G1 X29.687 Y-81.336 Z16.000 F600.000
G1 X33.042 Y-84.692 Z16.000 F600.000
G1 X34.002 Y-84.307 Z16.000 F600.000
G1 X30.660 Y-80.965 Z16.000 F600.000
G1 X31.633 Y-80.592 Z16.000 F600.000
G1 X34.962 Y-83.921 Z16.000 F600.000
G3 X35.902 Y-83.516 Z16.000 I-6.424 J16.205 K0.000 F600.000
G1 X32.595 Y-80.210 Z16.000 F600.000
G1 X33.543 Y-79.813 Z16.000 F600.000
G1 X36.838 Y-83.108 Z16.000 F600.000
G3 X37.770 Y-82.694 Z16.000 I-6.579 J16.060 K0.000 F600.000
G1 X34.491 Y-79.416 Z16.000 F600.000
G3 X35.420 Y-79.000 Z16.000 I-6.658 J16.082 K0.000 F600.000
G1 X38.684 Y-82.264 Z16.000 F600.000
G1 X39.598 Y-81.833 Z16.000 F600.000
G1 X36.344 Y-78.579 Z16.000 F600.000
G3 X37.263 Y-78.153 Z16.000 I-6.766 J15.805 K0.000 F600.000
G1 X40.499 Y-81.389 Z16.000 F600.000
G1 X41.391 Y-80.936 Z16.000 F600.000
G1 X38.164 Y-77.709 Z16.000 F600.000
G1 X39.065 Y-77.266 Z16.000 F600.000
G1 X42.283 Y-80.483 Z16.000 F600.000
G3 X43.155 Y-80.010 Z16.000 I-7.619 J15.079 K0.000 F600.000
G1 X39.953 Y-76.808 Z16.000 F600.000
G1 X40.832 Y-76.342 Z16.000 F600.000
G1 X44.025 Y-79.535 Z16.000 F600.000
G3 X44.890 Y-79.056 Z16.000 I-7.734 J14.970 K0.000 F600.000
G1 X41.710 Y-75.876 Z16.000 F600.000
G3 X42.568 Y-75.388 Z16.000 I-8.605 J16.138 K0.000 F600.000
G1 X45.739 Y-78.560 Z16.000 F600.000
G1 X46.588 Y-78.064 Z16.000 F600.000
G1 X43.424 Y-74.900 Z16.000 F600.000
G3 X44.275 Y-74.405 Z16.000 I-7.942 J14.640 K0.000 F600.000
G1 X47.427 Y-77.557 Z16.000 F600.000
G1 X48.255 Y-77.040 Z16.000 F600.000
G1 X45.109 Y-73.895 Z16.000 F600.000
G1 X45.943 Y-73.384 Z16.000 F600.000
G1 X49.083 Y-76.524 Z16.000 F600.000
G3 X49.895 Y-75.991 Z16.000 I-8.671 J14.087 K0.000 F600.000
G1 X46.766 Y-72.862 Z16.000 F600.000
G1 X47.579 Y-72.330 Z16.000 F600.000
G1 X50.702 Y-75.453 Z16.000 F600.000
G3 X51.509 Y-74.915 Z16.000 I-8.760 J14.002 K0.000 F600.000
G1 X48.391 Y-71.798 Z16.000 F600.000
G3 X49.186 Y-71.248 Z16.000 I-9.074 J13.962 K0.000 F600.000
G1 X52.296 Y-74.357 Z16.000 F600.000
G1 X53.083 Y-73.799 Z16.000 F600.000
G1 X49.978 Y-70.694 Z16.000 F600.000
G3 X50.767 Y-70.139 Z16.000 I-9.318 J14.073 K0.000 F600.000
G1 X53.864 Y-73.236 Z16.000 F600.000
G1 X54.631 Y-72.658 Z16.000 F600.000
G1 X51.538 Y-69.564 Z16.000 F600.000
G1 X52.308 Y-68.990 Z16.000 F600.000
G1 X55.398 Y-72.080 Z16.000 F600.000
G3 X56.155 Y-71.492 Z16.000 I-9.632 J13.180 K0.000 F600.000
G1 X53.071 Y-68.408 Z16.000 F600.000
G1 X53.821 Y-67.813 Z16.000 F600.000
G1 X56.902 Y-70.894 Z16.000 F600.000
G1 X57.649 Y-70.295 Z16.000 F600.000
G1 X54.571 Y-67.217 Z16.000 F600.000
G3 X55.308 Y-66.610 Z16.000 I-9.863 J12.713 K0.000 F600.000
G1 X58.381 Y-69.683 Z16.000 F600.000
G1 X59.108 Y-69.065 Z16.000 F600.000
G1 X56.037 Y-65.994 Z16.000 F600.000
G1 X56.766 Y-65.378 Z16.000 F600.000
G1 X59.835 Y-68.447 Z16.000 F600.000
G3 X60.544 Y-67.811 Z16.000 I-10.474 J12.386 K0.000 F600.000
G1 X57.477 Y-64.745 Z16.000 F600.000
G1 X58.186 Y-64.108 Z16.000 F600.000
G1 X61.251 Y-67.173 Z16.000 F600.000
G3 X61.956 Y-66.533 Z16.000 I-10.542 J12.322 K0.000 F600.000
G1 X58.893 Y-63.470 Z16.000 F600.000
G1 X59.581 Y-62.813 Z16.000 F600.000
G1 X62.643 Y-65.876 Z16.000 F600.000
G1 X63.331 Y-65.218 Z16.000 F600.000
G1 X60.269 Y-62.156 Z16.000 F600.000
G3 X60.950 Y-61.493 Z16.000 I-10.870 J11.861 K0.000 F600.000
G1 X64.012 Y-64.555 Z16.000 F600.000
G1 X64.680 Y-63.877 Z16.000 F600.000
G1 X61.618 Y-60.815 Z16.000 F600.000
G1 X62.285 Y-60.138 Z16.000 F600.000
G1 X65.347 Y-63.200 Z16.000 F600.000
G3 X66.005 Y-62.513 Z16.000 I-11.369 J11.542 K0.000 F600.000
G1 X62.942 Y-59.450 Z16.000 F600.000
G1 X63.589 Y-58.752 Z16.000 F600.000
G1 X66.653 Y-61.816 Z16.000 F600.000
G1 X67.300 Y-61.118 Z16.000 F600.000
G1 X64.235 Y-58.053 Z16.000 F600.000
G3 X64.867 Y-57.340 Z16.000 I-11.772 J11.060 K0.000 F600.000
G1 X67.935 Y-60.408 Z16.000 F600.000
G1 X68.563 Y-59.691 Z16.000 F600.000
G1 X65.493 Y-56.621 Z16.000 F600.000
G1 X66.120 Y-55.903 Z16.000 F600.000
G1 X69.191 Y-58.974 Z16.000 F600.000
G3 X69.801 Y-58.239 Z16.000 I-12.200 J10.758 K0.000 F600.000
G1 X66.726 Y-55.164 Z16.000 F600.000
G1 X67.331 Y-54.425 Z16.000 F600.000
G1 X70.409 Y-57.502 Z16.000 F600.000
G3 X71.015 Y-56.764 Z16.000 I-12.272 J10.691 K0.000 F600.000
G1 X67.933 Y-53.681 Z16.000 F600.000
G1 X68.517 Y-52.921 Z16.000 F600.000
G1 X71.603 Y-56.007 Z16.000 F600.000
G1 X72.191 Y-55.250 Z16.000 F600.000
G1 X69.102 Y-52.161 Z16.000 F600.000
G3 X69.678 Y-51.391 Z16.000 I-12.653 J10.059 K0.000 F600.000
G1 X72.773 Y-54.487 Z16.000 F600.000
G1 X73.341 Y-53.710 Z16.000 F600.000
G1 X70.241 Y-50.610 Z16.000 F600.000
G1 X70.805 Y-49.829 Z16.000 F600.000
G1 X73.909 Y-52.933 Z16.000 F600.000
G3 X74.466 Y-52.145 Z16.000 I-13.133 J9.879 K0.000 F600.000
G1 X71.354 Y-49.033 Z16.000 F600.000
G1 X71.897 Y-48.231 Z16.000 F600.000
G1 X75.014 Y-51.348 Z16.000 F600.000
G1 X75.562 Y-50.551 Z16.000 F600.000
G1 X72.439 Y-47.429 Z16.000 F600.000
G3 X72.961 Y-46.605 Z16.000 I-19.768 J13.102 K0.000 F600.000
G1 X76.094 Y-49.738 Z16.000 F600.000
G1 X76.621 Y-48.920 Z16.000 F600.000
G1 X73.482 Y-45.782 Z16.000 F600.000
G3 X73.998 Y-44.952 Z16.000 I-13.772 J9.130 K0.000 F600.000
G1 X77.147 Y-48.101 Z16.000 F600.000
G1 X77.653 Y-47.263 Z16.000 F600.000
G1 X74.497 Y-44.107 Z16.000 F600.000
G1 X74.997 Y-43.261 Z16.000 F600.000
G1 X78.160 Y-46.424 Z16.000 F600.000
G3 X78.660 Y-45.579 Z16.000 I-14.137 J8.932 K0.000 F600.000
G1 X75.484 Y-42.403 Z16.000 F600.000
G1 X75.961 Y-41.536 Z16.000 F600.000
G1 X79.145 Y-44.719 Z16.000 F600.000
G1 X79.630 Y-43.860 Z16.000 F600.000
G1 X76.439 Y-40.668 Z16.000 F600.000
G3 X76.896 Y-39.780 Z16.000 I-15.611 J8.594 K0.000 F600.000
G1 X80.102 Y-42.987 Z16.000 F600.000
G1 X80.566 Y-42.106 Z16.000 F600.000
G1 X77.351 Y-38.891 Z16.000 F600.000
G3 X77.799 Y-37.994 Z16.000 I-14.916 J8.031 K0.000 F600.000
G1 X81.030 Y-41.225 Z16.000 F600.000
G3 X81.473 Y-40.323 Z16.000 I-15.123 J8.003 K0.000 F600.000
G1 X78.232 Y-37.082 Z16.000 F600.000
G1 X78.664 Y-36.169 Z16.000 F600.000
G1 X81.915 Y-39.420 Z16.000 F600.000
G3 X82.351 Y-38.511 Z16.000 I-15.257 J7.876 K0.000 F600.000
G1 X79.081 Y-35.241 Z16.000 F600.000
G1 X79.489 Y-34.305 Z16.000 F600.000
G1 X82.771 Y-37.586 Z16.000 F600.000
G1 X83.190 Y-36.661 Z16.000 F600.000
G1 X79.896 Y-33.367 Z16.000 F600.000
G1 X80.281 Y-32.407 Z16.000 F600.000
G1 X83.595 Y-35.721 Z16.000 F600.000
G1 X83.992 Y-34.773 Z16.000 F600.000
G1 X80.666 Y-31.447 Z16.000 F600.000
G3 X81.038 Y-30.474 Z16.000 I-16.138 J6.728 K0.000 F600.000
G1 X84.388 Y-33.824 Z16.000 F600.000
G1 X84.762 Y-32.852 Z16.000 F600.000
G1 X81.398 Y-29.489 Z16.000 F600.000
G3 X81.759 Y-28.504 Z16.000 I-36.862 J14.035 K0.000 F600.000
G1 X85.135 Y-31.881 Z16.000 F600.000
G3 X85.497 Y-30.898 Z16.000 I-16.553 J6.655 K0.000 F600.000
G1 X82.094 Y-27.495 Z16.000 F600.000
G1 X82.429 Y-26.485 Z16.000 F600.000
G1 X85.846 Y-29.902 Z16.000 F600.000
G1 X86.196 Y-28.907 Z16.000 F600.000
G1 X82.750 Y-25.461 Z16.000 F600.000
G1 X83.059 Y-24.425 Z16.000 F600.000
G1 X86.522 Y-27.888 Z16.000 F600.000
G1 X86.847 Y-26.868 Z16.000 F600.000
G1 X83.366 Y-23.387 Z16.000 F600.000
G1 X83.648 Y-22.324 Z16.000 F600.000
G1 X87.160 Y-25.837 Z16.000 F600.000
G1 X87.460 Y-24.791 Z16.000 F600.000
G1 X83.929 Y-21.261 Z16.000 F600.000
G3 X84.192 Y-20.179 Z16.000 I-18.054 J4.962 K0.000 F600.000
G1 X87.759 Y-23.746 Z16.000 F600.000
G3 X88.032 Y-22.674 Z16.000 I-18.048 J5.171 K0.000 F600.000
G1 X84.446 Y-19.088 Z16.000 F600.000
G3 X84.691 Y-17.988 Z16.000 I-18.360 J4.661 K0.000 F600.000
G1 X88.305 Y-21.602 Z16.000 F600.000
G3 X88.563 Y-20.514 Z16.000 I-18.389 J4.923 K0.000 F600.000
G1 X84.916 Y-16.868 Z16.000 F600.000
G3 X85.141 Y-15.748 Z16.000 I-37.752 J8.154 K0.000 F600.000
G1 X88.809 Y-19.415 Z16.000 F600.000
G3 X89.048 Y-18.310 Z16.000 I-18.693 J4.636 K0.000 F600.000
G1 X85.336 Y-14.598 Z16.000 F600.000
G1 X85.530 Y-13.447 Z16.000 F600.000
G1 X89.266 Y-17.183 Z16.000 F600.000
G1 X89.484 Y-16.056 Z16.000 F600.000
G1 X85.702 Y-12.274 Z16.000 F600.000
G1 X85.865 Y-11.092 Z16.000 F600.000
G1 X89.676 Y-14.903 Z16.000 F600.000
G1 X89.864 Y-13.746 Z16.000 F600.000
G1 X86.011 Y-9.893 Z16.000 F600.000
G1 X86.141 Y-8.678 Z16.000 F600.000
G1 X90.034 Y-12.571 Z16.000 F600.000
G1 X90.191 Y-11.384 Z16.000 F600.000
G1 X86.258 Y-7.451 Z16.000 F600.000
G1 X86.354 Y-6.201 Z16.000 F600.000
G1 X90.337 Y-10.184 Z16.000 F600.000
G1 X90.463 Y-8.965 Z16.000 F600.000
G1 X86.440 Y-4.942 Z16.000 F600.000
G1 X86.498 Y-3.656 Z16.000 F600.000
G1 X90.581 Y-7.739 Z16.000 F600.000
G1 X90.674 Y-6.486 Z16.000 F600.000
G1 X86.549 Y-2.362 Z16.000 F600.000
G1 X86.569 Y-1.037 Z16.000 F600.000
G1 X90.763 Y-5.231 Z16.000 F600.000
G1 X90.820 Y-3.942 Z16.000 F600.000
G1 X86.581 Y0.296 Z16.000 F600.000
G1 X86.560 Y1.662 Z16.000 F600.000
G1 X90.876 Y-2.654 Z16.000 F600.000
G1 X90.895 Y-1.328 Z16.000 F600.000
G1 X86.527 Y3.040 Z16.000 F600.000
G1 X86.462 Y4.450 Z16.000 F600.000
G1 X90.915 Y-0.003 Z16.000 F600.000
G3 X90.895 Y1.362 Z16.000 I-23.252 J0.343 K0.000 F600.000
G1 X86.378 Y5.878 Z16.000 F600.000
G1 X86.267 Y7.335 Z16.000 F600.000
G1 X90.873 Y2.729 Z16.000 F600.000
G1 X90.811 Y4.136 Z16.000 F600.000
G1 X86.126 Y8.821 Z16.000 F600.000
G1 X85.964 Y10.327 Z16.000 F600.000
G1 X90.742 Y5.549 Z16.000 F600.000
G1 X90.636 Y7.001 Z16.000 F600.000
G1 X85.756 Y11.880 Z16.000 F600.000
G3 X85.530 Y13.452 Z16.000 I-26.515 J-3.017 K0.000 F600.000
G1 X90.514 Y8.467 Z16.000 F600.000
G1 X90.359 Y9.967 Z16.000 F600.000
G1 X85.256 Y15.071 Z16.000 F600.000
G3 X84.945 Y16.727 Z16.000 I-27.700 J-4.345 K0.000 F600.000
G1 X90.177 Y11.494 Z16.000 F600.000
G1 X89.971 Y13.046 Z16.000 F600.000
G1 X84.604 Y18.412 Z16.000 F600.000
G1 X84.196 Y20.165 Z16.000 F600.000
G1 X89.718 Y14.643 Z16.000 F600.000
G3 X89.444 Y16.262 Z16.000 I-27.692 J-3.849 K0.000 F600.000
G1 X83.743 Y21.963 Z16.000 F600.000
G3 X83.243 Y23.808 Z16.000 I-31.145 J-7.457 K0.000 F600.000
G1 X89.122 Y17.929 Z16.000 F600.000
G3 X88.759 Y19.637 Z16.000 I-29.261 J-5.329 K0.000 F600.000
G1 X82.671 Y25.724 Z16.000 F600.000
G3 X82.018 Y27.723 Z16.000 I-33.890 J-9.977 K0.000 F600.000
G1 X88.362 Y21.378 Z16.000 F600.000
G1 X87.902 Y23.183 Z16.000 F600.000
G1 X81.284 Y29.801 Z16.000 F600.000
G3 X80.454 Y31.977 Z16.000 I-36.444 J-12.668 K0.000 F600.000
G1 X87.387 Y25.043 Z16.000 F600.000
G3 X86.819 Y26.957 Z16.000 I-32.864 J-8.726 K0.000 F600.000
G1 X79.504 Y34.271 Z16.000 F600.000
G3 X78.405 Y36.715 Z16.000 I-40.994 J-16.963 K0.000 F600.000
G1 X86.187 Y28.934 Z16.000 F600.000
G1 X85.459 Y31.006 Z16.000 F600.000
G1 X77.116 Y39.349 Z16.000 F600.000
G3 X75.577 Y42.233 Z16.000 I-48.388 J-23.968 K0.000 F600.000
G1 X84.639 Y33.171 Z16.000 F600.000
G3 X83.712 Y35.444 Z16.000 I-39.148 J-14.652 K0.000 F600.000
G1 X73.670 Y45.485 Z16.000 F600.000
G3 X71.118 Y49.382 Z16.000 I-65.474 J-40.094 K0.000 F600.000
G1 X82.652 Y37.848 Z16.000 F600.000
G3 X81.427 Y40.418 Z16.000 I-44.362 J-19.568 K0.000 F600.000
G1 X66.929 Y54.916 Z16.000 F600.000
G1 X68.154 Y53.691 Z15.000 F600.000
G1 X66.929 Y54.916 Z14.000 F600.000
G1 X81.427 Y40.418 Z14.000 F600.000
G2 X82.652 Y37.848 Z14.000 I-43.137 J-22.138 K0.000 F600.000
G1 X71.118 Y49.382 Z14.000 F600.000
G2 X73.670 Y45.485 Z14.000 I-62.922 J-43.992 K0.000 F600.000
G1 X83.712 Y35.444 Z14.000 F600.000
G2 X84.639 Y33.171 Z14.000 I-38.221 J-16.924 K0.000 F600.000
G1 X75.577 Y42.233 Z14.000 F600.000
G2 X77.116 Y39.349 Z14.000 I-46.849 J-26.852 K0.000 F600.000
G1 X85.459 Y31.006 Z14.000 F600.000
G1 X86.187 Y28.934 Z14.000 F600.000
G1 X78.405 Y36.715 Z14.000 F600.000
G2 X79.504 Y34.271 Z14.000 I-39.896 J-19.407 K0.000 F600.000
G1 X86.819 Y26.957 Z14.000 F600.000
G2 X87.387 Y25.043 Z14.000 I-32.295 J-10.639 K0.000 F600.000
G1 X80.454 Y31.977 Z14.000 F600.000
G2 X81.284 Y29.801 Z14.000 I-35.613 J-14.843 K0.000 F600.000
G1 X87.902 Y23.183 Z14.000 F600.000
G1 X88.362 Y21.378 Z14.000 F600.000
G1 X82.018 Y27.723 Z14.000 F600.000
G2 X82.671 Y25.724 Z14.000 I-33.237 J-11.975 K0.000 F600.000
G1 X88.759 Y19.637 Z14.000 F600.000
G2 X89.122 Y17.929 Z14.000 I-28.898 J-7.037 K0.000 F600.000
G1 X83.243 Y23.808 Z14.000 F600.000
G2 X83.743 Y21.963 Z14.000 I-30.644 J-9.303 K0.000 F600.000
G1 X89.444 Y16.262 Z14.000 F600.000
G2 X89.718 Y14.643 Z14.000 I-27.418 J-5.467 K0.000 F600.000
G1 X84.196 Y20.165 Z14.000 F600.000
G1 X84.604 Y18.412 Z14.000 F600.000
G1 X89.971 Y13.046 Z14.000 F600.000
G1 X90.177 Y11.494 Z14.000 F600.000
G1 X84.945 Y16.727 Z14.000 F600.000
G2 X85.256 Y15.071 Z14.000 I-27.389 J-6.001 K0.000 F600.000
G1 X90.359 Y9.967 Z14.000 F600.000
G1 X90.514 Y8.467 Z14.000 F600.000
G1 X85.530 Y13.452 Z14.000 F600.000
G2 X85.756 Y11.880 Z14.000 I-26.289 J-4.589 K0.000 F600.000
G1 X90.636 Y7.001 Z14.000 F600.000
G1 X90.742 Y5.549 Z14.000 F600.000
G1 X85.964 Y10.327 Z14.000 F600.000
G1 X86.126 Y8.821 Z14.000 F600.000
G1 X90.811 Y4.136 Z14.000 F600.000
G1 X90.873 Y2.729 Z14.000 F600.000
G1 X86.267 Y7.335 Z14.000 F600.000
G1 X86.378 Y5.878 Z14.000 F600.000
G1 X90.895 Y1.362 Z14.000 F600.000
G2 X90.915 Y-0.003 Z14.000 I-23.232 J-1.022 K0.000 F600.000
G1 X86.462 Y4.450 Z14.000 F600.000
G1 X86.527 Y3.040 Z14.000 F600.000
G1 X90.895 Y-1.328 Z14.000 F600.000
G1 X90.876 Y-2.654 Z14.000 F600.000
G1 X86.560 Y1.662 Z14.000 F600.000
G1 X86.581 Y0.296 Z14.000 F600.000
G1 X90.820 Y-3.942 Z14.000 F600.000
G1 X90.763 Y-5.231 Z14.000 F600.000
G1 X86.569 Y-1.037 Z14.000 F600.000
G1 X86.549 Y-2.362 Z14.000 F600.000
G1 X90.674 Y-6.486 Z14.000 F600.000
G1 X90.581 Y-7.739 Z14.000 F600.000
G1 X86.498 Y-3.656 Z14.000 F600.000
G1 X86.440 Y-4.942 Z14.000 F600.000
G1 X90.463 Y-8.965 Z14.000 F600.000
G1 X90.337 Y-10.184 Z14.000 F600.000
G1 X86.354 Y-6.201 Z14.000 F600.000
G1 X86.258 Y-7.451 Z14.000 F600.000
G1 X90.191 Y-11.384 Z14.000 F600.000
G1 X90.034 Y-12.571 Z14.000 F600.000
G1 X86.141 Y-8.678 Z14.000 F600.000
G1 X86.011 Y-9.893 Z14.000 F600.000
G1 X89.864 Y-13.746 Z14.000 F600.000
G1 X89.676 Y-14.903 Z14.000 F600.000
G1 X85.865 Y-11.092 Z14.000 F600.000
G1 X85.702 Y-12.274 Z14.000 F600.000
G1 X89.484 Y-16.056 Z14.000 F600.000
G1 X89.266 Y-17.183 Z14.000 F600.000
G1 X85.530 Y-13.447 Z14.000 F600.000
G1 X85.336 Y-14.598 Z14.000 F600.000
G1 X89.048 Y-18.310 Z14.000 F600.000
G2 X88.809 Y-19.415 Z14.000 I-18.933 J3.531 K0.000 F600.000
G1 X85.141 Y-15.748 Z14.000 F600.000
G2 X84.916 Y-16.868 Z14.000 I-37.977 J7.034 K0.000 F600.000
G1 X88.563 Y-20.514 Z14.000 F600.000
G2 X88.305 Y-21.602 Z14.000 I-18.646 J3.835 K0.000 F600.000
G1 X84.691 Y-17.988 Z14.000 F600.000
G2 X84.446 Y-19.088 Z14.000 I-18.605 J3.561 K0.000 F600.000
G1 X88.032 Y-22.674 Z14.000 F600.000
G2 X87.759 Y-23.746 Z14.000 I-18.321 J4.099 K0.000 F600.000
G1 X84.192 Y-20.179 Z14.000 F600.000
G2 X83.929 Y-21.261 Z14.000 I-18.317 J3.880 K0.000 F600.000
G1 X87.460 Y-24.791 Z14.000 F600.000
G1 X87.160 Y-25.837 Z14.000 F600.000
G1 X83.648 Y-22.324 Z14.000 F600.000
G1 X83.366 Y-23.387 Z14.000 F600.000
G1 X86.847 Y-26.868 Z14.000 F600.000
G1 X86.522 Y-27.888 Z14.000 F600.000
G1 X83.059 Y-24.425 Z14.000 F600.000
G1 X82.750 Y-25.461 Z14.000 F600.000
G1 X86.196 Y-28.907 Z14.000 F600.000
G1 X85.846 Y-29.902 Z14.000 F600.000
G1 X82.429 Y-26.485 Z14.000 F600.000
G1 X82.094 Y-27.495 Z14.000 F600.000
G1 X85.497 Y-30.898 Z14.000 F600.000
G2 X85.135 Y-31.881 Z14.000 I-16.915 J5.672 K0.000 F600.000
G1 X81.759 Y-28.504 Z14.000 F600.000
G2 X81.398 Y-29.489 Z14.000 I-37.222 J13.051 K0.000 F600.000
G1 X84.762 Y-32.852 Z14.000 F600.000
G1 X84.388 Y-33.824 Z14.000 F600.000
G1 X81.038 Y-30.474 Z14.000 F600.000
G2 X80.666 Y-31.447 Z14.000 I-16.510 J5.755 K0.000 F600.000
G1 X83.992 Y-34.773 Z14.000 F600.000
G1 X83.595 Y-35.721 Z14.000 F600.000
G1 X80.281 Y-32.407 Z14.000 F600.000
G1 X79.896 Y-33.367 Z14.000 F600.000
G1 X83.190 Y-36.661 Z14.000 F600.000
G1 X82.771 Y-37.586 Z14.000 F600.000
G1 X79.489 Y-34.305 Z14.000 F600.000
G1 X79.081 Y-35.241 Z14.000 F600.000
G1 X82.351 Y-38.511 Z14.000 F600.000
G2 X81.915 Y-39.420 Z14.000 I-15.693 J6.967 K0.000 F600.000
G1 X78.664 Y-36.169 Z14.000 F600.000
G1 X78.232 Y-37.082 Z14.000 F600.000
G1 X81.473 Y-40.323 Z14.000 F600.000
G2 X81.030 Y-41.225 Z14.000 I-15.566 J7.102 K0.000 F600.000
G1 X77.799 Y-37.994 Z14.000 F600.000
G2 X77.351 Y-38.891 Z14.000 I-15.365 J7.134 K0.000 F600.000
G1 X80.566 Y-42.106 Z14.000 F600.000
G1 X80.102 Y-42.987 Z14.000 F600.000
G1 X76.896 Y-39.780 Z14.000 F600.000
G2 X76.439 Y-40.668 Z14.000 I-16.067 J7.706 K0.000 F600.000
G1 X79.630 Y-43.860 Z14.000 F600.000
G1 X79.145 Y-44.719 Z14.000 F600.000
G1 X75.961 Y-41.536 Z14.000 F600.000
G1 X75.484 Y-42.403 Z14.000 F600.000
G1 X78.660 Y-45.579 Z14.000 F600.000
G2 X78.160 Y-46.424 Z14.000 I-14.637 J8.087 K0.000 F600.000
G1 X74.997 Y-43.261 Z14.000 F600.000
G1 X74.497 Y-44.107 Z14.000 F600.000
G1 X77.653 Y-47.263 Z14.000 F600.000
G1 X77.147 Y-48.101 Z14.000 F600.000
G1 X73.998 Y-44.952 Z14.000 F600.000
G2 X73.482 Y-45.782 Z14.000 I-14.287 J8.300 K0.000 F600.000
G1 X76.621 Y-48.920 Z14.000 F600.000
G1 X76.094 Y-49.738 Z14.000 F600.000
G1 X72.961 Y-46.605 Z14.000 F600.000
G2 X72.439 Y-47.429 Z14.000 I-20.289 J12.279 K0.000 F600.000
G1 X75.562 Y-50.551 Z14.000 F600.000
G1 X75.014 Y-51.348 Z14.000 F600.000
G1 X71.897 Y-48.231 Z14.000 F600.000
G1 X71.354 Y-49.033 Z14.000 F600.000
G1 X74.466 Y-52.145 Z14.000 F600.000
G2 X73.909 Y-52.933 Z14.000 I-13.690 J9.091 K0.000 F600.000
G1 X70.805 Y-49.829 Z14.000 F600.000
G1 X70.241 Y-50.610 Z14.000 F600.000
G1 X73.341 Y-53.710 Z14.000 F600.000
G1 X72.773 Y-54.487 Z14.000 F600.000
G1 X69.678 Y-51.391 Z14.000 F600.000
G2 X69.102 Y-52.161 Z14.000 I-13.228 J9.289 K0.000 F600.000
G1 X72.191 Y-55.250 Z14.000 F600.000
G1 X71.603 Y-56.007 Z14.000 F600.000
G1 X68.517 Y-52.921 Z14.000 F600.000
G1 X67.933 Y-53.681 Z14.000 F600.000
G1 X71.015 Y-56.764 Z14.000 F600.000
G2 X70.409 Y-57.502 Z14.000 I-12.879 J9.952 K0.000 F600.000
G1 X67.331 Y-54.425 Z14.000 F600.000
G1 X66.726 Y-55.164 Z14.000 F600.000
G1 X69.801 Y-58.239 Z14.000 F600.000
G2 X69.191 Y-58.974 Z14.000 I-12.811 J10.024 K0.000 F600.000
G1 X66.120 Y-55.903 Z14.000 F600.000
G1 X65.493 Y-56.621 Z14.000 F600.000
G1 X68.563 Y-59.691 Z14.000 F600.000
G1 X67.935 Y-60.408 Z14.000 F600.000
G1 X64.867 Y-57.340 Z14.000 F600.000
G2 X64.235 Y-58.053 Z14.000 I-12.403 J10.346 K0.000 F600.000
G1 X67.300 Y-61.118 Z14.000 F600.000
G1 X66.653 Y-61.816 Z14.000 F600.000
G1 X63.589 Y-58.752 Z14.000 F600.000
G1 X62.942 Y-59.450 Z14.000 F600.000
G1 X66.005 Y-62.513 Z14.000 F600.000
G2 X65.347 Y-63.200 Z14.000 I-12.027 J10.855 K0.000 F600.000
G1 X62.285 Y-60.138 Z14.000 F600.000
G1 X61.618 Y-60.815 Z14.000 F600.000
G1 X64.680 Y-63.877 Z14.000 F600.000
G1 X64.012 Y-64.555 Z14.000 F600.000
G1 X60.950 Y-61.493 Z14.000 F600.000
G2 X60.269 Y-62.156 Z14.000 I-11.552 J11.198 K0.000 F600.000
G1 X63.331 Y-65.218 Z14.000 F600.000
G1 X62.643 Y-65.876 Z14.000 F600.000
G1 X59.581 Y-62.813 Z14.000 F600.000
G1 X58.893 Y-63.470 Z14.000 F600.000
G1 X61.956 Y-66.533 Z14.000 F600.000
G2 X61.251 Y-67.173 Z14.000 I-11.247 J11.682 K0.000 F600.000
G1 X58.186 Y-64.108 Z14.000 F600.000
G1 X57.477 Y-64.745 Z14.000 F600.000
G1 X60.544 Y-67.811 Z14.000 F600.000
G2 X59.835 Y-68.447 Z14.000 I-11.183 J11.750 K0.000 F600.000
G1 X56.766 Y-65.378 Z14.000 F600.000
G1 X56.037 Y-65.994 Z14.000 F600.000
G1 X59.108 Y-69.065 Z14.000 F600.000
G1 X58.381 Y-69.683 Z14.000 F600.000
G1 X55.308 Y-66.610 Z14.000 F600.000
G2 X54.571 Y-67.217 Z14.000 I-10.600 J12.105 K0.000 F600.000
G1 X57.649 Y-70.295 Z14.000 F600.000
G1 X56.902 Y-70.894 Z14.000 F600.000
G1 X53.821 Y-67.813 Z14.000 F600.000
G1 X53.071 Y-68.408 Z14.000 F600.000
G1 X56.155 Y-71.492 Z14.000 F600.000
G2 X55.398 Y-72.080 Z14.000 I-10.389 J12.592 K0.000 F600.000
G1 X52.308 Y-68.990 Z14.000 F600.000
G1 X51.538 Y-69.564 Z14.000 F600.000
G1 X54.631 Y-72.658 Z14.000 F600.000
G1 X53.864 Y-73.236 Z14.000 F600.000
G1 X50.767 Y-70.139 Z14.000 F600.000
G2 X49.978 Y-70.694 Z14.000 I-10.108 J13.517 K0.000 F600.000
G1 X53.083 Y-73.799 Z14.000 F600.000
G1 X52.296 Y-74.357 Z14.000 F600.000
G1 X49.186 Y-71.248 Z14.000 F600.000
G2 X48.391 Y-71.798 Z14.000 I-9.869 J13.412 K0.000 F600.000
G1 X51.509 Y-74.915 Z14.000 F600.000
G2 X50.702 Y-75.453 Z14.000 I-9.567 J13.464 K0.000 F600.000
G1 X47.579 Y-72.330 Z14.000 F600.000
G1 X46.766 Y-72.862 Z14.000 F600.000
G1 X49.895 Y-75.991 Z14.000 F600.000
G2 X49.083 Y-76.524 Z14.000 I-9.482 J13.554 K0.000 F600.000
G1 X45.943 Y-73.384 Z14.000 F600.000
G1 X45.109 Y-73.895 Z14.000 F600.000
G1 X48.255 Y-77.040 Z14.000 F600.000
G1 X47.427 Y-77.557 Z14.000 F600.000
G1 X44.275 Y-74.405 Z14.000 F600.000
G2 X43.424 Y-74.900 Z14.000 I-8.792 J14.146 K0.000 F600.000
G1 X46.588 Y-78.064 Z14.000 F600.000
G1 X45.739 Y-78.560 Z14.000 F600.000
G1 X42.568 Y-75.388 Z14.000 F600.000
G2 X41.710 Y-75.876 Z14.000 I-9.462 J15.651 K0.000 F600.000
G1 X44.890 Y-79.056 Z14.000 F600.000
G2 X44.025 Y-79.535 Z14.000 I-8.599 J14.491 K0.000 F600.000
G1 X40.832 Y-76.342 Z14.000 F600.000
G1 X39.953 Y-76.808 Z14.000 F600.000
G1 X43.155 Y-80.010 Z14.000 F600.000
G2 X42.283 Y-80.483 Z14.000 I-8.490 J14.606 K0.000 F600.000
G1 X39.065 Y-77.266 Z14.000 F600.000
G1 X38.164 Y-77.709 Z14.000 F600.000
G1 X41.391 Y-80.936 Z14.000 F600.000
G1 X40.499 Y-81.389 Z14.000 F600.000
G1 X37.263 Y-78.153 Z14.000 F600.000
G2 X36.344 Y-78.579 Z14.000 I-7.685 J15.380 K0.000 F600.000
G1 X39.598 Y-81.833 Z14.000 F600.000
G1 X38.684 Y-82.264 Z14.000 F600.000
G1 X35.420 Y-79.000 Z14.000 F600.000
G2 X34.491 Y-79.416 Z14.000 I-7.586 J15.666 K0.000 F600.000
G1 X37.770 Y-82.694 Z14.000 F600.000
G2 X36.838 Y-83.108 Z14.000 I-7.510 J15.646 K0.000 F600.000
G1 X33.543 Y-79.813 Z14.000 F600.000
G1 X32.595 Y-80.210 Z14.000 F600.000
G1 X35.902 Y-83.516 Z14.000 F600.000
G2 X34.962 Y-83.921 Z14.000 I-7.364 J15.800 K0.000 F600.000
G1 X31.633 Y-80.592 Z14.000 F600.000
G1 X30.660 Y-80.965 Z14.000 F600.000
G1 X34.002 Y-84.307 Z14.000 F600.000
G1 X33.042 Y-84.692 Z14.000 F600.000
G1 X29.687 Y-81.336 Z14.000 F600.000
G1 X28.689 Y-81.684 Z14.000 F600.000
G1 X32.069 Y-85.064 Z14.000 F600.000
G1 X31.086 Y-85.425 Z14.000 F600.000
G1 X27.692 Y-82.031 Z14.000 F600.000
G2 X26.680 Y-82.365 Z14.000 I-6.096 J16.806 K0.000 F600.000
G1 X30.102 Y-85.786 Z14.000 F600.000
G1 X29.095 Y-86.124 Z14.000 F600.000
G1 X25.658 Y-82.687 Z14.000 F600.000
G2 X24.632 Y-83.006 Z14.000 I-6.083 J17.731 K0.000 F600.000
G1 X28.087 Y-86.461 Z14.000 F600.000
G2 X27.067 Y-86.786 Z14.000 I-6.038 J17.207 K0.000 F600.000
G1 X23.583 Y-83.301 Z14.000 F600.000
G1 X22.533 Y-83.597 Z14.000 F600.000
G1 X26.034 Y-87.098 Z14.000 F600.000
G2 X25.001 Y-87.409 Z14.000 I-5.820 J17.438 K0.000 F600.000
G1 X21.465 Y-83.874 Z14.000 F600.000
G1 X20.388 Y-84.142 Z14.000 F600.000
G1 X23.942 Y-87.696 Z14.000 F600.000
G1 X22.884 Y-87.982 Z14.000 F600.000
G1 X19.303 Y-84.401 Z14.000 F600.000
G1 X18.198 Y-84.641 Z14.000 F600.000
G1 X21.809 Y-88.253 Z14.000 F600.000
G1 X20.724 Y-88.512 Z14.000 F600.000
G1 X17.092 Y-84.881 Z14.000 F600.000
G2 X15.959 Y-85.092 Z14.000 I-4.678 J21.977 K0.000 F600.000
G1 X19.633 Y-88.766 Z14.000 F600.000
G1 X18.520 Y-88.998 Z14.000 F600.000
G1 X14.824 Y-85.302 Z14.000 F600.000
G2 X13.668 Y-85.491 Z14.000 I-3.753 J19.308 K0.000 F600.000
G1 X17.407 Y-89.230 Z14.000 F600.000
G2 X16.270 Y-89.438 Z14.000 I-4.100 J19.262 K0.000 F600.000
G1 X12.502 Y-85.670 Z14.000 F600.000
G2 X11.322 Y-85.835 Z14.000 I-3.351 J19.659 K0.000 F600.000
G1 X15.128 Y-89.641 Z14.000 F600.000
G2 X13.970 Y-89.828 Z14.000 I-3.757 J19.626 K0.000 F600.000
G1 X10.124 Y-85.982 Z14.000 F600.000
G2 X8.918 Y-86.121 Z14.000 I-2.933 J20.235 K0.000 F600.000
G1 X12.798 Y-90.001 Z14.000 F600.000
G2 X11.617 Y-90.165 Z14.000 I-3.381 J20.025 K0.000 F600.000
G1 X7.686 Y-86.234 Z14.000 F600.000
G2 X6.450 Y-86.343 Z14.000 I-2.491 J21.196 K0.000 F600.000
G1 X10.414 Y-90.307 Z14.000 F600.000
G2 X9.208 Y-90.446 Z14.000 I-2.966 J20.464 K0.000 F600.000
G1 X5.182 Y-86.420 Z14.000 F600.000
G2 X3.914 Y-86.496 Z14.000 I-2.076 J23.999 K0.000 F600.000
G1 X7.972 Y-90.555 Z14.000 F600.000
G1 X6.737 Y-90.664 Z14.000 F600.000
G1 X2.608 Y-86.536 Z14.000 F600.000
G2 X1.303 Y-86.575 Z14.000 I-1.574 J30.609 K0.000 F600.000
G1 X5.468 Y-90.741 Z14.000 F600.000
G1 X4.198 Y-90.815 Z14.000 F600.000
G1 X-0.042 Y-86.575 Z14.000 F600.000
G2 X-1.389 Y-86.573 Z14.000 I-0.636 J24.331 K0.000 F600.000
G1 X2.897 Y-90.859 Z14.000 F600.000
G1 X1.590 Y-90.898 Z14.000 F600.000
G1 X-2.776 Y-86.531 Z14.000 F600.000
G2 X-4.170 Y-86.482 Z14.000 I0.133 J23.666 K0.000 F600.000
G1 X0.253 Y-90.905 Z14.000 F600.000
G1 X-1.092 Y-90.905 Z14.000 F600.000
G1 X-5.603 Y-86.394 Z14.000 F600.000
G2 X-7.050 Y-86.292 Z14.000 I0.986 J24.236 K0.000 F600.000
G1 X-2.470 Y-90.872 Z14.000 F600.000
G1 X-3.856 Y-90.831 Z14.000 F600.000
G1 X-8.531 Y-86.156 Z14.000 F600.000
G2 X-10.039 Y-85.993 Z14.000 I1.969 J25.205 K0.000 F600.000
G1 X-5.280 Y-90.752 Z14.000 F600.000
G2 X-6.710 Y-90.666 Z14.000 I0.738 J24.392 K0.000 F600.000
G1 X-11.572 Y-85.805 Z14.000 F600.000
G2 X-13.151 Y-85.570 Z14.000 I3.152 J26.697 K0.000 F600.000
G1 X-8.186 Y-90.536 Z14.000 F600.000
G2 X-9.672 Y-90.394 Z14.000 I1.666 J25.377 K0.000 F600.000
G1 X-14.751 Y-85.315 Z14.000 F600.000
G1 X-16.401 Y-85.010 Z14.000 F600.000
G1 X-11.197 Y-90.215 Z14.000 F600.000
G2 X-12.748 Y-90.008 Z14.000 I2.732 J26.507 K0.000 F600.000
G1 X-18.092 Y-84.664 Z14.000 F600.000
G2 X-19.817 Y-84.284 Z14.000 I5.594 J29.511 K0.000 F600.000
G1 X-14.326 Y-89.775 Z14.000 F600.000
G2 X-15.952 Y-89.495 Z14.000 I3.964 J27.813 K0.000 F600.000
G1 X-21.608 Y-83.838 Z14.000 F600.000
G2 X-23.453 Y-83.338 Z14.000 I7.400 J30.939 K0.000 F600.000
G1 X-17.601 Y-89.190 Z14.000 F600.000
G1 X-19.300 Y-88.836 Z14.000 F600.000
G1 X-25.354 Y-82.782 Z14.000 F600.000
G2 X-27.320 Y-82.161 Z14.000 I10.274 J35.946 K0.000 F600.000
G1 X-21.045 Y-88.435 Z14.000 F600.000
G2 X-22.829 Y-87.997 Z14.000 I6.573 J30.581 K0.000 F600.000
G1 X-29.385 Y-81.441 Z14.000 F600.000
G2 X-31.545 Y-80.626 Z14.000 I12.535 J36.483 K0.000 F600.000
G1 X-24.673 Y-87.498 Z14.000 F600.000
G2 X-26.584 Y-86.932 Z14.000 I8.689 J32.825 K0.000 F600.000
G1 X-33.817 Y-79.698 Z14.000 F600.000
G2 X-36.229 Y-78.631 Z14.000 I16.462 J40.468 K0.000 F600.000
G1 X-28.557 Y-86.304 Z14.000 F600.000
G2 X-30.602 Y-85.603 Z14.000 I10.905 J35.175 K0.000 F600.000
G1 X-38.818 Y-77.388 Z14.000 F600.000
G2 X-41.634 Y-75.916 Z14.000 I22.988 J47.425 K0.000 F600.000
G1 X-32.735 Y-84.815 Z14.000 F600.000
G1 X-34.982 Y-83.913 Z14.000 F600.000
G1 X-44.829 Y-74.066 Z14.000 F600.000
G2 X-48.543 Y-71.697 Z14.000 I37.653 J63.128 K0.000 F600.000
G1 X-37.359 Y-82.881 Z14.000 F600.000
G2 X-39.890 Y-81.695 Z14.000 I18.930 J43.685 K0.000 F600.000
G1 X-53.585 Y-68.000 Z14.000 F600.000
G2 X-68.029 Y-53.556 Z14.000 I52.920 J67.363 K0.000 F600.000
G1 X-81.676 Y-39.909 Z14.000 F600.000
G3 X-80.279 Y-42.651 Z14.000 I47.378 J22.412 K0.000 F600.000
G1 X-42.639 Y-80.291 Z14.000 F600.000
G2 X-45.681 Y-78.594 Z14.000 I27.368 J52.634 K0.000 F600.000
G1 X-78.613 Y-45.662 Z14.000 F600.000
G3 X-76.477 Y-49.143 Z14.000 I56.352 J32.183 K0.000 F600.000
G1 X-49.118 Y-76.502 Z14.000 F600.000
G2 X-53.366 Y-73.598 Z14.000 I44.649 J69.891 K0.000 F600.000
G1 X-73.577 Y-53.388 Z14.000 F600.000
G3 X-68.164 Y-60.145 Z14.000 I67.762 J48.729 K0.000 F600.000
G3 X-60.077 Y-68.232 Z14.000 I65.357 J57.270 K0.000 F600.000
G1 X-68.164 Y-60.145 Z14.000 F600.000
G0 X-68.164 Y-60.145 Z23.000
G0 X-68.171 Y-60.151 Z23.000
G0 X-68.171 Y-60.151 Z21.000
G1 X-69.491 Y-58.621 Z19.833 F600.000
G1 X-70.777 Y-57.063 Z18.667 F600.000
G1 X-72.028 Y-55.475 Z17.500 F600.000
G1 X-70.777 Y-57.063 Z16.333 F600.000
G1 X-69.491 Y-58.621 Z15.167 F600.000
G1 X-68.171 Y-60.151 Z14.000 F600.000
G2 X-90.915 Y0.000 Z14.000 I68.171 J60.151 K0.000 F600.000
G2 X0.000 Y90.915 Z14.000 I90.915 J0.000 K0.000 F600.000
G2 X90.915 Y-0.000 Z14.000 I-0.000 J-90.915 K0.000 F600.000
G2 X-68.171 Y-60.151 Z14.000 I-90.915 J-0.000 K0.000 F600.000
G0 X-68.171 Y-60.151 Z23.000
G0 X-64.924 Y-57.287 Z23.000
G0 X-64.924 Y-57.287 Z21.000
G1 X-63.570 Y-58.786 Z19.833 F600.000
G1 X-62.181 Y-60.254 Z18.667 F600.000
G1 X-60.758 Y-61.688 Z17.500 F600.000
G1 X-62.181 Y-60.254 Z16.333 F600.000
G1 X-63.570 Y-58.786 Z15.167 F600.000
G1 X-64.924 Y-57.287 Z14.000 F600.000
G3 X86.585 Y-0.000 Z14.000 I64.925 J57.287 K0.000 F600.000
G3 X-86.585 Y0.024 Z14.000 I-86.585 J0.000 K0.000 F600.000
G3 X-64.924 Y-57.287 Z14.000 I86.585 J-0.024 K0.000 F600.000
G0 X-64.924 Y-57.287 Z23.000
G0 X-81.676 Y-39.909 Z23.000
G0 X-81.676 Y-39.909 Z21.000
G1 X-77.390 Y-44.195 Z17.500 F600.000
G1 X-81.676 Y-39.909 Z14.000 F600.000
G1 X-68.029 Y-53.556 Z14.000 F600.000
G2 X-71.662 Y-48.579 Z14.000 I60.418 J47.909 K0.000 F600.000
G1 X-82.868 Y-37.372 Z14.000 F600.000
G2 X-83.899 Y-34.997 Z14.000 I39.931 J18.737 K0.000 F600.000
G1 X-74.077 Y-44.819 Z14.000 F600.000
G2 X-75.896 Y-41.655 Z14.000 I51.304 J31.601 K0.000 F600.000
G1 X-84.801 Y-32.749 Z14.000 F600.000
G2 X-85.600 Y-30.606 Z14.000 I36.089 J14.663 K0.000 F600.000
G1 X-77.388 Y-38.817 Z14.000 F600.000
G2 X-78.639 Y-36.221 Z14.000 I42.436 J22.049 K0.000 F600.000
G1 X-86.312 Y-28.549 Z14.000 F600.000
G1 X-86.940 Y-26.575 Z14.000 F600.000
G1 X-79.706 Y-33.810 Z14.000 F600.000
G2 X-80.628 Y-31.543 Z14.000 I37.368 J16.520 K0.000 F600.000
G1 X-87.492 Y-24.679 Z14.000 F600.000
G2 X-87.991 Y-22.834 Z14.000 I31.151 J9.427 K0.000 F600.000
G1 X-81.434 Y-29.391 Z14.000 F600.000
G2 X-82.147 Y-27.334 Z14.000 I33.749 J12.842 K0.000 F600.000
G1 X-88.446 Y-21.035 Z14.000 F600.000
G1 X-88.834 Y-19.302 Z14.000 F600.000
G1 X-82.782 Y-25.354 Z14.000 F600.000
G2 X-83.352 Y-23.439 Z14.000 I38.332 J12.450 K0.000 F600.000
G1 X-89.184 Y-17.606 Z14.000 F600.000
G1 X-89.507 Y-15.940 Z14.000 F600.000
G1 X-83.837 Y-21.609 Z14.000 F600.000
G2 X-84.275 Y-19.827 Z14.000 I29.399 J8.159 K0.000 F600.000
G1 X-89.768 Y-14.333 Z14.000 F600.000
G2 X-90.010 Y-12.746 Z14.000 I26.894 J4.912 K0.000 F600.000
G1 X-84.672 Y-18.084 Z14.000 F600.000
G1 X-85.010 Y-16.401 Z14.000 F600.000
G1 X-90.217 Y-11.195 Z14.000 F600.000
G2 X-90.389 Y-9.677 Z14.000 I25.750 J3.698 K0.000 F600.000
G1 X-85.309 Y-14.758 Z14.000 F600.000
G2 X-85.582 Y-13.139 Z14.000 I49.816 J9.254 K0.000 F600.000
G1 X-90.544 Y-8.178 Z14.000 F600.000
G2 X-90.656 Y-6.720 Z14.000 I24.756 J2.644 K0.000 F600.000
G1 X-85.798 Y-11.579 Z14.000 F600.000
G2 X-85.995 Y-10.036 Z14.000 I25.635 J4.067 K0.000 F600.000
G1 X-90.761 Y-5.271 Z14.000 F600.000
G1 X-90.823 Y-3.864 Z14.000 F600.000
G1 X-86.157 Y-8.530 Z14.000 F600.000
G2 X-86.289 Y-7.053 Z14.000 I24.547 J2.936 K0.000 F600.000
G1 X-90.879 Y-2.463 Z14.000 F600.000
G1 X-90.899 Y-1.098 Z14.000 F600.000
G1 X-86.400 Y-5.597 Z14.000 F600.000
G2 X-86.475 Y-4.177 Z14.000 I23.810 J1.965 K0.000 F600.000
G1 X-90.911 Y0.259 Z14.000 F600.000
G1 X-90.892 Y1.585 Z14.000 F600.000
G1 X-86.539 Y-2.768 Z14.000 F600.000
G2 X-86.564 Y-1.398 Z14.000 I23.672 J1.113 K0.000 F600.000
G1 X-90.865 Y2.903 Z14.000 F600.000
G1 X-90.809 Y4.191 Z14.000 F600.000
G1 X-86.585 Y-0.033 Z14.000 F600.000
G2 X-86.565 Y1.293 Z14.000 I26.846 J0.274 K0.000 F600.000
G1 X-90.748 Y5.476 Z14.000 F600.000
G1 X-90.656 Y6.728 Z14.000 F600.000
G1 X-86.545 Y2.618 Z14.000 F600.000
G2 X-86.487 Y3.905 Z14.000 I28.652 J-0.652 K0.000 F600.000
G1 X-90.564 Y7.981 Z14.000 F600.000
G2 X-90.438 Y9.201 Z14.000 I20.826 J-1.523 K0.000 F600.000
G1 X-86.428 Y5.191 Z14.000 F600.000
G2 X-86.335 Y6.443 Z14.000 I22.199 J-1.019 K0.000 F600.000
G1 X-90.313 Y10.420 Z14.000 F600.000
G2 X-90.161 Y11.613 Z14.000 I20.391 J-1.985 K0.000 F600.000
G1 X-86.240 Y7.692 Z14.000 F600.000
G2 X-86.116 Y8.913 Z14.000 I20.761 J-1.493 K0.000 F600.000
