(Exported by FreeCAD)
(Post Processor: grbl_post)
(Output Time:2024-11-19 14:18:52.213440)
(Begin preamble)
G17 G90
G21
(Begin operation: Fixture)
(Path: Fixture)
G54
(Finish operation: Fixture)
(Begin operation: surfacing001)
(Path: surfacing001)
(surfacing001)
(Begin toolchange)
( M6 T2 )
M3 S1800
(Finish operation: surfacing001)
(Begin operation: MillFace)
(Path: MillFace)
(MillFace)
G0 Z10.000
G0 X68.801 Y68.801
G0 Z8.000
G1 X68.801 Y68.801 Z-1.000 F600.000
G3 X0.656 Y97.297 Z-1.000 I-68.801 J-68.801 K0.000 F600.000
G3 X-97.299 Y0.262 Z-1.000 I-0.656 J-97.297 K0.000 F600.000
G3 X0.131 Y-97.299 Z-1.000 I97.299 J-0.262 K0.000 F600.000
G3 X68.801 Y68.801 Z-1.000 I-0.131 J97.299 K0.000 F600.000
G0 Z10.000
G0 X-46.170 Y85.640 Z10.000
G0 X-46.170 Y85.640 Z8.000
G1 X-46.170 Y85.640 Z-1.000 F600.000
G3 X-85.634 Y46.176 Z-1.000 I46.052 J-85.516 K0.000 F600.000
G1 X-46.170 Y85.640 Z-1.000 F600.000
G2 X-27.792 Y93.242 Z-1.000 I45.845 J-84.820 K0.000 F600.000
G1 X-93.237 Y27.797 Z-1.000 F600.000
G3 X-96.283 Y13.975 Z-1.000 I90.777 J-27.249 K0.000 F600.000
G1 X-13.975 Y96.282 Z-1.000 F600.000
G2 X-2.211 Y97.271 Z-1.000 I13.721 J-92.799 K0.000 F600.000
G1 X-97.267 Y2.214 Z-1.000 F600.000
G3 X-96.943 Y-8.238 Z-1.000 I92.786 J-2.349 K0.000 F600.000
G1 X8.242 Y96.946 Z-1.000 F600.000
G2 X17.732 Y95.661 Z-1.000 I-7.738 J-92.798 K0.000 F600.000
G1 X-95.667 Y-17.739 Z-1.000 F600.000
G3 X-93.621 Y-26.469 Z-1.000 I92.230 J17.016 K0.000 F600.000
G1 X26.474 Y93.627 Z-1.000 F600.000
G2 X34.567 Y90.943 Z-1.000 I-24.929 J-88.741 K0.000 F600.000
G1 X-90.944 Y-34.568 Z-1.000 F600.000
G3 X-87.710 Y-42.110 Z-1.000 I85.136 J32.036 K0.000 F600.000
G1 X42.107 Y87.706 Z-1.000 F600.000
G2 X49.143 Y83.966 Z-1.000 I-37.713 J-79.439 K0.000 F600.000
G1 X-83.971 Y-49.148 Z-1.000 F600.000
G3 X-79.764 Y-55.717 Z-1.000 I81.831 J47.775 K0.000 F600.000
G1 X55.712 Y79.759 Z-1.000 F600.000
G2 X61.838 Y75.109 Z-1.000 I-49.671 J-71.801 K0.000 F600.000
G1 X-75.113 Y-61.843 Z-1.000 F600.000
G3 X-70.033 Y-67.539 Z-1.000 I71.615 J58.750 K0.000 F600.000
G1 X67.536 Y70.031 Z-1.000 F600.000
G2 X72.812 Y64.530 Z-1.000 I-60.712 J-63.499 K0.000 F600.000
G1 X-64.531 Y-72.813 Z-1.000 F600.000
G3 X-58.604 Y-77.662 Z-1.000 I59.644 J66.857 K0.000 F600.000
G1 X77.662 Y58.604 Z-1.000 F600.000
G2 X82.077 Y52.242 Z-1.000 I-71.299 J-54.195 K0.000 F600.000
G1 X-52.242 Y-82.076 Z-1.000 F600.000
G3 X-45.426 Y-86.037 Z-1.000 I48.311 J75.297 K0.000 F600.000
G1 X86.036 Y45.426 Z-1.000 F600.000
G2 X89.510 Y38.123 Z-1.000 I-78.755 J-41.944 K0.000 F600.000
G1 X-38.126 Y-89.513 Z-1.000 F600.000
G3 X-30.296 Y-92.459 Z-1.000 I36.702 J85.683 K0.000 F600.000
G1 X92.455 Y30.291 Z-1.000 F600.000
G2 X94.807 Y21.868 Z-1.000 I-87.094 J-28.868 K0.000 F600.000
G1 X-21.862 Y-94.802 Z-1.000 F600.000
G3 X-12.744 Y-96.460 Z-1.000 I21.129 J90.321 K0.000 F600.000
G1 X96.453 Y12.737 Z-1.000 F600.000
G2 X97.252 Y2.759 Z-1.000 I-90.255 J-12.249 K0.000 F600.000
G1 X-2.764 Y-97.256 Z-1.000 F600.000
G3 X8.332 Y-96.937 Z-1.000 I2.824 J94.866 K0.000 F600.000
G1 X96.933 Y-8.336 Z-1.000 F600.000
G2 X94.983 Y-21.062 Z-1.000 I-93.243 J7.773 K0.000 F600.000
G1 X21.055 Y-94.991 Z-1.000 F600.000
G3 X36.731 Y-90.090 Z-1.000 I-20.632 J93.531 K0.000 F600.000
G1 X90.098 Y-36.724 Z-1.000 F600.000
G2 X68.292 Y-69.306 Z-1.000 I-90.009 J36.651 K0.000 F600.000
G0 Z10.000
G0 Z10.000
(Finish operation: MillFace)
(Begin postamble)
M5
G17 G90
M2
