(Exported by FreeCAD)
(Post Processor: grbl_post)
(Output Time:2024-11-25 15:39:29.884578)
(Begin preamble)
G17 G90
G21
(Begin operation: Fixture)
(Path: Fixture)
G54
(Finish operation: Fixture)
(Begin operation: endmill_compression_3175_spe001)
(Path: endmill_compression_3175_spe001)
(endmill_compression_3175_spe001)
(Begin toolchange)
( M6 T2 )
M3 S18000
(Finish operation: endmill_compression_3175_spe001)
(Begin operation: DressupTag001)
(Path: DressupTag001)
(Profile002)
(Compensated Tool Path. Diameter: 3.17)
G0 Z5.000
G0 X-39.051 Y410.949
G0 Z3.000
G1 X-39.051 Y410.949 Z-3.000 F1200.000
G2 X-36.585 Y404.965 Z-3.000 I-5.953 J-5.953 K0.000 F1200.000
G1 X-36.585 Y395.035 Z-3.000 F1200.000
G2 X-45.035 Y386.585 Z-3.000 I-8.419 J-0.031 K0.000 F1200.000
G1 X-286.965 Y386.585 Z-3.000 F1200.000
G2 X-295.415 Y395.035 Z-3.000 I-0.031 J8.419 K0.000 F1200.000
G1 X-295.415 Y404.965 Z-3.000 F1200.000
G2 X-286.965 Y413.415 Z-3.000 I8.419 J0.031 K0.000 F1200.000
G1 X-45.035 Y413.415 Z-3.000 F1200.000
G2 X-39.051 Y410.949 Z-3.000 I0.031 J-8.419 K0.000 F1200.000
G0 Z5.000
G0 X-44.113 Y363.368 Z5.000
G0 X-44.113 Y363.368 Z3.000
G1 X-44.113 Y363.368 Z-3.000 F1200.000
G2 X-36.585 Y354.965 Z-3.000 I-0.891 J-8.372 K0.000 F1200.000
G1 X-36.585 Y345.035 Z-3.000 F1200.000
G2 X-45.035 Y336.585 Z-3.000 I-8.419 J-0.031 K0.000 F1200.000
G1 X-286.965 Y336.585 Z-3.000 F1200.000
G2 X-295.415 Y345.035 Z-3.000 I-0.031 J8.419 K0.000 F1200.000
G1 X-295.415 Y354.965 Z-3.000 F1200.000
G2 X-286.965 Y363.415 Z-3.000 I8.419 J0.031 K0.000 F1200.000
G1 X-45.035 Y363.415 Z-3.000 F1200.000
G2 X-44.113 Y363.368 Z-3.000 I0.031 J-8.419 K0.000 F1200.000
G0 Z5.000
G0 X-44.875 Y313.414 Z5.000
G0 X-44.875 Y313.414 Z3.000
G1 X-44.875 Y313.414 Z-3.000 F1200.000
G2 X-36.585 Y304.965 Z-3.000 I-0.128 J-8.418 K0.000 F1200.000
G1 X-36.585 Y295.035 Z-3.000 F1200.000
G2 X-45.035 Y286.585 Z-3.000 I-8.419 J-0.031 K0.000 F1200.000
G1 X-286.965 Y286.585 Z-3.000 F1200.000
G2 X-295.415 Y295.035 Z-3.000 I-0.031 J8.419 K0.000 F1200.000
G1 X-295.415 Y304.965 Z-3.000 F1200.000
G2 X-286.965 Y313.415 Z-3.000 I8.419 J0.031 K0.000 F1200.000
G1 X-45.035 Y313.415 Z-3.000 F1200.000
G2 X-44.875 Y313.414 Z-3.000 I0.031 J-8.419 K0.000 F1200.000
G0 Z5.000
G0 X-44.985 Y263.415 Z5.000
G0 X-44.985 Y263.415 Z3.000
G1 X-44.985 Y263.415 Z-3.000 F1200.000
G2 X-36.585 Y254.965 Z-3.000 I-0.019 J-8.419 K0.000 F1200.000
G1 X-36.585 Y245.035 Z-3.000 F1200.000
G2 X-45.035 Y236.585 Z-3.000 I-8.419 J-0.031 K0.000 F1200.000
G1 X-286.965 Y236.585 Z-3.000 F1200.000
G2 X-295.415 Y245.035 Z-3.000 I-0.031 J8.419 K0.000 F1200.000
G1 X-295.415 Y254.965 Z-3.000 F1200.000
G2 X-286.965 Y263.415 Z-3.000 I8.419 J0.031 K0.000 F1200.000
G1 X-45.035 Y263.415 Z-3.000 F1200.000
G2 X-44.985 Y263.415 Z-3.000 I0.031 J-8.419 K0.000 F1200.000
G0 Z5.000
G0 X-45.001 Y213.415 Z5.000
G0 X-45.001 Y213.415 Z3.000
G1 X-45.001 Y213.415 Z-3.000 F1200.000
G2 X-36.585 Y204.965 Z-3.000 I-0.003 J-8.419 K0.000 F1200.000
G1 X-36.585 Y195.035 Z-3.000 F1200.000
G2 X-45.035 Y186.585 Z-3.000 I-8.419 J-0.031 K0.000 F1200.000
G1 X-286.965 Y186.585 Z-3.000 F1200.000
G2 X-295.415 Y195.035 Z-3.000 I-0.031 J8.419 K0.000 F1200.000
G1 X-295.415 Y204.965 Z-3.000 F1200.000
G2 X-286.965 Y213.415 Z-3.000 I8.419 J0.031 K0.000 F1200.000
G1 X-45.035 Y213.415 Z-3.000 F1200.000
G2 X-45.001 Y213.415 Z-3.000 I0.031 J-8.419 K0.000 F1200.000
G0 Z5.000
G0 X-45.003 Y163.415 Z5.000
G0 X-45.003 Y163.415 Z3.000
G1 X-45.003 Y163.415 Z-3.000 F1200.000
G2 X-36.585 Y154.965 Z-3.000 I-0.000 J-8.419 K0.000 F1200.000
G1 X-36.585 Y145.035 Z-3.000 F1200.000
G2 X-45.035 Y136.585 Z-3.000 I-8.419 J-0.031 K0.000 F1200.000
G1 X-286.965 Y136.585 Z-3.000 F1200.000
G2 X-295.415 Y145.035 Z-3.000 I-0.031 J8.419 K0.000 F1200.000
G1 X-295.415 Y154.965 Z-3.000 F1200.000
G2 X-286.965 Y163.415 Z-3.000 I8.419 J0.031 K0.000 F1200.000
G1 X-45.035 Y163.415 Z-3.000 F1200.000
G2 X-45.003 Y163.415 Z-3.000 I0.031 J-8.419 K0.000 F1200.000
G0 Z5.000
G0 X-45.004 Y113.415 Z5.000
G0 X-45.004 Y113.415 Z3.000
G1 X-45.004 Y113.415 Z-3.000 F1200.000
G2 X-36.585 Y104.965 Z-3.000 I-0.000 J-8.419 K0.000 F1200.000
G1 X-36.585 Y95.035 Z-3.000 F1200.000
G2 X-45.035 Y86.585 Z-3.000 I-8.419 J-0.031 K0.000 F1200.000
G1 X-286.965 Y86.585 Z-3.000 F1200.000
G2 X-295.415 Y95.035 Z-3.000 I-0.031 J8.419 K0.000 F1200.000
G1 X-295.415 Y104.965 Z-3.000 F1200.000
G2 X-286.965 Y113.415 Z-3.000 I8.419 J0.031 K0.000 F1200.000
G1 X-45.035 Y113.415 Z-3.000 F1200.000
G2 X-45.004 Y113.415 Z-3.000 I0.031 J-8.419 K0.000 F1200.000
G0 Z5.000
G0 X-45.004 Y63.415 Z5.000
G0 X-45.004 Y63.415 Z3.000
G1 X-45.004 Y63.415 Z-3.000 F1200.000
G2 X-36.585 Y54.965 Z-3.000 I-0.000 J-8.419 K0.000 F1200.000
G1 X-36.585 Y45.035 Z-3.000 F1200.000
G2 X-45.035 Y36.585 Z-3.000 I-8.419 J-0.031 K0.000 F1200.000
G1 X-286.965 Y36.585 Z-3.000 F1200.000
G2 X-295.415 Y45.035 Z-3.000 I-0.031 J8.419 K0.000 F1200.000
G1 X-295.415 Y54.965 Z-3.000 F1200.000
G2 X-286.965 Y63.415 Z-3.000 I8.419 J0.031 K0.000 F1200.000
G1 X-45.035 Y63.415 Z-3.000 F1200.000
G2 X-45.004 Y63.415 Z-3.000 I0.031 J-8.419 K0.000 F1200.000
G1 X-45.004 Y63.415 Z-6.000 F1200.000
G2 X-36.585 Y54.965 Z-6.000 I-0.000 J-8.419 K0.000 F1200.000
G1 X-36.585 Y45.035 Z-6.000 F1200.000
G2 X-45.035 Y36.585 Z-6.000 I-8.419 J-0.031 K0.000 F1200.000
G1 X-286.965 Y36.585 Z-6.000 F1200.000
G2 X-295.415 Y45.035 Z-6.000 I-0.031 J8.419 K0.000 F1200.000
G1 X-295.415 Y54.965 Z-6.000 F1200.000
G2 X-286.965 Y63.415 Z-6.000 I8.419 J0.031 K0.000 F1200.000
G1 X-45.035 Y63.415 Z-6.000 F1200.000
G2 X-45.004 Y63.415 Z-6.000 I0.031 J-8.419 K0.000 F1200.000
G0 Z5.000
G0 X-45.004 Y86.585 Z5.000
G0 X-45.004 Y86.585 Z3.000
G1 X-45.004 Y86.585 Z-6.000 F1200.000
G2 X-45.035 Y86.585 Z-6.000 I-0.000 J8.419 K0.000 F1200.000
G1 X-286.965 Y86.585 Z-6.000 F1200.000
G2 X-295.415 Y95.035 Z-6.000 I-0.031 J8.419 K0.000 F1200.000
G1 X-295.415 Y104.965 Z-6.000 F1200.000
G2 X-286.965 Y113.415 Z-6.000 I8.419 J0.031 K0.000 F1200.000
G1 X-45.035 Y113.415 Z-6.000 F1200.000
G2 X-36.585 Y104.965 Z-6.000 I0.031 J-8.419 K0.000 F1200.000
G1 X-36.585 Y95.035 Z-6.000 F1200.000
G2 X-45.004 Y86.585 Z-6.000 I-8.419 J-0.031 K0.000 F1200.000
G0 Z5.000
G0 X-45.004 Y136.585 Z5.000
G0 X-45.004 Y136.585 Z3.000
G1 X-45.004 Y136.585 Z-6.000 F1200.000
G2 X-45.035 Y136.585 Z-6.000 I-0.000 J8.419 K0.000 F1200.000
G1 X-286.965 Y136.585 Z-6.000 F1200.000
G2 X-295.415 Y145.035 Z-6.000 I-0.031 J8.419 K0.000 F1200.000
G1 X-295.415 Y154.965 Z-6.000 F1200.000
G2 X-286.965 Y163.415 Z-6.000 I8.419 J0.031 K0.000 F1200.000
G1 X-45.035 Y163.415 Z-6.000 F1200.000
G2 X-36.585 Y154.965 Z-6.000 I0.031 J-8.419 K0.000 F1200.000
G1 X-36.585 Y145.035 Z-6.000 F1200.000
G2 X-45.004 Y136.585 Z-6.000 I-8.419 J-0.031 K0.000 F1200.000
G0 Z5.000
G0 Y186.585 Z5.000
G0 Y186.585 Z3.000
G1 X-45.004 Y186.585 Z-6.000 F1200.000
G2 X-45.035 Y186.585 Z-6.000 I0.000 J8.419 K0.000 F1200.000
G1 X-286.965 Y186.585 Z-6.000 F1200.000
G2 X-295.415 Y195.035 Z-6.000 I-0.031 J8.419 K0.000 F1200.000
G1 X-295.415 Y204.965 Z-6.000 F1200.000
G2 X-286.965 Y213.415 Z-6.000 I8.419 J0.031 K0.000 F1200.000
G1 X-45.035 Y213.415 Z-6.000 F1200.000
G2 X-36.585 Y204.965 Z-6.000 I0.031 J-8.419 K0.000 F1200.000
G1 X-36.585 Y195.035 Z-6.000 F1200.000
G2 X-45.004 Y186.585 Z-6.000 I-8.419 J-0.031 K0.000 F1200.000
G0 Z5.000
G0 X-45.004 Y236.585 Z5.000
G0 X-45.004 Y236.585 Z3.000
G1 X-45.004 Y236.585 Z-6.000 F1200.000
G2 X-45.035 Y236.585 Z-6.000 I0.000 J8.419 K0.000 F1200.000
G1 X-286.965 Y236.585 Z-6.000 F1200.000
G2 X-295.415 Y245.035 Z-6.000 I-0.031 J8.419 K0.000 F1200.000
G1 X-295.415 Y254.965 Z-6.000 F1200.000
G2 X-286.965 Y263.415 Z-6.000 I8.419 J0.031 K0.000 F1200.000
G1 X-45.035 Y263.415 Z-6.000 F1200.000
G2 X-36.585 Y254.965 Z-6.000 I0.031 J-8.419 K0.000 F1200.000
G1 X-36.585 Y245.035 Z-6.000 F1200.000
G2 X-45.004 Y236.585 Z-6.000 I-8.419 J-0.031 K0.000 F1200.000
G0 Z5.000
G0 X-45.004 Y286.585 Z5.000
G0 X-45.004 Y286.585 Z3.000
G1 X-45.004 Y286.585 Z-6.000 F1200.000
G2 X-45.035 Y286.585 Z-6.000 I0.000 J8.419 K0.000 F1200.000
G1 X-286.965 Y286.585 Z-6.000 F1200.000
G2 X-295.415 Y295.035 Z-6.000 I-0.031 J8.419 K0.000 F1200.000
G1 X-295.415 Y304.965 Z-6.000 F1200.000
G2 X-286.965 Y313.415 Z-6.000 I8.419 J0.031 K0.000 F1200.000
G1 X-45.035 Y313.415 Z-6.000 F1200.000
G2 X-36.585 Y304.965 Z-6.000 I0.031 J-8.419 K0.000 F1200.000
G1 X-36.585 Y295.035 Z-6.000 F1200.000
G2 X-45.004 Y286.585 Z-6.000 I-8.419 J-0.031 K0.000 F1200.000
G0 Z5.000
G0 Y336.585 Z5.000
G0 Y336.585 Z3.000
G1 X-45.004 Y336.585 Z-6.000 F1200.000
G2 X-45.035 Y336.585 Z-6.000 I0.000 J8.419 K0.000 F1200.000
G1 X-286.965 Y336.585 Z-6.000 F1200.000
G2 X-295.415 Y345.035 Z-6.000 I-0.031 J8.419 K0.000 F1200.000
G1 X-295.415 Y354.965 Z-6.000 F1200.000
G2 X-286.965 Y363.415 Z-6.000 I8.419 J0.031 K0.000 F1200.000
G1 X-45.035 Y363.415 Z-6.000 F1200.000
G2 X-36.585 Y354.965 Z-6.000 I0.031 J-8.419 K0.000 F1200.000
G1 X-36.585 Y345.035 Z-6.000 F1200.000
G2 X-45.004 Y336.585 Z-6.000 I-8.419 J-0.031 K0.000 F1200.000
G0 Z5.000
G0 X-45.004 Y386.585 Z5.000
G0 X-45.004 Y386.585 Z3.000
G1 X-45.004 Y386.585 Z-6.000 F1200.000
G2 X-45.035 Y386.585 Z-6.000 I0.000 J8.419 K0.000 F1200.000
G1 X-286.965 Y386.585 Z-6.000 F1200.000
G2 X-295.415 Y395.035 Z-6.000 I-0.031 J8.419 K0.000 F1200.000
G1 X-295.415 Y404.965 Z-6.000 F1200.000
G2 X-286.965 Y413.415 Z-6.000 I8.419 J0.031 K0.000 F1200.000
G1 X-45.035 Y413.415 Z-6.000 F1200.000
G2 X-36.585 Y404.965 Z-6.000 I0.031 J-8.419 K0.000 F1200.000
G1 X-36.585 Y395.035 Z-6.000 F1200.000
G2 X-45.004 Y386.585 Z-6.000 I-8.419 J-0.031 K0.000 F1200.000
G1 X-45.004 Y386.585 Z-9.000 F1200.000
G2 X-45.035 Y386.585 Z-9.000 I0.000 J8.419 K0.000 F1200.000
G1 X-286.965 Y386.585 Z-9.000 F1200.000
G2 X-295.415 Y395.035 Z-9.000 I-0.031 J8.419 K0.000 F1200.000
G1 X-295.415 Y404.965 Z-9.000 F1200.000
G2 X-286.965 Y413.415 Z-9.000 I8.419 J0.031 K0.000 F1200.000
G1 X-45.035 Y413.415 Z-9.000 F1200.000
G2 X-36.585 Y404.965 Z-9.000 I0.031 J-8.419 K0.000 F1200.000
G1 X-36.585 Y395.035 Z-9.000 F1200.000
G2 X-45.004 Y386.585 Z-9.000 I-8.419 J-0.031 K0.000 F1200.000
G0 Z5.000
G0 X-45.004 Y363.415 Z5.000
G0 X-45.004 Y363.415 Z3.000
G1 X-45.004 Y363.415 Z-9.000 F1200.000
G2 X-36.585 Y354.965 Z-9.000 I0.000 J-8.419 K0.000 F1200.000
G1 X-36.585 Y345.035 Z-9.000 F1200.000
G2 X-45.035 Y336.585 Z-9.000 I-8.419 J-0.031 K0.000 F1200.000
G1 X-286.965 Y336.585 Z-9.000 F1200.000
G2 X-295.415 Y345.035 Z-9.000 I-0.031 J8.419 K0.000 F1200.000
G1 X-295.415 Y354.965 Z-9.000 F1200.000
G2 X-286.965 Y363.415 Z-9.000 I8.419 J0.031 K0.000 F1200.000
G1 X-45.035 Y363.415 Z-9.000 F1200.000
G2 X-45.004 Y363.415 Z-9.000 I0.031 J-8.419 K0.000 F1200.000
G0 Z5.000
G0 X-45.004 Y313.415 Z5.000
G0 X-45.004 Y313.415 Z3.000
G1 X-45.004 Y313.415 Z-9.000 F1200.000
G2 X-36.585 Y304.965 Z-9.000 I0.000 J-8.419 K0.000 F1200.000
G1 X-36.585 Y295.035 Z-9.000 F1200.000
G2 X-45.035 Y286.585 Z-9.000 I-8.419 J-0.031 K0.000 F1200.000
G1 X-286.965 Y286.585 Z-9.000 F1200.000
G2 X-295.415 Y295.035 Z-9.000 I-0.031 J8.419 K0.000 F1200.000
G1 X-295.415 Y304.965 Z-9.000 F1200.000
G2 X-286.965 Y313.415 Z-9.000 I8.419 J0.031 K0.000 F1200.000
G1 X-45.035 Y313.415 Z-9.000 F1200.000
G2 X-45.004 Y313.415 Z-9.000 I0.031 J-8.419 K0.000 F1200.000
G0 Z5.000
G0 Y263.415 Z5.000
G0 Y263.415 Z3.000
G1 X-45.004 Y263.415 Z-9.000 F1200.000
G2 X-36.585 Y254.965 Z-9.000 I0.000 J-8.419 K0.000 F1200.000
G1 X-36.585 Y245.035 Z-9.000 F1200.000
G2 X-45.035 Y236.585 Z-9.000 I-8.419 J-0.031 K0.000 F1200.000
G1 X-286.965 Y236.585 Z-9.000 F1200.000
G2 X-295.415 Y245.035 Z-9.000 I-0.031 J8.419 K0.000 F1200.000
G1 X-295.415 Y254.965 Z-9.000 F1200.000
G2 X-286.965 Y263.415 Z-9.000 I8.419 J0.031 K0.000 F1200.000
G1 X-45.035 Y263.415 Z-9.000 F1200.000
G2 X-45.004 Y263.415 Z-9.000 I0.031 J-8.419 K0.000 F1200.000
G0 Z5.000
G0 X-45.004 Y213.415 Z5.000
G0 X-45.004 Y213.415 Z3.000
G1 X-45.004 Y213.415 Z-9.000 F1200.000
G2 X-36.585 Y204.965 Z-9.000 I0.000 J-8.419 K0.000 F1200.000
G1 X-36.585 Y195.035 Z-9.000 F1200.000
G2 X-45.035 Y186.585 Z-9.000 I-8.419 J-0.031 K0.000 F1200.000
G1 X-286.965 Y186.585 Z-9.000 F1200.000
G2 X-295.415 Y195.035 Z-9.000 I-0.031 J8.419 K0.000 F1200.000
G1 X-295.415 Y204.965 Z-9.000 F1200.000
G2 X-286.965 Y213.415 Z-9.000 I8.419 J0.031 K0.000 F1200.000
G1 X-45.035 Y213.415 Z-9.000 F1200.000
G2 X-45.004 Y213.415 Z-9.000 I0.031 J-8.419 K0.000 F1200.000
G0 Z5.000
G0 Y163.415 Z5.000
G0 Y163.415 Z3.000
G1 X-45.004 Y163.415 Z-9.000 F1200.000
G2 X-36.585 Y154.965 Z-9.000 I0.000 J-8.419 K0.000 F1200.000
G1 X-36.585 Y145.035 Z-9.000 F1200.000
G2 X-45.035 Y136.585 Z-9.000 I-8.419 J-0.031 K0.000 F1200.000
G1 X-286.965 Y136.585 Z-9.000 F1200.000
G2 X-295.415 Y145.035 Z-9.000 I-0.031 J8.419 K0.000 F1200.000
G1 X-295.415 Y154.965 Z-9.000 F1200.000
G2 X-286.965 Y163.415 Z-9.000 I8.419 J0.031 K0.000 F1200.000
G1 X-45.035 Y163.415 Z-9.000 F1200.000
G2 X-45.004 Y163.415 Z-9.000 I0.031 J-8.419 K0.000 F1200.000
G0 Z5.000
G0 X-45.004 Y113.415 Z5.000
G0 X-45.004 Y113.415 Z3.000
G1 X-45.004 Y113.415 Z-9.000 F1200.000
G2 X-36.585 Y104.965 Z-9.000 I0.000 J-8.419 K0.000 F1200.000
G1 X-36.585 Y95.035 Z-9.000 F1200.000
G2 X-45.035 Y86.585 Z-9.000 I-8.419 J-0.031 K0.000 F1200.000
G1 X-286.965 Y86.585 Z-9.000 F1200.000
G2 X-295.415 Y95.035 Z-9.000 I-0.031 J8.419 K0.000 F1200.000
G1 X-295.415 Y104.965 Z-9.000 F1200.000
G2 X-286.965 Y113.415 Z-9.000 I8.419 J0.031 K0.000 F1200.000
G1 X-45.035 Y113.415 Z-9.000 F1200.000
G2 X-45.004 Y113.415 Z-9.000 I0.031 J-8.419 K0.000 F1200.000
G0 Z5.000
G0 Y63.415 Z5.000
G0 Y63.415 Z3.000
G1 X-45.004 Y63.415 Z-9.000 F1200.000
G2 X-36.585 Y54.965 Z-9.000 I0.000 J-8.419 K0.000 F1200.000
G1 X-36.585 Y45.035 Z-9.000 F1200.000
G2 X-45.035 Y36.585 Z-9.000 I-8.419 J-0.031 K0.000 F1200.000
G1 X-286.965 Y36.585 Z-9.000 F1200.000
G2 X-295.415 Y45.035 Z-9.000 I-0.031 J8.419 K0.000 F1200.000
G1 X-295.415 Y54.965 Z-9.000 F1200.000
G2 X-286.965 Y63.415 Z-9.000 I8.419 J0.031 K0.000 F1200.000
G1 X-45.035 Y63.415 Z-9.000 F1200.000
G2 X-45.004 Y63.415 Z-9.000 I0.031 J-8.419 K0.000 F1200.000
G1 X-45.004 Y63.415 Z-12.000 F1200.000
G2 X-36.585 Y54.965 Z-12.000 I0.000 J-8.419 K0.000 F1200.000
G1 X-36.585 Y45.035 Z-12.000 F1200.000
G2 X-45.035 Y36.585 Z-12.000 I-8.419 J-0.031 K0.000 F1200.000
G1 X-286.965 Y36.585 Z-12.000 F1200.000
G2 X-295.415 Y45.035 Z-12.000 I-0.031 J8.419 K0.000 F1200.000
G1 X-295.415 Y54.965 Z-12.000 F1200.000
G2 X-286.965 Y63.415 Z-12.000 I8.419 J0.031 K0.000 F1200.000
G1 X-45.035 Y63.415 Z-12.000 F1200.000
G2 X-45.004 Y63.415 Z-12.000 I0.031 J-8.419 K0.000 F1200.000
G0 Z5.000
G0 X-45.004 Y86.585 Z5.000
G0 X-45.004 Y86.585 Z3.000
G1 X-45.004 Y86.585 Z-12.000 F1200.000
G2 X-45.035 Y86.585 Z-12.000 I0.000 J8.419 K0.000 F1200.000
G1 X-286.965 Y86.585 Z-12.000 F1200.000
G2 X-295.415 Y95.035 Z-12.000 I-0.031 J8.419 K0.000 F1200.000
G1 X-295.415 Y104.965 Z-12.000 F1200.000
G2 X-286.965 Y113.415 Z-12.000 I8.419 J0.031 K0.000 F1200.000
G1 X-45.035 Y113.415 Z-12.000 F1200.000
G2 X-36.585 Y104.965 Z-12.000 I0.031 J-8.419 K0.000 F1200.000
G1 X-36.585 Y95.035 Z-12.000 F1200.000
G2 X-45.004 Y86.585 Z-12.000 I-8.419 J-0.031 K0.000 F1200.000
G0 Z5.000
G0 X-45.004 Y136.585 Z5.000
G0 X-45.004 Y136.585 Z3.000
G1 X-45.004 Y136.585 Z-12.000 F1200.000
G2 X-45.035 Y136.585 Z-12.000 I0.000 J8.419 K0.000 F1200.000
G1 X-286.965 Y136.585 Z-12.000 F1200.000
G2 X-295.415 Y145.035 Z-12.000 I-0.031 J8.419 K0.000 F1200.000
G1 X-295.415 Y154.965 Z-12.000 F1200.000
G2 X-286.965 Y163.415 Z-12.000 I8.419 J0.031 K0.000 F1200.000
G1 X-45.035 Y163.415 Z-12.000 F1200.000
G2 X-36.585 Y154.965 Z-12.000 I0.031 J-8.419 K0.000 F1200.000
G1 X-36.585 Y145.035 Z-12.000 F1200.000
G2 X-45.004 Y136.585 Z-12.000 I-8.419 J-0.031 K0.000 F1200.000
G0 Z5.000
G0 X-45.004 Y186.585 Z5.000
G0 X-45.004 Y186.585 Z3.000
G1 X-45.004 Y186.585 Z-12.000 F1200.000
G2 X-45.035 Y186.585 Z-12.000 I0.000 J8.419 K0.000 F1200.000
G1 X-286.965 Y186.585 Z-12.000 F1200.000
G2 X-295.415 Y195.035 Z-12.000 I-0.031 J8.419 K0.000 F1200.000
G1 X-295.415 Y204.965 Z-12.000 F1200.000
G2 X-286.965 Y213.415 Z-12.000 I8.419 J0.031 K0.000 F1200.000
G1 X-45.035 Y213.415 Z-12.000 F1200.000
G2 X-36.585 Y204.965 Z-12.000 I0.031 J-8.419 K0.000 F1200.000
G1 X-36.585 Y195.035 Z-12.000 F1200.000
G2 X-45.004 Y186.585 Z-12.000 I-8.419 J-0.031 K0.000 F1200.000
G0 Z5.000
G0 X-45.004 Y236.585 Z5.000
G0 X-45.004 Y236.585 Z3.000
G1 X-45.004 Y236.585 Z-12.000 F1200.000
G2 X-45.035 Y236.585 Z-12.000 I0.000 J8.419 K0.000 F1200.000
G1 X-286.965 Y236.585 Z-12.000 F1200.000
G2 X-295.415 Y245.035 Z-12.000 I-0.031 J8.419 K0.000 F1200.000
G1 X-295.415 Y254.965 Z-12.000 F1200.000
G2 X-286.965 Y263.415 Z-12.000 I8.419 J0.031 K0.000 F1200.000
G1 X-45.035 Y263.415 Z-12.000 F1200.000
G2 X-36.585 Y254.965 Z-12.000 I0.031 J-8.419 K0.000 F1200.000
G1 X-36.585 Y245.035 Z-12.000 F1200.000
G2 X-45.004 Y236.585 Z-12.000 I-8.419 J-0.031 K0.000 F1200.000
G0 Z5.000
G0 X-45.004 Y286.585 Z5.000
G0 X-45.004 Y286.585 Z3.000
G1 X-45.004 Y286.585 Z-12.000 F1200.000
G2 X-45.035 Y286.585 Z-12.000 I0.000 J8.419 K0.000 F1200.000
G1 X-286.965 Y286.585 Z-12.000 F1200.000
G2 X-295.415 Y295.035 Z-12.000 I-0.031 J8.419 K0.000 F1200.000
G1 X-295.415 Y304.965 Z-12.000 F1200.000
G2 X-286.965 Y313.415 Z-12.000 I8.419 J0.031 K0.000 F1200.000
G1 X-45.035 Y313.415 Z-12.000 F1200.000
G2 X-36.585 Y304.965 Z-12.000 I0.031 J-8.419 K0.000 F1200.000
G1 X-36.585 Y295.035 Z-12.000 F1200.000
G2 X-45.004 Y286.585 Z-12.000 I-8.419 J-0.031 K0.000 F1200.000
G0 Z5.000
G0 Y336.585 Z5.000
G0 Y336.585 Z3.000
G1 X-45.004 Y336.585 Z-12.000 F1200.000
G2 X-45.035 Y336.585 Z-12.000 I0.000 J8.419 K0.000 F1200.000
G1 X-286.965 Y336.585 Z-12.000 F1200.000
G2 X-295.415 Y345.035 Z-12.000 I-0.031 J8.419 K0.000 F1200.000
G1 X-295.415 Y354.965 Z-12.000 F1200.000
G2 X-286.965 Y363.415 Z-12.000 I8.419 J0.031 K0.000 F1200.000
G1 X-45.035 Y363.415 Z-12.000 F1200.000
G2 X-36.585 Y354.965 Z-12.000 I0.031 J-8.419 K0.000 F1200.000
G1 X-36.585 Y345.035 Z-12.000 F1200.000
G2 X-45.004 Y336.585 Z-12.000 I-8.419 J-0.031 K0.000 F1200.000
G0 Z5.000
G0 X-45.004 Y386.585 Z5.000
G0 X-45.004 Y386.585 Z3.000
G1 X-45.004 Y386.585 Z-12.000 F1200.000
G2 X-45.035 Y386.585 Z-12.000 I0.000 J8.419 K0.000 F1200.000
G1 X-286.965 Y386.585 Z-12.000 F1200.000
G2 X-295.415 Y395.035 Z-12.000 I-0.031 J8.419 K0.000 F1200.000
G1 X-295.415 Y404.965 Z-12.000 F1200.000
G2 X-286.965 Y413.415 Z-12.000 I8.419 J0.031 K0.000 F1200.000
G1 X-45.035 Y413.415 Z-12.000 F1200.000
G2 X-36.585 Y404.965 Z-12.000 I0.031 J-8.419 K0.000 F1200.000
G1 X-36.585 Y395.035 Z-12.000 F1200.000
G2 X-45.004 Y386.585 Z-12.000 I-8.419 J-0.031 K0.000 F1200.000
G1 X-45.004 Y386.585 Z-15.000 F1200.000
G2 X-45.035 Y386.585 Z-15.000 I0.000 J8.419 K0.000 F1200.000
G1 X-286.965 Y386.585 Z-15.000 F1200.000
G2 X-295.415 Y395.035 Z-15.000 I-0.031 J8.419 K0.000 F1200.000
G1 X-295.415 Y404.965 Z-15.000 F1200.000
G2 X-286.965 Y413.415 Z-15.000 I8.419 J0.031 K0.000 F1200.000
G1 X-45.035 Y413.415 Z-15.000 F1200.000
G2 X-36.585 Y404.965 Z-15.000 I0.031 J-8.419 K0.000 F1200.000
G1 X-36.585 Y395.035 Z-15.000 F1200.000
G2 X-45.004 Y386.585 Z-15.000 I-8.419 J-0.031 K0.000 F1200.000
G0 Z5.000
G0 X-45.004 Y363.415 Z5.000
G0 X-45.004 Y363.415 Z3.000
G1 X-45.004 Y363.415 Z-15.000 F1200.000
G2 X-36.585 Y354.965 Z-15.000 I0.000 J-8.419 K0.000 F1200.000
G1 X-36.585 Y345.035 Z-15.000 F1200.000
G2 X-45.035 Y336.585 Z-15.000 I-8.419 J-0.031 K0.000 F1200.000
G1 X-286.965 Y336.585 Z-15.000 F1200.000
G2 X-295.415 Y345.035 Z-15.000 I-0.031 J8.419 K0.000 F1200.000
G1 X-295.415 Y354.965 Z-15.000 F1200.000
G2 X-286.965 Y363.415 Z-15.000 I8.419 J0.031 K0.000 F1200.000
G1 X-45.035 Y363.415 Z-15.000 F1200.000
G2 X-45.004 Y363.415 Z-15.000 I0.031 J-8.419 K0.000 F1200.000
G0 Z5.000
G0 X-45.004 Y313.415 Z5.000
G0 X-45.004 Y313.415 Z3.000
G1 X-45.004 Y313.415 Z-15.000 F1200.000
G2 X-36.585 Y304.965 Z-15.000 I0.000 J-8.419 K0.000 F1200.000
G1 X-36.585 Y295.035 Z-15.000 F1200.000
G2 X-45.035 Y286.585 Z-15.000 I-8.419 J-0.031 K0.000 F1200.000
G1 X-286.965 Y286.585 Z-15.000 F1200.000
G2 X-295.415 Y295.035 Z-15.000 I-0.031 J8.419 K0.000 F1200.000
G1 X-295.415 Y304.965 Z-15.000 F1200.000
G2 X-286.965 Y313.415 Z-15.000 I8.419 J0.031 K0.000 F1200.000
G1 X-45.035 Y313.415 Z-15.000 F1200.000
G2 X-45.004 Y313.415 Z-15.000 I0.031 J-8.419 K0.000 F1200.000
G0 Z5.000
G0 Y263.415 Z5.000
G0 Y263.415 Z3.000
G1 X-45.004 Y263.415 Z-15.000 F1200.000
G2 X-36.585 Y254.965 Z-15.000 I0.000 J-8.419 K0.000 F1200.000
G1 X-36.585 Y245.035 Z-15.000 F1200.000
G2 X-45.035 Y236.585 Z-15.000 I-8.419 J-0.031 K0.000 F1200.000
G1 X-286.965 Y236.585 Z-15.000 F1200.000
G2 X-295.415 Y245.035 Z-15.000 I-0.031 J8.419 K0.000 F1200.000
G1 X-295.415 Y254.965 Z-15.000 F1200.000
G2 X-286.965 Y263.415 Z-15.000 I8.419 J0.031 K0.000 F1200.000
G1 X-45.035 Y263.415 Z-15.000 F1200.000
G2 X-45.004 Y263.415 Z-15.000 I0.031 J-8.419 K0.000 F1200.000
G0 Z5.000
G0 X-45.004 Y213.415 Z5.000
G0 X-45.004 Y213.415 Z3.000
G1 X-45.004 Y213.415 Z-15.000 F1200.000
G2 X-36.585 Y204.965 Z-15.000 I0.000 J-8.419 K0.000 F1200.000
G1 X-36.585 Y195.035 Z-15.000 F1200.000
G2 X-45.035 Y186.585 Z-15.000 I-8.419 J-0.031 K0.000 F1200.000
G1 X-286.965 Y186.585 Z-15.000 F1200.000
G2 X-295.415 Y195.035 Z-15.000 I-0.031 J8.419 K0.000 F1200.000
G1 X-295.415 Y204.965 Z-15.000 F1200.000
G2 X-286.965 Y213.415 Z-15.000 I8.419 J0.031 K0.000 F1200.000
G1 X-45.035 Y213.415 Z-15.000 F1200.000
G2 X-45.004 Y213.415 Z-15.000 I0.031 J-8.419 K0.000 F1200.000
G0 Z5.000
G0 Y163.415 Z5.000
G0 Y163.415 Z3.000
G1 X-45.004 Y163.415 Z-15.000 F1200.000
G2 X-36.585 Y154.965 Z-15.000 I0.000 J-8.419 K0.000 F1200.000
G1 X-36.585 Y145.035 Z-15.000 F1200.000
G2 X-45.035 Y136.585 Z-15.000 I-8.419 J-0.031 K0.000 F1200.000
G1 X-286.965 Y136.585 Z-15.000 F1200.000
G2 X-295.415 Y145.035 Z-15.000 I-0.031 J8.419 K0.000 F1200.000
G1 X-295.415 Y154.965 Z-15.000 F1200.000
G2 X-286.965 Y163.415 Z-15.000 I8.419 J0.031 K0.000 F1200.000
G1 X-45.035 Y163.415 Z-15.000 F1200.000
G2 X-45.004 Y163.415 Z-15.000 I0.031 J-8.419 K0.000 F1200.000
G0 Z5.000
G0 X-45.004 Y113.415 Z5.000
G0 X-45.004 Y113.415 Z3.000
G1 X-45.004 Y113.415 Z-15.000 F1200.000
G2 X-36.585 Y104.965 Z-15.000 I0.000 J-8.419 K0.000 F1200.000
G1 X-36.585 Y95.035 Z-15.000 F1200.000
G2 X-45.035 Y86.585 Z-15.000 I-8.419 J-0.031 K0.000 F1200.000
G1 X-286.965 Y86.585 Z-15.000 F1200.000
G2 X-295.415 Y95.035 Z-15.000 I-0.031 J8.419 K0.000 F1200.000
G1 X-295.415 Y104.965 Z-15.000 F1200.000
G2 X-286.965 Y113.415 Z-15.000 I8.419 J0.031 K0.000 F1200.000
G1 X-45.035 Y113.415 Z-15.000 F1200.000
G2 X-45.004 Y113.415 Z-15.000 I0.031 J-8.419 K0.000 F1200.000
G0 Z5.000
G0 Y63.415 Z5.000
G0 Y63.415 Z3.000
G1 X-45.004 Y63.415 Z-15.000 F1200.000
G2 X-36.585 Y54.965 Z-15.000 I0.000 J-8.419 K0.000 F1200.000
G1 X-36.585 Y45.035 Z-15.000 F1200.000
G2 X-45.035 Y36.585 Z-15.000 I-8.419 J-0.031 K0.000 F1200.000
G1 X-286.965 Y36.585 Z-15.000 F1200.000
G2 X-295.415 Y45.035 Z-15.000 I-0.031 J8.419 K0.000 F1200.000
G1 X-295.415 Y54.965 Z-15.000 F1200.000
G2 X-286.965 Y63.415 Z-15.000 I8.419 J0.031 K0.000 F1200.000
G1 X-45.035 Y63.415 Z-15.000 F1200.000
G2 X-45.004 Y63.415 Z-15.000 I0.031 J-8.419 K0.000 F1200.000
G1 X-45.004 Y63.415 Z-18.000 F1200.000
G2 X-36.585 Y54.965 Z-18.000 I0.000 J-8.419 K0.000 F1200.000
G1 X-36.585 Y45.035 Z-18.000 F1200.000
G2 X-45.035 Y36.585 Z-18.000 I-8.419 J-0.031 K0.000 F1200.000
G1 X-286.965 Y36.585 Z-18.000 F1200.000
G2 X-295.415 Y45.035 Z-18.000 I-0.031 J8.419 K0.000 F1200.000
G1 X-295.415 Y54.965 Z-18.000 F1200.000
G2 X-286.965 Y63.415 Z-18.000 I8.419 J0.031 K0.000 F1200.000
G1 X-45.035 Y63.415 Z-18.000 F1200.000
G2 X-45.004 Y63.415 Z-18.000 I0.031 J-8.419 K0.000 F1200.000
G0 Z5.000
G0 X-45.004 Y86.585 Z5.000
G0 X-45.004 Y86.585 Z3.000
G1 X-45.004 Y86.585 Z-18.000 F1200.000
G2 X-45.035 Y86.585 Z-18.000 I0.000 J8.419 K0.000 F1200.000
G1 X-286.965 Y86.585 Z-18.000 F1200.000
G2 X-295.415 Y95.035 Z-18.000 I-0.031 J8.419 K0.000 F1200.000
G1 X-295.415 Y104.965 Z-18.000 F1200.000
G2 X-286.965 Y113.415 Z-18.000 I8.419 J0.031 K0.000 F1200.000
G1 X-45.035 Y113.415 Z-18.000 F1200.000
G2 X-36.585 Y104.965 Z-18.000 I0.031 J-8.419 K0.000 F1200.000
G1 X-36.585 Y95.035 Z-18.000 F1200.000
G2 X-45.004 Y86.585 Z-18.000 I-8.419 J-0.031 K0.000 F1200.000
G0 Z5.000
G0 X-45.004 Y136.585 Z5.000
G0 X-45.004 Y136.585 Z3.000
G1 X-45.004 Y136.585 Z-18.000 F1200.000
G2 X-45.035 Y136.585 Z-18.000 I0.000 J8.419 K0.000 F1200.000
G1 X-286.965 Y136.585 Z-18.000 F1200.000
G2 X-295.415 Y145.035 Z-18.000 I-0.031 J8.419 K0.000 F1200.000
G1 X-295.415 Y154.965 Z-18.000 F1200.000
G2 X-286.965 Y163.415 Z-18.000 I8.419 J0.031 K0.000 F1200.000
G1 X-45.035 Y163.415 Z-18.000 F1200.000
G2 X-36.585 Y154.965 Z-18.000 I0.031 J-8.419 K0.000 F1200.000
G1 X-36.585 Y145.035 Z-18.000 F1200.000
G2 X-45.004 Y136.585 Z-18.000 I-8.419 J-0.031 K0.000 F1200.000
G0 Z5.000
G0 X-45.004 Y186.585 Z5.000
G0 X-45.004 Y186.585 Z3.000
G1 X-45.004 Y186.585 Z-18.000 F1200.000
G2 X-45.035 Y186.585 Z-18.000 I0.000 J8.419 K0.000 F1200.000
G1 X-286.965 Y186.585 Z-18.000 F1200.000
G2 X-295.415 Y195.035 Z-18.000 I-0.031 J8.419 K0.000 F1200.000
G1 X-295.415 Y204.965 Z-18.000 F1200.000
G2 X-286.965 Y213.415 Z-18.000 I8.419 J0.031 K0.000 F1200.000
G1 X-45.035 Y213.415 Z-18.000 F1200.000
G2 X-36.585 Y204.965 Z-18.000 I0.031 J-8.419 K0.000 F1200.000
G1 X-36.585 Y195.035 Z-18.000 F1200.000
G2 X-45.004 Y186.585 Z-18.000 I-8.419 J-0.031 K0.000 F1200.000
G0 Z5.000
G0 X-45.004 Y236.585 Z5.000
G0 X-45.004 Y236.585 Z3.000
G1 X-45.004 Y236.585 Z-18.000 F1200.000
G2 X-45.035 Y236.585 Z-18.000 I0.000 J8.419 K0.000 F1200.000
G1 X-286.965 Y236.585 Z-18.000 F1200.000
G2 X-295.415 Y245.035 Z-18.000 I-0.031 J8.419 K0.000 F1200.000
G1 X-295.415 Y254.965 Z-18.000 F1200.000
G2 X-286.965 Y263.415 Z-18.000 I8.419 J0.031 K0.000 F1200.000
G1 X-45.035 Y263.415 Z-18.000 F1200.000
G2 X-36.585 Y254.965 Z-18.000 I0.031 J-8.419 K0.000 F1200.000
G1 X-36.585 Y245.035 Z-18.000 F1200.000
G2 X-45.004 Y236.585 Z-18.000 I-8.419 J-0.031 K0.000 F1200.000
G0 Z5.000
G0 X-45.004 Y286.585 Z5.000
G0 X-45.004 Y286.585 Z3.000
G1 X-45.004 Y286.585 Z-18.000 F1200.000
G2 X-45.035 Y286.585 Z-18.000 I0.000 J8.419 K0.000 F1200.000
G1 X-286.965 Y286.585 Z-18.000 F1200.000
G2 X-295.415 Y295.035 Z-18.000 I-0.031 J8.419 K0.000 F1200.000
G1 X-295.415 Y304.965 Z-18.000 F1200.000
G2 X-286.965 Y313.415 Z-18.000 I8.419 J0.031 K0.000 F1200.000
G1 X-45.035 Y313.415 Z-18.000 F1200.000
G2 X-36.585 Y304.965 Z-18.000 I0.031 J-8.419 K0.000 F1200.000
G1 X-36.585 Y295.035 Z-18.000 F1200.000
G2 X-45.004 Y286.585 Z-18.000 I-8.419 J-0.031 K0.000 F1200.000
G0 Z5.000
G0 Y336.585 Z5.000
G0 Y336.585 Z3.000
G1 X-45.004 Y336.585 Z-18.000 F1200.000
G2 X-45.035 Y336.585 Z-18.000 I0.000 J8.419 K0.000 F1200.000
G1 X-286.965 Y336.585 Z-18.000 F1200.000
G2 X-295.415 Y345.035 Z-18.000 I-0.031 J8.419 K0.000 F1200.000
G1 X-295.415 Y354.965 Z-18.000 F1200.000
G2 X-286.965 Y363.415 Z-18.000 I8.419 J0.031 K0.000 F1200.000
G1 X-45.035 Y363.415 Z-18.000 F1200.000
G2 X-36.585 Y354.965 Z-18.000 I0.031 J-8.419 K0.000 F1200.000
G1 X-36.585 Y345.035 Z-18.000 F1200.000
G2 X-45.004 Y336.585 Z-18.000 I-8.419 J-0.031 K0.000 F1200.000
G0 Z5.000
G0 X-45.004 Y386.585 Z5.000
G0 X-45.004 Y386.585 Z3.000
G1 X-45.004 Y386.585 Z-18.000 F1200.000
G2 X-45.035 Y386.585 Z-18.000 I0.000 J8.419 K0.000 F1200.000
G1 X-286.965 Y386.585 Z-18.000 F1200.000
G2 X-295.415 Y395.035 Z-18.000 I-0.031 J8.419 K0.000 F1200.000
G1 X-295.415 Y404.965 Z-18.000 F1200.000
G2 X-286.965 Y413.415 Z-18.000 I8.419 J0.031 K0.000 F1200.000
G1 X-45.035 Y413.415 Z-18.000 F1200.000
G2 X-36.585 Y404.965 Z-18.000 I0.031 J-8.419 K0.000 F1200.000
G1 X-36.585 Y395.035 Z-18.000 F1200.000
G2 X-45.004 Y386.585 Z-18.000 I-8.419 J-0.031 K0.000 F1200.000
G1 X-45.004 Y386.585 Z-19.000 F1200.000
G2 X-45.035 Y386.585 Z-19.000 I0.000 J8.419 K0.000 F1200.000
G1 X-286.965 Y386.585 Z-19.000 F1200.000
G2 X-295.415 Y395.035 Z-19.000 I-0.031 J8.419 K0.000 F1200.000
G1 X-295.415 Y404.965 Z-19.000 F1200.000
G2 X-286.965 Y413.415 Z-19.000 I8.419 J0.031 K0.000 F1200.000
G1 X-45.035 Y413.415 Z-19.000 F1200.000
G2 X-36.585 Y404.965 Z-19.000 I0.031 J-8.419 K0.000 F1200.000
G1 X-36.585 Y395.035 Z-19.000 F1200.000
G2 X-45.004 Y386.585 Z-19.000 I-8.419 J-0.031 K0.000 F1200.000
G0 Z5.000
G0 X-45.004 Y363.415 Z5.000
G0 X-45.004 Y363.415 Z3.000
G1 X-45.004 Y363.415 Z-19.000 F1200.000
G2 X-36.585 Y354.965 Z-19.000 I0.000 J-8.419 K0.000 F1200.000
G1 X-36.585 Y345.035 Z-19.000 F1200.000
G2 X-45.035 Y336.585 Z-19.000 I-8.419 J-0.031 K0.000 F1200.000
G1 X-286.965 Y336.585 Z-19.000 F1200.000
G2 X-295.415 Y345.035 Z-19.000 I-0.031 J8.419 K0.000 F1200.000
G1 X-295.415 Y354.965 Z-19.000 F1200.000
G2 X-286.965 Y363.415 Z-19.000 I8.419 J0.031 K0.000 F1200.000
G1 X-45.035 Y363.415 Z-19.000 F1200.000
G2 X-45.004 Y363.415 Z-19.000 I0.031 J-8.419 K0.000 F1200.000
G0 Z5.000
G0 X-45.004 Y313.415 Z5.000
G0 X-45.004 Y313.415 Z3.000
G1 X-45.004 Y313.415 Z-19.000 F1200.000
G2 X-36.585 Y304.965 Z-19.000 I0.000 J-8.419 K0.000 F1200.000
G1 X-36.585 Y295.035 Z-19.000 F1200.000
G2 X-45.035 Y286.585 Z-19.000 I-8.419 J-0.031 K0.000 F1200.000
G1 X-286.965 Y286.585 Z-19.000 F1200.000
G2 X-295.415 Y295.035 Z-19.000 I-0.031 J8.419 K0.000 F1200.000
G1 X-295.415 Y304.965 Z-19.000 F1200.000
G2 X-286.965 Y313.415 Z-19.000 I8.419 J0.031 K0.000 F1200.000
G1 X-45.035 Y313.415 Z-19.000 F1200.000
G2 X-45.004 Y313.415 Z-19.000 I0.031 J-8.419 K0.000 F1200.000
G0 Z5.000
G0 Y263.415 Z5.000
G0 Y263.415 Z3.000
G1 X-45.004 Y263.415 Z-19.000 F1200.000
G2 X-36.585 Y254.965 Z-19.000 I0.000 J-8.419 K0.000 F1200.000
G1 X-36.585 Y245.035 Z-19.000 F1200.000
G2 X-45.035 Y236.585 Z-19.000 I-8.419 J-0.031 K0.000 F1200.000
G1 X-286.965 Y236.585 Z-19.000 F1200.000
G2 X-295.415 Y245.035 Z-19.000 I-0.031 J8.419 K0.000 F1200.000
G1 X-295.415 Y254.965 Z-19.000 F1200.000
G2 X-286.965 Y263.415 Z-19.000 I8.419 J0.031 K0.000 F1200.000
G1 X-45.035 Y263.415 Z-19.000 F1200.000
G2 X-45.004 Y263.415 Z-19.000 I0.031 J-8.419 K0.000 F1200.000
G0 Z5.000
G0 X-45.004 Y213.415 Z5.000
G0 X-45.004 Y213.415 Z3.000
G1 X-45.004 Y213.415 Z-19.000 F1200.000
G2 X-36.585 Y204.965 Z-19.000 I0.000 J-8.419 K0.000 F1200.000
G1 X-36.585 Y195.035 Z-19.000 F1200.000
G2 X-45.035 Y186.585 Z-19.000 I-8.419 J-0.031 K0.000 F1200.000
G1 X-286.965 Y186.585 Z-19.000 F1200.000
G2 X-295.415 Y195.035 Z-19.000 I-0.031 J8.419 K0.000 F1200.000
G1 X-295.415 Y204.965 Z-19.000 F1200.000
G2 X-286.965 Y213.415 Z-19.000 I8.419 J0.031 K0.000 F1200.000
G1 X-45.035 Y213.415 Z-19.000 F1200.000
G2 X-45.004 Y213.415 Z-19.000 I0.031 J-8.419 K0.000 F1200.000
G0 Z5.000
G0 Y163.415 Z5.000
G0 Y163.415 Z3.000
G1 X-45.004 Y163.415 Z-19.000 F1200.000
G2 X-36.585 Y154.965 Z-19.000 I0.000 J-8.419 K0.000 F1200.000
G1 X-36.585 Y145.035 Z-19.000 F1200.000
G2 X-45.035 Y136.585 Z-19.000 I-8.419 J-0.031 K0.000 F1200.000
G1 X-286.965 Y136.585 Z-19.000 F1200.000
G2 X-295.415 Y145.035 Z-19.000 I-0.031 J8.419 K0.000 F1200.000
G1 X-295.415 Y154.965 Z-19.000 F1200.000
G2 X-286.965 Y163.415 Z-19.000 I8.419 J0.031 K0.000 F1200.000
G1 X-45.035 Y163.415 Z-19.000 F1200.000
G2 X-45.004 Y163.415 Z-19.000 I0.031 J-8.419 K0.000 F1200.000
G0 Z5.000
G0 X-45.004 Y113.415 Z5.000
G0 X-45.004 Y113.415 Z3.000
G1 X-45.004 Y113.415 Z-19.000 F1200.000
G2 X-36.585 Y104.965 Z-19.000 I0.000 J-8.419 K0.000 F1200.000
G1 X-36.585 Y95.035 Z-19.000 F1200.000
G2 X-45.035 Y86.585 Z-19.000 I-8.419 J-0.031 K0.000 F1200.000
G1 X-286.965 Y86.585 Z-19.000 F1200.000
G2 X-295.415 Y95.035 Z-19.000 I-0.031 J8.419 K0.000 F1200.000
G1 X-295.415 Y104.965 Z-19.000 F1200.000
G2 X-286.965 Y113.415 Z-19.000 I8.419 J0.031 K0.000 F1200.000
G1 X-45.035 Y113.415 Z-19.000 F1200.000
G2 X-45.004 Y113.415 Z-19.000 I0.031 J-8.419 K0.000 F1200.000
G0 Z5.000
G0 Y63.415 Z5.000
G0 Y63.415 Z3.000
G1 X-45.004 Y63.415 Z-19.000 F1200.000
G2 X-36.585 Y54.965 Z-19.000 I0.000 J-8.419 K0.000 F1200.000
G1 X-36.585 Y45.035 Z-19.000 F1200.000
G2 X-45.035 Y36.585 Z-19.000 I-8.419 J-0.031 K0.000 F1200.000
G1 X-286.965 Y36.585 Z-19.000 F1200.000
G2 X-295.415 Y45.035 Z-19.000 I-0.031 J8.419 K0.000 F1200.000
G1 X-295.415 Y54.965 Z-19.000 F1200.000
G2 X-286.965 Y63.415 Z-19.000 I8.419 J0.031 K0.000 F1200.000
G1 X-45.035 Y63.415 Z-19.000 F1200.000
G2 X-45.004 Y63.415 Z-19.000 I0.031 J-8.419 K0.000 F1200.000
G0 Z5.000
G0 Z5.000
(Finish operation: DressupTag001)
(Begin operation: DressupTag002)
(Path: DressupTag002)
G0 Z5.000
G0 X-1.585 Y448.415 Z5.000
G0 X-1.585 Y448.415 Z3.000
G1 X-1.585 Y448.415 Z-3.000 F1300.000
G1 X-1.585 Y1.585 Z-3.000 F1300.000
G1 X-690.685 Y1.585 Z-3.000 F1300.000
G1 X-690.685 Y448.415 Z-3.000 F1300.000
G1 X-1.585 Y448.415 Z-3.000 F1300.000
G1 X-1.585 Y448.415 Z-6.000 F1300.000
G1 X-1.585 Y1.585 Z-6.000 F1300.000
G1 X-690.685 Y1.585 Z-6.000 F1300.000
G1 X-690.685 Y448.415 Z-6.000 F1300.000
G1 X-1.585 Y448.415 Z-6.000 F1300.000
G1 X-1.585 Y448.415 Z-9.000 F1300.000
G1 X-1.585 Y1.585 Z-9.000 F1300.000
G1 X-690.685 Y1.585 Z-9.000 F1300.000
G1 X-690.685 Y448.415 Z-9.000 F1300.000
G1 X-1.585 Y448.415 Z-9.000 F1300.000
G1 X-1.585 Y448.415 Z-12.000 F1300.000
G1 X-1.585 Y253.945 Z-12.000 F1300.000
G1 X-1.585 Y251.445 Z-9.500 F1300.000
G1 X-1.585 Y198.555 Z-9.500 F1300.000
G1 X-1.585 Y196.055 Z-12.000 F1300.000
G1 X-1.585 Y1.585 Z-12.000 F1300.000
G1 X-317.190 Y1.585 Z-12.000 F1300.000
G1 X-319.690 Y1.585 Z-9.500 F1300.000
G1 X-372.580 Y1.585 Z-9.500 F1300.000
G1 X-375.080 Y1.585 Z-12.000 F1300.000
G1 X-690.685 Y1.585 Z-12.000 F1300.000
G1 X-690.685 Y196.055 Z-12.000 F1300.000
G1 X-690.685 Y198.555 Z-9.500 F1300.000
G1 X-690.685 Y251.445 Z-9.500 F1300.000
G1 X-690.685 Y253.945 Z-12.000 F1300.000
G1 X-690.685 Y448.415 Z-12.000 F1300.000
G1 X-375.080 Y448.415 Z-12.000 F1300.000
G1 X-372.580 Y448.415 Z-9.500 F1300.000
G1 X-319.690 Y448.415 Z-9.500 F1300.000
G1 X-317.190 Y448.415 Z-12.000 F1300.000
G1 X-1.585 Y448.415 Z-12.000 F1300.000
G1 X-1.585 Y448.415 Z-15.000 F1300.000
G1 X-1.585 Y256.945 Z-15.000 F1300.000
G1 X-1.585 Y251.445 Z-9.500 F1300.000
G1 X-1.585 Y198.555 Z-9.500 F1300.000
G1 X-1.585 Y193.055 Z-15.000 F1300.000
G1 X-1.585 Y1.585 Z-15.000 F1300.000
G1 X-314.190 Y1.585 Z-15.000 F1300.000
G1 X-319.690 Y1.585 Z-9.500 F1300.000
G1 X-372.580 Y1.585 Z-9.500 F1300.000
G1 X-378.080 Y1.585 Z-15.000 F1300.000
G1 X-690.685 Y1.585 Z-15.000 F1300.000
G1 X-690.685 Y193.055 Z-15.000 F1300.000
G1 X-690.685 Y198.555 Z-9.500 F1300.000
G1 X-690.685 Y251.445 Z-9.500 F1300.000
G1 X-690.685 Y256.945 Z-15.000 F1300.000
G1 X-690.685 Y448.415 Z-15.000 F1300.000
G1 X-378.080 Y448.415 Z-15.000 F1300.000
G1 X-372.580 Y448.415 Z-9.500 F1300.000
G1 X-319.690 Y448.415 Z-9.500 F1300.000
G1 X-314.190 Y448.415 Z-15.000 F1300.000
G1 X-1.585 Y448.415 Z-15.000 F1300.000
G1 X-1.585 Y448.415 Z-18.000 F1300.000
G1 X-1.585 Y259.945 Z-18.000 F1300.000
G1 X-1.585 Y251.445 Z-9.500 F1300.000
G1 X-1.585 Y198.555 Z-9.500 F1300.000
G1 X-1.585 Y190.055 Z-18.000 F1300.000
G1 X-1.585 Y1.585 Z-18.000 F1300.000
G1 X-311.190 Y1.585 Z-18.000 F1300.000
G1 X-319.690 Y1.585 Z-9.500 F1300.000
G1 X-372.580 Y1.585 Z-9.500 F1300.000
G1 X-381.080 Y1.585 Z-18.000 F1300.000
G1 X-690.685 Y1.585 Z-18.000 F1300.000
G1 X-690.685 Y190.055 Z-18.000 F1300.000
G1 X-690.685 Y198.555 Z-9.500 F1300.000
G1 X-690.685 Y251.445 Z-9.500 F1300.000
G1 X-690.685 Y259.945 Z-18.000 F1300.000
G1 X-690.685 Y448.415 Z-18.000 F1300.000
G1 X-381.080 Y448.415 Z-18.000 F1300.000
G1 X-372.580 Y448.415 Z-9.500 F1300.000
G1 X-319.690 Y448.415 Z-9.500 F1300.000
G1 X-311.190 Y448.415 Z-18.000 F1300.000
G1 X-1.585 Y448.415 Z-18.000 F1300.000
G1 X-1.585 Y448.415 Z-19.000 F1300.000
G1 X-1.585 Y260.945 Z-19.000 F1300.000
G1 X-1.585 Y251.445 Z-9.500 F1300.000
G1 X-1.585 Y198.555 Z-9.500 F1300.000
G1 X-1.585 Y189.055 Z-19.000 F1300.000
G1 X-1.585 Y1.585 Z-19.000 F1300.000
G1 X-310.190 Y1.585 Z-19.000 F1300.000
G1 X-319.690 Y1.585 Z-9.500 F1300.000
G1 X-372.580 Y1.585 Z-9.500 F1300.000
G1 X-382.080 Y1.585 Z-19.000 F1300.000
G1 X-690.685 Y1.585 Z-19.000 F1300.000
G1 X-690.685 Y189.055 Z-19.000 F1300.000
G1 X-690.685 Y198.555 Z-9.500 F1300.000
G1 X-690.685 Y251.445 Z-9.500 F1300.000
G1 X-690.685 Y260.945 Z-19.000 F1300.000
G1 X-690.685 Y448.415 Z-19.000 F1300.000
G1 X-382.080 Y448.415 Z-19.000 F1300.000
G1 X-372.580 Y448.415 Z-9.500 F1300.000
G1 X-319.690 Y448.415 Z-9.500 F1300.000
G1 X-310.190 Y448.415 Z-19.000 F1300.000
G1 X-1.585 Y448.415 Z-19.000 F1300.000
G0 X-1.585 Y448.415 Z5.000
(Finish operation: DressupTag002)
(Begin postamble)
M5
G17 G90
M2
