(Exported by FreeCAD)
(Post Processor: grbl_post)
(Output Time:2024-11-21 13:01:50.215047)
(Begin preamble)
G17 G90
G21
(Begin operation: Fixture)
(Path: Fixture)
G54
(Finish operation: Fixture)
(Begin operation: endmill_compression_3175_spe001)
(Path: endmill_compression_3175_spe001)
(endmill_compression_3175_spe001)
(Begin toolchange)
( M6 T2 )
M3 S1800
(Finish operation: endmill_compression_3175_spe001)
(Begin operation: Profile001)
(Path: Profile001)
(Profile001)
(Compensated Tool Path. Diameter: 3.17)
G0 Z5.000
G0 X-443.855 Y418.415
G0 Z3.000
G1 X-443.855 Y418.415 Z-2.000 F1200.000
G1 X-443.855 Y201.585 Z-2.000 F1200.000
G1 X-660.685 Y201.585 Z-2.000 F1200.000
G1 X-660.685 Y418.415 Z-2.000 F1200.000
G1 X-443.855 Y418.415 Z-2.000 F1200.000
G1 X-443.855 Y418.415 Z-4.000 F1200.000
G1 X-443.855 Y201.585 Z-4.000 F1200.000
G1 X-660.685 Y201.585 Z-4.000 F1200.000
G1 X-660.685 Y418.415 Z-4.000 F1200.000
G1 X-443.855 Y418.415 Z-4.000 F1200.000
G1 X-443.855 Y418.415 Z-6.000 F1200.000
G1 X-443.855 Y201.585 Z-6.000 F1200.000
G1 X-660.685 Y201.585 Z-6.000 F1200.000
G1 X-660.685 Y418.415 Z-6.000 F1200.000
G1 X-443.855 Y418.415 Z-6.000 F1200.000
G1 X-443.855 Y418.415 Z-8.000 F1200.000
G1 X-443.855 Y201.585 Z-8.000 F1200.000
G1 X-660.685 Y201.585 Z-8.000 F1200.000
G1 X-660.685 Y418.415 Z-8.000 F1200.000
G1 X-443.855 Y418.415 Z-8.000 F1200.000
G1 X-443.855 Y418.415 Z-10.000 F1200.000
G1 X-443.855 Y201.585 Z-10.000 F1200.000
G1 X-660.685 Y201.585 Z-10.000 F1200.000
G1 X-660.685 Y418.415 Z-10.000 F1200.000
G1 X-443.855 Y418.415 Z-10.000 F1200.000
G1 X-443.855 Y418.415 Z-12.000 F1200.000
G1 X-443.855 Y201.585 Z-12.000 F1200.000
G1 X-660.685 Y201.585 Z-12.000 F1200.000
G1 X-660.685 Y418.415 Z-12.000 F1200.000
G1 X-443.855 Y418.415 Z-12.000 F1200.000
G1 X-443.855 Y418.415 Z-14.000 F1200.000
G1 X-443.855 Y201.585 Z-14.000 F1200.000
G1 X-660.685 Y201.585 Z-14.000 F1200.000
G1 X-660.685 Y418.415 Z-14.000 F1200.000
G1 X-443.855 Y418.415 Z-14.000 F1200.000
G1 X-443.855 Y418.415 Z-16.000 F1200.000
G1 X-443.855 Y201.585 Z-16.000 F1200.000
G1 X-660.685 Y201.585 Z-16.000 F1200.000
G1 X-660.685 Y418.415 Z-16.000 F1200.000
G1 X-443.855 Y418.415 Z-16.000 F1200.000
G1 X-443.855 Y418.415 Z-18.000 F1200.000
G1 X-443.855 Y201.585 Z-18.000 F1200.000
G1 X-660.685 Y201.585 Z-18.000 F1200.000
G1 X-660.685 Y418.415 Z-18.000 F1200.000
G1 X-443.855 Y418.415 Z-18.000 F1200.000
G1 X-443.855 Y418.415 Z-19.000 F1200.000
G1 X-443.855 Y201.585 Z-19.000 F1200.000
G1 X-660.685 Y201.585 Z-19.000 F1200.000
G1 X-660.685 Y418.415 Z-19.000 F1200.000
G1 X-443.855 Y418.415 Z-19.000 F1200.000
G0 Z5.000
G0 Z5.000
(Finish operation: Profile001)
(Begin operation: Profile002)
(Path: Profile002)
(Profile002)
(Compensated Tool Path. Diameter: 3.17)
G0 Z5.000
G0 X-36.585 Y413.415
G0 Z3.000
G1 X-36.585 Y413.415 Z-2.000 F1200.000
G1 X-36.585 Y386.585 Z-2.000 F1200.000
G1 X-295.415 Y386.585 Z-2.000 F1200.000
G1 X-295.415 Y413.415 Z-2.000 F1200.000
G1 X-36.585 Y413.415 Z-2.000 F1200.000
G0 Z5.000
G0 Y363.415 Z5.000
G0 Y363.415 Z3.000
G1 X-36.585 Y363.415 Z-2.000 F1200.000
G1 X-36.585 Y336.585 Z-2.000 F1200.000
G1 X-295.415 Y336.585 Z-2.000 F1200.000
G1 X-295.415 Y363.415 Z-2.000 F1200.000
G1 X-36.585 Y363.415 Z-2.000 F1200.000
G0 Z5.000
G0 Y313.415 Z5.000
G0 Y313.415 Z3.000
G1 X-36.585 Y313.415 Z-2.000 F1200.000
G1 X-36.585 Y286.585 Z-2.000 F1200.000
G1 X-295.415 Y286.585 Z-2.000 F1200.000
G1 X-295.415 Y313.415 Z-2.000 F1200.000
G1 X-36.585 Y313.415 Z-2.000 F1200.000
G0 Z5.000
G0 Y263.415 Z5.000
G0 Y263.415 Z3.000
G1 X-36.585 Y263.415 Z-2.000 F1200.000
G1 X-36.585 Y236.585 Z-2.000 F1200.000
G1 X-295.415 Y236.585 Z-2.000 F1200.000
G1 X-295.415 Y263.415 Z-2.000 F1200.000
G1 X-36.585 Y263.415 Z-2.000 F1200.000
G0 Z5.000
G0 Y213.415 Z5.000
G0 Y213.415 Z3.000
G1 X-36.585 Y213.415 Z-2.000 F1200.000
G1 X-36.585 Y186.585 Z-2.000 F1200.000
G1 X-295.415 Y186.585 Z-2.000 F1200.000
G1 X-295.415 Y213.415 Z-2.000 F1200.000
G1 X-36.585 Y213.415 Z-2.000 F1200.000
G0 Z5.000
G0 Y163.415 Z5.000
G0 Y163.415 Z3.000
G1 X-36.585 Y163.415 Z-2.000 F1200.000
G1 X-36.585 Y136.585 Z-2.000 F1200.000
G1 X-295.415 Y136.585 Z-2.000 F1200.000
G1 X-295.415 Y163.415 Z-2.000 F1200.000
G1 X-36.585 Y163.415 Z-2.000 F1200.000
G0 Z5.000
G0 Y113.415 Z5.000
G0 Y113.415 Z3.000
G1 X-36.585 Y113.415 Z-2.000 F1200.000
G1 X-36.585 Y86.585 Z-2.000 F1200.000
G1 X-295.415 Y86.585 Z-2.000 F1200.000
G1 X-295.415 Y113.415 Z-2.000 F1200.000
G1 X-36.585 Y113.415 Z-2.000 F1200.000
G0 Z5.000
G0 Y63.415 Z5.000
G0 Y63.415 Z3.000
G1 X-36.585 Y63.415 Z-2.000 F1200.000
G1 X-36.585 Y36.585 Z-2.000 F1200.000
G1 X-295.415 Y36.585 Z-2.000 F1200.000
G1 X-295.415 Y63.415 Z-2.000 F1200.000
G1 X-36.585 Y63.415 Z-2.000 F1200.000
G1 X-36.585 Y63.415 Z-4.000 F1200.000
G1 X-36.585 Y36.585 Z-4.000 F1200.000
G1 X-295.415 Y36.585 Z-4.000 F1200.000
G1 X-295.415 Y63.415 Z-4.000 F1200.000
G1 X-36.585 Y63.415 Z-4.000 F1200.000
G0 Z5.000
G0 Y86.585 Z5.000
G0 Y86.585 Z3.000
G1 X-36.585 Y86.585 Z-4.000 F1200.000
G1 X-295.415 Y86.585 Z-4.000 F1200.000
G1 X-295.415 Y113.415 Z-4.000 F1200.000
G1 X-36.585 Y113.415 Z-4.000 F1200.000
G1 X-36.585 Y86.585 Z-4.000 F1200.000
G0 Z5.000
G0 Y136.585 Z5.000
G0 Y136.585 Z3.000
G1 X-36.585 Y136.585 Z-4.000 F1200.000
G1 X-295.415 Y136.585 Z-4.000 F1200.000
G1 X-295.415 Y163.415 Z-4.000 F1200.000
G1 X-36.585 Y163.415 Z-4.000 F1200.000
G1 X-36.585 Y136.585 Z-4.000 F1200.000
G0 Z5.000
G0 Y186.585 Z5.000
G0 Y186.585 Z3.000
G1 X-36.585 Y186.585 Z-4.000 F1200.000
G1 X-295.415 Y186.585 Z-4.000 F1200.000
G1 X-295.415 Y213.415 Z-4.000 F1200.000
G1 X-36.585 Y213.415 Z-4.000 F1200.000
G1 X-36.585 Y186.585 Z-4.000 F1200.000
G0 Z5.000
G0 Y236.585 Z5.000
G0 Y236.585 Z3.000
G1 X-36.585 Y236.585 Z-4.000 F1200.000
G1 X-295.415 Y236.585 Z-4.000 F1200.000
G1 X-295.415 Y263.415 Z-4.000 F1200.000
G1 X-36.585 Y263.415 Z-4.000 F1200.000
G1 X-36.585 Y236.585 Z-4.000 F1200.000
G0 Z5.000
G0 Y286.585 Z5.000
G0 Y286.585 Z3.000
G1 X-36.585 Y286.585 Z-4.000 F1200.000
G1 X-295.415 Y286.585 Z-4.000 F1200.000
G1 X-295.415 Y313.415 Z-4.000 F1200.000
G1 X-36.585 Y313.415 Z-4.000 F1200.000
G1 X-36.585 Y286.585 Z-4.000 F1200.000
G0 Z5.000
G0 Y336.585 Z5.000
G0 Y336.585 Z3.000
G1 X-36.585 Y336.585 Z-4.000 F1200.000
G1 X-295.415 Y336.585 Z-4.000 F1200.000
G1 X-295.415 Y363.415 Z-4.000 F1200.000
G1 X-36.585 Y363.415 Z-4.000 F1200.000
G1 X-36.585 Y336.585 Z-4.000 F1200.000
G0 Z5.000
G0 Y386.585 Z5.000
G0 Y386.585 Z3.000
G1 X-36.585 Y386.585 Z-4.000 F1200.000
G1 X-295.415 Y386.585 Z-4.000 F1200.000
G1 X-295.415 Y413.415 Z-4.000 F1200.000
G1 X-36.585 Y413.415 Z-4.000 F1200.000
G1 X-36.585 Y386.585 Z-4.000 F1200.000
G1 X-36.585 Y386.585 Z-6.000 F1200.000
G1 X-295.415 Y386.585 Z-6.000 F1200.000
G1 X-295.415 Y413.415 Z-6.000 F1200.000
G1 X-36.585 Y413.415 Z-6.000 F1200.000
G1 X-36.585 Y386.585 Z-6.000 F1200.000
G0 Z5.000
G0 Y363.415 Z5.000
G0 Y363.415 Z3.000
G1 X-36.585 Y363.415 Z-6.000 F1200.000
G1 X-36.585 Y336.585 Z-6.000 F1200.000
G1 X-295.415 Y336.585 Z-6.000 F1200.000
G1 X-295.415 Y363.415 Z-6.000 F1200.000
G1 X-36.585 Y363.415 Z-6.000 F1200.000
G0 Z5.000
G0 Y313.415 Z5.000
G0 Y313.415 Z3.000
G1 X-36.585 Y313.415 Z-6.000 F1200.000
G1 X-36.585 Y286.585 Z-6.000 F1200.000
G1 X-295.415 Y286.585 Z-6.000 F1200.000
G1 X-295.415 Y313.415 Z-6.000 F1200.000
G1 X-36.585 Y313.415 Z-6.000 F1200.000
G0 Z5.000
G0 Y263.415 Z5.000
G0 Y263.415 Z3.000
G1 X-36.585 Y263.415 Z-6.000 F1200.000
G1 X-36.585 Y236.585 Z-6.000 F1200.000
G1 X-295.415 Y236.585 Z-6.000 F1200.000
G1 X-295.415 Y263.415 Z-6.000 F1200.000
G1 X-36.585 Y263.415 Z-6.000 F1200.000
G0 Z5.000
G0 Y213.415 Z5.000
G0 Y213.415 Z3.000
G1 X-36.585 Y213.415 Z-6.000 F1200.000
G1 X-36.585 Y186.585 Z-6.000 F1200.000
G1 X-295.415 Y186.585 Z-6.000 F1200.000
G1 X-295.415 Y213.415 Z-6.000 F1200.000
G1 X-36.585 Y213.415 Z-6.000 F1200.000
G0 Z5.000
G0 Y163.415 Z5.000
G0 Y163.415 Z3.000
G1 X-36.585 Y163.415 Z-6.000 F1200.000
G1 X-36.585 Y136.585 Z-6.000 F1200.000
G1 X-295.415 Y136.585 Z-6.000 F1200.000
G1 X-295.415 Y163.415 Z-6.000 F1200.000
G1 X-36.585 Y163.415 Z-6.000 F1200.000
G0 Z5.000
G0 Y113.415 Z5.000
G0 Y113.415 Z3.000
G1 X-36.585 Y113.415 Z-6.000 F1200.000
G1 X-36.585 Y86.585 Z-6.000 F1200.000
G1 X-295.415 Y86.585 Z-6.000 F1200.000
G1 X-295.415 Y113.415 Z-6.000 F1200.000
G1 X-36.585 Y113.415 Z-6.000 F1200.000
G0 Z5.000
G0 Y63.415 Z5.000
G0 Y63.415 Z3.000
G1 X-36.585 Y63.415 Z-6.000 F1200.000
G1 X-36.585 Y36.585 Z-6.000 F1200.000
G1 X-295.415 Y36.585 Z-6.000 F1200.000
G1 X-295.415 Y63.415 Z-6.000 F1200.000
G1 X-36.585 Y63.415 Z-6.000 F1200.000
G1 X-36.585 Y63.415 Z-8.000 F1200.000
G1 X-36.585 Y36.585 Z-8.000 F1200.000
G1 X-295.415 Y36.585 Z-8.000 F1200.000
G1 X-295.415 Y63.415 Z-8.000 F1200.000
G1 X-36.585 Y63.415 Z-8.000 F1200.000
G0 Z5.000
G0 Y86.585 Z5.000
G0 Y86.585 Z3.000
G1 X-36.585 Y86.585 Z-8.000 F1200.000
G1 X-295.415 Y86.585 Z-8.000 F1200.000
G1 X-295.415 Y113.415 Z-8.000 F1200.000
G1 X-36.585 Y113.415 Z-8.000 F1200.000
G1 X-36.585 Y86.585 Z-8.000 F1200.000
G0 Z5.000
G0 Y136.585 Z5.000
G0 Y136.585 Z3.000
G1 X-36.585 Y136.585 Z-8.000 F1200.000
G1 X-295.415 Y136.585 Z-8.000 F1200.000
G1 X-295.415 Y163.415 Z-8.000 F1200.000
G1 X-36.585 Y163.415 Z-8.000 F1200.000
G1 X-36.585 Y136.585 Z-8.000 F1200.000
G0 Z5.000
G0 Y186.585 Z5.000
G0 Y186.585 Z3.000
G1 X-36.585 Y186.585 Z-8.000 F1200.000
G1 X-295.415 Y186.585 Z-8.000 F1200.000
G1 X-295.415 Y213.415 Z-8.000 F1200.000
G1 X-36.585 Y213.415 Z-8.000 F1200.000
G1 X-36.585 Y186.585 Z-8.000 F1200.000
G0 Z5.000
G0 Y236.585 Z5.000
G0 Y236.585 Z3.000
G1 X-36.585 Y236.585 Z-8.000 F1200.000
G1 X-295.415 Y236.585 Z-8.000 F1200.000
G1 X-295.415 Y263.415 Z-8.000 F1200.000
G1 X-36.585 Y263.415 Z-8.000 F1200.000
G1 X-36.585 Y236.585 Z-8.000 F1200.000
G0 Z5.000
G0 Y286.585 Z5.000
G0 Y286.585 Z3.000
G1 X-36.585 Y286.585 Z-8.000 F1200.000
G1 X-295.415 Y286.585 Z-8.000 F1200.000
G1 X-295.415 Y313.415 Z-8.000 F1200.000
G1 X-36.585 Y313.415 Z-8.000 F1200.000
G1 X-36.585 Y286.585 Z-8.000 F1200.000
G0 Z5.000
G0 Y336.585 Z5.000
G0 Y336.585 Z3.000
G1 X-36.585 Y336.585 Z-8.000 F1200.000
G1 X-295.415 Y336.585 Z-8.000 F1200.000
G1 X-295.415 Y363.415 Z-8.000 F1200.000
G1 X-36.585 Y363.415 Z-8.000 F1200.000
G1 X-36.585 Y336.585 Z-8.000 F1200.000
G0 Z5.000
G0 Y386.585 Z5.000
G0 Y386.585 Z3.000
G1 X-36.585 Y386.585 Z-8.000 F1200.000
G1 X-295.415 Y386.585 Z-8.000 F1200.000
G1 X-295.415 Y413.415 Z-8.000 F1200.000
G1 X-36.585 Y413.415 Z-8.000 F1200.000
G1 X-36.585 Y386.585 Z-8.000 F1200.000
G1 X-36.585 Y386.585 Z-10.000 F1200.000
G1 X-295.415 Y386.585 Z-10.000 F1200.000
G1 X-295.415 Y413.415 Z-10.000 F1200.000
G1 X-36.585 Y413.415 Z-10.000 F1200.000
G1 X-36.585 Y386.585 Z-10.000 F1200.000
G0 Z5.000
G0 Y363.415 Z5.000
G0 Y363.415 Z3.000
G1 X-36.585 Y363.415 Z-10.000 F1200.000
G1 X-36.585 Y336.585 Z-10.000 F1200.000
G1 X-295.415 Y336.585 Z-10.000 F1200.000
G1 X-295.415 Y363.415 Z-10.000 F1200.000
G1 X-36.585 Y363.415 Z-10.000 F1200.000
G0 Z5.000
G0 Y313.415 Z5.000
G0 Y313.415 Z3.000
G1 X-36.585 Y313.415 Z-10.000 F1200.000
G1 X-36.585 Y286.585 Z-10.000 F1200.000
G1 X-295.415 Y286.585 Z-10.000 F1200.000
G1 X-295.415 Y313.415 Z-10.000 F1200.000
G1 X-36.585 Y313.415 Z-10.000 F1200.000
G0 Z5.000
G0 Y263.415 Z5.000
G0 Y263.415 Z3.000
G1 X-36.585 Y263.415 Z-10.000 F1200.000
G1 X-36.585 Y236.585 Z-10.000 F1200.000
G1 X-295.415 Y236.585 Z-10.000 F1200.000
G1 X-295.415 Y263.415 Z-10.000 F1200.000
G1 X-36.585 Y263.415 Z-10.000 F1200.000
G0 Z5.000
G0 Y213.415 Z5.000
G0 Y213.415 Z3.000
G1 X-36.585 Y213.415 Z-10.000 F1200.000
G1 X-36.585 Y186.585 Z-10.000 F1200.000
G1 X-295.415 Y186.585 Z-10.000 F1200.000
G1 X-295.415 Y213.415 Z-10.000 F1200.000
G1 X-36.585 Y213.415 Z-10.000 F1200.000
G0 Z5.000
G0 Y163.415 Z5.000
G0 Y163.415 Z3.000
G1 X-36.585 Y163.415 Z-10.000 F1200.000
G1 X-36.585 Y136.585 Z-10.000 F1200.000
G1 X-295.415 Y136.585 Z-10.000 F1200.000
G1 X-295.415 Y163.415 Z-10.000 F1200.000
G1 X-36.585 Y163.415 Z-10.000 F1200.000
G0 Z5.000
G0 Y113.415 Z5.000
G0 Y113.415 Z3.000
G1 X-36.585 Y113.415 Z-10.000 F1200.000
G1 X-36.585 Y86.585 Z-10.000 F1200.000
G1 X-295.415 Y86.585 Z-10.000 F1200.000
G1 X-295.415 Y113.415 Z-10.000 F1200.000
G1 X-36.585 Y113.415 Z-10.000 F1200.000
G0 Z5.000
G0 Y63.415 Z5.000
G0 Y63.415 Z3.000
G1 X-36.585 Y63.415 Z-10.000 F1200.000
G1 X-36.585 Y36.585 Z-10.000 F1200.000
G1 X-295.415 Y36.585 Z-10.000 F1200.000
G1 X-295.415 Y63.415 Z-10.000 F1200.000
G1 X-36.585 Y63.415 Z-10.000 F1200.000
G1 X-36.585 Y63.415 Z-12.000 F1200.000
G1 X-36.585 Y36.585 Z-12.000 F1200.000
G1 X-295.415 Y36.585 Z-12.000 F1200.000
G1 X-295.415 Y63.415 Z-12.000 F1200.000
G1 X-36.585 Y63.415 Z-12.000 F1200.000
G0 Z5.000
G0 Y86.585 Z5.000
G0 Y86.585 Z3.000
G1 X-36.585 Y86.585 Z-12.000 F1200.000
G1 X-295.415 Y86.585 Z-12.000 F1200.000
G1 X-295.415 Y113.415 Z-12.000 F1200.000
G1 X-36.585 Y113.415 Z-12.000 F1200.000
G1 X-36.585 Y86.585 Z-12.000 F1200.000
G0 Z5.000
G0 Y136.585 Z5.000
G0 Y136.585 Z3.000
G1 X-36.585 Y136.585 Z-12.000 F1200.000
G1 X-295.415 Y136.585 Z-12.000 F1200.000
G1 X-295.415 Y163.415 Z-12.000 F1200.000
G1 X-36.585 Y163.415 Z-12.000 F1200.000
G1 X-36.585 Y136.585 Z-12.000 F1200.000
G0 Z5.000
G0 Y186.585 Z5.000
G0 Y186.585 Z3.000
G1 X-36.585 Y186.585 Z-12.000 F1200.000
G1 X-295.415 Y186.585 Z-12.000 F1200.000
G1 X-295.415 Y213.415 Z-12.000 F1200.000
G1 X-36.585 Y213.415 Z-12.000 F1200.000
G1 X-36.585 Y186.585 Z-12.000 F1200.000
G0 Z5.000
G0 Y236.585 Z5.000
G0 Y236.585 Z3.000
G1 X-36.585 Y236.585 Z-12.000 F1200.000
G1 X-295.415 Y236.585 Z-12.000 F1200.000
G1 X-295.415 Y263.415 Z-12.000 F1200.000
G1 X-36.585 Y263.415 Z-12.000 F1200.000
G1 X-36.585 Y236.585 Z-12.000 F1200.000
G0 Z5.000
G0 Y286.585 Z5.000
G0 Y286.585 Z3.000
G1 X-36.585 Y286.585 Z-12.000 F1200.000
G1 X-295.415 Y286.585 Z-12.000 F1200.000
G1 X-295.415 Y313.415 Z-12.000 F1200.000
G1 X-36.585 Y313.415 Z-12.000 F1200.000
G1 X-36.585 Y286.585 Z-12.000 F1200.000
G0 Z5.000
G0 Y336.585 Z5.000
G0 Y336.585 Z3.000
G1 X-36.585 Y336.585 Z-12.000 F1200.000
G1 X-295.415 Y336.585 Z-12.000 F1200.000
G1 X-295.415 Y363.415 Z-12.000 F1200.000
G1 X-36.585 Y363.415 Z-12.000 F1200.000
G1 X-36.585 Y336.585 Z-12.000 F1200.000
G0 Z5.000
G0 Y386.585 Z5.000
G0 Y386.585 Z3.000
G1 X-36.585 Y386.585 Z-12.000 F1200.000
G1 X-295.415 Y386.585 Z-12.000 F1200.000
G1 X-295.415 Y413.415 Z-12.000 F1200.000
G1 X-36.585 Y413.415 Z-12.000 F1200.000
G1 X-36.585 Y386.585 Z-12.000 F1200.000
G1 X-36.585 Y386.585 Z-14.000 F1200.000
G1 X-295.415 Y386.585 Z-14.000 F1200.000
G1 X-295.415 Y413.415 Z-14.000 F1200.000
G1 X-36.585 Y413.415 Z-14.000 F1200.000
G1 X-36.585 Y386.585 Z-14.000 F1200.000
G0 Z5.000
G0 Y363.415 Z5.000
G0 Y363.415 Z3.000
G1 X-36.585 Y363.415 Z-14.000 F1200.000
G1 X-36.585 Y336.585 Z-14.000 F1200.000
G1 X-295.415 Y336.585 Z-14.000 F1200.000
G1 X-295.415 Y363.415 Z-14.000 F1200.000
G1 X-36.585 Y363.415 Z-14.000 F1200.000
G0 Z5.000
G0 Y313.415 Z5.000
G0 Y313.415 Z3.000
G1 X-36.585 Y313.415 Z-14.000 F1200.000
G1 X-36.585 Y286.585 Z-14.000 F1200.000
G1 X-295.415 Y286.585 Z-14.000 F1200.000
G1 X-295.415 Y313.415 Z-14.000 F1200.000
G1 X-36.585 Y313.415 Z-14.000 F1200.000
G0 Z5.000
G0 Y263.415 Z5.000
G0 Y263.415 Z3.000
G1 X-36.585 Y263.415 Z-14.000 F1200.000
G1 X-36.585 Y236.585 Z-14.000 F1200.000
G1 X-295.415 Y236.585 Z-14.000 F1200.000
G1 X-295.415 Y263.415 Z-14.000 F1200.000
G1 X-36.585 Y263.415 Z-14.000 F1200.000
G0 Z5.000
G0 Y213.415 Z5.000
G0 Y213.415 Z3.000
G1 X-36.585 Y213.415 Z-14.000 F1200.000
G1 X-36.585 Y186.585 Z-14.000 F1200.000
G1 X-295.415 Y186.585 Z-14.000 F1200.000
G1 X-295.415 Y213.415 Z-14.000 F1200.000
G1 X-36.585 Y213.415 Z-14.000 F1200.000
G0 Z5.000
G0 Y163.415 Z5.000
G0 Y163.415 Z3.000
G1 X-36.585 Y163.415 Z-14.000 F1200.000
G1 X-36.585 Y136.585 Z-14.000 F1200.000
G1 X-295.415 Y136.585 Z-14.000 F1200.000
G1 X-295.415 Y163.415 Z-14.000 F1200.000
G1 X-36.585 Y163.415 Z-14.000 F1200.000
G0 Z5.000
G0 Y113.415 Z5.000
G0 Y113.415 Z3.000
G1 X-36.585 Y113.415 Z-14.000 F1200.000
G1 X-36.585 Y86.585 Z-14.000 F1200.000
G1 X-295.415 Y86.585 Z-14.000 F1200.000
G1 X-295.415 Y113.415 Z-14.000 F1200.000
G1 X-36.585 Y113.415 Z-14.000 F1200.000
G0 Z5.000
G0 Y63.415 Z5.000
G0 Y63.415 Z3.000
G1 X-36.585 Y63.415 Z-14.000 F1200.000
G1 X-36.585 Y36.585 Z-14.000 F1200.000
G1 X-295.415 Y36.585 Z-14.000 F1200.000
G1 X-295.415 Y63.415 Z-14.000 F1200.000
G1 X-36.585 Y63.415 Z-14.000 F1200.000
G1 X-36.585 Y63.415 Z-16.000 F1200.000
G1 X-36.585 Y36.585 Z-16.000 F1200.000
G1 X-295.415 Y36.585 Z-16.000 F1200.000
G1 X-295.415 Y63.415 Z-16.000 F1200.000
G1 X-36.585 Y63.415 Z-16.000 F1200.000
G0 Z5.000
G0 Y86.585 Z5.000
G0 Y86.585 Z3.000
G1 X-36.585 Y86.585 Z-16.000 F1200.000
G1 X-295.415 Y86.585 Z-16.000 F1200.000
G1 X-295.415 Y113.415 Z-16.000 F1200.000
G1 X-36.585 Y113.415 Z-16.000 F1200.000
G1 X-36.585 Y86.585 Z-16.000 F1200.000
G0 Z5.000
G0 Y136.585 Z5.000
G0 Y136.585 Z3.000
G1 X-36.585 Y136.585 Z-16.000 F1200.000
G1 X-295.415 Y136.585 Z-16.000 F1200.000
G1 X-295.415 Y163.415 Z-16.000 F1200.000
G1 X-36.585 Y163.415 Z-16.000 F1200.000
G1 X-36.585 Y136.585 Z-16.000 F1200.000
G0 Z5.000
G0 Y186.585 Z5.000
G0 Y186.585 Z3.000
G1 X-36.585 Y186.585 Z-16.000 F1200.000
G1 X-295.415 Y186.585 Z-16.000 F1200.000
G1 X-295.415 Y213.415 Z-16.000 F1200.000
G1 X-36.585 Y213.415 Z-16.000 F1200.000
G1 X-36.585 Y186.585 Z-16.000 F1200.000
G0 Z5.000
G0 Y236.585 Z5.000
G0 Y236.585 Z3.000
G1 X-36.585 Y236.585 Z-16.000 F1200.000
G1 X-295.415 Y236.585 Z-16.000 F1200.000
G1 X-295.415 Y263.415 Z-16.000 F1200.000
G1 X-36.585 Y263.415 Z-16.000 F1200.000
G1 X-36.585 Y236.585 Z-16.000 F1200.000
G0 Z5.000
G0 Y286.585 Z5.000
G0 Y286.585 Z3.000
G1 X-36.585 Y286.585 Z-16.000 F1200.000
G1 X-295.415 Y286.585 Z-16.000 F1200.000
G1 X-295.415 Y313.415 Z-16.000 F1200.000
G1 X-36.585 Y313.415 Z-16.000 F1200.000
G1 X-36.585 Y286.585 Z-16.000 F1200.000
G0 Z5.000
G0 Y336.585 Z5.000
G0 Y336.585 Z3.000
G1 X-36.585 Y336.585 Z-16.000 F1200.000
G1 X-295.415 Y336.585 Z-16.000 F1200.000
G1 X-295.415 Y363.415 Z-16.000 F1200.000
G1 X-36.585 Y363.415 Z-16.000 F1200.000
G1 X-36.585 Y336.585 Z-16.000 F1200.000
G0 Z5.000
G0 Y386.585 Z5.000
G0 Y386.585 Z3.000
G1 X-36.585 Y386.585 Z-16.000 F1200.000
G1 X-295.415 Y386.585 Z-16.000 F1200.000
G1 X-295.415 Y413.415 Z-16.000 F1200.000
G1 X-36.585 Y413.415 Z-16.000 F1200.000
G1 X-36.585 Y386.585 Z-16.000 F1200.000
G1 X-36.585 Y386.585 Z-18.000 F1200.000
G1 X-295.415 Y386.585 Z-18.000 F1200.000
G1 X-295.415 Y413.415 Z-18.000 F1200.000
G1 X-36.585 Y413.415 Z-18.000 F1200.000
G1 X-36.585 Y386.585 Z-18.000 F1200.000
G0 Z5.000
G0 Y363.415 Z5.000
G0 Y363.415 Z3.000
G1 X-36.585 Y363.415 Z-18.000 F1200.000
G1 X-36.585 Y336.585 Z-18.000 F1200.000
G1 X-295.415 Y336.585 Z-18.000 F1200.000
G1 X-295.415 Y363.415 Z-18.000 F1200.000
G1 X-36.585 Y363.415 Z-18.000 F1200.000
G0 Z5.000
G0 Y313.415 Z5.000
G0 Y313.415 Z3.000
G1 X-36.585 Y313.415 Z-18.000 F1200.000
G1 X-36.585 Y286.585 Z-18.000 F1200.000
G1 X-295.415 Y286.585 Z-18.000 F1200.000
G1 X-295.415 Y313.415 Z-18.000 F1200.000
G1 X-36.585 Y313.415 Z-18.000 F1200.000
G0 Z5.000
G0 Y263.415 Z5.000
G0 Y263.415 Z3.000
G1 X-36.585 Y263.415 Z-18.000 F1200.000
G1 X-36.585 Y236.585 Z-18.000 F1200.000
G1 X-295.415 Y236.585 Z-18.000 F1200.000
G1 X-295.415 Y263.415 Z-18.000 F1200.000
G1 X-36.585 Y263.415 Z-18.000 F1200.000
G0 Z5.000
G0 Y213.415 Z5.000
G0 Y213.415 Z3.000
G1 X-36.585 Y213.415 Z-18.000 F1200.000
G1 X-36.585 Y186.585 Z-18.000 F1200.000
G1 X-295.415 Y186.585 Z-18.000 F1200.000
G1 X-295.415 Y213.415 Z-18.000 F1200.000
G1 X-36.585 Y213.415 Z-18.000 F1200.000
G0 Z5.000
G0 Y163.415 Z5.000
G0 Y163.415 Z3.000
G1 X-36.585 Y163.415 Z-18.000 F1200.000
G1 X-36.585 Y136.585 Z-18.000 F1200.000
G1 X-295.415 Y136.585 Z-18.000 F1200.000
G1 X-295.415 Y163.415 Z-18.000 F1200.000
G1 X-36.585 Y163.415 Z-18.000 F1200.000
G0 Z5.000
G0 Y113.415 Z5.000
G0 Y113.415 Z3.000
G1 X-36.585 Y113.415 Z-18.000 F1200.000
G1 X-36.585 Y86.585 Z-18.000 F1200.000
G1 X-295.415 Y86.585 Z-18.000 F1200.000
G1 X-295.415 Y113.415 Z-18.000 F1200.000
G1 X-36.585 Y113.415 Z-18.000 F1200.000
G0 Z5.000
G0 Y63.415 Z5.000
G0 Y63.415 Z3.000
G1 X-36.585 Y63.415 Z-18.000 F1200.000
G1 X-36.585 Y36.585 Z-18.000 F1200.000
G1 X-295.415 Y36.585 Z-18.000 F1200.000
G1 X-295.415 Y63.415 Z-18.000 F1200.000
G1 X-36.585 Y63.415 Z-18.000 F1200.000
G1 X-36.585 Y63.415 Z-19.000 F1200.000
G1 X-36.585 Y36.585 Z-19.000 F1200.000
G1 X-295.415 Y36.585 Z-19.000 F1200.000
G1 X-295.415 Y63.415 Z-19.000 F1200.000
G1 X-36.585 Y63.415 Z-19.000 F1200.000
G0 Z5.000
G0 Y86.585 Z5.000
G0 Y86.585 Z3.000
G1 X-36.585 Y86.585 Z-19.000 F1200.000
G1 X-295.415 Y86.585 Z-19.000 F1200.000
G1 X-295.415 Y113.415 Z-19.000 F1200.000
G1 X-36.585 Y113.415 Z-19.000 F1200.000
G1 X-36.585 Y86.585 Z-19.000 F1200.000
G0 Z5.000
G0 Y136.585 Z5.000
G0 Y136.585 Z3.000
G1 X-36.585 Y136.585 Z-19.000 F1200.000
G1 X-295.415 Y136.585 Z-19.000 F1200.000
G1 X-295.415 Y163.415 Z-19.000 F1200.000
G1 X-36.585 Y163.415 Z-19.000 F1200.000
G1 X-36.585 Y136.585 Z-19.000 F1200.000
G0 Z5.000
G0 Y186.585 Z5.000
G0 Y186.585 Z3.000
G1 X-36.585 Y186.585 Z-19.000 F1200.000
G1 X-295.415 Y186.585 Z-19.000 F1200.000
G1 X-295.415 Y213.415 Z-19.000 F1200.000
G1 X-36.585 Y213.415 Z-19.000 F1200.000
G1 X-36.585 Y186.585 Z-19.000 F1200.000
G0 Z5.000
G0 Y236.585 Z5.000
G0 Y236.585 Z3.000
G1 X-36.585 Y236.585 Z-19.000 F1200.000
G1 X-295.415 Y236.585 Z-19.000 F1200.000
G1 X-295.415 Y263.415 Z-19.000 F1200.000
G1 X-36.585 Y263.415 Z-19.000 F1200.000
G1 X-36.585 Y236.585 Z-19.000 F1200.000
G0 Z5.000
G0 Y286.585 Z5.000
G0 Y286.585 Z3.000
G1 X-36.585 Y286.585 Z-19.000 F1200.000
G1 X-295.415 Y286.585 Z-19.000 F1200.000
G1 X-295.415 Y313.415 Z-19.000 F1200.000
G1 X-36.585 Y313.415 Z-19.000 F1200.000
G1 X-36.585 Y286.585 Z-19.000 F1200.000
G0 Z5.000
G0 Y336.585 Z5.000
G0 Y336.585 Z3.000
G1 X-36.585 Y336.585 Z-19.000 F1200.000
G1 X-295.415 Y336.585 Z-19.000 F1200.000
G1 X-295.415 Y363.415 Z-19.000 F1200.000
G1 X-36.585 Y363.415 Z-19.000 F1200.000
G1 X-36.585 Y336.585 Z-19.000 F1200.000
G0 Z5.000
G0 Y386.585 Z5.000
G0 Y386.585 Z3.000
G1 X-36.585 Y386.585 Z-19.000 F1200.000
G1 X-295.415 Y386.585 Z-19.000 F1200.000
G1 X-295.415 Y413.415 Z-19.000 F1200.000
G1 X-36.585 Y413.415 Z-19.000 F1200.000
G1 X-36.585 Y386.585 Z-19.000 F1200.000
G0 Z5.000
G0 Z5.000
(Finish operation: Profile002)
(Begin operation: DressupTag)
(Path: DressupTag)
G0 Z5.000
G0 X1.121 Y451.121 Z5.000
G0 X1.121 Y451.121 Z3.000
G1 X1.121 Y451.121 Z-2.000 F1200.000
G2 X1.585 Y450.000 Z-2.000 I-1.121 J-1.121 K0.000 F1200.000
G1 X1.585 Y0.000 Z-2.000 F1200.000
G2 X-0.000 Y-1.585 Z-2.000 I-1.585 J0.000 K0.000 F1200.000
G1 X-692.270 Y-1.585 Z-2.000 F1200.000
G2 X-693.855 Y0.000 Z-2.000 I0.000 J1.585 K0.000 F1200.000
G1 X-693.855 Y450.000 Z-2.000 F1200.000
G2 X-692.270 Y451.585 Z-2.000 I1.585 J-0.000 K0.000 F1200.000
G1 X0.000 Y451.585 Z-2.000 F1200.000
G2 X1.121 Y451.121 Z-2.000 I-0.000 J-1.585 K0.000 F1200.000
G1 X1.121 Y451.121 Z-4.000 F1200.000
G2 X1.585 Y450.000 Z-4.000 I-1.121 J-1.121 K0.000 F1200.000
G1 X1.585 Y0.000 Z-4.000 F1200.000
G2 X-0.000 Y-1.585 Z-4.000 I-1.585 J0.000 K0.000 F1200.000
G1 X-692.270 Y-1.585 Z-4.000 F1200.000
G2 X-693.855 Y0.000 Z-4.000 I0.000 J1.585 K0.000 F1200.000
G1 X-693.855 Y450.000 Z-4.000 F1200.000
G2 X-692.270 Y451.585 Z-4.000 I1.585 J-0.000 K0.000 F1200.000
G1 X0.000 Y451.585 Z-4.000 F1200.000
G2 X1.121 Y451.121 Z-4.000 I-0.000 J-1.585 K0.000 F1200.000
G1 X1.121 Y451.121 Z-6.000 F1200.000
G2 X1.585 Y450.000 Z-6.000 I-1.121 J-1.121 K0.000 F1200.000
G1 X1.585 Y0.000 Z-6.000 F1200.000
G2 X-0.000 Y-1.585 Z-6.000 I-1.585 J0.000 K0.000 F1200.000
G1 X-692.270 Y-1.585 Z-6.000 F1200.000
G2 X-693.855 Y0.000 Z-6.000 I0.000 J1.585 K0.000 F1200.000
G1 X-693.855 Y450.000 Z-6.000 F1200.000
G2 X-692.270 Y451.585 Z-6.000 I1.585 J-0.000 K0.000 F1200.000
G1 X0.000 Y451.585 Z-6.000 F1200.000
G2 X1.121 Y451.121 Z-6.000 I-0.000 J-1.585 K0.000 F1200.000
G1 X1.121 Y451.121 Z-8.000 F1200.000
G2 X1.585 Y450.000 Z-8.000 I-1.121 J-1.121 K0.000 F1200.000
G1 X1.585 Y0.000 Z-8.000 F1200.000
G2 X-0.000 Y-1.585 Z-8.000 I-1.585 J0.000 K0.000 F1200.000
G1 X-692.270 Y-1.585 Z-8.000 F1200.000
G2 X-693.855 Y0.000 Z-8.000 I0.000 J1.585 K0.000 F1200.000
G1 X-693.855 Y450.000 Z-8.000 F1200.000
G2 X-692.270 Y451.585 Z-8.000 I1.585 J-0.000 K0.000 F1200.000
G1 X0.000 Y451.585 Z-8.000 F1200.000
G2 X1.121 Y451.121 Z-8.000 I-0.000 J-1.585 K0.000 F1200.000
G1 X1.121 Y451.121 Z-10.000 F1200.000
G2 X1.585 Y450.000 Z-10.000 I-1.121 J-1.121 K0.000 F1200.000
G1 X1.585 Y0.000 Z-10.000 F1200.000
G2 X-0.000 Y-1.585 Z-10.000 I-1.585 J0.000 K0.000 F1200.000
G1 X-145.964 Y-1.585 Z-10.000 F1200.000
G1 X-146.464 Y-1.585 Z-9.500 F1200.000
G1 X-199.671 Y-1.585 Z-9.500 F1200.000
G1 X-200.171 Y-1.585 Z-10.000 F1200.000
G1 X-492.099 Y-1.585 Z-10.000 F1200.000
G1 X-492.599 Y-1.585 Z-9.500 F1200.000
G1 X-545.806 Y-1.585 Z-9.500 F1200.000
G1 X-546.306 Y-1.585 Z-10.000 F1200.000
G1 X-692.270 Y-1.585 Z-10.000 F1200.000
G2 X-693.855 Y0.000 Z-10.000 I0.000 J1.585 K0.000 F1200.000
G1 X-693.855 Y450.000 Z-10.000 F1200.000
G2 X-692.270 Y451.585 Z-10.000 I1.585 J-0.000 K0.000 F1200.000
G1 X-546.306 Y451.585 Z-10.000 F1200.000
G1 X-545.806 Y451.585 Z-9.500 F1200.000
G1 X-492.599 Y451.585 Z-9.500 F1200.000
G1 X-492.099 Y451.585 Z-10.000 F1200.000
G1 X-200.171 Y451.585 Z-10.000 F1200.000
G1 X-199.671 Y451.585 Z-9.500 F1200.000
G1 X-146.464 Y451.585 Z-9.500 F1200.000
G1 X-145.964 Y451.585 Z-10.000 F1200.000
G1 X0.000 Y451.585 Z-10.000 F1200.000
G2 X1.121 Y451.121 Z-10.000 I-0.000 J-1.585 K0.000 F1200.000
G1 X1.121 Y451.121 Z-12.000 F1200.000
G2 X1.585 Y450.000 Z-12.000 I-1.121 J-1.121 K0.000 F1200.000
G1 X1.585 Y0.000 Z-12.000 F1200.000
G2 X-0.000 Y-1.585 Z-12.000 I-1.585 J0.000 K0.000 F1200.000
G1 X-143.964 Y-1.585 Z-12.000 F1200.000
G1 X-146.464 Y-1.585 Z-9.500 F1200.000
G1 X-199.671 Y-1.585 Z-9.500 F1200.000
G1 X-202.171 Y-1.585 Z-12.000 F1200.000
G1 X-490.099 Y-1.585 Z-12.000 F1200.000
G1 X-492.599 Y-1.585 Z-9.500 F1200.000
G1 X-545.806 Y-1.585 Z-9.500 F1200.000
G1 X-548.306 Y-1.585 Z-12.000 F1200.000
G1 X-692.270 Y-1.585 Z-12.000 F1200.000
G2 X-693.855 Y0.000 Z-12.000 I0.000 J1.585 K0.000 F1200.000
G1 X-693.855 Y450.000 Z-12.000 F1200.000
G2 X-692.270 Y451.585 Z-12.000 I1.585 J-0.000 K0.000 F1200.000
G1 X-548.306 Y451.585 Z-12.000 F1200.000
G1 X-545.806 Y451.585 Z-9.500 F1200.000
G1 X-492.599 Y451.585 Z-9.500 F1200.000
G1 X-490.099 Y451.585 Z-12.000 F1200.000
G1 X-202.171 Y451.585 Z-12.000 F1200.000
G1 X-199.671 Y451.585 Z-9.500 F1200.000
G1 X-146.464 Y451.585 Z-9.500 F1200.000
G1 X-143.964 Y451.585 Z-12.000 F1200.000
G1 X0.000 Y451.585 Z-12.000 F1200.000
G2 X1.121 Y451.121 Z-12.000 I-0.000 J-1.585 K0.000 F1200.000
G1 X1.121 Y451.121 Z-14.000 F1200.000
G2 X1.585 Y450.000 Z-14.000 I-1.121 J-1.121 K0.000 F1200.000
G1 X1.585 Y0.000 Z-14.000 F1200.000
G2 X-0.000 Y-1.585 Z-14.000 I-1.585 J0.000 K0.000 F1200.000
G1 X-141.964 Y-1.585 Z-14.000 F1200.000
G1 X-146.464 Y-1.585 Z-9.500 F1200.000
G1 X-199.671 Y-1.585 Z-9.500 F1200.000
G1 X-204.171 Y-1.585 Z-14.000 F1200.000
G1 X-488.099 Y-1.585 Z-14.000 F1200.000
G1 X-492.599 Y-1.585 Z-9.500 F1200.000
G1 X-545.806 Y-1.585 Z-9.500 F1200.000
G1 X-550.306 Y-1.585 Z-14.000 F1200.000
G1 X-692.270 Y-1.585 Z-14.000 F1200.000
G2 X-693.855 Y0.000 Z-14.000 I0.000 J1.585 K0.000 F1200.000
G1 X-693.855 Y450.000 Z-14.000 F1200.000
G2 X-692.270 Y451.585 Z-14.000 I1.585 J-0.000 K0.000 F1200.000
G1 X-550.306 Y451.585 Z-14.000 F1200.000
G1 X-545.806 Y451.585 Z-9.500 F1200.000
G1 X-492.599 Y451.585 Z-9.500 F1200.000
G1 X-488.099 Y451.585 Z-14.000 F1200.000
G1 X-204.171 Y451.585 Z-14.000 F1200.000
G1 X-199.671 Y451.585 Z-9.500 F1200.000
G1 X-146.464 Y451.585 Z-9.500 F1200.000
G1 X-141.964 Y451.585 Z-14.000 F1200.000
G1 X0.000 Y451.585 Z-14.000 F1200.000
G2 X1.121 Y451.121 Z-14.000 I-0.000 J-1.585 K0.000 F1200.000
G1 X1.121 Y451.121 Z-16.000 F1200.000
G2 X1.585 Y450.000 Z-16.000 I-1.121 J-1.121 K0.000 F1200.000
G1 X1.585 Y0.000 Z-16.000 F1200.000
G2 X-0.000 Y-1.585 Z-16.000 I-1.585 J0.000 K0.000 F1200.000
G1 X-139.964 Y-1.585 Z-16.000 F1200.000
G1 X-146.464 Y-1.585 Z-9.500 F1200.000
G1 X-199.671 Y-1.585 Z-9.500 F1200.000
G1 X-206.171 Y-1.585 Z-16.000 F1200.000
G1 X-486.099 Y-1.585 Z-16.000 F1200.000
G1 X-492.599 Y-1.585 Z-9.500 F1200.000
G1 X-545.806 Y-1.585 Z-9.500 F1200.000
G1 X-552.306 Y-1.585 Z-16.000 F1200.000
G1 X-692.270 Y-1.585 Z-16.000 F1200.000
G2 X-693.855 Y0.000 Z-16.000 I0.000 J1.585 K0.000 F1200.000
G1 X-693.855 Y450.000 Z-16.000 F1200.000
G2 X-692.270 Y451.585 Z-16.000 I1.585 J-0.000 K0.000 F1200.000
G1 X-552.306 Y451.585 Z-16.000 F1200.000
G1 X-545.806 Y451.585 Z-9.500 F1200.000
G1 X-492.599 Y451.585 Z-9.500 F1200.000
G1 X-486.099 Y451.585 Z-16.000 F1200.000
G1 X-206.171 Y451.585 Z-16.000 F1200.000
G1 X-199.671 Y451.585 Z-9.500 F1200.000
G1 X-146.464 Y451.585 Z-9.500 F1200.000
G1 X-139.964 Y451.585 Z-16.000 F1200.000
G1 X0.000 Y451.585 Z-16.000 F1200.000
G2 X1.121 Y451.121 Z-16.000 I-0.000 J-1.585 K0.000 F1200.000
G1 X1.121 Y451.121 Z-18.000 F1200.000
G2 X1.585 Y450.000 Z-18.000 I-1.121 J-1.121 K0.000 F1200.000
G1 X1.585 Y0.000 Z-18.000 F1200.000
G2 X-0.000 Y-1.585 Z-18.000 I-1.585 J0.000 K0.000 F1200.000
G1 X-137.964 Y-1.585 Z-18.000 F1200.000
G1 X-146.464 Y-1.585 Z-9.500 F1200.000
G1 X-199.671 Y-1.585 Z-9.500 F1200.000
G1 X-208.171 Y-1.585 Z-18.000 F1200.000
G1 X-484.099 Y-1.585 Z-18.000 F1200.000
G1 X-492.599 Y-1.585 Z-9.500 F1200.000
G1 X-545.806 Y-1.585 Z-9.500 F1200.000
G1 X-554.306 Y-1.585 Z-18.000 F1200.000
G1 X-692.270 Y-1.585 Z-18.000 F1200.000
G2 X-693.855 Y0.000 Z-18.000 I0.000 J1.585 K0.000 F1200.000
G1 X-693.855 Y450.000 Z-18.000 F1200.000
G2 X-692.270 Y451.585 Z-18.000 I1.585 J-0.000 K0.000 F1200.000
G1 X-554.306 Y451.585 Z-18.000 F1200.000
G1 X-545.806 Y451.585 Z-9.500 F1200.000
G1 X-492.599 Y451.585 Z-9.500 F1200.000
G1 X-484.099 Y451.585 Z-18.000 F1200.000
G1 X-208.171 Y451.585 Z-18.000 F1200.000
G1 X-199.671 Y451.585 Z-9.500 F1200.000
G1 X-146.464 Y451.585 Z-9.500 F1200.000
G1 X-137.964 Y451.585 Z-18.000 F1200.000
G1 X0.000 Y451.585 Z-18.000 F1200.000
G2 X1.121 Y451.121 Z-18.000 I-0.000 J-1.585 K0.000 F1200.000
G1 X1.121 Y451.121 Z-19.000 F1200.000
G2 X1.585 Y450.000 Z-19.000 I-1.121 J-1.121 K0.000 F1200.000
G1 X1.585 Y0.000 Z-19.000 F1200.000
G2 X-0.000 Y-1.585 Z-19.000 I-1.585 J0.000 K0.000 F1200.000
G1 X-136.964 Y-1.585 Z-19.000 F1200.000
G1 X-146.464 Y-1.585 Z-9.500 F1200.000
G1 X-199.671 Y-1.585 Z-9.500 F1200.000
G1 X-209.171 Y-1.585 Z-19.000 F1200.000
G1 X-483.099 Y-1.585 Z-19.000 F1200.000
G1 X-492.599 Y-1.585 Z-9.500 F1200.000
G1 X-545.806 Y-1.585 Z-9.500 F1200.000
G1 X-555.306 Y-1.585 Z-19.000 F1200.000
G1 X-692.270 Y-1.585 Z-19.000 F1200.000
G2 X-693.855 Y0.000 Z-19.000 I0.000 J1.585 K0.000 F1200.000
G1 X-693.855 Y450.000 Z-19.000 F1200.000
G2 X-692.270 Y451.585 Z-19.000 I1.585 J-0.000 K0.000 F1200.000
G1 X-555.306 Y451.585 Z-19.000 F1200.000
G1 X-545.806 Y451.585 Z-9.500 F1200.000
G1 X-492.599 Y451.585 Z-9.500 F1200.000
G1 X-483.099 Y451.585 Z-19.000 F1200.000
G1 X-209.171 Y451.585 Z-19.000 F1200.000
G1 X-199.671 Y451.585 Z-9.500 F1200.000
G1 X-146.464 Y451.585 Z-9.500 F1200.000
G1 X-136.964 Y451.585 Z-19.000 F1200.000
G1 X0.000 Y451.585 Z-19.000 F1200.000
G2 X1.121 Y451.121 Z-19.000 I-0.000 J-1.585 K0.000 F1200.000
G0 X1.121 Y451.121 Z5.000
(Finish operation: DressupTag)
(Begin postamble)
M5
G17 G90
M2
