(Exported by FreeCAD)
(Post Processor: grbl_post)
(Output Time:2025-03-23 17:11:22.881205)
(Begin preamble)
G17 G90
G21
(Begin operation: Fixture)
(Path: Fixture)
G54
(Finish operation: Fixture)
(Begin operation: endmill_compression_3175_spe001)
(Path: endmill_compression_3175_spe001)
(endmill_compression_3175_spe001)
(Begin toolchange)
( M6 T2 )
M3 S18000
(Finish operation: endmill_compression_3175_spe001)
(Begin operation: FirstPocket)
(Path: FirstPocket)
(FirstPocket)
G0 Z21.000
G0 X6.785 Y177.441
G0 Z19.000
G1 X6.785 Y177.441 Z14.500 F800.000
G1 X6.785 Y178.115 Z14.500 F800.000
G1 X7.459 Y178.115 Z14.500 F800.000
G1 X6.785 Y177.441 Z14.500 F800.000
G1 X6.785 Y172.958 Z14.500 F800.000
G1 X11.942 Y178.115 Z14.500 F800.000
G1 X16.425 Y178.115 Z14.500 F800.000
G1 X6.785 Y168.475 Z14.500 F800.000
G1 X6.785 Y163.992 Z14.500 F800.000
G1 X20.908 Y178.115 Z14.500 F800.000
G1 X25.391 Y178.115 Z14.500 F800.000
G1 X6.785 Y159.509 Z14.500 F800.000
G1 X6.785 Y155.026 Z14.500 F800.000
G1 X29.874 Y178.115 Z14.500 F800.000
G1 X34.357 Y178.115 Z14.500 F800.000
G1 X6.785 Y150.543 Z14.500 F800.000
G1 X6.785 Y146.060 Z14.500 F800.000
G1 X38.840 Y178.115 Z14.500 F800.000
G1 X43.323 Y178.115 Z14.500 F800.000
G1 X6.785 Y141.577 Z14.500 F800.000
G1 X6.785 Y137.094 Z14.500 F800.000
G1 X47.806 Y178.115 Z14.500 F800.000
G1 X52.289 Y178.115 Z14.500 F800.000
G1 X6.785 Y132.611 Z14.500 F800.000
G1 X6.785 Y128.128 Z14.500 F800.000
G1 X56.772 Y178.115 Z14.500 F800.000
G1 X61.255 Y178.115 Z14.500 F800.000
G1 X6.785 Y123.645 Z14.500 F800.000
G1 X6.785 Y119.161 Z14.500 F800.000
G1 X65.739 Y178.115 Z14.500 F800.000
G1 X70.222 Y178.115 Z14.500 F800.000
G1 X6.785 Y114.678 Z14.500 F800.000
G1 X6.785 Y110.195 Z14.500 F800.000
G1 X74.705 Y178.115 Z14.500 F800.000
G1 X79.188 Y178.115 Z14.500 F800.000
G1 X6.785 Y105.712 Z14.500 F800.000
G1 X6.785 Y101.229 Z14.500 F800.000
G1 X83.671 Y178.115 Z14.500 F800.000
G1 X88.154 Y178.115 Z14.500 F800.000
G1 X6.785 Y96.746 Z14.500 F800.000
G1 X6.785 Y92.263 Z14.500 F800.000
G1 X92.637 Y178.115 Z14.500 F800.000
G1 X97.120 Y178.115 Z14.500 F800.000
G1 X6.785 Y87.780 Z14.500 F800.000
G1 X6.785 Y83.297 Z14.500 F800.000
G1 X101.603 Y178.115 Z14.500 F800.000
G1 X106.086 Y178.115 Z14.500 F800.000
G1 X6.785 Y78.814 Z14.500 F800.000
G1 X6.785 Y74.331 Z14.500 F800.000
G1 X108.215 Y175.761 Z14.500 F800.000
G1 X108.215 Y171.278 Z14.500 F800.000
G1 X6.785 Y69.848 Z14.500 F800.000
G1 X6.785 Y65.365 Z14.500 F800.000
G1 X108.215 Y166.795 Z14.500 F800.000
G1 X108.215 Y162.312 Z14.500 F800.000
G1 X6.785 Y60.882 Z14.500 F800.000
G1 X6.785 Y56.399 Z14.500 F800.000
G1 X108.215 Y157.829 Z14.500 F800.000
G1 X108.215 Y153.346 Z14.500 F800.000
G1 X6.785 Y51.916 Z14.500 F800.000
G1 X6.785 Y50.678 Z14.500 F800.000
G1 X8.311 Y48.959 Z14.500 F800.000
G1 X108.215 Y148.863 Z14.500 F800.000
G1 X108.215 Y144.380 Z14.500 F800.000
G1 X10.420 Y46.584 Z14.500 F800.000
G1 X12.528 Y44.209 Z14.500 F800.000
G1 X108.215 Y139.896 Z14.500 F800.000
G1 X108.215 Y135.413 Z14.500 F800.000
G1 X14.636 Y41.834 Z14.500 F800.000
G1 X16.744 Y39.460 Z14.500 F800.000
G1 X108.215 Y130.930 Z14.500 F800.000
G1 X108.215 Y126.447 Z14.500 F800.000
G1 X18.853 Y37.085 Z14.500 F800.000
G1 X20.961 Y34.710 Z14.500 F800.000
G1 X108.215 Y121.964 Z14.500 F800.000
G1 X108.215 Y117.481 Z14.500 F800.000
G1 X23.069 Y32.335 Z14.500 F800.000
G1 X25.177 Y29.961 Z14.500 F800.000
G1 X108.215 Y112.998 Z14.500 F800.000
G1 X108.215 Y108.515 Z14.500 F800.000
G1 X27.286 Y27.586 Z14.500 F800.000
G1 X29.394 Y25.211 Z14.500 F800.000
G1 X108.215 Y104.032 Z14.500 F800.000
G1 X108.215 Y99.549 Z14.500 F800.000
G1 X31.502 Y22.836 Z14.500 F800.000
G1 X33.611 Y20.461 Z14.500 F800.000
G1 X108.215 Y95.066 Z14.500 F800.000
G1 X108.215 Y90.583 Z14.500 F800.000
G1 X35.719 Y18.087 Z14.500 F800.000
G1 X37.827 Y15.712 Z14.500 F800.000
G1 X108.215 Y86.100 Z14.500 F800.000
G1 X108.215 Y81.617 Z14.500 F800.000
G1 X39.935 Y13.337 Z14.500 F800.000
G1 X42.044 Y10.962 Z14.500 F800.000
G1 X108.215 Y77.134 Z14.500 F800.000
G1 X108.215 Y72.651 Z14.500 F800.000
G1 X44.152 Y8.588 Z14.500 F800.000
G1 X45.752 Y6.785 Z14.500 F800.000
G1 X46.832 Y6.785 Z14.500 F800.000
G1 X108.215 Y68.168 Z14.500 F800.000
G1 X108.215 Y63.684 Z14.500 F800.000
G1 X51.316 Y6.785 Z14.500 F800.000
G1 X55.799 Y6.785 Z14.500 F800.000
G1 X108.215 Y59.201 Z14.500 F800.000
G1 X108.215 Y54.718 Z14.500 F800.000
G1 X60.282 Y6.785 Z14.500 F800.000
G1 X64.765 Y6.785 Z14.500 F800.000
G1 X104.713 Y46.733 Z14.500 F800.000
G1 X69.248 Y6.785 Z14.500 F800.000
G1 X69.248 Y6.785 Z13.000 F800.000
G1 X104.713 Y46.733 Z13.000 F800.000
G1 X64.765 Y6.785 Z13.000 F800.000
G1 X60.282 Y6.785 Z13.000 F800.000
G1 X108.215 Y54.718 Z13.000 F800.000
G1 X108.215 Y59.201 Z13.000 F800.000
G1 X55.799 Y6.785 Z13.000 F800.000
G1 X51.316 Y6.785 Z13.000 F800.000
G1 X108.215 Y63.684 Z13.000 F800.000
G1 X108.215 Y68.168 Z13.000 F800.000
G1 X46.832 Y6.785 Z13.000 F800.000
G1 X45.752 Y6.785 Z13.000 F800.000
G1 X44.152 Y8.588 Z13.000 F800.000
G1 X108.215 Y72.651 Z13.000 F800.000
G1 X108.215 Y77.134 Z13.000 F800.000
G1 X42.044 Y10.962 Z13.000 F800.000
G1 X39.935 Y13.337 Z13.000 F800.000
G1 X108.215 Y81.617 Z13.000 F800.000
G1 X108.215 Y86.100 Z13.000 F800.000
G1 X37.827 Y15.712 Z13.000 F800.000
G1 X35.719 Y18.087 Z13.000 F800.000
G1 X108.215 Y90.583 Z13.000 F800.000
G1 X108.215 Y95.066 Z13.000 F800.000
G1 X33.611 Y20.461 Z13.000 F800.000
G1 X31.502 Y22.836 Z13.000 F800.000
G1 X108.215 Y99.549 Z13.000 F800.000
G1 X108.215 Y104.032 Z13.000 F800.000
G1 X29.394 Y25.211 Z13.000 F800.000
G1 X27.286 Y27.586 Z13.000 F800.000
G1 X108.215 Y108.515 Z13.000 F800.000
G1 X108.215 Y112.998 Z13.000 F800.000
G1 X25.177 Y29.961 Z13.000 F800.000
G1 X23.069 Y32.335 Z13.000 F800.000
G1 X108.215 Y117.481 Z13.000 F800.000
G1 X108.215 Y121.964 Z13.000 F800.000
G1 X20.961 Y34.710 Z13.000 F800.000
G1 X18.853 Y37.085 Z13.000 F800.000
G1 X108.215 Y126.447 Z13.000 F800.000
G1 X108.215 Y130.930 Z13.000 F800.000
G1 X16.744 Y39.460 Z13.000 F800.000
G1 X14.636 Y41.834 Z13.000 F800.000
G1 X108.215 Y135.413 Z13.000 F800.000
G1 X108.215 Y139.896 Z13.000 F800.000
G1 X12.528 Y44.209 Z13.000 F800.000
G1 X10.420 Y46.584 Z13.000 F800.000
G1 X108.215 Y144.380 Z13.000 F800.000
G1 X108.215 Y148.863 Z13.000 F800.000
G1 X8.311 Y48.959 Z13.000 F800.000
G1 X6.785 Y50.678 Z13.000 F800.000
G1 X6.785 Y51.916 Z13.000 F800.000
G1 X108.215 Y153.346 Z13.000 F800.000
G1 X108.215 Y157.829 Z13.000 F800.000
G1 X6.785 Y56.399 Z13.000 F800.000
G1 X6.785 Y60.882 Z13.000 F800.000
G1 X108.215 Y162.312 Z13.000 F800.000
G1 X108.215 Y166.795 Z13.000 F800.000
G1 X6.785 Y65.365 Z13.000 F800.000
G1 X6.785 Y69.848 Z13.000 F800.000
G1 X108.215 Y171.278 Z13.000 F800.000
G1 X108.215 Y175.761 Z13.000 F800.000
G1 X6.785 Y74.331 Z13.000 F800.000
G1 X6.785 Y78.814 Z13.000 F800.000
G1 X106.086 Y178.115 Z13.000 F800.000
G1 X101.603 Y178.115 Z13.000 F800.000
G1 X6.785 Y83.297 Z13.000 F800.000
G1 X6.785 Y87.780 Z13.000 F800.000
G1 X97.120 Y178.115 Z13.000 F800.000
G1 X92.637 Y178.115 Z13.000 F800.000
G1 X6.785 Y92.263 Z13.000 F800.000
G1 X6.785 Y96.746 Z13.000 F800.000
G1 X88.154 Y178.115 Z13.000 F800.000
G1 X83.671 Y178.115 Z13.000 F800.000
G1 X6.785 Y101.229 Z13.000 F800.000
G1 X6.785 Y105.712 Z13.000 F800.000
G1 X79.188 Y178.115 Z13.000 F800.000
G1 X74.705 Y178.115 Z13.000 F800.000
G1 X6.785 Y110.195 Z13.000 F800.000
G1 X6.785 Y114.678 Z13.000 F800.000
G1 X70.222 Y178.115 Z13.000 F800.000
G1 X65.739 Y178.115 Z13.000 F800.000
G1 X6.785 Y119.161 Z13.000 F800.000
G1 X6.785 Y123.645 Z13.000 F800.000
G1 X61.255 Y178.115 Z13.000 F800.000
G1 X56.772 Y178.115 Z13.000 F800.000
G1 X6.785 Y128.128 Z13.000 F800.000
G1 X6.785 Y132.611 Z13.000 F800.000
G1 X52.289 Y178.115 Z13.000 F800.000
G1 X47.806 Y178.115 Z13.000 F800.000
G1 X6.785 Y137.094 Z13.000 F800.000
G1 X6.785 Y141.577 Z13.000 F800.000
G1 X43.323 Y178.115 Z13.000 F800.000
G1 X38.840 Y178.115 Z13.000 F800.000
G1 X6.785 Y146.060 Z13.000 F800.000
G1 X6.785 Y150.543 Z13.000 F800.000
G1 X34.357 Y178.115 Z13.000 F800.000
G1 X29.874 Y178.115 Z13.000 F800.000
G1 X6.785 Y155.026 Z13.000 F800.000
G1 X6.785 Y159.509 Z13.000 F800.000
G1 X25.391 Y178.115 Z13.000 F800.000
G1 X20.908 Y178.115 Z13.000 F800.000
G1 X6.785 Y163.992 Z13.000 F800.000
G1 X6.785 Y168.475 Z13.000 F800.000
G1 X16.425 Y178.115 Z13.000 F800.000
G1 X11.942 Y178.115 Z13.000 F800.000
G1 X6.785 Y172.958 Z13.000 F800.000
G1 X6.785 Y177.441 Z13.000 F800.000
G1 X7.459 Y178.115 Z13.000 F800.000
G1 X6.785 Y178.115 Z13.000 F800.000
G1 X6.785 Y177.441 Z13.000 F800.000
G1 X6.785 Y177.441 Z11.500 F800.000
G1 X6.785 Y178.115 Z11.500 F800.000
G1 X7.459 Y178.115 Z11.500 F800.000
G1 X6.785 Y177.441 Z11.500 F800.000
G1 X6.785 Y172.958 Z11.500 F800.000
G1 X11.942 Y178.115 Z11.500 F800.000
G1 X16.425 Y178.115 Z11.500 F800.000
G1 X6.785 Y168.475 Z11.500 F800.000
G1 X6.785 Y163.992 Z11.500 F800.000
G1 X20.908 Y178.115 Z11.500 F800.000
G1 X25.391 Y178.115 Z11.500 F800.000
G1 X6.785 Y159.509 Z11.500 F800.000
G1 X6.785 Y155.026 Z11.500 F800.000
G1 X29.874 Y178.115 Z11.500 F800.000
G1 X34.357 Y178.115 Z11.500 F800.000
G1 X6.785 Y150.543 Z11.500 F800.000
G1 X6.785 Y146.060 Z11.500 F800.000
G1 X38.840 Y178.115 Z11.500 F800.000
G1 X43.323 Y178.115 Z11.500 F800.000
G1 X6.785 Y141.577 Z11.500 F800.000
G1 X6.785 Y137.094 Z11.500 F800.000
G1 X47.806 Y178.115 Z11.500 F800.000
G1 X52.289 Y178.115 Z11.500 F800.000
G1 X6.785 Y132.611 Z11.500 F800.000
G1 X6.785 Y128.128 Z11.500 F800.000
G1 X56.772 Y178.115 Z11.500 F800.000
G1 X61.255 Y178.115 Z11.500 F800.000
G1 X6.785 Y123.645 Z11.500 F800.000
G1 X6.785 Y119.161 Z11.500 F800.000
G1 X65.739 Y178.115 Z11.500 F800.000
G1 X70.222 Y178.115 Z11.500 F800.000
G1 X6.785 Y114.678 Z11.500 F800.000
G1 X6.785 Y110.195 Z11.500 F800.000
G1 X74.705 Y178.115 Z11.500 F800.000
G1 X79.188 Y178.115 Z11.500 F800.000
G1 X6.785 Y105.712 Z11.500 F800.000
G1 X6.785 Y101.229 Z11.500 F800.000
G1 X83.671 Y178.115 Z11.500 F800.000
G1 X88.154 Y178.115 Z11.500 F800.000
G1 X6.785 Y96.746 Z11.500 F800.000
G1 X6.785 Y92.263 Z11.500 F800.000
G1 X92.637 Y178.115 Z11.500 F800.000
G1 X97.120 Y178.115 Z11.500 F800.000
G1 X6.785 Y87.780 Z11.500 F800.000
G1 X6.785 Y83.297 Z11.500 F800.000
G1 X101.603 Y178.115 Z11.500 F800.000
G1 X106.086 Y178.115 Z11.500 F800.000
G1 X6.785 Y78.814 Z11.500 F800.000
G1 X6.785 Y74.331 Z11.500 F800.000
G1 X108.215 Y175.761 Z11.500 F800.000
G1 X108.215 Y171.278 Z11.500 F800.000
G1 X6.785 Y69.848 Z11.500 F800.000
G1 X6.785 Y65.365 Z11.500 F800.000
G1 X108.215 Y166.795 Z11.500 F800.000
G1 X108.215 Y162.312 Z11.500 F800.000
G1 X6.785 Y60.882 Z11.500 F800.000
G1 X6.785 Y56.399 Z11.500 F800.000
G1 X108.215 Y157.829 Z11.500 F800.000
G1 X108.215 Y153.346 Z11.500 F800.000
G1 X6.785 Y51.916 Z11.500 F800.000
G1 X6.785 Y50.678 Z11.500 F800.000
G1 X8.311 Y48.959 Z11.500 F800.000
G1 X108.215 Y148.863 Z11.500 F800.000
G1 X108.215 Y144.380 Z11.500 F800.000
G1 X10.420 Y46.584 Z11.500 F800.000
G1 X12.528 Y44.209 Z11.500 F800.000
G1 X108.215 Y139.896 Z11.500 F800.000
G1 X108.215 Y135.413 Z11.500 F800.000
G1 X14.636 Y41.834 Z11.500 F800.000
G1 X16.744 Y39.460 Z11.500 F800.000
G1 X108.215 Y130.930 Z11.500 F800.000
G1 X108.215 Y126.447 Z11.500 F800.000
G1 X18.853 Y37.085 Z11.500 F800.000
G1 X20.961 Y34.710 Z11.500 F800.000
G1 X108.215 Y121.964 Z11.500 F800.000
G1 X108.215 Y117.481 Z11.500 F800.000
G1 X23.069 Y32.335 Z11.500 F800.000
G1 X25.177 Y29.961 Z11.500 F800.000
G1 X108.215 Y112.998 Z11.500 F800.000
G1 X108.215 Y108.515 Z11.500 F800.000
G1 X27.286 Y27.586 Z11.500 F800.000
G1 X29.394 Y25.211 Z11.500 F800.000
G1 X108.215 Y104.032 Z11.500 F800.000
G1 X108.215 Y99.549 Z11.500 F800.000
G1 X31.502 Y22.836 Z11.500 F800.000
G1 X33.611 Y20.461 Z11.500 F800.000
G1 X108.215 Y95.066 Z11.500 F800.000
G1 X108.215 Y90.583 Z11.500 F800.000
G1 X35.719 Y18.087 Z11.500 F800.000
G1 X37.827 Y15.712 Z11.500 F800.000
G1 X108.215 Y86.100 Z11.500 F800.000
G1 X108.215 Y81.617 Z11.500 F800.000
G1 X39.935 Y13.337 Z11.500 F800.000
G1 X42.044 Y10.962 Z11.500 F800.000
G1 X108.215 Y77.134 Z11.500 F800.000
G1 X108.215 Y72.651 Z11.500 F800.000
G1 X44.152 Y8.588 Z11.500 F800.000
G1 X45.752 Y6.785 Z11.500 F800.000
G1 X46.832 Y6.785 Z11.500 F800.000
G1 X108.215 Y68.168 Z11.500 F800.000
G1 X108.215 Y63.684 Z11.500 F800.000
G1 X51.316 Y6.785 Z11.500 F800.000
G1 X55.799 Y6.785 Z11.500 F800.000
G1 X108.215 Y59.201 Z11.500 F800.000
G1 X108.215 Y54.718 Z11.500 F800.000
G1 X60.282 Y6.785 Z11.500 F800.000
G1 X64.765 Y6.785 Z11.500 F800.000
G1 X104.713 Y46.733 Z11.500 F800.000
G1 X69.248 Y6.785 Z11.500 F800.000
G1 X69.248 Y6.785 Z11.000 F800.000
G1 X104.713 Y46.733 Z11.000 F800.000
G1 X64.765 Y6.785 Z11.000 F800.000
G1 X60.282 Y6.785 Z11.000 F800.000
G1 X108.215 Y54.718 Z11.000 F800.000
G1 X108.215 Y59.201 Z11.000 F800.000
G1 X55.799 Y6.785 Z11.000 F800.000
G1 X51.316 Y6.785 Z11.000 F800.000
G1 X108.215 Y63.684 Z11.000 F800.000
G1 X108.215 Y68.168 Z11.000 F800.000
G1 X46.832 Y6.785 Z11.000 F800.000
G1 X45.752 Y6.785 Z11.000 F800.000
G1 X44.152 Y8.588 Z11.000 F800.000
G1 X108.215 Y72.651 Z11.000 F800.000
G1 X108.215 Y77.134 Z11.000 F800.000
G1 X42.044 Y10.962 Z11.000 F800.000
G1 X39.935 Y13.337 Z11.000 F800.000
G1 X108.215 Y81.617 Z11.000 F800.000
G1 X108.215 Y86.100 Z11.000 F800.000
G1 X37.827 Y15.712 Z11.000 F800.000
G1 X35.719 Y18.087 Z11.000 F800.000
G1 X108.215 Y90.583 Z11.000 F800.000
G1 X108.215 Y95.066 Z11.000 F800.000
G1 X33.611 Y20.461 Z11.000 F800.000
G1 X31.502 Y22.836 Z11.000 F800.000
G1 X108.215 Y99.549 Z11.000 F800.000
G1 X108.215 Y104.032 Z11.000 F800.000
G1 X29.394 Y25.211 Z11.000 F800.000
G1 X27.286 Y27.586 Z11.000 F800.000
G1 X108.215 Y108.515 Z11.000 F800.000
G1 X108.215 Y112.998 Z11.000 F800.000
G1 X25.177 Y29.961 Z11.000 F800.000
G1 X23.069 Y32.335 Z11.000 F800.000
G1 X108.215 Y117.481 Z11.000 F800.000
G1 X108.215 Y121.964 Z11.000 F800.000
G1 X20.961 Y34.710 Z11.000 F800.000
G1 X18.853 Y37.085 Z11.000 F800.000
G1 X108.215 Y126.447 Z11.000 F800.000
G1 X108.215 Y130.930 Z11.000 F800.000
G1 X16.744 Y39.460 Z11.000 F800.000
G1 X14.636 Y41.834 Z11.000 F800.000
G1 X108.215 Y135.413 Z11.000 F800.000
G1 X108.215 Y139.896 Z11.000 F800.000
G1 X12.528 Y44.209 Z11.000 F800.000
G1 X10.420 Y46.584 Z11.000 F800.000
G1 X108.215 Y144.380 Z11.000 F800.000
G1 X108.215 Y148.863 Z11.000 F800.000
G1 X8.311 Y48.959 Z11.000 F800.000
G1 X6.785 Y50.678 Z11.000 F800.000
G1 X6.785 Y51.916 Z11.000 F800.000
G1 X108.215 Y153.346 Z11.000 F800.000
G1 X108.215 Y157.829 Z11.000 F800.000
G1 X6.785 Y56.399 Z11.000 F800.000
G1 X6.785 Y60.882 Z11.000 F800.000
G1 X108.215 Y162.312 Z11.000 F800.000
G1 X108.215 Y166.795 Z11.000 F800.000
G1 X6.785 Y65.365 Z11.000 F800.000
G1 X6.785 Y69.848 Z11.000 F800.000
G1 X108.215 Y171.278 Z11.000 F800.000
G1 X108.215 Y175.761 Z11.000 F800.000
G1 X6.785 Y74.331 Z11.000 F800.000
G1 X6.785 Y78.814 Z11.000 F800.000
G1 X106.086 Y178.115 Z11.000 F800.000
G1 X101.603 Y178.115 Z11.000 F800.000
G1 X6.785 Y83.297 Z11.000 F800.000
G1 X6.785 Y87.780 Z11.000 F800.000
G1 X97.120 Y178.115 Z11.000 F800.000
G1 X92.637 Y178.115 Z11.000 F800.000
G1 X6.785 Y92.263 Z11.000 F800.000
G1 X6.785 Y96.746 Z11.000 F800.000
G1 X88.154 Y178.115 Z11.000 F800.000
G1 X83.671 Y178.115 Z11.000 F800.000
G1 X6.785 Y101.229 Z11.000 F800.000
G1 X6.785 Y105.712 Z11.000 F800.000
G1 X79.188 Y178.115 Z11.000 F800.000
G1 X74.705 Y178.115 Z11.000 F800.000
G1 X6.785 Y110.195 Z11.000 F800.000
G1 X6.785 Y114.678 Z11.000 F800.000
G1 X70.222 Y178.115 Z11.000 F800.000
G1 X65.739 Y178.115 Z11.000 F800.000
G1 X6.785 Y119.161 Z11.000 F800.000
G1 X6.785 Y123.645 Z11.000 F800.000
G1 X61.255 Y178.115 Z11.000 F800.000
G1 X56.772 Y178.115 Z11.000 F800.000
G1 X6.785 Y128.128 Z11.000 F800.000
G1 X6.785 Y132.611 Z11.000 F800.000
G1 X52.289 Y178.115 Z11.000 F800.000
G1 X47.806 Y178.115 Z11.000 F800.000
G1 X6.785 Y137.094 Z11.000 F800.000
G1 X6.785 Y141.577 Z11.000 F800.000
G1 X43.323 Y178.115 Z11.000 F800.000
G1 X38.840 Y178.115 Z11.000 F800.000
G1 X6.785 Y146.060 Z11.000 F800.000
G1 X6.785 Y150.543 Z11.000 F800.000
G1 X34.357 Y178.115 Z11.000 F800.000
G1 X29.874 Y178.115 Z11.000 F800.000
G1 X6.785 Y155.026 Z11.000 F800.000
G1 X6.785 Y159.509 Z11.000 F800.000
G1 X25.391 Y178.115 Z11.000 F800.000
G1 X20.908 Y178.115 Z11.000 F800.000
G1 X6.785 Y163.992 Z11.000 F800.000
G1 X6.785 Y168.475 Z11.000 F800.000
G1 X16.425 Y178.115 Z11.000 F800.000
G1 X11.942 Y178.115 Z11.000 F800.000
G1 X6.785 Y172.958 Z11.000 F800.000
G1 X6.785 Y177.441 Z11.000 F800.000
G1 X7.459 Y178.115 Z11.000 F800.000
G1 X6.785 Y178.115 Z11.000 F800.000
G1 X6.785 Y177.441 Z11.000 F800.000
G0 Z21.000
G0 Z21.000
(Finish operation: FirstPocket)
(Begin operation: PocketTray)
(Path: PocketTray)
(PocketTray)
G0 Z21.000
G0 X108.215 Y99.985
G0 Z19.000
G1 X108.215 Y99.985 Z9.500 F800.000
G1 X108.215 Y104.468 Z9.500 F800.000
G1 X103.732 Y99.985 Z9.500 F800.000
G1 X99.249 Y99.985 Z9.500 F800.000
G1 X108.215 Y108.951 Z9.500 F800.000
G1 X108.215 Y113.434 Z9.500 F800.000
G1 X94.766 Y99.985 Z9.500 F800.000
G1 X90.283 Y99.985 Z9.500 F800.000
G1 X108.215 Y117.917 Z9.500 F800.000
G1 X108.215 Y122.400 Z9.500 F800.000
G1 X85.800 Y99.985 Z9.500 F800.000
G1 X81.317 Y99.985 Z9.500 F800.000
G1 X108.215 Y126.883 Z9.500 F800.000
G1 X108.215 Y131.366 Z9.500 F800.000
G1 X76.834 Y99.985 Z9.500 F800.000
G1 X72.351 Y99.985 Z9.500 F800.000
G1 X108.215 Y135.849 Z9.500 F800.000
G1 X108.215 Y140.333 Z9.500 F800.000
G1 X67.867 Y99.985 Z9.500 F800.000
G1 X63.384 Y99.985 Z9.500 F800.000
G1 X108.215 Y144.816 Z9.500 F800.000
G1 X108.215 Y149.299 Z9.500 F800.000
G1 X58.901 Y99.985 Z9.500 F800.000
G1 X54.418 Y99.985 Z9.500 F800.000
G1 X108.215 Y153.782 Z9.500 F800.000
G1 X108.215 Y158.265 Z9.500 F800.000
G1 X49.935 Y99.985 Z9.500 F800.000
G1 X45.452 Y99.985 Z9.500 F800.000
G1 X108.215 Y162.748 Z9.500 F800.000
G1 X108.215 Y167.231 Z9.500 F800.000
G1 X40.969 Y99.985 Z9.500 F800.000
G1 X36.486 Y99.985 Z9.500 F800.000
G1 X108.215 Y171.714 Z9.500 F800.000
G1 X108.215 Y176.197 Z9.500 F800.000
G1 X32.003 Y99.985 Z9.500 F800.000
G1 X27.520 Y99.985 Z9.500 F800.000
G1 X105.650 Y178.115 Z9.500 F800.000
G1 X101.167 Y178.115 Z9.500 F800.000
G1 X23.037 Y99.985 Z9.500 F800.000
G1 X18.554 Y99.985 Z9.500 F800.000
G1 X96.684 Y178.115 Z9.500 F800.000
G1 X92.201 Y178.115 Z9.500 F800.000
G1 X14.071 Y99.985 Z9.500 F800.000
G1 X9.588 Y99.985 Z9.500 F800.000
G1 X87.718 Y178.115 Z9.500 F800.000
G1 X83.235 Y178.115 Z9.500 F800.000
G1 X6.785 Y101.665 Z9.500 F800.000
G1 X6.785 Y106.148 Z9.500 F800.000
G1 X78.752 Y178.115 Z9.500 F800.000
G1 X74.269 Y178.115 Z9.500 F800.000
G1 X6.785 Y110.631 Z9.500 F800.000
G1 X6.785 Y115.114 Z9.500 F800.000
G1 X69.786 Y178.115 Z9.500 F800.000
G1 X65.302 Y178.115 Z9.500 F800.000
G1 X6.785 Y119.598 Z9.500 F800.000
G1 X6.785 Y124.081 Z9.500 F800.000
G1 X60.819 Y178.115 Z9.500 F800.000
G1 X56.336 Y178.115 Z9.500 F800.000
G1 X6.785 Y128.564 Z9.500 F800.000
G1 X6.785 Y133.047 Z9.500 F800.000
G1 X51.853 Y178.115 Z9.500 F800.000
G1 X47.370 Y178.115 Z9.500 F800.000
G1 X6.785 Y137.530 Z9.500 F800.000
G1 X6.785 Y142.013 Z9.500 F800.000
G1 X42.887 Y178.115 Z9.500 F800.000
G1 X38.404 Y178.115 Z9.500 F800.000
G1 X6.785 Y146.496 Z9.500 F800.000
G1 X6.785 Y150.979 Z9.500 F800.000
G1 X33.921 Y178.115 Z9.500 F800.000
G1 X29.438 Y178.115 Z9.500 F800.000
G1 X6.785 Y155.462 Z9.500 F800.000
G1 X6.785 Y159.945 Z9.500 F800.000
G1 X24.955 Y178.115 Z9.500 F800.000
G1 X20.472 Y178.115 Z9.500 F800.000
G1 X6.785 Y164.428 Z9.500 F800.000
G1 X6.785 Y168.911 Z9.500 F800.000
G1 X15.989 Y178.115 Z9.500 F800.000
G1 X11.506 Y178.115 Z9.500 F800.000
G1 X6.785 Y173.394 Z9.500 F800.000
G1 X6.785 Y177.877 Z9.500 F800.000
G1 X6.785 Y178.115 Z9.500 F800.000
G1 X7.023 Y178.115 Z9.500 F800.000
G1 X6.785 Y177.877 Z9.500 F800.000
G1 X6.785 Y177.877 Z8.000 F800.000
G1 X7.023 Y178.115 Z8.000 F800.000
G1 X6.785 Y178.115 Z8.000 F800.000
G1 X6.785 Y177.877 Z8.000 F800.000
G1 X6.785 Y173.394 Z8.000 F800.000
G1 X11.506 Y178.115 Z8.000 F800.000
G1 X15.989 Y178.115 Z8.000 F800.000
G1 X6.785 Y168.911 Z8.000 F800.000
G1 X6.785 Y164.428 Z8.000 F800.000
G1 X20.472 Y178.115 Z8.000 F800.000
G1 X24.955 Y178.115 Z8.000 F800.000
G1 X6.785 Y159.945 Z8.000 F800.000
G1 X6.785 Y155.462 Z8.000 F800.000
G1 X29.438 Y178.115 Z8.000 F800.000
G1 X33.921 Y178.115 Z8.000 F800.000
G1 X6.785 Y150.979 Z8.000 F800.000
G1 X6.785 Y146.496 Z8.000 F800.000
G1 X38.404 Y178.115 Z8.000 F800.000
G1 X42.887 Y178.115 Z8.000 F800.000
G1 X6.785 Y142.013 Z8.000 F800.000
G1 X6.785 Y137.530 Z8.000 F800.000
G1 X47.370 Y178.115 Z8.000 F800.000
G1 X51.853 Y178.115 Z8.000 F800.000
G1 X6.785 Y133.047 Z8.000 F800.000
G1 X6.785 Y128.564 Z8.000 F800.000
G1 X56.336 Y178.115 Z8.000 F800.000
G1 X60.819 Y178.115 Z8.000 F800.000
G1 X6.785 Y124.081 Z8.000 F800.000
G1 X6.785 Y119.598 Z8.000 F800.000
G1 X65.302 Y178.115 Z8.000 F800.000
G1 X69.786 Y178.115 Z8.000 F800.000
G1 X6.785 Y115.114 Z8.000 F800.000
G1 X6.785 Y110.631 Z8.000 F800.000
G1 X74.269 Y178.115 Z8.000 F800.000
G1 X78.752 Y178.115 Z8.000 F800.000
G1 X6.785 Y106.148 Z8.000 F800.000
G1 X6.785 Y101.665 Z8.000 F800.000
G1 X83.235 Y178.115 Z8.000 F800.000
G1 X87.718 Y178.115 Z8.000 F800.000
G1 X9.588 Y99.985 Z8.000 F800.000
G1 X14.071 Y99.985 Z8.000 F800.000
G1 X92.201 Y178.115 Z8.000 F800.000
G1 X96.684 Y178.115 Z8.000 F800.000
G1 X18.554 Y99.985 Z8.000 F800.000
G1 X23.037 Y99.985 Z8.000 F800.000
G1 X101.167 Y178.115 Z8.000 F800.000
G1 X105.650 Y178.115 Z8.000 F800.000
G1 X27.520 Y99.985 Z8.000 F800.000
G1 X32.003 Y99.985 Z8.000 F800.000
G1 X108.215 Y176.197 Z8.000 F800.000
G1 X108.215 Y171.714 Z8.000 F800.000
G1 X36.486 Y99.985 Z8.000 F800.000
G1 X40.969 Y99.985 Z8.000 F800.000
G1 X108.215 Y167.231 Z8.000 F800.000
G1 X108.215 Y162.748 Z8.000 F800.000
G1 X45.452 Y99.985 Z8.000 F800.000
G1 X49.935 Y99.985 Z8.000 F800.000
G1 X108.215 Y158.265 Z8.000 F800.000
G1 X108.215 Y153.782 Z8.000 F800.000
G1 X54.418 Y99.985 Z8.000 F800.000
G1 X58.901 Y99.985 Z8.000 F800.000
G1 X108.215 Y149.299 Z8.000 F800.000
G1 X108.215 Y144.816 Z8.000 F800.000
G1 X63.384 Y99.985 Z8.000 F800.000
G1 X67.867 Y99.985 Z8.000 F800.000
G1 X108.215 Y140.333 Z8.000 F800.000
G1 X108.215 Y135.849 Z8.000 F800.000
G1 X72.351 Y99.985 Z8.000 F800.000
G1 X76.834 Y99.985 Z8.000 F800.000
G1 X108.215 Y131.366 Z8.000 F800.000
G1 X108.215 Y126.883 Z8.000 F800.000
G1 X81.317 Y99.985 Z8.000 F800.000
G1 X85.800 Y99.985 Z8.000 F800.000
G1 X108.215 Y122.400 Z8.000 F800.000
G1 X108.215 Y117.917 Z8.000 F800.000
G1 X90.283 Y99.985 Z8.000 F800.000
G1 X94.766 Y99.985 Z8.000 F800.000
G1 X108.215 Y113.434 Z8.000 F800.000
G1 X108.215 Y108.951 Z8.000 F800.000
G1 X99.249 Y99.985 Z8.000 F800.000
G1 X103.732 Y99.985 Z8.000 F800.000
G1 X108.215 Y104.468 Z8.000 F800.000
G1 X108.215 Y99.985 Z8.000 F800.000
G1 X108.215 Y99.985 Z6.500 F800.000
G1 X108.215 Y104.468 Z6.500 F800.000
G1 X103.732 Y99.985 Z6.500 F800.000
G1 X99.249 Y99.985 Z6.500 F800.000
G1 X108.215 Y108.951 Z6.500 F800.000
G1 X108.215 Y113.434 Z6.500 F800.000
G1 X94.766 Y99.985 Z6.500 F800.000
G1 X90.283 Y99.985 Z6.500 F800.000
G1 X108.215 Y117.917 Z6.500 F800.000
G1 X108.215 Y122.400 Z6.500 F800.000
G1 X85.800 Y99.985 Z6.500 F800.000
G1 X81.317 Y99.985 Z6.500 F800.000
G1 X108.215 Y126.883 Z6.500 F800.000
G1 X108.215 Y131.366 Z6.500 F800.000
G1 X76.834 Y99.985 Z6.500 F800.000
G1 X72.351 Y99.985 Z6.500 F800.000
G1 X108.215 Y135.849 Z6.500 F800.000
G1 X108.215 Y140.333 Z6.500 F800.000
G1 X67.867 Y99.985 Z6.500 F800.000
G1 X63.384 Y99.985 Z6.500 F800.000
G1 X108.215 Y144.816 Z6.500 F800.000
G1 X108.215 Y149.299 Z6.500 F800.000
G1 X58.901 Y99.985 Z6.500 F800.000
G1 X54.418 Y99.985 Z6.500 F800.000
G1 X108.215 Y153.782 Z6.500 F800.000
G1 X108.215 Y158.265 Z6.500 F800.000
G1 X49.935 Y99.985 Z6.500 F800.000
G1 X45.452 Y99.985 Z6.500 F800.000
G1 X108.215 Y162.748 Z6.500 F800.000
G1 X108.215 Y167.231 Z6.500 F800.000
G1 X40.969 Y99.985 Z6.500 F800.000
G1 X36.486 Y99.985 Z6.500 F800.000
G1 X108.215 Y171.714 Z6.500 F800.000
G1 X108.215 Y176.197 Z6.500 F800.000
G1 X32.003 Y99.985 Z6.500 F800.000
G1 X27.520 Y99.985 Z6.500 F800.000
G1 X105.650 Y178.115 Z6.500 F800.000
G1 X101.167 Y178.115 Z6.500 F800.000
G1 X23.037 Y99.985 Z6.500 F800.000
G1 X18.554 Y99.985 Z6.500 F800.000
G1 X96.684 Y178.115 Z6.500 F800.000
G1 X92.201 Y178.115 Z6.500 F800.000
G1 X14.071 Y99.985 Z6.500 F800.000
G1 X9.588 Y99.985 Z6.500 F800.000
G1 X87.718 Y178.115 Z6.500 F800.000
G1 X83.235 Y178.115 Z6.500 F800.000
G1 X6.785 Y101.665 Z6.500 F800.000
G1 X6.785 Y106.148 Z6.500 F800.000
G1 X78.752 Y178.115 Z6.500 F800.000
G1 X74.269 Y178.115 Z6.500 F800.000
G1 X6.785 Y110.631 Z6.500 F800.000
G1 X6.785 Y115.114 Z6.500 F800.000
G1 X69.786 Y178.115 Z6.500 F800.000
G1 X65.302 Y178.115 Z6.500 F800.000
G1 X6.785 Y119.598 Z6.500 F800.000
G1 X6.785 Y124.081 Z6.500 F800.000
G1 X60.819 Y178.115 Z6.500 F800.000
G1 X56.336 Y178.115 Z6.500 F800.000
G1 X6.785 Y128.564 Z6.500 F800.000
G1 X6.785 Y133.047 Z6.500 F800.000
G1 X51.853 Y178.115 Z6.500 F800.000
G1 X47.370 Y178.115 Z6.500 F800.000
G1 X6.785 Y137.530 Z6.500 F800.000
G1 X6.785 Y142.013 Z6.500 F800.000
G1 X42.887 Y178.115 Z6.500 F800.000
G1 X38.404 Y178.115 Z6.500 F800.000
G1 X6.785 Y146.496 Z6.500 F800.000
G1 X6.785 Y150.979 Z6.500 F800.000
G1 X33.921 Y178.115 Z6.500 F800.000
G1 X29.438 Y178.115 Z6.500 F800.000
G1 X6.785 Y155.462 Z6.500 F800.000
G1 X6.785 Y159.945 Z6.500 F800.000
G1 X24.955 Y178.115 Z6.500 F800.000
G1 X20.472 Y178.115 Z6.500 F800.000
G1 X6.785 Y164.428 Z6.500 F800.000
G1 X6.785 Y168.911 Z6.500 F800.000
G1 X15.989 Y178.115 Z6.500 F800.000
G1 X11.506 Y178.115 Z6.500 F800.000
G1 X6.785 Y173.394 Z6.500 F800.000
G1 X6.785 Y177.877 Z6.500 F800.000
G1 X6.785 Y178.115 Z6.500 F800.000
G1 X7.023 Y178.115 Z6.500 F800.000
G1 X6.785 Y177.877 Z6.500 F800.000
G1 X6.785 Y177.877 Z6.000 F800.000
G1 X7.023 Y178.115 Z6.000 F800.000
G1 X6.785 Y178.115 Z6.000 F800.000
G1 X6.785 Y177.877 Z6.000 F800.000
G1 X6.785 Y173.394 Z6.000 F800.000
G1 X11.506 Y178.115 Z6.000 F800.000
G1 X15.989 Y178.115 Z6.000 F800.000
G1 X6.785 Y168.911 Z6.000 F800.000
G1 X6.785 Y164.428 Z6.000 F800.000
G1 X20.472 Y178.115 Z6.000 F800.000
G1 X24.955 Y178.115 Z6.000 F800.000
G1 X6.785 Y159.945 Z6.000 F800.000
G1 X6.785 Y155.462 Z6.000 F800.000
G1 X29.438 Y178.115 Z6.000 F800.000
G1 X33.921 Y178.115 Z6.000 F800.000
G1 X6.785 Y150.979 Z6.000 F800.000
G1 X6.785 Y146.496 Z6.000 F800.000
G1 X38.404 Y178.115 Z6.000 F800.000
G1 X42.887 Y178.115 Z6.000 F800.000
G1 X6.785 Y142.013 Z6.000 F800.000
G1 X6.785 Y137.530 Z6.000 F800.000
G1 X47.370 Y178.115 Z6.000 F800.000
G1 X51.853 Y178.115 Z6.000 F800.000
G1 X6.785 Y133.047 Z6.000 F800.000
G1 X6.785 Y128.564 Z6.000 F800.000
G1 X56.336 Y178.115 Z6.000 F800.000
G1 X60.819 Y178.115 Z6.000 F800.000
G1 X6.785 Y124.081 Z6.000 F800.000
G1 X6.785 Y119.598 Z6.000 F800.000
G1 X65.302 Y178.115 Z6.000 F800.000
G1 X69.786 Y178.115 Z6.000 F800.000
G1 X6.785 Y115.114 Z6.000 F800.000
G1 X6.785 Y110.631 Z6.000 F800.000
G1 X74.269 Y178.115 Z6.000 F800.000
G1 X78.752 Y178.115 Z6.000 F800.000
G1 X6.785 Y106.148 Z6.000 F800.000
G1 X6.785 Y101.665 Z6.000 F800.000
G1 X83.235 Y178.115 Z6.000 F800.000
G1 X87.718 Y178.115 Z6.000 F800.000
G1 X9.588 Y99.985 Z6.000 F800.000
G1 X14.071 Y99.985 Z6.000 F800.000
G1 X92.201 Y178.115 Z6.000 F800.000
G1 X96.684 Y178.115 Z6.000 F800.000
G1 X18.554 Y99.985 Z6.000 F800.000
G1 X23.037 Y99.985 Z6.000 F800.000
G1 X101.167 Y178.115 Z6.000 F800.000
G1 X105.650 Y178.115 Z6.000 F800.000
G1 X27.520 Y99.985 Z6.000 F800.000
G1 X32.003 Y99.985 Z6.000 F800.000
G1 X108.215 Y176.197 Z6.000 F800.000
G1 X108.215 Y171.714 Z6.000 F800.000
G1 X36.486 Y99.985 Z6.000 F800.000
G1 X40.969 Y99.985 Z6.000 F800.000
G1 X108.215 Y167.231 Z6.000 F800.000
G1 X108.215 Y162.748 Z6.000 F800.000
G1 X45.452 Y99.985 Z6.000 F800.000
G1 X49.935 Y99.985 Z6.000 F800.000
G1 X108.215 Y158.265 Z6.000 F800.000
G1 X108.215 Y153.782 Z6.000 F800.000
G1 X54.418 Y99.985 Z6.000 F800.000
G1 X58.901 Y99.985 Z6.000 F800.000
G1 X108.215 Y149.299 Z6.000 F800.000
G1 X108.215 Y144.816 Z6.000 F800.000
G1 X63.384 Y99.985 Z6.000 F800.000
G1 X67.867 Y99.985 Z6.000 F800.000
G1 X108.215 Y140.333 Z6.000 F800.000
G1 X108.215 Y135.849 Z6.000 F800.000
G1 X72.351 Y99.985 Z6.000 F800.000
G1 X76.834 Y99.985 Z6.000 F800.000
G1 X108.215 Y131.366 Z6.000 F800.000
G1 X108.215 Y126.883 Z6.000 F800.000
G1 X81.317 Y99.985 Z6.000 F800.000
G1 X85.800 Y99.985 Z6.000 F800.000
G1 X108.215 Y122.400 Z6.000 F800.000
G1 X108.215 Y117.917 Z6.000 F800.000
G1 X90.283 Y99.985 Z6.000 F800.000
G1 X94.766 Y99.985 Z6.000 F800.000
G1 X108.215 Y113.434 Z6.000 F800.000
G1 X108.215 Y108.951 Z6.000 F800.000
G1 X99.249 Y99.985 Z6.000 F800.000
G1 X103.732 Y99.985 Z6.000 F800.000
G1 X108.215 Y104.468 Z6.000 F800.000
G1 X108.215 Y99.985 Z6.000 F800.000
G0 Z21.000
G0 Z21.000
(Finish operation: PocketTray)
(Begin operation: PocketCup)
(Path: PocketCup)
(PocketCup)
G0 Z21.000
G0 X73.915 Y69.315
G0 Z19.000
G1 X73.915 Y69.315 Z9.500 F800.000
G3 X63.405 Y75.341 Z9.500 I-16.333 J-16.306 K0.000 F800.000
G1 X79.941 Y58.805 Z9.500 F800.000
G2 X80.696 Y53.568 Z9.500 I-21.052 J-5.704 K0.000 F800.000
G1 X58.168 Y76.096 Z9.500 F800.000
G3 X53.947 Y75.834 Z9.500 I-0.792 J-21.384 K0.000 F800.000
G1 X80.434 Y49.347 Z9.500 F800.000
G2 X79.569 Y45.728 Z9.500 I-20.770 J3.047 K0.000 F800.000
G1 X50.328 Y74.969 Z9.500 F800.000
G3 X47.145 Y73.669 Z9.500 I6.212 J-19.755 K0.000 F800.000
G1 X78.269 Y42.545 Z9.500 F800.000
G2 X76.606 Y39.726 Z9.500 I-18.361 J8.933 K0.000 F800.000
G1 X44.326 Y72.006 Z9.500 F800.000
G3 X41.830 Y70.019 Z9.500 I11.665 J-17.216 K0.000 F800.000
G1 X74.619 Y37.230 Z9.500 F800.000
G2 X72.322 Y35.044 Z9.500 I-14.644 J13.092 K0.000 F800.000
G1 X39.644 Y67.722 Z9.500 F800.000
G3 X37.765 Y65.117 Z9.500 I16.029 J-13.543 K0.000 F800.000
G1 X69.717 Y33.165 Z9.500 F800.000
G2 X66.773 Y31.627 Z9.500 I-10.789 J17.064 K0.000 F800.000
G1 X36.227 Y62.173 Z9.500 F800.000
G3 X35.069 Y58.847 Z9.500 I18.849 J-8.425 K0.000 F800.000
G1 X63.447 Y30.469 Z9.500 F800.000
G2 X59.640 Y29.793 Z9.500 I-5.560 J20.244 K0.000 F800.000
G1 X34.393 Y55.040 Z9.500 F800.000
G3 X34.412 Y50.539 Z9.500 I21.712 J-2.161 K0.000 F800.000
G1 X55.139 Y29.812 Z9.500 F800.000
G2 X49.260 Y31.207 Z9.500 I2.186 J22.291 K0.000 F800.000
G2 X35.807 Y44.660 Z9.500 I8.167 J21.620 K0.000 F800.000
G1 X49.260 Y31.207 Z9.500 F800.000
G1 X49.260 Y31.207 Z8.000 F800.000
G1 X35.807 Y44.660 Z8.000 F800.000
G3 X49.260 Y31.207 Z8.000 I21.620 J8.167 K0.000 F800.000
G3 X55.139 Y29.812 Z8.000 I8.065 J20.895 K0.000 F800.000
G1 X34.412 Y50.539 Z8.000 F800.000
G2 X34.393 Y55.040 Z8.000 I21.694 J2.341 K0.000 F800.000
G1 X59.640 Y29.793 Z8.000 F800.000
G3 X63.447 Y30.469 Z8.000 I-1.753 J20.920 K0.000 F800.000
G1 X35.069 Y58.847 Z8.000 F800.000
G2 X36.227 Y62.173 Z8.000 I20.006 J-5.099 K0.000 F800.000
G1 X66.773 Y31.627 Z8.000 F800.000
G3 X69.717 Y33.165 Z8.000 I-7.844 J18.602 K0.000 F800.000
G1 X37.765 Y65.117 Z8.000 F800.000
G2 X39.644 Y67.722 Z8.000 I17.908 J-10.939 K0.000 F800.000
G1 X72.322 Y35.044 Z8.000 F800.000
G3 X74.619 Y37.230 Z8.000 I-12.346 J15.278 K0.000 F800.000
G1 X41.830 Y70.019 Z8.000 F800.000
G2 X44.326 Y72.006 Z8.000 I14.161 J-15.229 K0.000 F800.000
G1 X76.606 Y39.726 Z8.000 F800.000
G3 X78.269 Y42.545 Z8.000 I-16.698 J11.753 K0.000 F800.000
G1 X47.145 Y73.669 Z8.000 F800.000
G2 X50.328 Y74.969 Z8.000 I9.395 J-18.455 K0.000 F800.000
G1 X79.569 Y45.728 Z8.000 F800.000
G3 X80.434 Y49.347 Z8.000 I-19.906 J6.666 K0.000 F800.000
G1 X53.947 Y75.834 Z8.000 F800.000
G2 X58.168 Y76.096 Z8.000 I3.429 J-21.123 K0.000 F800.000
G1 X80.696 Y53.568 Z8.000 F800.000
G3 X79.941 Y58.805 Z8.000 I-21.806 J-0.467 K0.000 F800.000
G1 X63.405 Y75.341 Z8.000 F800.000
G2 X73.915 Y69.315 Z8.000 I-5.823 J-22.332 K0.000 F800.000
G1 X73.915 Y69.315 Z6.500 F800.000
G3 X63.405 Y75.341 Z6.500 I-16.333 J-16.306 K0.000 F800.000
G1 X79.941 Y58.805 Z6.500 F800.000
G2 X80.696 Y53.568 Z6.500 I-21.052 J-5.704 K0.000 F800.000
G1 X58.168 Y76.096 Z6.500 F800.000
G3 X53.947 Y75.834 Z6.500 I-0.792 J-21.384 K0.000 F800.000
G1 X80.434 Y49.347 Z6.500 F800.000
G2 X79.569 Y45.728 Z6.500 I-20.770 J3.047 K0.000 F800.000
G1 X50.328 Y74.969 Z6.500 F800.000
G3 X47.145 Y73.669 Z6.500 I6.212 J-19.755 K0.000 F800.000
G1 X78.269 Y42.545 Z6.500 F800.000
G2 X76.606 Y39.726 Z6.500 I-18.361 J8.933 K0.000 F800.000
G1 X44.326 Y72.006 Z6.500 F800.000
G3 X41.830 Y70.019 Z6.500 I11.665 J-17.216 K0.000 F800.000
G1 X74.619 Y37.230 Z6.500 F800.000
G2 X72.322 Y35.044 Z6.500 I-14.644 J13.092 K0.000 F800.000
G1 X39.644 Y67.722 Z6.500 F800.000
G3 X37.765 Y65.117 Z6.500 I16.029 J-13.543 K0.000 F800.000
G1 X69.717 Y33.165 Z6.500 F800.000
G2 X66.773 Y31.627 Z6.500 I-10.789 J17.064 K0.000 F800.000
G1 X36.227 Y62.173 Z6.500 F800.000
G3 X35.069 Y58.847 Z6.500 I18.849 J-8.425 K0.000 F800.000
G1 X63.447 Y30.469 Z6.500 F800.000
G2 X59.640 Y29.793 Z6.500 I-5.560 J20.244 K0.000 F800.000
G1 X34.393 Y55.040 Z6.500 F800.000
G3 X34.412 Y50.539 Z6.500 I21.712 J-2.161 K0.000 F800.000
G1 X55.139 Y29.812 Z6.500 F800.000
G2 X49.260 Y31.207 Z6.500 I2.186 J22.291 K0.000 F800.000
G2 X35.807 Y44.660 Z6.500 I8.167 J21.620 K0.000 F800.000
G1 X49.260 Y31.207 Z6.500 F800.000
G1 X49.260 Y31.207 Z6.000 F800.000
G1 X35.807 Y44.660 Z6.000 F800.000
G3 X49.260 Y31.207 Z6.000 I21.620 J8.167 K0.000 F800.000
G3 X55.139 Y29.812 Z6.000 I8.065 J20.895 K0.000 F800.000
G1 X34.412 Y50.539 Z6.000 F800.000
G2 X34.393 Y55.040 Z6.000 I21.694 J2.341 K0.000 F800.000
G1 X59.640 Y29.793 Z6.000 F800.000
G3 X63.447 Y30.469 Z6.000 I-1.753 J20.920 K0.000 F800.000
G1 X35.069 Y58.847 Z6.000 F800.000
G2 X36.227 Y62.173 Z6.000 I20.006 J-5.099 K0.000 F800.000
G1 X66.773 Y31.627 Z6.000 F800.000
G3 X69.717 Y33.165 Z6.000 I-7.844 J18.602 K0.000 F800.000
G1 X37.765 Y65.117 Z6.000 F800.000
G2 X39.644 Y67.722 Z6.000 I17.908 J-10.939 K0.000 F800.000
G1 X72.322 Y35.044 Z6.000 F800.000
G3 X74.619 Y37.230 Z6.000 I-12.346 J15.278 K0.000 F800.000
G1 X41.830 Y70.019 Z6.000 F800.000
G2 X44.326 Y72.006 Z6.000 I14.161 J-15.229 K0.000 F800.000
G1 X76.606 Y39.726 Z6.000 F800.000
G3 X78.269 Y42.545 Z6.000 I-16.698 J11.753 K0.000 F800.000
G1 X47.145 Y73.669 Z6.000 F800.000
G2 X50.328 Y74.969 Z6.000 I9.395 J-18.455 K0.000 F800.000
G1 X79.569 Y45.728 Z6.000 F800.000
G3 X80.434 Y49.347 Z6.000 I-19.906 J6.666 K0.000 F800.000
G1 X53.947 Y75.834 Z6.000 F800.000
G2 X58.168 Y76.096 Z6.000 I3.429 J-21.123 K0.000 F800.000
G1 X80.696 Y53.568 Z6.000 F800.000
G3 X79.941 Y58.805 Z6.000 I-21.806 J-0.467 K0.000 F800.000
G1 X63.405 Y75.341 Z6.000 F800.000
G2 X73.915 Y69.315 Z6.000 I-5.823 J-22.332 K0.000 F800.000
G0 Z21.000
G0 Z21.000
(Finish operation: PocketCup)
(Begin operation: PocketInnerFine)
(Path: PocketInnerFine)
(PocketInnerFine)
G0 Z21.000
G0 X80.533 Y39.444
G0 Z19.000
G1 X80.533 Y39.444 Z11.000 F800.000
G1 X108.315 Y67.226 Z11.000 F800.000
G1 X108.315 Y68.571 Z11.000 F800.000
G1 X81.930 Y42.185 Z11.000 F800.000
G3 X82.783 Y44.384 Z11.000 I-16.681 J7.741 K0.000 F800.000
G1 X108.315 Y69.916 Z11.000 F800.000
G1 X108.315 Y71.261 Z11.000 F800.000
G1 X83.343 Y46.289 Z11.000 F800.000
G3 X83.727 Y48.017 Z11.000 I-15.641 J4.378 K0.000 F800.000
G1 X108.315 Y72.606 Z11.000 F800.000
G1 X108.315 Y73.951 Z11.000 F800.000
G1 X83.975 Y49.611 Z11.000 F800.000
G3 X84.118 Y51.098 Z11.000 I-13.853 J2.078 K0.000 F800.000
G1 X108.315 Y75.295 Z11.000 F800.000
G1 X108.315 Y76.640 Z11.000 F800.000
G1 X84.174 Y52.500 Z11.000 F800.000
G3 X84.160 Y53.830 Z11.000 I-12.372 J0.527 K0.000 F800.000
G1 X108.315 Y77.985 Z11.000 F800.000
G1 X108.315 Y79.330 Z11.000 F800.000
G1 X84.084 Y55.100 Z11.000 F800.000
G3 X83.957 Y56.317 Z11.000 I-11.384 J-0.573 K0.000 F800.000
G1 X108.315 Y80.675 Z11.000 F800.000
G1 X108.315 Y82.020 Z11.000 F800.000
G1 X83.785 Y57.490 Z11.000 F800.000
G1 X83.562 Y58.612 Z11.000 F800.000
G1 X108.315 Y83.365 Z11.000 F800.000
G1 X108.315 Y84.710 Z11.000 F800.000
G1 X83.296 Y59.691 Z11.000 F800.000
G3 X82.999 Y60.739 Z11.000 I-9.905 J-2.248 K0.000 F800.000
G1 X108.315 Y86.055 Z11.000 F800.000
G1 X108.315 Y87.400 Z11.000 F800.000
G1 X82.672 Y61.757 Z11.000 F800.000
G3 X82.300 Y62.730 Z11.000 I-69.567 J-25.997 K0.000 F800.000
G1 X108.315 Y88.745 Z11.000 F800.000
G1 X108.315 Y90.090 Z11.000 F800.000
G1 X81.902 Y63.676 Z11.000 F800.000
G3 X81.480 Y64.600 Z11.000 I-9.347 J-3.709 K0.000 F800.000
G1 X108.315 Y91.434 Z11.000 F800.000
G1 X108.315 Y92.779 Z11.000 F800.000
G1 X81.022 Y65.487 Z11.000 F800.000
G3 X80.538 Y66.347 Z11.000 I-8.323 J-4.115 K0.000 F800.000
G1 X108.315 Y94.124 Z11.000 F800.000
G1 X108.315 Y95.469 Z11.000 F800.000
G1 X80.035 Y67.189 Z11.000 F800.000
G1 X79.496 Y67.995 Z11.000 F800.000
G1 X108.016 Y96.515 Z11.000 F800.000
G1 X106.671 Y96.515 Z11.000 F800.000
G1 X78.935 Y68.779 Z11.000 F800.000
G3 X78.357 Y69.546 Z11.000 I-15.568 J-11.141 K0.000 F800.000
G1 X105.326 Y96.515 Z11.000 F800.000
G1 X103.981 Y96.515 Z11.000 F800.000
G1 X77.741 Y70.275 Z11.000 F800.000
G3 X77.109 Y70.988 Z11.000 I-6.996 J-5.574 K0.000 F800.000
G1 X102.636 Y96.515 Z11.000 F800.000
G1 X101.291 Y96.515 Z11.000 F800.000
G1 X76.455 Y71.679 Z11.000 F800.000
G3 X75.769 Y72.338 Z11.000 I-6.925 J-6.531 K0.000 F800.000
G1 X99.946 Y96.515 Z11.000 F800.000
G1 X98.601 Y96.515 Z11.000 F800.000
G1 X75.066 Y72.980 Z11.000 F800.000
G1 X74.337 Y73.596 Z11.000 F800.000
G1 X97.257 Y96.515 Z11.000 F800.000
G1 X95.912 Y96.515 Z11.000 F800.000
G1 X73.580 Y74.184 Z11.000 F800.000
G3 X72.806 Y74.755 Z11.000 I-5.956 J-7.264 K0.000 F800.000
G1 X94.567 Y96.515 Z11.000 F800.000
G1 X93.222 Y96.515 Z11.000 F800.000
G1 X72.000 Y75.293 Z11.000 F800.000
G3 X71.169 Y75.807 Z11.000 I-5.241 J-7.547 K0.000 F800.000
G1 X91.877 Y96.515 Z11.000 F800.000
G1 X90.532 Y96.515 Z11.000 F800.000
G1 X70.319 Y76.302 Z11.000 F800.000
G1 X69.432 Y76.760 Z11.000 F800.000
G1 X89.187 Y96.515 Z11.000 F800.000
G1 X87.842 Y96.515 Z11.000 F800.000
G1 X68.520 Y77.193 Z11.000 F800.000
G3 X67.585 Y77.603 Z11.000 I-4.525 J-9.047 K0.000 F800.000
G1 X86.497 Y96.515 Z11.000 F800.000
G1 X85.152 Y96.515 Z11.000 F800.000
G1 X66.612 Y77.974 Z11.000 F800.000
G3 X65.606 Y78.314 Z11.000 I-3.693 J-9.285 K0.000 F800.000
G1 X83.807 Y96.515 Z11.000 F800.000
G1 X82.462 Y96.515 Z11.000 F800.000
G1 X64.572 Y78.624 Z11.000 F800.000
G1 X63.502 Y78.900 Z11.000 F800.000
G1 X81.118 Y96.515 Z11.000 F800.000
G1 X79.773 Y96.515 Z11.000 F800.000
G1 X62.384 Y79.126 Z11.000 F800.000
G3 X61.226 Y79.314 Z11.000 I-2.323 J-10.685 K0.000 F800.000
G1 X78.428 Y96.515 Z11.000 F800.000
G1 X77.083 Y96.515 Z11.000 F800.000
G1 X60.025 Y79.457 Z11.000 F800.000
G3 X58.773 Y79.550 Z11.000 I-1.511 J-11.867 K0.000 F800.000
G1 X75.738 Y96.515 Z11.000 F800.000
G1 X74.393 Y96.515 Z11.000 F800.000
G1 X57.462 Y79.585 Z11.000 F800.000
G3 X56.079 Y79.546 Z11.000 I2.070 J-98.638 K0.000 F800.000
G1 X73.048 Y96.515 Z11.000 F800.000
G1 X71.703 Y96.515 Z11.000 F800.000
G1 X54.615 Y79.427 Z11.000 F800.000
G3 X53.055 Y79.212 Z11.000 I1.640 J-17.699 K0.000 F800.000
G1 X70.358 Y96.515 Z11.000 F800.000
G1 X69.013 Y96.515 Z11.000 F800.000
G1 X51.364 Y78.865 Z11.000 F800.000
G3 X49.501 Y78.348 Z11.000 I3.808 J-17.312 K0.000 F800.000
G1 X67.668 Y96.515 Z11.000 F800.000
G1 X66.323 Y96.515 Z11.000 F800.000
G1 X47.409 Y77.601 Z11.000 F800.000
G3 X44.856 Y76.392 Z11.000 I9.024 J-22.371 K0.000 F800.000
G1 X64.978 Y96.515 Z11.000 F800.000
G1 X63.634 Y96.515 Z11.000 F800.000
G1 X40.945 Y73.826 Z11.000 F800.000
G3 X36.574 Y69.455 Z11.000 I16.343 J-20.714 K0.000 F800.000
G1 X11.893 Y44.774 Z11.000 F800.000
G1 X11.260 Y45.487 Z11.000 F800.000
G1 X62.289 Y96.515 Z11.000 F800.000
G1 X60.944 Y96.515 Z11.000 F800.000
G1 X10.628 Y46.199 Z11.000 F800.000
G1 X9.995 Y46.911 Z11.000 F800.000
G1 X59.599 Y96.515 Z11.000 F800.000
G1 X58.254 Y96.515 Z11.000 F800.000
G1 X9.363 Y47.624 Z11.000 F800.000
G1 X8.730 Y48.336 Z11.000 F800.000
G1 X56.909 Y96.515 Z11.000 F800.000
G1 X55.564 Y96.515 Z11.000 F800.000
G1 X8.098 Y49.049 Z11.000 F800.000
G1 X7.465 Y49.761 Z11.000 F800.000
G1 X54.219 Y96.515 Z11.000 F800.000
G1 X52.874 Y96.515 Z11.000 F800.000
G1 X6.833 Y50.474 Z11.000 F800.000
G1 X6.685 Y50.640 Z11.000 F800.000
G1 X6.685 Y51.671 Z11.000 F800.000
G1 X51.529 Y96.515 Z11.000 F800.000
G1 X50.184 Y96.515 Z11.000 F800.000
G1 X6.685 Y53.016 Z11.000 F800.000
G1 X6.685 Y54.361 Z11.000 F800.000
G1 X48.839 Y96.515 Z11.000 F800.000
G1 X47.495 Y96.515 Z11.000 F800.000
G1 X6.685 Y55.705 Z11.000 F800.000
G1 X6.685 Y57.050 Z11.000 F800.000
G1 X46.150 Y96.515 Z11.000 F800.000
G1 X44.805 Y96.515 Z11.000 F800.000
G1 X6.685 Y58.395 Z11.000 F800.000
G1 X6.685 Y59.740 Z11.000 F800.000
G1 X43.460 Y96.515 Z11.000 F800.000
G1 X42.115 Y96.515 Z11.000 F800.000
G1 X6.685 Y61.085 Z11.000 F800.000
G1 X6.685 Y62.430 Z11.000 F800.000
G1 X40.770 Y96.515 Z11.000 F800.000
G1 X39.425 Y96.515 Z11.000 F800.000
G1 X6.685 Y63.775 Z11.000 F800.000
G1 X6.685 Y65.120 Z11.000 F800.000
G1 X38.080 Y96.515 Z11.000 F800.000
G1 X36.735 Y96.515 Z11.000 F800.000
G1 X6.685 Y66.465 Z11.000 F800.000
G1 X6.685 Y67.810 Z11.000 F800.000
G1 X35.390 Y96.515 Z11.000 F800.000
G1 X34.045 Y96.515 Z11.000 F800.000
G1 X6.685 Y69.155 Z11.000 F800.000
G1 X6.685 Y70.500 Z11.000 F800.000
G1 X32.700 Y96.515 Z11.000 F800.000
G1 X31.356 Y96.515 Z11.000 F800.000
G1 X6.685 Y71.844 Z11.000 F800.000
G1 X6.685 Y73.189 Z11.000 F800.000
G1 X30.011 Y96.515 Z11.000 F800.000
G1 X28.666 Y96.515 Z11.000 F800.000
G1 X6.685 Y74.534 Z11.000 F800.000
G1 X6.685 Y75.879 Z11.000 F800.000
G1 X27.321 Y96.515 Z11.000 F800.000
G1 X25.976 Y96.515 Z11.000 F800.000
G1 X6.685 Y77.224 Z11.000 F800.000
G1 X6.685 Y78.569 Z11.000 F800.000
G1 X24.631 Y96.515 Z11.000 F800.000
G1 X23.286 Y96.515 Z11.000 F800.000
G1 X6.685 Y79.914 Z11.000 F800.000
G1 X6.685 Y81.259 Z11.000 F800.000
G1 X21.941 Y96.515 Z11.000 F800.000
G1 X20.596 Y96.515 Z11.000 F800.000
G1 X6.685 Y82.604 Z11.000 F800.000
G1 X6.685 Y83.949 Z11.000 F800.000
G1 X19.251 Y96.515 Z11.000 F800.000
G1 X17.906 Y96.515 Z11.000 F800.000
G1 X6.685 Y85.294 Z11.000 F800.000
G1 X6.685 Y86.639 Z11.000 F800.000
G1 X16.561 Y96.515 Z11.000 F800.000
G1 X15.217 Y96.515 Z11.000 F800.000
G1 X6.685 Y87.983 Z11.000 F800.000
G1 X6.685 Y89.328 Z11.000 F800.000
G1 X13.872 Y96.515 Z11.000 F800.000
G1 X12.527 Y96.515 Z11.000 F800.000
G1 X6.685 Y90.673 Z11.000 F800.000
G1 X6.685 Y92.018 Z11.000 F800.000
G1 X11.182 Y96.515 Z11.000 F800.000
G1 X9.837 Y96.515 Z11.000 F800.000
G1 X6.685 Y93.363 Z11.000 F800.000
G1 X6.685 Y94.708 Z11.000 F800.000
G1 X8.492 Y96.515 Z11.000 F800.000
G1 X7.147 Y96.515 Z11.000 F800.000
G1 X6.685 Y96.053 Z11.000 F800.000
G1 X6.685 Y96.515 Z11.000 F800.000
G1 X7.147 Y96.515 Z11.000 F800.000
G0 Z21.000
G0 X11.893 Y44.774 Z21.000
G0 X11.893 Y44.774 Z19.000
G1 X11.893 Y44.774 Z11.000 F800.000
G1 X36.574 Y69.455 Z11.000 F800.000
G3 X34.008 Y65.544 Z11.000 I19.950 J-15.888 K0.000 F800.000
G1 X12.525 Y44.062 Z11.000 F800.000
G1 X13.158 Y43.349 Z11.000 F800.000
G1 X32.799 Y62.991 Z11.000 F800.000
G3 X32.052 Y60.899 Z11.000 I18.683 J-7.853 K0.000 F800.000
G1 X13.790 Y42.637 Z11.000 F800.000
G1 X14.423 Y41.924 Z11.000 F800.000
G1 X31.535 Y59.036 Z11.000 F800.000
G3 X31.188 Y57.345 Z11.000 I17.945 J-4.558 K0.000 F800.000
G1 X15.055 Y41.212 Z11.000 F800.000
G1 X15.688 Y40.499 Z11.000 F800.000
G1 X30.973 Y55.785 Z11.000 F800.000
G3 X30.854 Y54.321 Z11.000 I15.573 J-2.006 K0.000 F800.000
G1 X16.320 Y39.787 Z11.000 F800.000
G1 X16.953 Y39.075 Z11.000 F800.000
G1 X30.815 Y52.938 Z11.000 F800.000
G3 X30.850 Y51.627 Z11.000 I16.495 J-0.220 K0.000 F800.000
G1 X17.585 Y38.362 Z11.000 F800.000
G1 X18.217 Y37.650 Z11.000 F800.000
G1 X30.943 Y50.375 Z11.000 F800.000
G3 X31.086 Y49.174 Z11.000 I11.231 J0.730 K0.000 F800.000
G1 X18.850 Y36.937 Z11.000 F800.000
G1 X19.482 Y36.225 Z11.000 F800.000
G1 X31.274 Y48.016 Z11.000 F800.000
G3 X31.500 Y46.898 Z11.000 I12.394 J1.925 K0.000 F800.000
G1 X20.115 Y35.512 Z11.000 F800.000
G1 X20.747 Y34.800 Z11.000 F800.000
G1 X31.776 Y45.828 Z11.000 F800.000
G3 X32.086 Y44.794 Z11.000 I9.870 J2.399 K0.000 F800.000
G1 X21.380 Y34.088 Z11.000 F800.000
G1 X22.012 Y33.375 Z11.000 F800.000
G1 X32.426 Y43.788 Z11.000 F800.000
G1 X32.797 Y42.815 Z11.000 F800.000
G1 X22.645 Y32.663 Z11.000 F800.000
G1 X23.277 Y31.950 Z11.000 F800.000
G1 X33.207 Y41.880 Z11.000 F800.000
G3 X33.640 Y40.968 Z11.000 I8.758 J3.595 K0.000 F800.000
G1 X23.910 Y31.238 Z11.000 F800.000
G1 X24.542 Y30.525 Z11.000 F800.000
G1 X34.098 Y40.081 Z11.000 F800.000
G3 X34.593 Y39.231 Z11.000 I8.958 J4.646 K0.000 F800.000
G1 X25.175 Y29.813 Z11.000 F800.000
G1 X25.807 Y29.101 Z11.000 F800.000
G1 X35.107 Y38.400 Z11.000 F800.000
G1 X35.645 Y37.594 Z11.000 F800.000
G1 X26.440 Y28.388 Z11.000 F800.000
G1 X27.072 Y27.676 Z11.000 F800.000
G1 X36.216 Y36.820 Z11.000 F800.000
G3 X36.804 Y36.063 Z11.000 I7.482 J5.205 K0.000 F800.000
G1 X27.705 Y26.963 Z11.000 F800.000
G1 X28.337 Y26.251 Z11.000 F800.000
G1 X37.420 Y35.334 Z11.000 F800.000
G3 X38.062 Y34.631 Z11.000 I6.973 J5.731 K0.000 F800.000
G1 X28.970 Y25.538 Z11.000 F800.000
G1 X29.602 Y24.826 Z11.000 F800.000
G1 X38.721 Y33.945 Z11.000 F800.000
G1 X39.412 Y33.291 Z11.000 F800.000
G1 X30.235 Y24.113 Z11.000 F800.000
G1 X30.867 Y23.401 Z11.000 F800.000
G1 X40.125 Y32.659 Z11.000 F800.000
G3 X40.854 Y32.043 Z11.000 I25.798 J29.840 K0.000 F800.000
G1 X31.500 Y22.689 Z11.000 F800.000
G1 X32.132 Y21.976 Z11.000 F800.000
G1 X41.621 Y31.465 Z11.000 F800.000
G3 X42.405 Y30.904 Z11.000 I5.648 J7.068 K0.000 F800.000
G1 X32.765 Y21.264 Z11.000 F800.000
G1 X33.397 Y20.551 Z11.000 F800.000
G1 X43.211 Y30.365 Z11.000 F800.000
G3 X44.053 Y29.862 Z11.000 I5.524 J8.277 K0.000 F800.000
G1 X34.030 Y19.839 Z11.000 F800.000
G1 X34.662 Y19.126 Z11.000 F800.000
G1 X44.913 Y29.378 Z11.000 F800.000
G1 X45.800 Y28.920 Z11.000 F800.000
G1 X35.295 Y18.414 Z11.000 F800.000
G1 X35.927 Y17.702 Z11.000 F800.000
G1 X46.724 Y28.498 Z11.000 F800.000
G3 X47.670 Y28.100 Z11.000 I4.200 J8.654 K0.000 F800.000
G1 X36.560 Y16.989 Z11.000 F800.000
G1 X37.192 Y16.277 Z11.000 F800.000
G1 X48.643 Y27.728 Z11.000 F800.000
G3 X49.661 Y27.401 Z11.000 I4.476 J12.179 K0.000 F800.000
G1 X37.824 Y15.564 Z11.000 F800.000
G1 X38.457 Y14.852 Z11.000 F800.000
G1 X50.709 Y27.104 Z11.000 F800.000
G3 X51.788 Y26.838 Z11.000 I3.064 J10.146 K0.000 F800.000
G1 X39.089 Y14.139 Z11.000 F800.000
G1 X39.722 Y13.427 Z11.000 F800.000
G1 X52.910 Y26.615 Z11.000 F800.000
G3 X54.083 Y26.443 Z11.000 I2.308 J11.617 K0.000 F800.000
G1 X40.354 Y12.715 Z11.000 F800.000
G1 X40.987 Y12.002 Z11.000 F800.000
G1 X55.300 Y26.316 Z11.000 F800.000
G3 X56.570 Y26.240 Z11.000 I1.331 J11.709 K0.000 F800.000
G1 X41.619 Y11.290 Z11.000 F800.000
G1 X42.252 Y10.577 Z11.000 F800.000
G1 X57.900 Y26.226 Z11.000 F800.000
G3 X59.302 Y26.282 Z11.000 I0.171 J13.155 K0.000 F800.000
G1 X42.884 Y9.865 Z11.000 F800.000
G1 X43.517 Y9.152 Z11.000 F800.000
G1 X60.789 Y26.425 Z11.000 F800.000
G3 X62.383 Y26.673 Z11.000 I-1.506 J14.876 K0.000 F800.000
G1 X44.149 Y8.440 Z11.000 F800.000
G1 X44.782 Y7.728 Z11.000 F800.000
G1 X64.111 Y27.057 Z11.000 F800.000
G3 X66.016 Y27.617 Z11.000 I-4.160 J17.670 K0.000 F800.000
G1 X45.414 Y7.015 Z11.000 F800.000
G1 X45.707 Y6.685 Z11.000 F800.000
G1 X46.429 Y6.685 Z11.000 F800.000
G1 X68.215 Y28.470 Z11.000 F800.000
G3 X70.956 Y29.867 Z11.000 I-8.514 J20.100 K0.000 F800.000
G1 X47.774 Y6.685 Z11.000 F800.000
G1 X49.119 Y6.685 Z11.000 F800.000
G1 X108.315 Y65.881 Z11.000 F800.000
G1 X108.315 Y64.536 Z11.000 F800.000
G1 X50.464 Y6.685 Z11.000 F800.000
G1 X51.809 Y6.685 Z11.000 F800.000
G1 X108.315 Y63.191 Z11.000 F800.000
G1 X108.315 Y61.846 Z11.000 F800.000
G1 X53.154 Y6.685 Z11.000 F800.000
G1 X54.499 Y6.685 Z11.000 F800.000
G1 X108.315 Y60.501 Z11.000 F800.000
G1 X108.315 Y59.156 Z11.000 F800.000
G1 X55.844 Y6.685 Z11.000 F800.000
G1 X57.188 Y6.685 Z11.000 F800.000
G1 X108.315 Y57.812 Z11.000 F800.000
G1 X108.315 Y56.467 Z11.000 F800.000
G1 X58.533 Y6.685 Z11.000 F800.000
G1 X59.878 Y6.685 Z11.000 F800.000
G1 X108.315 Y55.122 Z11.000 F800.000
G1 X108.315 Y53.777 Z11.000 F800.000
G1 X61.223 Y6.685 Z11.000 F800.000
G1 X62.568 Y6.685 Z11.000 F800.000
G1 X108.315 Y52.432 Z11.000 F800.000
G1 X108.315 Y51.087 Z11.000 F800.000
G1 X63.913 Y6.685 Z11.000 F800.000
G1 X65.258 Y6.685 Z11.000 F800.000
G1 X101.211 Y42.638 Z11.000 F800.000
G1 X90.572 Y30.654 Z11.000 F800.000
G1 X66.603 Y6.685 Z11.000 F800.000
G1 X67.948 Y6.685 Z11.000 F800.000
G1 X79.932 Y18.669 Z11.000 F800.000
G1 X69.293 Y6.685 Z11.000 F800.000
G0 Z21.000
G0 Z21.000
(Finish operation: PocketInnerFine)
(Begin operation: PocketTrayFine)
(Path: PocketTrayFine)
(PocketTrayFine)
G0 Z21.000
G0 X108.315 Y99.885
G0 Z19.000
G1 X108.315 Y99.885 Z6.000 F800.000
G1 X108.315 Y101.230 Z6.000 F800.000
G1 X106.970 Y99.885 Z6.000 F800.000
G1 X105.625 Y99.885 Z6.000 F800.000
G1 X108.315 Y102.575 Z6.000 F800.000
G1 X108.315 Y103.920 Z6.000 F800.000
G1 X104.280 Y99.885 Z6.000 F800.000
G1 X102.935 Y99.885 Z6.000 F800.000
G1 X108.315 Y105.265 Z6.000 F800.000
G1 X108.315 Y106.610 Z6.000 F800.000
G1 X101.590 Y99.885 Z6.000 F800.000
G1 X100.245 Y99.885 Z6.000 F800.000
G1 X108.315 Y107.955 Z6.000 F800.000
G1 X108.315 Y109.299 Z6.000 F800.000
G1 X98.901 Y99.885 Z6.000 F800.000
G1 X97.556 Y99.885 Z6.000 F800.000
G1 X108.315 Y110.644 Z6.000 F800.000
G1 X108.315 Y111.989 Z6.000 F800.000
G1 X96.211 Y99.885 Z6.000 F800.000
G1 X94.866 Y99.885 Z6.000 F800.000
G1 X108.315 Y113.334 Z6.000 F800.000
G1 X108.315 Y114.679 Z6.000 F800.000
G1 X93.521 Y99.885 Z6.000 F800.000
G1 X92.176 Y99.885 Z6.000 F800.000
G1 X108.315 Y116.024 Z6.000 F800.000
G1 X108.315 Y117.369 Z6.000 F800.000
G1 X90.831 Y99.885 Z6.000 F800.000
G1 X89.486 Y99.885 Z6.000 F800.000
G1 X108.315 Y118.714 Z6.000 F800.000
G1 X108.315 Y120.059 Z6.000 F800.000
G1 X88.141 Y99.885 Z6.000 F800.000
G1 X86.796 Y99.885 Z6.000 F800.000
G1 X108.315 Y121.404 Z6.000 F800.000
G1 X108.315 Y122.749 Z6.000 F800.000
G1 X85.451 Y99.885 Z6.000 F800.000
G1 X84.106 Y99.885 Z6.000 F800.000
G1 X108.315 Y124.094 Z6.000 F800.000
G1 X108.315 Y125.438 Z6.000 F800.000
G1 X82.762 Y99.885 Z6.000 F800.000
G1 X81.417 Y99.885 Z6.000 F800.000
G1 X108.315 Y126.783 Z6.000 F800.000
G1 X108.315 Y128.128 Z6.000 F800.000
G1 X80.072 Y99.885 Z6.000 F800.000
G1 X78.727 Y99.885 Z6.000 F800.000
G1 X108.315 Y129.473 Z6.000 F800.000
G1 X108.315 Y130.818 Z6.000 F800.000
G1 X77.382 Y99.885 Z6.000 F800.000
G1 X76.037 Y99.885 Z6.000 F800.000
G1 X108.315 Y132.163 Z6.000 F800.000
G1 X108.315 Y133.508 Z6.000 F800.000
G1 X74.692 Y99.885 Z6.000 F800.000
G1 X73.347 Y99.885 Z6.000 F800.000
G1 X108.315 Y134.853 Z6.000 F800.000
G1 X108.315 Y136.198 Z6.000 F800.000
G1 X72.002 Y99.885 Z6.000 F800.000
G1 X70.657 Y99.885 Z6.000 F800.000
G1 X108.315 Y137.543 Z6.000 F800.000
G1 X108.315 Y138.888 Z6.000 F800.000
G1 X69.312 Y99.885 Z6.000 F800.000
G1 X67.967 Y99.885 Z6.000 F800.000
G1 X108.315 Y140.233 Z6.000 F800.000
G1 X108.315 Y141.577 Z6.000 F800.000
G1 X66.623 Y99.885 Z6.000 F800.000
G1 X65.278 Y99.885 Z6.000 F800.000
G1 X108.315 Y142.922 Z6.000 F800.000
G1 X108.315 Y144.267 Z6.000 F800.000
G1 X63.933 Y99.885 Z6.000 F800.000
G1 X62.588 Y99.885 Z6.000 F800.000
G1 X108.315 Y145.612 Z6.000 F800.000
G1 X108.315 Y146.957 Z6.000 F800.000
G1 X61.243 Y99.885 Z6.000 F800.000
G1 X59.898 Y99.885 Z6.000 F800.000
G1 X108.315 Y148.302 Z6.000 F800.000
G1 X108.315 Y149.647 Z6.000 F800.000
G1 X58.553 Y99.885 Z6.000 F800.000
G1 X57.208 Y99.885 Z6.000 F800.000
G1 X108.315 Y150.992 Z6.000 F800.000
G1 X108.315 Y152.337 Z6.000 F800.000
G1 X55.863 Y99.885 Z6.000 F800.000
G1 X54.518 Y99.885 Z6.000 F800.000
G1 X108.315 Y153.682 Z6.000 F800.000
G1 X108.315 Y155.027 Z6.000 F800.000
G1 X53.173 Y99.885 Z6.000 F800.000
G1 X51.828 Y99.885 Z6.000 F800.000
G1 X108.315 Y156.372 Z6.000 F800.000
G1 X108.315 Y157.716 Z6.000 F800.000
G1 X50.484 Y99.885 Z6.000 F800.000
G1 X49.139 Y99.885 Z6.000 F800.000
G1 X108.315 Y159.061 Z6.000 F800.000
G1 X108.315 Y160.406 Z6.000 F800.000
G1 X47.794 Y99.885 Z6.000 F800.000
G1 X46.449 Y99.885 Z6.000 F800.000
G1 X108.315 Y161.751 Z6.000 F800.000
G1 X108.315 Y163.096 Z6.000 F800.000
G1 X45.104 Y99.885 Z6.000 F800.000
G1 X43.759 Y99.885 Z6.000 F800.000
G1 X108.315 Y164.441 Z6.000 F800.000
G1 X108.315 Y165.786 Z6.000 F800.000
G1 X42.414 Y99.885 Z6.000 F800.000
G1 X41.069 Y99.885 Z6.000 F800.000
G1 X108.315 Y167.131 Z6.000 F800.000
G1 X108.315 Y168.476 Z6.000 F800.000
G1 X39.724 Y99.885 Z6.000 F800.000
G1 X38.379 Y99.885 Z6.000 F800.000
G1 X108.315 Y169.821 Z6.000 F800.000
G1 X108.315 Y171.166 Z6.000 F800.000
G1 X37.034 Y99.885 Z6.000 F800.000
G1 X35.689 Y99.885 Z6.000 F800.000
G1 X108.315 Y172.511 Z6.000 F800.000
G1 X108.315 Y173.855 Z6.000 F800.000
G1 X34.345 Y99.885 Z6.000 F800.000
G1 X33.000 Y99.885 Z6.000 F800.000
G1 X108.315 Y175.200 Z6.000 F800.000
G1 X108.315 Y176.545 Z6.000 F800.000
G1 X31.655 Y99.885 Z6.000 F800.000
G1 X30.310 Y99.885 Z6.000 F800.000
G1 X108.315 Y177.890 Z6.000 F800.000
G1 X108.315 Y178.215 Z6.000 F800.000
G1 X107.295 Y178.215 Z6.000 F800.000
G1 X28.965 Y99.885 Z6.000 F800.000
G1 X27.620 Y99.885 Z6.000 F800.000
G1 X105.950 Y178.215 Z6.000 F800.000
G1 X104.605 Y178.215 Z6.000 F800.000
G1 X26.275 Y99.885 Z6.000 F800.000
G1 X24.930 Y99.885 Z6.000 F800.000
G1 X103.260 Y178.215 Z6.000 F800.000
G1 X101.915 Y178.215 Z6.000 F800.000
G1 X23.585 Y99.885 Z6.000 F800.000
G1 X22.240 Y99.885 Z6.000 F800.000
G1 X100.570 Y178.215 Z6.000 F800.000
G1 X99.225 Y178.215 Z6.000 F800.000
G1 X20.895 Y99.885 Z6.000 F800.000
G1 X19.550 Y99.885 Z6.000 F800.000
G1 X97.880 Y178.215 Z6.000 F800.000
G1 X96.536 Y178.215 Z6.000 F800.000
G1 X18.206 Y99.885 Z6.000 F800.000
G1 X16.861 Y99.885 Z6.000 F800.000
G1 X95.191 Y178.215 Z6.000 F800.000
G1 X93.846 Y178.215 Z6.000 F800.000
G1 X15.516 Y99.885 Z6.000 F800.000
G1 X14.171 Y99.885 Z6.000 F800.000
G1 X92.501 Y178.215 Z6.000 F800.000
G1 X91.156 Y178.215 Z6.000 F800.000
G1 X12.826 Y99.885 Z6.000 F800.000
G1 X11.481 Y99.885 Z6.000 F800.000
G1 X89.811 Y178.215 Z6.000 F800.000
G1 X88.466 Y178.215 Z6.000 F800.000
G1 X10.136 Y99.885 Z6.000 F800.000
G1 X8.791 Y99.885 Z6.000 F800.000
G1 X87.121 Y178.215 Z6.000 F800.000
G1 X85.776 Y178.215 Z6.000 F800.000
G1 X7.446 Y99.885 Z6.000 F800.000
G1 X6.685 Y99.885 Z6.000 F800.000
G1 X6.685 Y100.469 Z6.000 F800.000
G1 X84.431 Y178.215 Z6.000 F800.000
G1 X83.086 Y178.215 Z6.000 F800.000
G1 X6.685 Y101.814 Z6.000 F800.000
G1 X6.685 Y103.159 Z6.000 F800.000
G1 X81.741 Y178.215 Z6.000 F800.000
G1 X80.397 Y178.215 Z6.000 F800.000
G1 X6.685 Y104.503 Z6.000 F800.000
G1 X6.685 Y105.848 Z6.000 F800.000
G1 X79.052 Y178.215 Z6.000 F800.000
G1 X77.707 Y178.215 Z6.000 F800.000
G1 X6.685 Y107.193 Z6.000 F800.000
G1 X6.685 Y108.538 Z6.000 F800.000
G1 X76.362 Y178.215 Z6.000 F800.000
G1 X75.017 Y178.215 Z6.000 F800.000
G1 X6.685 Y109.883 Z6.000 F800.000
G1 X6.685 Y111.228 Z6.000 F800.000
G1 X73.672 Y178.215 Z6.000 F800.000
G1 X72.327 Y178.215 Z6.000 F800.000
G1 X6.685 Y112.573 Z6.000 F800.000
G1 X6.685 Y113.918 Z6.000 F800.000
G1 X70.982 Y178.215 Z6.000 F800.000
G1 X69.637 Y178.215 Z6.000 F800.000
G1 X6.685 Y115.263 Z6.000 F800.000
G1 X6.685 Y116.608 Z6.000 F800.000
G1 X68.292 Y178.215 Z6.000 F800.000
G1 X66.947 Y178.215 Z6.000 F800.000
G1 X6.685 Y117.953 Z6.000 F800.000
G1 X6.685 Y119.298 Z6.000 F800.000
G1 X65.602 Y178.215 Z6.000 F800.000
G1 X64.258 Y178.215 Z6.000 F800.000
G1 X6.685 Y120.642 Z6.000 F800.000
G1 X6.685 Y121.987 Z6.000 F800.000
G1 X62.913 Y178.215 Z6.000 F800.000
G1 X61.568 Y178.215 Z6.000 F800.000
G1 X6.685 Y123.332 Z6.000 F800.000
G1 X6.685 Y124.677 Z6.000 F800.000
G1 X60.223 Y178.215 Z6.000 F800.000
G1 X58.878 Y178.215 Z6.000 F800.000
G1 X6.685 Y126.022 Z6.000 F800.000
G1 X6.685 Y127.367 Z6.000 F800.000
G1 X57.533 Y178.215 Z6.000 F800.000
G1 X56.188 Y178.215 Z6.000 F800.000
G1 X6.685 Y128.712 Z6.000 F800.000
G1 X6.685 Y130.057 Z6.000 F800.000
G1 X54.843 Y178.215 Z6.000 F800.000
G1 X53.498 Y178.215 Z6.000 F800.000
G1 X6.685 Y131.402 Z6.000 F800.000
G1 X6.685 Y132.747 Z6.000 F800.000
G1 X52.153 Y178.215 Z6.000 F800.000
G1 X50.808 Y178.215 Z6.000 F800.000
G1 X6.685 Y134.092 Z6.000 F800.000
G1 X6.685 Y135.437 Z6.000 F800.000
G1 X49.463 Y178.215 Z6.000 F800.000
G1 X48.119 Y178.215 Z6.000 F800.000
G1 X6.685 Y136.781 Z6.000 F800.000
G1 X6.685 Y138.126 Z6.000 F800.000
G1 X46.774 Y178.215 Z6.000 F800.000
G1 X45.429 Y178.215 Z6.000 F800.000
G1 X6.685 Y139.471 Z6.000 F800.000
G1 X6.685 Y140.816 Z6.000 F800.000
G1 X44.084 Y178.215 Z6.000 F800.000
G1 X42.739 Y178.215 Z6.000 F800.000
G1 X6.685 Y142.161 Z6.000 F800.000
G1 X6.685 Y143.506 Z6.000 F800.000
G1 X41.394 Y178.215 Z6.000 F800.000
G1 X40.049 Y178.215 Z6.000 F800.000
G1 X6.685 Y144.851 Z6.000 F800.000
G1 X6.685 Y146.196 Z6.000 F800.000
G1 X38.704 Y178.215 Z6.000 F800.000
G1 X37.359 Y178.215 Z6.000 F800.000
G1 X6.685 Y147.541 Z6.000 F800.000
G1 X6.685 Y148.886 Z6.000 F800.000
G1 X36.014 Y178.215 Z6.000 F800.000
G1 X34.669 Y178.215 Z6.000 F800.000
G1 X6.685 Y150.231 Z6.000 F800.000
G1 X6.685 Y151.576 Z6.000 F800.000
G1 X33.324 Y178.215 Z6.000 F800.000
G1 X31.980 Y178.215 Z6.000 F800.000
G1 X6.685 Y152.920 Z6.000 F800.000
G1 X6.685 Y154.265 Z6.000 F800.000
G1 X30.635 Y178.215 Z6.000 F800.000
G1 X29.290 Y178.215 Z6.000 F800.000
G1 X6.685 Y155.610 Z6.000 F800.000
G1 X6.685 Y156.955 Z6.000 F800.000
G1 X27.945 Y178.215 Z6.000 F800.000
G1 X26.600 Y178.215 Z6.000 F800.000
G1 X6.685 Y158.300 Z6.000 F800.000
G1 X6.685 Y159.645 Z6.000 F800.000
G1 X25.255 Y178.215 Z6.000 F800.000
G1 X23.910 Y178.215 Z6.000 F800.000
G1 X6.685 Y160.990 Z6.000 F800.000
G1 X6.685 Y162.335 Z6.000 F800.000
G1 X22.565 Y178.215 Z6.000 F800.000
G1 X21.220 Y178.215 Z6.000 F800.000
G1 X6.685 Y163.680 Z6.000 F800.000
G1 X6.685 Y165.025 Z6.000 F800.000
G1 X19.875 Y178.215 Z6.000 F800.000
G1 X18.530 Y178.215 Z6.000 F800.000
G1 X6.685 Y166.370 Z6.000 F800.000
G1 X6.685 Y167.715 Z6.000 F800.000
G1 X17.185 Y178.215 Z6.000 F800.000
G1 X15.841 Y178.215 Z6.000 F800.000
G1 X6.685 Y169.059 Z6.000 F800.000
G1 X6.685 Y170.404 Z6.000 F800.000
G1 X14.496 Y178.215 Z6.000 F800.000
G1 X13.151 Y178.215 Z6.000 F800.000
G1 X6.685 Y171.749 Z6.000 F800.000
G1 X6.685 Y173.094 Z6.000 F800.000
G1 X11.806 Y178.215 Z6.000 F800.000
G1 X10.461 Y178.215 Z6.000 F800.000
G1 X6.685 Y174.439 Z6.000 F800.000
G1 X6.685 Y175.784 Z6.000 F800.000
G1 X9.116 Y178.215 Z6.000 F800.000
G1 X7.771 Y178.215 Z6.000 F800.000
G1 X6.685 Y178.215 Z6.000 F800.000
G1 X6.685 Y177.129 Z6.000 F800.000
G1 X7.771 Y178.215 Z6.000 F800.000
G0 Z21.000
G0 Z21.000
(Finish operation: PocketTrayFine)
(Begin operation: PocketCupFine)
(Path: PocketCupFine)
(PocketCupFine)
G0 Z21.000
G0 X73.986 Y69.386
G0 Z19.000
G1 X73.986 Y69.386 Z6.000 F800.000
G3 X71.062 Y71.861 Z6.000 I-16.134 J-16.092 K0.000 F800.000
G1 X76.461 Y66.462 Z6.000 F800.000
G2 X77.341 Y65.133 Z6.000 I-10.683 J-8.035 K0.000 F800.000
G1 X69.733 Y72.741 Z6.000 F800.000
G3 X68.661 Y73.365 Z6.000 I-6.092 J-9.235 K0.000 F800.000
G1 X77.965 Y64.061 Z6.000 F800.000
G1 X78.445 Y63.134 Z6.000 F800.000
G1 X67.734 Y73.845 Z6.000 F800.000
G3 X66.908 Y74.222 Z6.000 I-3.777 J-7.166 K0.000 F800.000
G1 X78.822 Y62.308 Z6.000 F800.000
G2 X79.151 Y61.531 Z6.000 I-6.751 J-3.312 K0.000 F800.000
G1 X66.131 Y74.551 Z6.000 F800.000
G1 X65.406 Y74.828 Z6.000 F800.000
G1 X79.428 Y60.806 Z6.000 F800.000
G2 X79.656 Y60.129 Z6.000 I-5.914 J-2.375 K0.000 F800.000
G1 X64.729 Y75.056 Z6.000 F800.000
G1 X64.071 Y75.266 Z6.000 F800.000
G1 X79.866 Y59.471 Z6.000 F800.000
G2 X80.031 Y58.857 Z6.000 I-5.381 J-1.779 K0.000 F800.000
G1 X63.457 Y75.431 Z6.000 F800.000
G1 X62.853 Y75.587 Z6.000 F800.000
G1 X80.187 Y58.253 Z6.000 F800.000
G2 X80.311 Y57.681 Z6.000 I-5.029 J-1.385 K0.000 F800.000
G1 X62.281 Y75.711 Z6.000 F800.000
G1 X61.721 Y75.822 Z6.000 F800.000
G1 X80.422 Y57.121 Z6.000 F800.000
G2 X80.517 Y56.578 Z6.000 I-4.789 J-1.117 K0.000 F800.000
G1 X61.178 Y75.917 Z6.000 F800.000
G1 X60.656 Y75.991 Z6.000 F800.000
G1 X80.591 Y56.056 Z6.000 F800.000
G1 X80.664 Y55.534 Z6.000 F800.000
G1 X60.134 Y76.064 Z6.000 F800.000
G3 X59.643 Y76.107 Z6.000 I-0.626 J-4.351 K0.000 F800.000
G1 X80.707 Y55.043 Z6.000 F800.000
G1 X80.748 Y54.553 Z6.000 F800.000
G1 X59.153 Y76.148 Z6.000 F800.000
G3 X58.672 Y76.181 Z6.000 I-0.534 J-4.269 K0.000 F800.000
G1 X80.781 Y54.072 Z6.000 F800.000
G1 X80.794 Y53.611 Z6.000 F800.000
G1 X58.211 Y76.194 Z6.000 F800.000
G1 X57.750 Y76.207 Z6.000 F800.000
G1 X80.807 Y53.150 Z6.000 F800.000
G2 X80.809 Y52.700 Z6.000 I-4.003 J-0.237 K0.000 F800.000
G1 X57.300 Y76.209 Z6.000 F800.000
G1 X56.864 Y76.196 Z6.000 F800.000
G1 X80.796 Y52.264 Z6.000 F800.000
G1 X80.784 Y51.828 Z6.000 F800.000
G1 X56.428 Y76.184 Z6.000 F800.000
G3 X56.002 Y76.162 Z6.000 I-0.011 J-3.801 K0.000 F800.000
G1 X80.762 Y51.402 Z6.000 F800.000
G1 X80.727 Y50.989 Z6.000 F800.000
G1 X55.589 Y76.127 Z6.000 F800.000
G1 X55.175 Y76.092 Z6.000 F800.000
G1 X80.692 Y50.575 Z6.000 F800.000
G2 X80.651 Y50.168 Z6.000 I-3.645 J0.164 K0.000 F800.000
G1 X54.768 Y76.051 Z6.000 F800.000
G1 X54.375 Y75.995 Z6.000 F800.000
G1 X80.595 Y49.775 Z6.000 F800.000
G1 X80.540 Y49.383 Z6.000 F800.000
G1 X53.983 Y75.940 Z6.000 F800.000
G3 X53.590 Y75.884 Z6.000 I0.300 J-3.524 K0.000 F800.000
G1 X80.484 Y48.990 Z6.000 F800.000
G1 X80.410 Y48.616 Z6.000 F800.000
G1 X53.216 Y75.810 Z6.000 F800.000
G1 X52.842 Y75.735 Z6.000 F800.000
G1 X80.335 Y48.242 Z6.000 F800.000
G1 X80.261 Y47.868 Z6.000 F800.000
G1 X52.468 Y75.661 Z6.000 F800.000
G3 X52.104 Y75.576 Z6.000 I0.571 J-3.280 K0.000 F800.000
G1 X80.176 Y47.504 Z6.000 F800.000
G1 X80.084 Y47.148 Z6.000 F800.000
G1 X51.748 Y75.484 Z6.000 F800.000
G1 X51.392 Y75.392 Z6.000 F800.000
G1 X79.992 Y46.792 Z6.000 F800.000
G2 X79.900 Y46.436 Z6.000 I-3.215 J0.645 K0.000 F800.000
G1 X51.036 Y75.300 Z6.000 F800.000
G1 X50.696 Y75.192 Z6.000 F800.000
G1 X79.792 Y46.096 Z6.000 F800.000
G1 X79.683 Y45.756 Z6.000 F800.000
G1 X50.356 Y75.083 Z6.000 F800.000
G1 X50.016 Y74.975 Z6.000 F800.000
G1 X79.575 Y45.416 Z6.000 F800.000
G2 X79.461 Y45.082 Z6.000 I-3.033 J0.848 K0.000 F800.000
G1 X49.682 Y74.861 Z6.000 F800.000
G1 X49.357 Y74.737 Z6.000 F800.000
G1 X79.337 Y44.757 Z6.000 F800.000
G1 X79.213 Y44.433 Z6.000 F800.000
G1 X49.033 Y74.613 Z6.000 F800.000
G1 X48.708 Y74.489 Z6.000 F800.000
G1 X79.089 Y44.108 Z6.000 F800.000
G2 X78.957 Y43.793 Z6.000 I-2.877 J1.023 K0.000 F800.000
G1 X48.393 Y74.357 Z6.000 F800.000
G1 X48.083 Y74.218 Z6.000 F800.000
G1 X78.818 Y43.483 Z6.000 F800.000
G1 X78.680 Y43.173 Z6.000 F800.000
G1 X47.773 Y74.080 Z6.000 F800.000
G1 X47.464 Y73.941 Z6.000 F800.000
G1 X78.541 Y42.864 Z6.000 F800.000
G2 X78.392 Y42.564 Z6.000 I-2.739 J1.178 K0.000 F800.000
G1 X47.164 Y73.792 Z6.000 F800.000
G1 X46.869 Y73.639 Z6.000 F800.000
G1 X78.239 Y42.269 Z6.000 F800.000
G1 X78.086 Y41.973 Z6.000 F800.000
G1 X46.573 Y73.486 Z6.000 F800.000
G1 X46.278 Y73.334 Z6.000 F800.000
G1 X77.934 Y41.678 Z6.000 F800.000
G2 X77.770 Y41.393 Z6.000 I-2.615 J1.316 K0.000 F800.000
G1 X45.993 Y73.170 Z6.000 F800.000
G1 X45.711 Y73.004 Z6.000 F800.000
G1 X77.604 Y41.111 Z6.000 F800.000
G1 X77.437 Y40.829 Z6.000 F800.000
G1 X45.429 Y72.837 Z6.000 F800.000
G1 X45.147 Y72.671 Z6.000 F800.000
G1 X77.271 Y40.547 Z6.000 F800.000
G2 X77.094 Y40.276 Z6.000 I-2.503 J1.442 K0.000 F800.000
G1 X44.876 Y72.494 Z6.000 F800.000
G1 X44.607 Y72.314 Z6.000 F800.000
G1 X76.914 Y40.007 Z6.000 F800.000
G1 X76.735 Y39.738 Z6.000 F800.000
G1 X44.338 Y72.135 Z6.000 F800.000
G1 X44.070 Y71.955 Z6.000 F800.000
G1 X76.555 Y39.470 Z6.000 F800.000
G2 X76.366 Y39.211 Z6.000 I-2.398 J1.558 K0.000 F800.000
G1 X43.811 Y71.766 Z6.000 F800.000
G1 X43.555 Y71.573 Z6.000 F800.000
G1 X76.173 Y38.955 Z6.000 F800.000
G1 X75.980 Y38.699 Z6.000 F800.000
G1 X43.299 Y71.380 Z6.000 F800.000
G1 X43.044 Y71.188 Z6.000 F800.000
G1 X75.788 Y38.444 Z6.000 F800.000
G2 X75.587 Y38.197 Z6.000 I-2.300 J1.668 K0.000 F800.000
G1 X42.797 Y70.987 Z6.000 F800.000
G1 X42.554 Y70.781 Z6.000 F800.000
G1 X75.381 Y37.954 Z6.000 F800.000
G1 X75.176 Y37.710 Z6.000 F800.000
G1 X42.310 Y70.576 Z6.000 F800.000
G1 X42.067 Y70.371 Z6.000 F800.000
G1 X74.971 Y37.467 Z6.000 F800.000
G2 X74.758 Y37.232 Z6.000 I-2.205 J1.774 K0.000 F800.000
G1 X41.832 Y70.158 Z6.000 F800.000
G1 X41.601 Y69.941 Z6.000 F800.000
G1 X74.541 Y37.001 Z6.000 F800.000
G1 X74.323 Y36.771 Z6.000 F800.000
G1 X41.371 Y69.723 Z6.000 F800.000
G1 X41.140 Y69.505 Z6.000 F800.000
G1 X74.105 Y36.540 Z6.000 F800.000
G2 X73.881 Y36.316 Z6.000 I-2.113 J1.878 K0.000 F800.000
G1 X40.916 Y69.281 Z6.000 F800.000
G1 X40.698 Y69.051 Z6.000 F800.000
G1 X73.651 Y36.098 Z6.000 F800.000
G1 X73.420 Y35.880 Z6.000 F800.000
G1 X40.480 Y68.820 Z6.000 F800.000
G1 X40.262 Y68.590 Z6.000 F800.000
G1 X73.190 Y35.662 Z6.000 F800.000
G2 X72.955 Y35.448 Z6.000 I-2.020 J1.982 K0.000 F800.000
G1 X40.048 Y68.355 Z6.000 F800.000
G1 X39.843 Y68.112 Z6.000 F800.000
G1 X72.712 Y35.243 Z6.000 F800.000
G1 X72.469 Y35.038 Z6.000 F800.000
G1 X39.638 Y67.869 Z6.000 F800.000
G1 X39.433 Y67.626 Z6.000 F800.000
G1 X72.226 Y34.833 Z6.000 F800.000
G2 X71.980 Y34.630 Z6.000 I-1.926 J2.088 K0.000 F800.000
G1 X39.230 Y67.380 Z6.000 F800.000
G1 X39.038 Y67.125 Z6.000 F800.000
G1 X71.725 Y34.438 Z6.000 F800.000
G1 X71.469 Y34.245 Z6.000 F800.000
G1 X38.845 Y66.869 Z6.000 F800.000
G1 X38.653 Y66.613 Z6.000 F800.000
G1 X71.213 Y34.053 Z6.000 F800.000
G2 X70.955 Y33.862 Z6.000 I-1.827 J2.197 K0.000 F800.000
G1 X38.462 Y66.355 Z6.000 F800.000
G1 X38.282 Y66.087 Z6.000 F800.000
G1 X70.687 Y33.682 Z6.000 F800.000
G1 X70.418 Y33.503 Z6.000 F800.000
G1 X38.103 Y65.818 Z6.000 F800.000
G1 X37.923 Y65.549 Z6.000 F800.000
G1 X70.149 Y33.323 Z6.000 F800.000
G2 X69.879 Y33.145 Z6.000 I-1.723 J2.314 K0.000 F800.000
G1 X37.745 Y65.279 Z6.000 F800.000
G1 X37.578 Y64.997 Z6.000 F800.000
G1 X69.597 Y32.978 Z6.000 F800.000
G1 X69.315 Y32.812 Z6.000 F800.000
G1 X37.412 Y64.715 Z6.000 F800.000
G1 X37.246 Y64.433 Z6.000 F800.000
G1 X69.033 Y32.646 Z6.000 F800.000
G2 X68.750 Y32.481 Z6.000 I-1.611 J2.439 K0.000 F800.000
G1 X37.081 Y64.150 Z6.000 F800.000
G1 X36.928 Y63.855 Z6.000 F800.000
G1 X68.455 Y32.328 Z6.000 F800.000
G1 X68.159 Y32.175 Z6.000 F800.000
G1 X36.775 Y63.559 Z6.000 F800.000
G1 X36.622 Y63.263 Z6.000 F800.000
G1 X67.863 Y32.022 Z6.000 F800.000
G2 X67.565 Y31.872 Z6.000 I-1.488 J2.577 K0.000 F800.000
G1 X36.472 Y62.965 Z6.000 F800.000
G1 X36.333 Y62.656 Z6.000 F800.000
G1 X67.256 Y31.733 Z6.000 F800.000
G1 X66.946 Y31.595 Z6.000 F800.000
G1 X36.195 Y62.346 Z6.000 F800.000
G1 X36.056 Y62.036 Z6.000 F800.000
G1 X66.636 Y31.456 Z6.000 F800.000
G2 X66.322 Y31.322 Z6.000 I-1.351 J2.731 K0.000 F800.000
G1 X35.922 Y61.722 Z6.000 F800.000
G1 X35.798 Y61.398 Z6.000 F800.000
G1 X65.998 Y31.198 Z6.000 F800.000
G1 X65.673 Y31.075 Z6.000 F800.000
G1 X35.675 Y61.073 Z6.000 F800.000
G1 X35.551 Y60.749 Z6.000 F800.000
G1 X65.349 Y30.951 Z6.000 F800.000
G2 X65.016 Y30.835 Z6.000 I-1.194 J2.906 K0.000 F800.000
G1 X35.435 Y60.416 Z6.000 F800.000
G1 X35.327 Y60.076 Z6.000 F800.000
G1 X64.676 Y30.727 Z6.000 F800.000
G1 X64.336 Y30.619 Z6.000 F800.000
G1 X35.219 Y59.736 Z6.000 F800.000
G1 X35.110 Y59.396 Z6.000 F800.000
G1 X63.996 Y30.510 Z6.000 F800.000
G2 X63.642 Y30.416 Z6.000 I-1.014 J3.108 K0.000 F800.000
G1 X35.016 Y59.042 Z6.000 F800.000
G1 X34.924 Y58.685 Z6.000 F800.000
G1 X63.285 Y30.324 Z6.000 F800.000
G1 X62.929 Y30.232 Z6.000 F800.000
G1 X34.832 Y58.329 Z6.000 F800.000
G3 X34.746 Y57.967 Z6.000 I3.180 J-0.949 K0.000 F800.000
G1 X62.567 Y30.146 Z6.000 F800.000
G1 X62.193 Y30.072 Z6.000 F800.000
G1 X34.672 Y57.593 Z6.000 F800.000
G1 X34.597 Y57.219 Z6.000 F800.000
G1 X61.819 Y29.997 Z6.000 F800.000
G1 X61.445 Y29.923 Z6.000 F800.000
G1 X34.523 Y56.845 Z6.000 F800.000
G3 X34.466 Y56.454 Z6.000 I3.451 J-0.707 K0.000 F800.000
G1 X61.054 Y29.866 Z6.000 F800.000
G1 X60.661 Y29.810 Z6.000 F800.000
G1 X34.410 Y56.061 Z6.000 F800.000
G1 X34.355 Y55.668 Z6.000 F800.000
G1 X60.268 Y29.755 Z6.000 F800.000
G2 X59.863 Y29.711 Z6.000 I-0.587 J3.586 K0.000 F800.000
G1 X34.311 Y55.263 Z6.000 F800.000
G1 X34.277 Y54.850 Z6.000 F800.000
G1 X59.450 Y29.677 Z6.000 F800.000
G1 X59.036 Y29.642 Z6.000 F800.000
G1 X34.242 Y54.436 Z6.000 F800.000
G3 X34.217 Y54.013 Z6.000 I3.758 J-0.432 K0.000 F800.000
G1 X58.613 Y29.617 Z6.000 F800.000
G1 X58.177 Y29.605 Z6.000 F800.000
G1 X34.205 Y53.577 Z6.000 F800.000
G1 X34.192 Y53.141 Z6.000 F800.000
G1 X57.741 Y29.592 Z6.000 F800.000
G2 X57.293 Y29.591 Z6.000 I-0.232 J3.982 K0.000 F800.000
G1 X34.191 Y52.693 Z6.000 F800.000
G1 X34.204 Y52.232 Z6.000 F800.000
G1 X56.832 Y29.604 Z6.000 F800.000
G1 X56.371 Y29.617 Z6.000 F800.000
G1 X34.217 Y51.771 Z6.000 F800.000
G3 X34.248 Y51.292 Z6.000 I4.277 J0.031 K0.000 F800.000
G1 X55.892 Y29.648 Z6.000 F800.000
G1 X55.403 Y29.689 Z6.000 F800.000
G1 X34.289 Y50.803 Z6.000 F800.000
G1 X34.330 Y50.313 Z6.000 F800.000
G1 X54.913 Y29.730 Z6.000 F800.000
G2 X54.393 Y29.802 Z6.000 I0.382 J4.670 K0.000 F800.000
G1 X34.402 Y49.793 Z6.000 F800.000
G1 X34.476 Y49.271 Z6.000 F800.000
G1 X53.871 Y29.876 Z6.000 F800.000
G2 X53.331 Y29.968 Z6.000 I0.544 J4.851 K0.000 F800.000
G1 X34.568 Y48.731 Z6.000 F800.000
G1 X34.679 Y48.171 Z6.000 F800.000
G1 X52.771 Y30.079 Z6.000 F800.000
G2 X52.204 Y30.198 Z6.000 I0.778 J5.113 K0.000 F800.000
G1 X34.798 Y47.604 Z6.000 F800.000
G1 X34.954 Y47.000 Z6.000 F800.000
G1 X51.600 Y30.354 Z6.000 F800.000
G2 X50.991 Y30.514 Z6.000 I1.123 J5.499 K0.000 F800.000
G1 X35.114 Y46.391 Z6.000 F800.000
G1 X35.324 Y45.733 Z6.000 F800.000
G1 X50.333 Y30.724 Z6.000 F800.000
G2 X49.662 Y30.947 Z6.000 I1.645 J6.083 K0.000 F800.000
G1 X35.547 Y45.062 Z6.000 F800.000
G1 X35.823 Y44.337 Z6.000 F800.000
G1 X48.937 Y31.223 Z6.000 F800.000
G2 X48.168 Y31.544 Z6.000 I2.468 J7.004 K0.000 F800.000
G1 X36.144 Y43.568 Z6.000 F800.000
G3 X36.511 Y42.753 Z6.000 I7.442 J2.860 K0.000 F800.000
G1 X47.353 Y31.911 Z6.000 F800.000
G1 X46.426 Y32.390 Z6.000 F800.000
G1 X36.990 Y41.826 Z6.000 F800.000
G3 X37.598 Y40.769 Z6.000 I9.713 J4.889 K0.000 F800.000
G1 X45.369 Y32.998 Z6.000 F800.000
G2 X44.082 Y33.837 Z6.000 I6.821 J11.875 K0.000 F800.000
G1 X38.437 Y39.482 Z6.000 F800.000
G3 X40.287 Y37.183 Z6.000 I17.645 J12.310 K0.000 F800.000
G1 X41.783 Y35.687 Z6.000 F800.000
G2 X40.287 Y37.183 Z6.000 I12.569 J14.064 K0.000 F800.000
G0 Z21.000
G0 Z21.000
(Finish operation: PocketCupFine)
(Begin operation: Clearinnerside)
(Path: Clearinnerside)
(Clearinnerside)
(Compensated Tool Path. Diameter: 3.17)
G0 Z21.000
G0 X108.615 Y178.515
G0 Z19.000
G1 X108.615 Y178.515 Z14.500 F800.000
G1 X108.615 Y50.526 Z14.500 F800.000
G1 X69.428 Y6.385 Z14.500 F800.000
G1 X45.572 Y6.385 Z14.500 F800.000
G1 X6.385 Y50.526 Z14.500 F800.000
G1 X6.385 Y178.515 Z14.500 F800.000
G1 X108.615 Y178.515 Z14.500 F800.000
G1 X108.615 Y178.515 Z13.000 F800.000
G1 X108.615 Y50.526 Z13.000 F800.000
G1 X69.428 Y6.385 Z13.000 F800.000
G1 X45.572 Y6.385 Z13.000 F800.000
G1 X6.385 Y50.526 Z13.000 F800.000
G1 X6.385 Y178.515 Z13.000 F800.000
G1 X108.615 Y178.515 Z13.000 F800.000
G1 X108.615 Y178.515 Z11.500 F800.000
G1 X108.615 Y50.526 Z11.500 F800.000
G1 X69.428 Y6.385 Z11.500 F800.000
G1 X45.572 Y6.385 Z11.500 F800.000
G1 X6.385 Y50.526 Z11.500 F800.000
G1 X6.385 Y178.515 Z11.500 F800.000
G1 X108.615 Y178.515 Z11.500 F800.000
G1 X108.615 Y178.515 Z11.000 F800.000
G1 X108.615 Y50.526 Z11.000 F800.000
G1 X69.428 Y6.385 Z11.000 F800.000
G1 X45.572 Y6.385 Z11.000 F800.000
G1 X6.385 Y50.526 Z11.000 F800.000
G1 X6.385 Y178.515 Z11.000 F800.000
G1 X108.615 Y178.515 Z11.000 F800.000
G0 Z21.000
G0 Z21.000
(Finish operation: Clearinnerside)
(Begin operation: Cleartrayside1)
(Path: Cleartrayside1)
(Cleartrayside1)
(Compensated Tool Path. Diameter: 3.17)
G0 Z21.000
G0 X108.615 Y178.515
G0 Z19.000
G1 X108.615 Y178.515 Z9.500 F800.000
G1 X108.615 Y99.585 Z9.500 F800.000
G1 X6.385 Y99.585 Z9.500 F800.000
G1 X6.385 Y178.515 Z9.500 F800.000
G1 X108.615 Y178.515 Z9.500 F800.000
G1 X108.615 Y178.515 Z8.000 F800.000
G1 X108.615 Y99.585 Z8.000 F800.000
G1 X6.385 Y99.585 Z8.000 F800.000
G1 X6.385 Y178.515 Z8.000 F800.000
G1 X108.615 Y178.515 Z8.000 F800.000
G1 X108.615 Y178.515 Z6.500 F800.000
G1 X108.615 Y99.585 Z6.500 F800.000
G1 X6.385 Y99.585 Z6.500 F800.000
G1 X6.385 Y178.515 Z6.500 F800.000
G1 X108.615 Y178.515 Z6.500 F800.000
G1 X108.615 Y178.515 Z6.000 F800.000
G1 X108.615 Y99.585 Z6.000 F800.000
G1 X6.385 Y99.585 Z6.000 F800.000
G1 X6.385 Y178.515 Z6.000 F800.000
G1 X108.615 Y178.515 Z6.000 F800.000
G0 Z21.000
G0 Z21.000
(Finish operation: Cleartrayside1)
(Begin operation: Clearcup)
(Path: Clearcup)
(Clearcup)
(Compensated Tool Path. Diameter: 3.17)
G0 Z21.000
G0 X74.198 Y69.598
G0 Z19.000
G1 X74.198 Y69.598 Z9.500 F800.000
G2 X60.144 Y29.434 Z9.500 I-16.698 J-16.698 K0.000 F800.000
G2 X54.856 Y76.366 Z9.500 I-2.644 J23.466 K0.000 F800.000
G2 X74.198 Y69.598 Z9.500 I2.644 J-23.466 K0.000 F800.000
G1 X74.198 Y69.598 Z8.000 F800.000
G2 X60.144 Y29.434 Z8.000 I-16.698 J-16.698 K0.000 F800.000
G2 X54.856 Y76.366 Z8.000 I-2.644 J23.466 K0.000 F800.000
G2 X74.198 Y69.598 Z8.000 I2.644 J-23.466 K0.000 F800.000
G1 X74.198 Y69.598 Z6.500 F800.000
G2 X60.144 Y29.434 Z6.500 I-16.698 J-16.698 K0.000 F800.000
G2 X54.856 Y76.366 Z6.500 I-2.644 J23.466 K0.000 F800.000
G2 X74.198 Y69.598 Z6.500 I2.644 J-23.466 K0.000 F800.000
G1 X74.198 Y69.598 Z6.000 F800.000
G2 X60.144 Y29.434 Z6.000 I-16.698 J-16.698 K0.000 F800.000
G2 X54.856 Y76.366 Z6.000 I-2.644 J23.466 K0.000 F800.000
G2 X74.198 Y69.598 Z6.000 I2.644 J-23.466 K0.000 F800.000
G0 Z21.000
G0 Z21.000
(Finish operation: Clearcup)
(Begin operation: DressupTag)
(Path: DressupTag)
G0 Z21.000
G0 X116.121 Y186.021 Z21.000
G0 X116.121 Y186.021 Z19.000
G1 X116.121 Y186.021 Z14.500 F800.000
G2 X116.585 Y184.900 Z14.500 I-1.121 J-1.121 K0.000 F800.000
G1 X116.585 Y50.000 Z14.500 F800.000
G2 X116.209 Y48.975 Z14.500 I-1.585 J0.000 K0.000 F800.000
G1 X73.809 Y-1.025 Z14.500 F800.000
G2 X72.600 Y-1.585 Z14.500 I-1.209 J1.025 K0.000 F800.000
G1 X42.400 Y-1.585 Z14.500 F800.000
G2 X41.191 Y-1.025 Z14.500 I0.000 J1.585 K0.000 F800.000
G1 X-1.209 Y48.975 Z14.500 F800.000
G2 X-1.585 Y50.000 Z14.500 I1.209 J1.025 K0.000 F800.000
G1 X-1.585 Y184.900 Z14.500 F800.000
G2 X0.000 Y186.485 Z14.500 I1.585 J-0.000 K0.000 F800.000
G1 X115.000 Y186.485 Z14.500 F800.000
G2 X116.121 Y186.021 Z14.500 I-0.000 J-1.585 K0.000 F800.000
G1 X116.121 Y186.021 Z13.000 F800.000
G2 X116.585 Y184.900 Z13.000 I-1.121 J-1.121 K0.000 F800.000
G1 X116.585 Y50.000 Z13.000 F800.000
G2 X116.209 Y48.975 Z13.000 I-1.585 J0.000 K0.000 F800.000
G1 X73.809 Y-1.025 Z13.000 F800.000
G2 X72.600 Y-1.585 Z13.000 I-1.209 J1.025 K0.000 F800.000
G1 X42.400 Y-1.585 Z13.000 F800.000
G2 X41.191 Y-1.025 Z13.000 I0.000 J1.585 K0.000 F800.000
G1 X-1.209 Y48.975 Z13.000 F800.000
G2 X-1.585 Y50.000 Z13.000 I1.209 J1.025 K0.000 F800.000
G1 X-1.585 Y184.900 Z13.000 F800.000
G2 X0.000 Y186.485 Z13.000 I1.585 J-0.000 K0.000 F800.000
G1 X115.000 Y186.485 Z13.000 F800.000
G2 X116.121 Y186.021 Z13.000 I-0.000 J-1.585 K0.000 F800.000
G1 X116.121 Y186.021 Z11.500 F800.000
G2 X116.585 Y184.900 Z11.500 I-1.121 J-1.121 K0.000 F800.000
G1 X116.585 Y50.000 Z11.500 F800.000
G2 X116.209 Y48.975 Z11.500 I-1.585 J0.000 K0.000 F800.000
G1 X73.809 Y-1.025 Z11.500 F800.000
G2 X72.600 Y-1.585 Z11.500 I-1.209 J1.025 K0.000 F800.000
G1 X42.400 Y-1.585 Z11.500 F800.000
G2 X41.191 Y-1.025 Z11.500 I0.000 J1.585 K0.000 F800.000
G1 X-1.209 Y48.975 Z11.500 F800.000
G2 X-1.585 Y50.000 Z11.500 I1.209 J1.025 K0.000 F800.000
G1 X-1.585 Y184.900 Z11.500 F800.000
G2 X0.000 Y186.485 Z11.500 I1.585 J-0.000 K0.000 F800.000
G1 X115.000 Y186.485 Z11.500 F800.000
G2 X116.121 Y186.021 Z11.500 I-0.000 J-1.585 K0.000 F800.000
G1 X116.121 Y186.021 Z10.000 F800.000
G2 X116.585 Y184.900 Z10.000 I-1.121 J-1.121 K0.000 F800.000
G1 X116.585 Y50.000 Z10.000 F800.000
G2 X116.209 Y48.975 Z10.000 I-1.585 J0.000 K0.000 F800.000
G1 X73.809 Y-1.025 Z10.000 F800.000
G2 X72.600 Y-1.585 Z10.000 I-1.209 J1.025 K0.000 F800.000
G1 X42.400 Y-1.585 Z10.000 F800.000
G2 X41.191 Y-1.025 Z10.000 I0.000 J1.585 K0.000 F800.000
G1 X-1.209 Y48.975 Z10.000 F800.000
G2 X-1.585 Y50.000 Z10.000 I1.209 J1.025 K0.000 F800.000
G1 X-1.585 Y184.900 Z10.000 F800.000
G2 X0.000 Y186.485 Z10.000 I1.585 J-0.000 K0.000 F800.000
G1 X115.000 Y186.485 Z10.000 F800.000
G2 X116.121 Y186.021 Z10.000 I-0.000 J-1.585 K0.000 F800.000
G1 X116.121 Y186.021 Z8.500 F800.000
G2 X116.585 Y184.900 Z8.500 I-1.121 J-1.121 K0.000 F800.000
G1 X116.585 Y50.000 Z8.500 F800.000
G2 X116.209 Y48.975 Z8.500 I-1.585 J0.000 K0.000 F800.000
G1 X73.809 Y-1.025 Z8.500 F800.000
G2 X72.600 Y-1.585 Z8.500 I-1.209 J1.025 K0.000 F800.000
G1 X42.400 Y-1.585 Z8.500 F800.000
G2 X41.191 Y-1.025 Z8.500 I0.000 J1.585 K0.000 F800.000
G1 X-1.209 Y48.975 Z8.500 F800.000
G2 X-1.585 Y50.000 Z8.500 I1.209 J1.025 K0.000 F800.000
G1 X-1.585 Y184.900 Z8.500 F800.000
G2 X0.000 Y186.485 Z8.500 I1.585 J-0.000 K0.000 F800.000
G1 X115.000 Y186.485 Z8.500 F800.000
G2 X116.121 Y186.021 Z8.500 I-0.000 J-1.585 K0.000 F800.000
G1 X116.121 Y186.021 Z7.000 F800.000
G2 X116.585 Y184.900 Z7.000 I-1.121 J-1.121 K0.000 F800.000
G1 X116.585 Y50.000 Z7.000 F800.000
G2 X116.209 Y48.975 Z7.000 I-1.585 J0.000 K0.000 F800.000
G1 X73.809 Y-1.025 Z7.000 F800.000
G2 X72.600 Y-1.585 Z7.000 I-1.209 J1.025 K0.000 F800.000
G1 X42.400 Y-1.585 Z7.000 F800.000
G2 X41.191 Y-1.025 Z7.000 I0.000 J1.585 K0.000 F800.000
G1 X-1.209 Y48.975 Z7.000 F800.000
G2 X-1.585 Y50.000 Z7.000 I1.209 J1.025 K0.000 F800.000
G1 X-1.585 Y184.900 Z7.000 F800.000
G2 X0.000 Y186.485 Z7.000 I1.585 J-0.000 K0.000 F800.000
G1 X115.000 Y186.485 Z7.000 F800.000
G2 X116.121 Y186.021 Z7.000 I-0.000 J-1.585 K0.000 F800.000
G1 X116.121 Y186.021 Z5.500 F800.000
G2 X116.585 Y184.900 Z5.500 I-1.121 J-1.121 K0.000 F800.000
G1 X116.585 Y50.000 Z5.500 F800.000
G2 X116.209 Y48.975 Z5.500 I-1.585 J0.000 K0.000 F800.000
G1 X73.809 Y-1.025 Z5.500 F800.000
G2 X72.600 Y-1.585 Z5.500 I-1.209 J1.025 K0.000 F800.000
G1 X42.400 Y-1.585 Z5.500 F800.000
G2 X41.191 Y-1.025 Z5.500 I0.000 J1.585 K0.000 F800.000
G1 X-1.209 Y48.975 Z5.500 F800.000
G2 X-1.585 Y50.000 Z5.500 I1.209 J1.025 K0.000 F800.000
G1 X-1.585 Y184.900 Z5.500 F800.000
G2 X0.000 Y186.485 Z5.500 I1.585 J-0.000 K0.000 F800.000
G1 X115.000 Y186.485 Z5.500 F800.000
G2 X116.121 Y186.021 Z5.500 I-0.000 J-1.585 K0.000 F800.000
G1 X116.121 Y186.021 Z4.000 F800.000
G2 X116.585 Y184.900 Z4.000 I-1.121 J-1.121 K0.000 F800.000
G1 X116.585 Y50.000 Z4.000 F800.000
G2 X116.209 Y48.975 Z4.000 I-1.585 J0.000 K0.000 F800.000
G1 X73.809 Y-1.025 Z4.000 F800.000
G2 X72.600 Y-1.585 Z4.000 I-1.209 J1.025 K0.000 F800.000
G1 X42.400 Y-1.585 Z4.000 F800.000
G2 X41.191 Y-1.025 Z4.000 I0.000 J1.585 K0.000 F800.000
G1 X-1.209 Y48.975 Z4.000 F800.000
G2 X-1.585 Y50.000 Z4.000 I1.209 J1.025 K0.000 F800.000
G1 X-1.585 Y184.900 Z4.000 F800.000
G2 X0.000 Y186.485 Z4.000 I1.585 J-0.000 K0.000 F800.000
G1 X115.000 Y186.485 Z4.000 F800.000
G2 X116.121 Y186.021 Z4.000 I-0.000 J-1.585 K0.000 F800.000
G1 X116.121 Y186.021 Z2.500 F800.000
G2 X116.585 Y184.900 Z2.500 I-1.121 J-1.121 K0.000 F800.000
G1 X116.585 Y50.000 Z2.500 F800.000
G2 X116.209 Y48.975 Z2.500 I-1.585 J0.000 K0.000 F800.000
G1 X73.809 Y-1.025 Z2.500 F800.000
G2 X72.600 Y-1.585 Z2.500 I-1.209 J1.025 K0.000 F800.000
G1 X42.400 Y-1.585 Z2.500 F800.000
G2 X41.191 Y-1.025 Z2.500 I0.000 J1.585 K0.000 F800.000
G1 X-1.209 Y48.975 Z2.500 F800.000
G2 X-1.585 Y50.000 Z2.500 I1.209 J1.025 K0.000 F800.000
G1 X-1.585 Y184.900 Z2.500 F800.000
G2 X0.000 Y186.485 Z2.500 I1.585 J-0.000 K0.000 F800.000
G1 X115.000 Y186.485 Z2.500 F800.000
G2 X116.121 Y186.021 Z2.500 I-0.000 J-1.585 K0.000 F800.000
G1 X116.121 Y186.021 Z1.000 F800.000
G2 X116.585 Y184.900 Z1.000 I-1.121 J-1.121 K0.000 F800.000
G1 X116.585 Y50.000 Z1.000 F800.000
G2 X116.209 Y48.975 Z1.000 I-1.585 J0.000 K0.000 F800.000
G1 X73.809 Y-1.025 Z1.000 F800.000
G2 X72.600 Y-1.585 Z1.000 I-1.209 J1.025 K0.000 F800.000
G1 X42.400 Y-1.585 Z1.000 F800.000
G2 X41.191 Y-1.025 Z1.000 I0.000 J1.585 K0.000 F800.000
G1 X-1.209 Y48.975 Z1.000 F800.000
G2 X-1.585 Y50.000 Z1.000 I1.209 J1.025 K0.000 F800.000
G1 X-1.585 Y184.900 Z1.000 F800.000
G2 X0.000 Y186.485 Z1.000 I1.585 J-0.000 K0.000 F800.000
G1 X115.000 Y186.485 Z1.000 F800.000
G2 X116.121 Y186.021 Z1.000 I-0.000 J-1.585 K0.000 F800.000
G1 X116.121 Y186.021 Z0.000 F800.000
G2 X116.585 Y184.900 Z0.000 I-1.121 J-1.121 K0.000 F800.000
G1 X116.585 Y50.000 Z0.000 F800.000
G2 X116.209 Y48.975 Z0.000 I-1.585 J0.000 K0.000 F800.000
G1 X73.809 Y-1.025 Z0.000 F800.000
G2 X72.600 Y-1.585 Z0.000 I-1.209 J1.025 K0.000 F800.000
G1 X42.400 Y-1.585 Z0.000 F800.000
G2 X41.191 Y-1.025 Z0.000 I0.000 J1.585 K0.000 F800.000
G1 X-1.209 Y48.975 Z0.000 F800.000
G2 X-1.585 Y50.000 Z0.000 I1.209 J1.025 K0.000 F800.000
G1 X-1.585 Y184.900 Z0.000 F800.000
G2 X0.000 Y186.485 Z0.000 I1.585 J-0.000 K0.000 F800.000
G1 X115.000 Y186.485 Z0.000 F800.000
G2 X116.121 Y186.021 Z0.000 I-0.000 J-1.585 K0.000 F800.000
G0 X116.121 Y186.021 Z21.000
(Finish operation: DressupTag)
(Begin postamble)
M5
G17 G90
M2
