(Exported by FreeCAD)
(Post Processor: script_module)
(Output Time:2025-05-14 00:32:23.498453)
(Begin preamble)
G17 G90
G21
(Begin operation: Fixture)
(Path: Fixture)
G54
(Finish operation: Fixture)
(Begin operation: endmill_compression_3175_spe001)
(Path: endmill_compression_3175_spe001)
(endmill_compression_3175_spe001)
(Begin toolchange)
( M6 T4 )
M3 S1800
(Finish operation: endmill_compression_3175_spe001)
(Begin operation: RampEntryDressup)
(Path: RampEntryDressup)
G0 X0.000 Y0.000 Z21.000
G0 X50.000 Y135.000 Z21.000
G0 X10.597 Y178.115 Z21.000
G0 X10.597 Y178.115 Z19.000
G1 X6.785 Y178.115 Z16.799 F600.000
G1 X6.785 Y178.030 Z16.750 F600.000
G1 X6.785 Y178.115 Z16.701 F600.000
G1 X10.597 Y178.115 Z14.500 F600.000
G1 X6.785 Y178.115 Z14.500 F600.000
G1 X6.785 Y174.303 Z14.500 F600.000
G1 X10.597 Y178.115 Z14.500 F600.000
G1 X14.632 Y178.115 Z14.500 F600.000
G1 X6.785 Y170.268 Z14.500 F600.000
G1 X6.785 Y166.234 Z14.500 F600.000
G1 X18.666 Y178.115 Z14.500 F600.000
G1 X22.701 Y178.115 Z14.500 F600.000
G1 X6.785 Y162.199 Z14.500 F600.000
G1 X6.785 Y158.164 Z14.500 F600.000
G1 X26.736 Y178.115 Z14.500 F600.000
G1 X30.771 Y178.115 Z14.500 F600.000
G1 X6.785 Y154.129 Z14.500 F600.000
G1 X6.785 Y150.095 Z14.500 F600.000
G1 X34.805 Y178.115 Z14.500 F600.000
G1 X38.840 Y178.115 Z14.500 F600.000
G1 X6.785 Y146.060 Z14.500 F600.000
G1 X6.785 Y142.025 Z14.500 F600.000
G1 X42.875 Y178.115 Z14.500 F600.000
G1 X46.910 Y178.115 Z14.500 F600.000
G1 X6.785 Y137.990 Z14.500 F600.000
G1 X6.785 Y133.956 Z14.500 F600.000
G1 X50.944 Y178.115 Z14.500 F600.000
G1 X54.979 Y178.115 Z14.500 F600.000
G1 X6.785 Y129.921 Z14.500 F600.000
G1 X6.785 Y125.886 Z14.500 F600.000
G1 X59.014 Y178.115 Z14.500 F600.000
G1 X63.049 Y178.115 Z14.500 F600.000
G1 X6.785 Y121.851 Z14.500 F600.000
G1 X6.785 Y117.817 Z14.500 F600.000
G1 X67.083 Y178.115 Z14.500 F600.000
G1 X71.118 Y178.115 Z14.500 F600.000
G1 X6.785 Y113.782 Z14.500 F600.000
G1 X6.785 Y109.747 Z14.500 F600.000
G1 X75.153 Y178.115 Z14.500 F600.000
G1 X79.188 Y178.115 Z14.500 F600.000
G1 X6.785 Y105.712 Z14.500 F600.000
G1 X6.785 Y101.678 Z14.500 F600.000
G1 X83.222 Y178.115 Z14.500 F600.000
G1 X87.257 Y178.115 Z14.500 F600.000
G1 X6.785 Y97.643 Z14.500 F600.000
G1 X6.785 Y93.608 Z14.500 F600.000
G1 X91.292 Y178.115 Z14.500 F600.000
G1 X95.327 Y178.115 Z14.500 F600.000
G1 X6.785 Y89.573 Z14.500 F600.000
G1 X6.785 Y85.539 Z14.500 F600.000
G1 X99.361 Y178.115 Z14.500 F600.000
G1 X103.396 Y178.115 Z14.500 F600.000
G1 X6.785 Y81.504 Z14.500 F600.000
G1 X6.785 Y77.469 Z14.500 F600.000
G1 X107.431 Y178.115 Z14.500 F600.000
G1 X108.215 Y178.115 Z14.500 F600.000
G1 X108.215 Y174.864 Z14.500 F600.000
G1 X6.785 Y73.434 Z14.500 F600.000
G1 X6.785 Y69.400 Z14.500 F600.000
G1 X108.215 Y170.830 Z14.500 F600.000
G1 X108.215 Y166.795 Z14.500 F600.000
G1 X6.785 Y65.365 Z14.500 F600.000
G1 X6.785 Y61.330 Z14.500 F600.000
G1 X108.215 Y162.760 Z14.500 F600.000
G1 X108.215 Y158.725 Z14.500 F600.000
G1 X6.785 Y57.295 Z14.500 F600.000
G1 X6.785 Y53.261 Z14.500 F600.000
G1 X108.215 Y154.691 Z14.500 F600.000
G1 X108.215 Y150.656 Z14.500 F600.000
G1 X7.468 Y49.909 Z14.500 F600.000
G1 X9.365 Y47.771 Z14.500 F600.000
G1 X108.215 Y146.621 Z14.500 F600.000
G1 X108.215 Y142.586 Z14.500 F600.000
G1 X11.263 Y45.634 Z14.500 F600.000
G1 X13.160 Y43.497 Z14.500 F600.000
G1 X108.215 Y138.552 Z14.500 F600.000
G1 X108.215 Y134.517 Z14.500 F600.000
G1 X15.058 Y41.360 Z14.500 F600.000
G1 X16.955 Y39.222 Z14.500 F600.000
G1 X108.215 Y130.482 Z14.500 F600.000
G1 X108.215 Y126.447 Z14.500 F600.000
G1 X18.853 Y37.085 Z14.500 F600.000
G1 X20.750 Y34.948 Z14.500 F600.000
G1 X108.215 Y122.413 Z14.500 F600.000
G1 X108.215 Y118.378 Z14.500 F600.000
G1 X22.648 Y32.810 Z14.500 F600.000
G1 X24.545 Y30.673 Z14.500 F600.000
G1 X108.215 Y114.343 Z14.500 F600.000
G1 X108.215 Y110.308 Z14.500 F600.000
G1 X26.442 Y28.536 Z14.500 F600.000
G1 X28.340 Y26.398 Z14.500 F600.000
G1 X108.215 Y106.274 Z14.500 F600.000
G1 X108.215 Y102.239 Z14.500 F600.000
G1 X30.237 Y24.261 Z14.500 F600.000
G1 X32.135 Y22.124 Z14.500 F600.000
G1 X108.215 Y98.204 Z14.500 F600.000
G1 X108.215 Y94.169 Z14.500 F600.000
G1 X34.032 Y19.987 Z14.500 F600.000
G1 X35.930 Y17.849 Z14.500 F600.000
G1 X108.215 Y90.135 Z14.500 F600.000
G1 X108.215 Y86.100 Z14.500 F600.000
G1 X37.827 Y15.712 Z14.500 F600.000
G1 X39.725 Y13.575 Z14.500 F600.000
G1 X108.215 Y82.065 Z14.500 F600.000
G1 X108.215 Y78.030 Z14.500 F600.000
G1 X41.622 Y11.437 Z14.500 F600.000
G1 X43.519 Y9.300 Z14.500 F600.000
G1 X108.215 Y73.996 Z14.500 F600.000
G1 X108.215 Y69.961 Z14.500 F600.000
G1 X45.417 Y7.163 Z14.500 F600.000
G1 X45.752 Y6.785 Z14.500 F600.000
G1 X49.074 Y6.785 Z14.500 F600.000
G1 X108.215 Y65.926 Z14.500 F600.000
G1 X108.215 Y61.891 Z14.500 F600.000
G1 X53.109 Y6.785 Z14.500 F600.000
G1 X57.143 Y6.785 Z14.500 F600.000
G1 X108.215 Y57.857 Z14.500 F600.000
G1 X108.215 Y53.822 Z14.500 F600.000
G1 X61.178 Y6.785 Z14.500 F600.000
G1 X65.213 Y6.785 Z14.500 F600.000
G1 X101.166 Y42.738 Z14.500 F600.000
G1 X69.248 Y6.785 Z14.500 F600.000
G1 X70.110 Y7.756 Z13.750 F600.000
G1 X69.248 Y6.785 Z13.000 F600.000
G1 X101.166 Y42.738 Z13.000 F600.000
G1 X65.213 Y6.785 Z13.000 F600.000
G1 X61.178 Y6.785 Z13.000 F600.000
G1 X108.215 Y53.822 Z13.000 F600.000
G1 X108.215 Y57.857 Z13.000 F600.000
G1 X57.143 Y6.785 Z13.000 F600.000
G1 X53.109 Y6.785 Z13.000 F600.000
G1 X108.215 Y61.891 Z13.000 F600.000
G1 X108.215 Y65.926 Z13.000 F600.000
G1 X49.074 Y6.785 Z13.000 F600.000
G1 X45.752 Y6.785 Z13.000 F600.000
G1 X45.417 Y7.163 Z13.000 F600.000
G1 X108.215 Y69.961 Z13.000 F600.000
G1 X108.215 Y73.996 Z13.000 F600.000
G1 X43.519 Y9.300 Z13.000 F600.000
G1 X41.622 Y11.437 Z13.000 F600.000
G1 X108.215 Y78.030 Z13.000 F600.000
G1 X108.215 Y82.065 Z13.000 F600.000
G1 X39.725 Y13.575 Z13.000 F600.000
G1 X37.827 Y15.712 Z13.000 F600.000
G1 X108.215 Y86.100 Z13.000 F600.000
G1 X108.215 Y90.135 Z13.000 F600.000
G1 X35.930 Y17.849 Z13.000 F600.000
G1 X34.032 Y19.987 Z13.000 F600.000
G1 X108.215 Y94.169 Z13.000 F600.000
G1 X108.215 Y98.204 Z13.000 F600.000
G1 X32.135 Y22.124 Z13.000 F600.000
G1 X30.237 Y24.261 Z13.000 F600.000
G1 X108.215 Y102.239 Z13.000 F600.000
G1 X108.215 Y106.274 Z13.000 F600.000
G1 X28.340 Y26.398 Z13.000 F600.000
G1 X26.442 Y28.536 Z13.000 F600.000
G1 X108.215 Y110.308 Z13.000 F600.000
G1 X108.215 Y114.343 Z13.000 F600.000
G1 X24.545 Y30.673 Z13.000 F600.000
G1 X22.648 Y32.810 Z13.000 F600.000
G1 X108.215 Y118.378 Z13.000 F600.000
G1 X108.215 Y122.413 Z13.000 F600.000
G1 X20.750 Y34.948 Z13.000 F600.000
G1 X18.853 Y37.085 Z13.000 F600.000
G1 X108.215 Y126.447 Z13.000 F600.000
G1 X108.215 Y130.482 Z13.000 F600.000
G1 X16.955 Y39.222 Z13.000 F600.000
G1 X15.058 Y41.360 Z13.000 F600.000
G1 X108.215 Y134.517 Z13.000 F600.000
G1 X108.215 Y138.552 Z13.000 F600.000
G1 X13.160 Y43.497 Z13.000 F600.000
G1 X11.263 Y45.634 Z13.000 F600.000
G1 X108.215 Y142.586 Z13.000 F600.000
G1 X108.215 Y146.621 Z13.000 F600.000
G1 X9.365 Y47.771 Z13.000 F600.000
G1 X7.468 Y49.909 Z13.000 F600.000
G1 X108.215 Y150.656 Z13.000 F600.000
G1 X108.215 Y154.691 Z13.000 F600.000
G1 X6.785 Y53.261 Z13.000 F600.000
G1 X6.785 Y57.295 Z13.000 F600.000
G1 X108.215 Y158.725 Z13.000 F600.000
G1 X108.215 Y162.760 Z13.000 F600.000
G1 X6.785 Y61.330 Z13.000 F600.000
G1 X6.785 Y65.365 Z13.000 F600.000
G1 X108.215 Y166.795 Z13.000 F600.000
G1 X108.215 Y170.830 Z13.000 F600.000
G1 X6.785 Y69.400 Z13.000 F600.000
G1 X6.785 Y73.434 Z13.000 F600.000
G1 X108.215 Y174.864 Z13.000 F600.000
G1 X108.215 Y178.115 Z13.000 F600.000
G1 X107.431 Y178.115 Z13.000 F600.000
G1 X6.785 Y77.469 Z13.000 F600.000
G1 X6.785 Y81.504 Z13.000 F600.000
G1 X103.396 Y178.115 Z13.000 F600.000
G1 X99.361 Y178.115 Z13.000 F600.000
G1 X6.785 Y85.539 Z13.000 F600.000
G1 X6.785 Y89.573 Z13.000 F600.000
G1 X95.327 Y178.115 Z13.000 F600.000
G1 X91.292 Y178.115 Z13.000 F600.000
G1 X6.785 Y93.608 Z13.000 F600.000
G1 X6.785 Y97.643 Z13.000 F600.000
G1 X87.257 Y178.115 Z13.000 F600.000
G1 X83.222 Y178.115 Z13.000 F600.000
G1 X6.785 Y101.678 Z13.000 F600.000
G1 X6.785 Y105.712 Z13.000 F600.000
G1 X79.188 Y178.115 Z13.000 F600.000
G1 X75.153 Y178.115 Z13.000 F600.000
G1 X6.785 Y109.747 Z13.000 F600.000
G1 X6.785 Y113.782 Z13.000 F600.000
G1 X71.118 Y178.115 Z13.000 F600.000
G1 X67.083 Y178.115 Z13.000 F600.000
G1 X6.785 Y117.817 Z13.000 F600.000
G1 X6.785 Y121.851 Z13.000 F600.000
G1 X63.049 Y178.115 Z13.000 F600.000
G1 X59.014 Y178.115 Z13.000 F600.000
G1 X6.785 Y125.886 Z13.000 F600.000
G1 X6.785 Y129.921 Z13.000 F600.000
G1 X54.979 Y178.115 Z13.000 F600.000
G1 X50.944 Y178.115 Z13.000 F600.000
G1 X6.785 Y133.956 Z13.000 F600.000
G1 X6.785 Y137.990 Z13.000 F600.000
G1 X46.910 Y178.115 Z13.000 F600.000
G1 X42.875 Y178.115 Z13.000 F600.000
G1 X6.785 Y142.025 Z13.000 F600.000
G1 X6.785 Y146.060 Z13.000 F600.000
G1 X38.840 Y178.115 Z13.000 F600.000
G1 X34.805 Y178.115 Z13.000 F600.000
G1 X6.785 Y150.095 Z13.000 F600.000
G1 X6.785 Y154.129 Z13.000 F600.000
G1 X30.771 Y178.115 Z13.000 F600.000
G1 X26.736 Y178.115 Z13.000 F600.000
G1 X6.785 Y158.164 Z13.000 F600.000
G1 X6.785 Y162.199 Z13.000 F600.000
G1 X22.701 Y178.115 Z13.000 F600.000
G1 X18.666 Y178.115 Z13.000 F600.000
G1 X6.785 Y166.234 Z13.000 F600.000
G1 X6.785 Y170.268 Z13.000 F600.000
G1 X14.632 Y178.115 Z13.000 F600.000
G1 X10.597 Y178.115 Z13.000 F600.000
G1 X6.785 Y174.303 Z13.000 F600.000
G1 X6.785 Y178.115 Z13.000 F600.000
G1 X10.597 Y178.115 Z13.000 F600.000
G1 X9.298 Y178.115 Z12.250 F600.000
G1 X10.597 Y178.115 Z11.500 F600.000
G1 X6.785 Y178.115 Z11.500 F600.000
G1 X6.785 Y174.303 Z11.500 F600.000
G1 X10.597 Y178.115 Z11.500 F600.000
G1 X14.632 Y178.115 Z11.500 F600.000
G1 X6.785 Y170.268 Z11.500 F600.000
G1 X6.785 Y166.234 Z11.500 F600.000
G1 X18.666 Y178.115 Z11.500 F600.000
G1 X22.701 Y178.115 Z11.500 F600.000
G1 X6.785 Y162.199 Z11.500 F600.000
G1 X6.785 Y158.164 Z11.500 F600.000
G1 X26.736 Y178.115 Z11.500 F600.000
G1 X30.771 Y178.115 Z11.500 F600.000
G1 X6.785 Y154.129 Z11.500 F600.000
G1 X6.785 Y150.095 Z11.500 F600.000
G1 X34.805 Y178.115 Z11.500 F600.000
G1 X38.840 Y178.115 Z11.500 F600.000
G1 X6.785 Y146.060 Z11.500 F600.000
G1 X6.785 Y142.025 Z11.500 F600.000
G1 X42.875 Y178.115 Z11.500 F600.000
G1 X46.910 Y178.115 Z11.500 F600.000
G1 X6.785 Y137.990 Z11.500 F600.000
G1 X6.785 Y133.956 Z11.500 F600.000
G1 X50.944 Y178.115 Z11.500 F600.000
G1 X54.979 Y178.115 Z11.500 F600.000
G1 X6.785 Y129.921 Z11.500 F600.000
G1 X6.785 Y125.886 Z11.500 F600.000
G1 X59.014 Y178.115 Z11.500 F600.000
G1 X63.049 Y178.115 Z11.500 F600.000
G1 X6.785 Y121.851 Z11.500 F600.000
G1 X6.785 Y117.817 Z11.500 F600.000
G1 X67.083 Y178.115 Z11.500 F600.000
G1 X71.118 Y178.115 Z11.500 F600.000
G1 X6.785 Y113.782 Z11.500 F600.000
G1 X6.785 Y109.747 Z11.500 F600.000
G1 X75.153 Y178.115 Z11.500 F600.000
G1 X79.188 Y178.115 Z11.500 F600.000
G1 X6.785 Y105.712 Z11.500 F600.000
G1 X6.785 Y101.678 Z11.500 F600.000
G1 X83.222 Y178.115 Z11.500 F600.000
G1 X87.257 Y178.115 Z11.500 F600.000
G1 X6.785 Y97.643 Z11.500 F600.000
G1 X6.785 Y93.608 Z11.500 F600.000
G1 X91.292 Y178.115 Z11.500 F600.000
G1 X95.327 Y178.115 Z11.500 F600.000
G1 X6.785 Y89.573 Z11.500 F600.000
G1 X6.785 Y85.539 Z11.500 F600.000
G1 X99.361 Y178.115 Z11.500 F600.000
G1 X103.396 Y178.115 Z11.500 F600.000
G1 X6.785 Y81.504 Z11.500 F600.000
G1 X6.785 Y77.469 Z11.500 F600.000
G1 X107.431 Y178.115 Z11.500 F600.000
G1 X108.215 Y178.115 Z11.500 F600.000
G1 X108.215 Y174.864 Z11.500 F600.000
G1 X6.785 Y73.434 Z11.500 F600.000
G1 X6.785 Y69.400 Z11.500 F600.000
G1 X108.215 Y170.830 Z11.500 F600.000
G1 X108.215 Y166.795 Z11.500 F600.000
G1 X6.785 Y65.365 Z11.500 F600.000
G1 X6.785 Y61.330 Z11.500 F600.000
G1 X108.215 Y162.760 Z11.500 F600.000
G1 X108.215 Y158.725 Z11.500 F600.000
G1 X6.785 Y57.295 Z11.500 F600.000
G1 X6.785 Y53.261 Z11.500 F600.000
G1 X108.215 Y154.691 Z11.500 F600.000
G1 X108.215 Y150.656 Z11.500 F600.000
G1 X7.468 Y49.909 Z11.500 F600.000
G1 X9.365 Y47.771 Z11.500 F600.000
G1 X108.215 Y146.621 Z11.500 F600.000
G1 X108.215 Y142.586 Z11.500 F600.000
G1 X11.263 Y45.634 Z11.500 F600.000
G1 X13.160 Y43.497 Z11.500 F600.000
G1 X108.215 Y138.552 Z11.500 F600.000
G1 X108.215 Y134.517 Z11.500 F600.000
G1 X15.058 Y41.360 Z11.500 F600.000
G1 X16.955 Y39.222 Z11.500 F600.000
G1 X108.215 Y130.482 Z11.500 F600.000
G1 X108.215 Y126.447 Z11.500 F600.000
G1 X18.853 Y37.085 Z11.500 F600.000
G1 X20.750 Y34.948 Z11.500 F600.000
G1 X108.215 Y122.413 Z11.500 F600.000
G1 X108.215 Y118.378 Z11.500 F600.000
G1 X22.648 Y32.810 Z11.500 F600.000
G1 X24.545 Y30.673 Z11.500 F600.000
G1 X108.215 Y114.343 Z11.500 F600.000
G1 X108.215 Y110.308 Z11.500 F600.000
G1 X26.442 Y28.536 Z11.500 F600.000
G1 X28.340 Y26.398 Z11.500 F600.000
G1 X108.215 Y106.274 Z11.500 F600.000
G1 X108.215 Y102.239 Z11.500 F600.000
G1 X30.237 Y24.261 Z11.500 F600.000
G1 X32.135 Y22.124 Z11.500 F600.000
G1 X108.215 Y98.204 Z11.500 F600.000
G1 X108.215 Y94.169 Z11.500 F600.000
G1 X34.032 Y19.987 Z11.500 F600.000
G1 X35.930 Y17.849 Z11.500 F600.000
G1 X108.215 Y90.135 Z11.500 F600.000
G1 X108.215 Y86.100 Z11.500 F600.000
G1 X37.827 Y15.712 Z11.500 F600.000
G1 X39.725 Y13.575 Z11.500 F600.000
G1 X108.215 Y82.065 Z11.500 F600.000
G1 X108.215 Y78.030 Z11.500 F600.000
G1 X41.622 Y11.437 Z11.500 F600.000
G1 X43.519 Y9.300 Z11.500 F600.000
G1 X108.215 Y73.996 Z11.500 F600.000
G1 X108.215 Y69.961 Z11.500 F600.000
G1 X45.417 Y7.163 Z11.500 F600.000
G1 X45.752 Y6.785 Z11.500 F600.000
G1 X49.074 Y6.785 Z11.500 F600.000
G1 X108.215 Y65.926 Z11.500 F600.000
G1 X108.215 Y61.891 Z11.500 F600.000
G1 X53.109 Y6.785 Z11.500 F600.000
G1 X57.143 Y6.785 Z11.500 F600.000
G1 X108.215 Y57.857 Z11.500 F600.000
G1 X108.215 Y53.822 Z11.500 F600.000
G1 X61.178 Y6.785 Z11.500 F600.000
G1 X65.213 Y6.785 Z11.500 F600.000
G1 X101.166 Y42.738 Z11.500 F600.000
G1 X69.248 Y6.785 Z11.500 F600.000
G1 X69.535 Y7.109 Z11.250 F600.000
G1 X69.248 Y6.785 Z11.000 F600.000
G1 X101.166 Y42.738 Z11.000 F600.000
G1 X65.213 Y6.785 Z11.000 F600.000
G1 X61.178 Y6.785 Z11.000 F600.000
G1 X108.215 Y53.822 Z11.000 F600.000
G1 X108.215 Y57.857 Z11.000 F600.000
G1 X57.143 Y6.785 Z11.000 F600.000
G1 X53.109 Y6.785 Z11.000 F600.000
G1 X108.215 Y61.891 Z11.000 F600.000
G1 X108.215 Y65.926 Z11.000 F600.000
G1 X49.074 Y6.785 Z11.000 F600.000
G1 X45.752 Y6.785 Z11.000 F600.000
G1 X45.417 Y7.163 Z11.000 F600.000
G1 X108.215 Y69.961 Z11.000 F600.000
G1 X108.215 Y73.996 Z11.000 F600.000
G1 X43.519 Y9.300 Z11.000 F600.000
G1 X41.622 Y11.437 Z11.000 F600.000
G1 X108.215 Y78.030 Z11.000 F600.000
G1 X108.215 Y82.065 Z11.000 F600.000
G1 X39.725 Y13.575 Z11.000 F600.000
G1 X37.827 Y15.712 Z11.000 F600.000
G1 X108.215 Y86.100 Z11.000 F600.000
G1 X108.215 Y90.135 Z11.000 F600.000
G1 X35.930 Y17.849 Z11.000 F600.000
G1 X34.032 Y19.987 Z11.000 F600.000
G1 X108.215 Y94.169 Z11.000 F600.000
G1 X108.215 Y98.204 Z11.000 F600.000
G1 X32.135 Y22.124 Z11.000 F600.000
G1 X30.237 Y24.261 Z11.000 F600.000
G1 X108.215 Y102.239 Z11.000 F600.000
G1 X108.215 Y106.274 Z11.000 F600.000
G1 X28.340 Y26.398 Z11.000 F600.000
G1 X26.442 Y28.536 Z11.000 F600.000
G1 X108.215 Y110.308 Z11.000 F600.000
G1 X108.215 Y114.343 Z11.000 F600.000
G1 X24.545 Y30.673 Z11.000 F600.000
G1 X22.648 Y32.810 Z11.000 F600.000
G1 X108.215 Y118.378 Z11.000 F600.000
G1 X108.215 Y122.413 Z11.000 F600.000
G1 X20.750 Y34.948 Z11.000 F600.000
G1 X18.853 Y37.085 Z11.000 F600.000
G1 X108.215 Y126.447 Z11.000 F600.000
G1 X108.215 Y130.482 Z11.000 F600.000
G1 X16.955 Y39.222 Z11.000 F600.000
G1 X15.058 Y41.360 Z11.000 F600.000
G1 X108.215 Y134.517 Z11.000 F600.000
G1 X108.215 Y138.552 Z11.000 F600.000
G1 X13.160 Y43.497 Z11.000 F600.000
G1 X11.263 Y45.634 Z11.000 F600.000
G1 X108.215 Y142.586 Z11.000 F600.000
G1 X108.215 Y146.621 Z11.000 F600.000
G1 X9.365 Y47.771 Z11.000 F600.000
G1 X7.468 Y49.909 Z11.000 F600.000
G1 X108.215 Y150.656 Z11.000 F600.000
G1 X108.215 Y154.691 Z11.000 F600.000
G1 X6.785 Y53.261 Z11.000 F600.000
G1 X6.785 Y57.295 Z11.000 F600.000
G1 X108.215 Y158.725 Z11.000 F600.000
G1 X108.215 Y162.760 Z11.000 F600.000
G1 X6.785 Y61.330 Z11.000 F600.000
G1 X6.785 Y65.365 Z11.000 F600.000
G1 X108.215 Y166.795 Z11.000 F600.000
G1 X108.215 Y170.830 Z11.000 F600.000
G1 X6.785 Y69.400 Z11.000 F600.000
G1 X6.785 Y73.434 Z11.000 F600.000
G1 X108.215 Y174.864 Z11.000 F600.000
G1 X108.215 Y178.115 Z11.000 F600.000
G1 X107.431 Y178.115 Z11.000 F600.000
G1 X6.785 Y77.469 Z11.000 F600.000
G1 X6.785 Y81.504 Z11.000 F600.000
G1 X103.396 Y178.115 Z11.000 F600.000
G1 X99.361 Y178.115 Z11.000 F600.000
G1 X6.785 Y85.539 Z11.000 F600.000
G1 X6.785 Y89.573 Z11.000 F600.000
G1 X95.327 Y178.115 Z11.000 F600.000
G1 X91.292 Y178.115 Z11.000 F600.000
G1 X6.785 Y93.608 Z11.000 F600.000
G1 X6.785 Y97.643 Z11.000 F600.000
G1 X87.257 Y178.115 Z11.000 F600.000
G1 X83.222 Y178.115 Z11.000 F600.000
G1 X6.785 Y101.678 Z11.000 F600.000
G1 X6.785 Y105.712 Z11.000 F600.000
G1 X79.188 Y178.115 Z11.000 F600.000
G1 X75.153 Y178.115 Z11.000 F600.000
G1 X6.785 Y109.747 Z11.000 F600.000
G1 X6.785 Y113.782 Z11.000 F600.000
G1 X71.118 Y178.115 Z11.000 F600.000
G1 X67.083 Y178.115 Z11.000 F600.000
G1 X6.785 Y117.817 Z11.000 F600.000
G1 X6.785 Y121.851 Z11.000 F600.000
G1 X63.049 Y178.115 Z11.000 F600.000
G1 X59.014 Y178.115 Z11.000 F600.000
G1 X6.785 Y125.886 Z11.000 F600.000
G1 X6.785 Y129.921 Z11.000 F600.000
G1 X54.979 Y178.115 Z11.000 F600.000
G1 X50.944 Y178.115 Z11.000 F600.000
G1 X6.785 Y133.956 Z11.000 F600.000
G1 X6.785 Y137.990 Z11.000 F600.000
G1 X46.910 Y178.115 Z11.000 F600.000
G1 X42.875 Y178.115 Z11.000 F600.000
G1 X6.785 Y142.025 Z11.000 F600.000
G1 X6.785 Y146.060 Z11.000 F600.000
G1 X38.840 Y178.115 Z11.000 F600.000
G1 X34.805 Y178.115 Z11.000 F600.000
G1 X6.785 Y150.095 Z11.000 F600.000
G1 X6.785 Y154.129 Z11.000 F600.000
G1 X30.771 Y178.115 Z11.000 F600.000
G1 X26.736 Y178.115 Z11.000 F600.000
G1 X6.785 Y158.164 Z11.000 F600.000
G1 X6.785 Y162.199 Z11.000 F600.000
G1 X22.701 Y178.115 Z11.000 F600.000
G1 X18.666 Y178.115 Z11.000 F600.000
G1 X6.785 Y166.234 Z11.000 F600.000
G1 X6.785 Y170.268 Z11.000 F600.000
G1 X14.632 Y178.115 Z11.000 F600.000
G1 X10.597 Y178.115 Z11.000 F600.000
G1 X6.785 Y174.303 Z11.000 F600.000
G1 X6.785 Y178.115 Z11.000 F600.000
G1 X10.597 Y178.115 Z11.000 F600.000
G0 X10.597 Y178.115 Z21.000
(Finish operation: RampEntryDressup)
(Begin operation: RampEntryDressup001)
(Path: RampEntryDressup001)
G0 X0.000 Y0.000 Z21.000
G0 X108.215 Y99.985 Z21.000
G0 X108.215 Y99.985 Z19.000
G1 X108.215 Y104.020 Z16.671 F600.000
G1 X105.250 Y101.055 Z14.250 F600.000
G1 X108.215 Y104.020 Z11.829 F600.000
G1 X108.215 Y99.985 Z9.500 F600.000
G1 X108.215 Y104.020 Z9.500 F600.000
G1 X104.180 Y99.985 Z9.500 F600.000
G1 X100.145 Y99.985 Z9.500 F600.000
G1 X108.215 Y108.055 Z9.500 F600.000
G1 X108.215 Y112.089 Z9.500 F600.000
G1 X96.111 Y99.985 Z9.500 F600.000
G1 X92.076 Y99.985 Z9.500 F600.000
G1 X108.215 Y116.124 Z9.500 F600.000
G1 X108.215 Y120.159 Z9.500 F600.000
G1 X88.041 Y99.985 Z9.500 F600.000
G1 X84.006 Y99.985 Z9.500 F600.000
G1 X108.215 Y124.194 Z9.500 F600.000
G1 X108.215 Y128.228 Z9.500 F600.000
G1 X79.972 Y99.985 Z9.500 F600.000
G1 X75.937 Y99.985 Z9.500 F600.000
G1 X108.215 Y132.263 Z9.500 F600.000
G1 X108.215 Y136.298 Z9.500 F600.000
G1 X71.902 Y99.985 Z9.500 F600.000
G1 X67.867 Y99.985 Z9.500 F600.000
G1 X108.215 Y140.333 Z9.500 F600.000
G1 X108.215 Y144.367 Z9.500 F600.000
G1 X63.833 Y99.985 Z9.500 F600.000
G1 X59.798 Y99.985 Z9.500 F600.000
G1 X108.215 Y148.402 Z9.500 F600.000
G1 X108.215 Y152.437 Z9.500 F600.000
G1 X55.763 Y99.985 Z9.500 F600.000
G1 X51.728 Y99.985 Z9.500 F600.000
G1 X108.215 Y156.472 Z9.500 F600.000
G1 X108.215 Y160.506 Z9.500 F600.000
G1 X47.694 Y99.985 Z9.500 F600.000
G1 X43.659 Y99.985 Z9.500 F600.000
G1 X108.215 Y164.541 Z9.500 F600.000
G1 X108.215 Y168.576 Z9.500 F600.000
G1 X39.624 Y99.985 Z9.500 F600.000
G1 X35.589 Y99.985 Z9.500 F600.000
G1 X108.215 Y172.611 Z9.500 F600.000
G1 X108.215 Y176.645 Z9.500 F600.000
G1 X31.555 Y99.985 Z9.500 F600.000
G1 X27.520 Y99.985 Z9.500 F600.000
G1 X105.650 Y178.115 Z9.500 F600.000
G1 X101.615 Y178.115 Z9.500 F600.000
G1 X23.485 Y99.985 Z9.500 F600.000
G1 X19.450 Y99.985 Z9.500 F600.000
G1 X97.580 Y178.115 Z9.500 F600.000
G1 X93.546 Y178.115 Z9.500 F600.000
G1 X15.416 Y99.985 Z9.500 F600.000
G1 X11.381 Y99.985 Z9.500 F600.000
G1 X89.511 Y178.115 Z9.500 F600.000
G1 X85.476 Y178.115 Z9.500 F600.000
G1 X7.346 Y99.985 Z9.500 F600.000
G1 X6.785 Y99.985 Z9.500 F600.000
G1 X6.785 Y103.459 Z9.500 F600.000
G1 X81.441 Y178.115 Z9.500 F600.000
G1 X77.407 Y178.115 Z9.500 F600.000
G1 X6.785 Y107.493 Z9.500 F600.000
G1 X6.785 Y111.528 Z9.500 F600.000
G1 X73.372 Y178.115 Z9.500 F600.000
G1 X69.337 Y178.115 Z9.500 F600.000
G1 X6.785 Y115.563 Z9.500 F600.000
G1 X6.785 Y119.598 Z9.500 F600.000
G1 X65.302 Y178.115 Z9.500 F600.000
G1 X61.268 Y178.115 Z9.500 F600.000
G1 X6.785 Y123.632 Z9.500 F600.000
G1 X6.785 Y127.667 Z9.500 F600.000
G1 X57.233 Y178.115 Z9.500 F600.000
G1 X53.198 Y178.115 Z9.500 F600.000
G1 X6.785 Y131.702 Z9.500 F600.000
G1 X6.785 Y135.737 Z9.500 F600.000
G1 X49.163 Y178.115 Z9.500 F600.000
G1 X45.129 Y178.115 Z9.500 F600.000
G1 X6.785 Y139.771 Z9.500 F600.000
G1 X6.785 Y143.806 Z9.500 F600.000
G1 X41.094 Y178.115 Z9.500 F600.000
G1 X37.059 Y178.115 Z9.500 F600.000
G1 X6.785 Y147.841 Z9.500 F600.000
G1 X6.785 Y151.876 Z9.500 F600.000
G1 X33.024 Y178.115 Z9.500 F600.000
G1 X28.990 Y178.115 Z9.500 F600.000
G1 X6.785 Y155.910 Z9.500 F600.000
G1 X6.785 Y159.945 Z9.500 F600.000
G1 X24.955 Y178.115 Z9.500 F600.000
G1 X20.920 Y178.115 Z9.500 F600.000
G1 X6.785 Y163.980 Z9.500 F600.000
G1 X6.785 Y168.015 Z9.500 F600.000
G1 X16.885 Y178.115 Z9.500 F600.000
G1 X12.851 Y178.115 Z9.500 F600.000
G1 X6.785 Y172.049 Z9.500 F600.000
G1 X6.785 Y176.084 Z9.500 F600.000
G1 X6.785 Y178.115 Z9.500 F600.000
G1 X8.816 Y178.115 Z9.500 F600.000
G1 X6.785 Y176.084 Z9.500 F600.000
G1 X7.704 Y177.003 Z8.750 F600.000
G1 X6.785 Y176.084 Z8.000 F600.000
G1 X8.816 Y178.115 Z8.000 F600.000
G1 X6.785 Y178.115 Z8.000 F600.000
G1 X6.785 Y176.084 Z8.000 F600.000
G1 X6.785 Y172.049 Z8.000 F600.000
G1 X12.851 Y178.115 Z8.000 F600.000
G1 X16.885 Y178.115 Z8.000 F600.000
G1 X6.785 Y168.015 Z8.000 F600.000
G1 X6.785 Y163.980 Z8.000 F600.000
G1 X20.920 Y178.115 Z8.000 F600.000
G1 X24.955 Y178.115 Z8.000 F600.000
G1 X6.785 Y159.945 Z8.000 F600.000
G1 X6.785 Y155.910 Z8.000 F600.000
G1 X28.990 Y178.115 Z8.000 F600.000
G1 X33.024 Y178.115 Z8.000 F600.000
G1 X6.785 Y151.876 Z8.000 F600.000
G1 X6.785 Y147.841 Z8.000 F600.000
G1 X37.059 Y178.115 Z8.000 F600.000
G1 X41.094 Y178.115 Z8.000 F600.000
G1 X6.785 Y143.806 Z8.000 F600.000
G1 X6.785 Y139.771 Z8.000 F600.000
G1 X45.129 Y178.115 Z8.000 F600.000
G1 X49.163 Y178.115 Z8.000 F600.000
G1 X6.785 Y135.737 Z8.000 F600.000
G1 X6.785 Y131.702 Z8.000 F600.000
G1 X53.198 Y178.115 Z8.000 F600.000
G1 X57.233 Y178.115 Z8.000 F600.000
G1 X6.785 Y127.667 Z8.000 F600.000
G1 X6.785 Y123.632 Z8.000 F600.000
G1 X61.268 Y178.115 Z8.000 F600.000
G1 X65.302 Y178.115 Z8.000 F600.000
G1 X6.785 Y119.598 Z8.000 F600.000
G1 X6.785 Y115.563 Z8.000 F600.000
G1 X69.337 Y178.115 Z8.000 F600.000
G1 X73.372 Y178.115 Z8.000 F600.000
G1 X6.785 Y111.528 Z8.000 F600.000
G1 X6.785 Y107.493 Z8.000 F600.000
G1 X77.407 Y178.115 Z8.000 F600.000
G1 X81.441 Y178.115 Z8.000 F600.000
G1 X6.785 Y103.459 Z8.000 F600.000
G1 X6.785 Y99.985 Z8.000 F600.000
G1 X7.346 Y99.985 Z8.000 F600.000
G1 X85.476 Y178.115 Z8.000 F600.000
G1 X89.511 Y178.115 Z8.000 F600.000
G1 X11.381 Y99.985 Z8.000 F600.000
G1 X15.416 Y99.985 Z8.000 F600.000
G1 X93.546 Y178.115 Z8.000 F600.000
G1 X97.580 Y178.115 Z8.000 F600.000
G1 X19.450 Y99.985 Z8.000 F600.000
G1 X23.485 Y99.985 Z8.000 F600.000
G1 X101.615 Y178.115 Z8.000 F600.000
G1 X105.650 Y178.115 Z8.000 F600.000
G1 X27.520 Y99.985 Z8.000 F600.000
G1 X31.555 Y99.985 Z8.000 F600.000
G1 X108.215 Y176.645 Z8.000 F600.000
G1 X108.215 Y172.611 Z8.000 F600.000
G1 X35.589 Y99.985 Z8.000 F600.000
G1 X39.624 Y99.985 Z8.000 F600.000
G1 X108.215 Y168.576 Z8.000 F600.000
G1 X108.215 Y164.541 Z8.000 F600.000
G1 X43.659 Y99.985 Z8.000 F600.000
G1 X47.694 Y99.985 Z8.000 F600.000
G1 X108.215 Y160.506 Z8.000 F600.000
G1 X108.215 Y156.472 Z8.000 F600.000
G1 X51.728 Y99.985 Z8.000 F600.000
G1 X55.763 Y99.985 Z8.000 F600.000
G1 X108.215 Y152.437 Z8.000 F600.000
G1 X108.215 Y148.402 Z8.000 F600.000
G1 X59.798 Y99.985 Z8.000 F600.000
G1 X63.833 Y99.985 Z8.000 F600.000
G1 X108.215 Y144.367 Z8.000 F600.000
G1 X108.215 Y140.333 Z8.000 F600.000
G1 X67.867 Y99.985 Z8.000 F600.000
G1 X71.902 Y99.985 Z8.000 F600.000
G1 X108.215 Y136.298 Z8.000 F600.000
G1 X108.215 Y132.263 Z8.000 F600.000
G1 X75.937 Y99.985 Z8.000 F600.000
G1 X79.972 Y99.985 Z8.000 F600.000
G1 X108.215 Y128.228 Z8.000 F600.000
G1 X108.215 Y124.194 Z8.000 F600.000
G1 X84.006 Y99.985 Z8.000 F600.000
G1 X88.041 Y99.985 Z8.000 F600.000
G1 X108.215 Y120.159 Z8.000 F600.000
G1 X108.215 Y116.124 Z8.000 F600.000
G1 X92.076 Y99.985 Z8.000 F600.000
G1 X96.111 Y99.985 Z8.000 F600.000
G1 X108.215 Y112.089 Z8.000 F600.000
G1 X108.215 Y108.055 Z8.000 F600.000
G1 X100.145 Y99.985 Z8.000 F600.000
G1 X104.180 Y99.985 Z8.000 F600.000
G1 X108.215 Y104.020 Z8.000 F600.000
G1 X108.215 Y99.985 Z8.000 F600.000
G0 X108.215 Y99.985 Z21.000
(Finish operation: RampEntryDressup001)
(Begin operation: RampEntryDressup002)
(Path: RampEntryDressup002)
G0 X0.000 Y0.000 Z21.000
G0 X48.945 Y73.616 Z21.000
G0 X48.945 Y73.616 Z19.000
G1 X47.869 Y73.139 Z18.325 F600.000
G1 X46.821 Y72.606 Z17.646 F600.000
G1 X45.804 Y72.020 Z16.966 F600.000
G1 X44.819 Y71.382 Z16.284 F600.000
G1 X43.869 Y70.693 Z15.604 F600.000
G1 X42.955 Y69.954 Z14.925 F600.000
G1 X42.080 Y69.167 Z14.250 F600.000
G1 X42.955 Y69.954 Z13.575 F600.000
G1 X43.869 Y70.693 Z12.896 F600.000
G1 X44.819 Y71.382 Z12.216 F600.000
G1 X45.804 Y72.020 Z11.534 F600.000
G1 X46.821 Y72.606 Z10.854 F600.000
G1 X47.869 Y73.139 Z10.175 F600.000
G1 X48.945 Y73.616 Z9.500 F600.000
G3 X36.784 Y61.455 Z9.500 I8.549 J-20.710 K0.000 F600.000
G1 X48.945 Y73.616 Z9.500 F600.000
G2 X53.940 Y75.025 Z9.500 I8.436 J-20.359 K0.000 F600.000
G1 X35.375 Y56.460 Z9.500 F600.000
G3 X35.095 Y52.593 Z9.500 I20.639 J-3.442 K0.000 F600.000
G1 X57.807 Y75.305 Z9.500 F600.000
G2 X61.106 Y75.018 Z9.500 I-0.089 J-20.125 K0.000 F600.000
G1 X35.382 Y49.294 Z9.500 F600.000
G3 X36.060 Y46.386 Z9.500 I20.066 J3.151 K0.000 F600.000
G1 X64.014 Y74.340 Z9.500 F600.000
G2 X66.624 Y73.363 Z9.500 I-5.262 J-18.045 K0.000 F600.000
G1 X37.037 Y43.776 Z9.500 F600.000
G3 X38.262 Y41.415 Z9.500 I15.914 J6.760 K0.000 F600.000
G1 X68.985 Y72.138 Z9.500 F600.000
G2 X71.123 Y70.689 Z9.500 I-8.178 J-14.366 K0.000 F600.000
G1 X39.711 Y39.277 Z9.500 F600.000
G3 X41.369 Y37.349 Z9.500 I13.058 J9.551 K0.000 F600.000
G1 X73.051 Y69.031 Z9.500 F600.000
G2 X74.776 Y67.169 Z9.500 I-10.885 J-11.812 K0.000 F600.000
G1 X43.231 Y35.624 Z9.500 F600.000
G3 X45.299 Y34.106 Z9.500 I10.518 J12.157 K0.000 F600.000
G1 X76.294 Y65.101 Z9.500 F600.000
G2 X77.596 Y62.816 Z9.500 I-13.331 J-9.107 K0.000 F600.000
G1 X47.584 Y32.804 Z9.500 F600.000
G3 X50.107 Y31.741 Z9.500 I9.465 J18.926 K0.000 F600.000
G1 X78.659 Y60.293 Z9.500 F600.000
G2 X79.433 Y57.481 Z9.500 I-19.666 J-6.923 K0.000 F600.000
G1 X52.919 Y30.967 Z9.500 F600.000
G3 X56.074 Y30.536 Z9.500 I4.199 J18.950 K0.000 F600.000
G1 X79.864 Y54.326 Z9.500 F600.000
G2 X79.797 Y50.671 Z9.500 I-20.917 J-1.440 K0.000 F600.000
G1 X59.729 Y30.603 Z9.500 F600.000
G3 X64.246 Y31.535 Z9.500 I-1.960 J20.931 K0.000 F600.000
G1 X78.865 Y46.154 Z9.500 F600.000
G2 X73.349 Y37.051 Z9.500 I-21.219 J6.636 K0.000 F600.000
G1 X74.241 Y37.995 Z8.750 F600.000
G1 X73.349 Y37.051 Z8.000 F600.000
G3 X78.865 Y46.154 Z8.000 I-15.702 J15.739 K0.000 F600.000
G1 X64.246 Y31.535 Z8.000 F600.000
G2 X59.729 Y30.603 Z8.000 I-6.478 J20.000 K0.000 F600.000
G1 X79.797 Y50.671 Z8.000 F600.000
G3 X79.864 Y54.326 Z8.000 I-20.850 J2.214 K0.000 F600.000
G1 X56.074 Y30.536 Z8.000 F600.000
G2 X52.919 Y30.967 Z8.000 I1.044 J19.381 K0.000 F600.000
G1 X79.433 Y57.481 Z8.000 F600.000
G3 X78.659 Y60.293 Z8.000 I-20.440 J-4.110 K0.000 F600.000
G1 X50.107 Y31.741 Z8.000 F600.000
G2 X47.584 Y32.804 Z8.000 I6.942 J19.990 K0.000 F600.000
G1 X77.596 Y62.816 Z8.000 F600.000
G3 X76.294 Y65.101 Z8.000 I-14.633 J-6.822 K0.000 F600.000
G1 X45.299 Y34.106 Z8.000 F600.000
G2 X43.231 Y35.624 Z8.000 I8.450 J13.676 K0.000 F600.000
G1 X74.776 Y67.169 Z8.000 F600.000
G3 X73.051 Y69.031 Z8.000 I-12.610 J-9.951 K0.000 F600.000
G1 X41.369 Y37.349 Z8.000 F600.000
G2 X39.711 Y39.277 Z8.000 I11.400 J11.479 K0.000 F600.000
G1 X71.123 Y70.689 Z8.000 F600.000
G3 X68.985 Y72.138 Z8.000 I-10.316 J-12.917 K0.000 F600.000
G1 X38.262 Y41.415 Z8.000 F600.000
G2 X37.037 Y43.776 Z8.000 I14.689 J9.122 K0.000 F600.000
G1 X66.624 Y73.363 Z8.000 F600.000
G3 X64.014 Y74.340 Z8.000 I-7.872 J-17.069 K0.000 F600.000
G1 X36.060 Y46.386 Z8.000 F600.000
G2 X35.382 Y49.294 Z8.000 I19.387 J6.058 K0.000 F600.000
G1 X61.106 Y75.018 Z8.000 F600.000
G3 X57.807 Y75.305 Z8.000 I-3.389 J-19.838 K0.000 F600.000
G1 X35.095 Y52.593 Z8.000 F600.000
G2 X35.375 Y56.460 Z8.000 I20.920 J0.425 K0.000 F600.000
G1 X53.940 Y75.025 Z8.000 F600.000
G3 X48.945 Y73.616 Z8.000 I3.442 J-21.767 K0.000 F600.000
G1 X36.784 Y61.455 Z8.000 F600.000
G2 X48.945 Y73.616 Z8.000 I20.710 J-8.549 K0.000 F600.000
G1 X47.759 Y73.086 Z7.250 F600.000
G1 X48.945 Y73.616 Z6.500 F600.000
G3 X36.784 Y61.455 Z6.500 I8.549 J-20.710 K0.000 F600.000
G1 X48.945 Y73.616 Z6.500 F600.000
G2 X53.940 Y75.025 Z6.500 I8.436 J-20.359 K0.000 F600.000
G1 X35.375 Y56.460 Z6.500 F600.000
G3 X35.095 Y52.593 Z6.500 I20.639 J-3.442 K0.000 F600.000
G1 X57.807 Y75.305 Z6.500 F600.000
G2 X61.106 Y75.018 Z6.500 I-0.089 J-20.125 K0.000 F600.000
G1 X35.382 Y49.294 Z6.500 F600.000
G3 X36.060 Y46.386 Z6.500 I20.066 J3.151 K0.000 F600.000
G1 X64.014 Y74.340 Z6.500 F600.000
G2 X66.624 Y73.363 Z6.500 I-5.262 J-18.045 K0.000 F600.000
G1 X37.037 Y43.776 Z6.500 F600.000
G3 X38.262 Y41.415 Z6.500 I15.914 J6.760 K0.000 F600.000
G1 X68.985 Y72.138 Z6.500 F600.000
G2 X71.123 Y70.689 Z6.500 I-8.178 J-14.366 K0.000 F600.000
G1 X39.711 Y39.277 Z6.500 F600.000
G3 X41.369 Y37.349 Z6.500 I13.058 J9.551 K0.000 F600.000
G1 X73.051 Y69.031 Z6.500 F600.000
G2 X74.776 Y67.169 Z6.500 I-10.885 J-11.812 K0.000 F600.000
G1 X43.231 Y35.624 Z6.500 F600.000
G3 X45.299 Y34.106 Z6.500 I10.518 J12.157 K0.000 F600.000
G1 X76.294 Y65.101 Z6.500 F600.000
G2 X77.596 Y62.816 Z6.500 I-13.331 J-9.107 K0.000 F600.000
G1 X47.584 Y32.804 Z6.500 F600.000
G3 X50.107 Y31.741 Z6.500 I9.465 J18.926 K0.000 F600.000
G1 X78.659 Y60.293 Z6.500 F600.000
G2 X79.433 Y57.481 Z6.500 I-19.666 J-6.923 K0.000 F600.000
G1 X52.919 Y30.967 Z6.500 F600.000
G3 X56.074 Y30.536 Z6.500 I4.199 J18.950 K0.000 F600.000
G1 X79.864 Y54.326 Z6.500 F600.000
G2 X79.797 Y50.671 Z6.500 I-20.917 J-1.440 K0.000 F600.000
G1 X59.729 Y30.603 Z6.500 F600.000
G3 X64.246 Y31.535 Z6.500 I-1.960 J20.931 K0.000 F600.000
G1 X78.865 Y46.154 Z6.500 F600.000
G2 X73.349 Y37.051 Z6.500 I-21.219 J6.636 K0.000 F600.000
G1 X73.653 Y37.360 Z6.250 F600.000
G1 X73.349 Y37.051 Z6.000 F600.000
G3 X78.865 Y46.154 Z6.000 I-15.702 J15.739 K0.000 F600.000
G1 X64.246 Y31.535 Z6.000 F600.000
G2 X59.729 Y30.603 Z6.000 I-6.478 J20.000 K0.000 F600.000
G1 X79.797 Y50.671 Z6.000 F600.000
G3 X79.864 Y54.326 Z6.000 I-20.850 J2.214 K0.000 F600.000
G1 X56.074 Y30.536 Z6.000 F600.000
G2 X52.919 Y30.967 Z6.000 I1.044 J19.381 K0.000 F600.000
G1 X79.433 Y57.481 Z6.000 F600.000
G3 X78.659 Y60.293 Z6.000 I-20.440 J-4.110 K0.000 F600.000
G1 X50.107 Y31.741 Z6.000 F600.000
G2 X47.584 Y32.804 Z6.000 I6.942 J19.990 K0.000 F600.000
G1 X77.596 Y62.816 Z6.000 F600.000
G3 X76.294 Y65.101 Z6.000 I-14.633 J-6.822 K0.000 F600.000
G1 X45.299 Y34.106 Z6.000 F600.000
G2 X43.231 Y35.624 Z6.000 I8.450 J13.676 K0.000 F600.000
G1 X74.776 Y67.169 Z6.000 F600.000
G3 X73.051 Y69.031 Z6.000 I-12.610 J-9.951 K0.000 F600.000
G1 X41.369 Y37.349 Z6.000 F600.000
G2 X39.711 Y39.277 Z6.000 I11.400 J11.479 K0.000 F600.000
G1 X71.123 Y70.689 Z6.000 F600.000
G3 X68.985 Y72.138 Z6.000 I-10.316 J-12.917 K0.000 F600.000
G1 X38.262 Y41.415 Z6.000 F600.000
G2 X37.037 Y43.776 Z6.000 I14.689 J9.122 K0.000 F600.000
G1 X66.624 Y73.363 Z6.000 F600.000
G3 X64.014 Y74.340 Z6.000 I-7.872 J-17.069 K0.000 F600.000
G1 X36.060 Y46.386 Z6.000 F600.000
G2 X35.382 Y49.294 Z6.000 I19.387 J6.058 K0.000 F600.000
G1 X61.106 Y75.018 Z6.000 F600.000
G3 X57.807 Y75.305 Z6.000 I-3.389 J-19.838 K0.000 F600.000
G1 X35.095 Y52.593 Z6.000 F600.000
G2 X35.375 Y56.460 Z6.000 I20.920 J0.425 K0.000 F600.000
G1 X53.940 Y75.025 Z6.000 F600.000
G3 X48.945 Y73.616 Z6.000 I3.442 J-21.767 K0.000 F600.000
G1 X36.784 Y61.455 Z6.000 F600.000
G2 X48.945 Y73.616 Z6.000 I20.710 J-8.549 K0.000 F600.000
G0 X48.945 Y73.616 Z21.000
(Finish operation: RampEntryDressup002)
(Begin operation: RampEntryDressup003)
(Path: RampEntryDressup003)
G0 X0.000 Y0.000 Z21.000
G0 X80.533 Y39.444 Z21.000
G0 X80.533 Y39.444 Z19.000
G1 X85.432 Y44.343 Z15.000 F600.000
G1 X80.533 Y39.444 Z11.000 F600.000
G1 X108.315 Y67.226 Z11.000 F600.000
G1 X108.315 Y68.571 Z11.000 F600.000
G1 X81.930 Y42.185 Z11.000 F600.000
G3 X82.783 Y44.384 Z11.000 I-16.681 J7.741 K0.000 F600.000
G1 X108.315 Y69.916 Z11.000 F600.000
G1 X108.315 Y71.261 Z11.000 F600.000
G1 X83.343 Y46.289 Z11.000 F600.000
G3 X83.727 Y48.017 Z11.000 I-15.641 J4.378 K0.000 F600.000
G1 X108.315 Y72.606 Z11.000 F600.000
G1 X108.315 Y73.951 Z11.000 F600.000
G1 X83.975 Y49.611 Z11.000 F600.000
G3 X84.118 Y51.098 Z11.000 I-13.853 J2.078 K0.000 F600.000
G1 X108.315 Y75.295 Z11.000 F600.000
G1 X108.315 Y76.640 Z11.000 F600.000
G1 X84.174 Y52.500 Z11.000 F600.000
G3 X84.160 Y53.830 Z11.000 I-12.372 J0.527 K0.000 F600.000
G1 X108.315 Y77.985 Z11.000 F600.000
G1 X108.315 Y79.330 Z11.000 F600.000
G1 X84.084 Y55.100 Z11.000 F600.000
G3 X83.957 Y56.317 Z11.000 I-11.384 J-0.573 K0.000 F600.000
G1 X108.315 Y80.675 Z11.000 F600.000
G1 X108.315 Y82.020 Z11.000 F600.000
G1 X83.785 Y57.490 Z11.000 F600.000
G1 X83.562 Y58.612 Z11.000 F600.000
G1 X108.315 Y83.365 Z11.000 F600.000
G1 X108.315 Y84.710 Z11.000 F600.000
G1 X83.296 Y59.691 Z11.000 F600.000
G3 X82.999 Y60.739 Z11.000 I-9.905 J-2.248 K0.000 F600.000
G1 X108.315 Y86.055 Z11.000 F600.000
G1 X108.315 Y87.400 Z11.000 F600.000
G1 X82.672 Y61.757 Z11.000 F600.000
G3 X82.300 Y62.730 Z11.000 I-69.567 J-25.997 K0.000 F600.000
G1 X108.315 Y88.745 Z11.000 F600.000
G1 X108.315 Y90.090 Z11.000 F600.000
G1 X81.902 Y63.676 Z11.000 F600.000
G3 X81.480 Y64.600 Z11.000 I-9.347 J-3.709 K0.000 F600.000
G1 X108.315 Y91.434 Z11.000 F600.000
G1 X108.315 Y92.779 Z11.000 F600.000
G1 X81.022 Y65.487 Z11.000 F600.000
G3 X80.538 Y66.347 Z11.000 I-8.323 J-4.115 K0.000 F600.000
G1 X108.315 Y94.124 Z11.000 F600.000
G1 X108.315 Y95.469 Z11.000 F600.000
G1 X80.035 Y67.189 Z11.000 F600.000
G1 X79.496 Y67.995 Z11.000 F600.000
G1 X108.016 Y96.515 Z11.000 F600.000
G1 X106.671 Y96.515 Z11.000 F600.000
G1 X78.935 Y68.779 Z11.000 F600.000
G3 X78.357 Y69.546 Z11.000 I-15.568 J-11.141 K0.000 F600.000
G1 X105.326 Y96.515 Z11.000 F600.000
G1 X103.981 Y96.515 Z11.000 F600.000
G1 X77.741 Y70.275 Z11.000 F600.000
G3 X77.109 Y70.988 Z11.000 I-6.996 J-5.574 K0.000 F600.000
G1 X102.636 Y96.515 Z11.000 F600.000
G1 X101.291 Y96.515 Z11.000 F600.000
G1 X76.455 Y71.679 Z11.000 F600.000
G3 X75.769 Y72.338 Z11.000 I-6.925 J-6.531 K0.000 F600.000
G1 X99.946 Y96.515 Z11.000 F600.000
G1 X98.601 Y96.515 Z11.000 F600.000
G1 X75.066 Y72.980 Z11.000 F600.000
G1 X74.337 Y73.596 Z11.000 F600.000
G1 X97.257 Y96.515 Z11.000 F600.000
G1 X95.912 Y96.515 Z11.000 F600.000
G1 X73.580 Y74.184 Z11.000 F600.000
G3 X72.806 Y74.755 Z11.000 I-5.956 J-7.264 K0.000 F600.000
G1 X94.567 Y96.515 Z11.000 F600.000
G1 X93.222 Y96.515 Z11.000 F600.000
G1 X72.000 Y75.293 Z11.000 F600.000
G3 X71.169 Y75.807 Z11.000 I-5.241 J-7.547 K0.000 F600.000
G1 X91.877 Y96.515 Z11.000 F600.000
G1 X90.532 Y96.515 Z11.000 F600.000
G1 X70.319 Y76.302 Z11.000 F600.000
G1 X69.432 Y76.760 Z11.000 F600.000
G1 X89.187 Y96.515 Z11.000 F600.000
G1 X87.842 Y96.515 Z11.000 F600.000
G1 X68.520 Y77.193 Z11.000 F600.000
G3 X67.585 Y77.603 Z11.000 I-4.525 J-9.047 K0.000 F600.000
G1 X86.497 Y96.515 Z11.000 F600.000
G1 X85.152 Y96.515 Z11.000 F600.000
G1 X66.612 Y77.974 Z11.000 F600.000
G3 X65.606 Y78.314 Z11.000 I-3.693 J-9.285 K0.000 F600.000
G1 X83.807 Y96.515 Z11.000 F600.000
G1 X82.462 Y96.515 Z11.000 F600.000
G1 X64.572 Y78.624 Z11.000 F600.000
G1 X63.502 Y78.900 Z11.000 F600.000
G1 X81.118 Y96.515 Z11.000 F600.000
G1 X79.773 Y96.515 Z11.000 F600.000
G1 X62.384 Y79.126 Z11.000 F600.000
G3 X61.226 Y79.314 Z11.000 I-2.323 J-10.685 K0.000 F600.000
G1 X78.428 Y96.515 Z11.000 F600.000
G1 X77.083 Y96.515 Z11.000 F600.000
G1 X60.025 Y79.457 Z11.000 F600.000
G3 X58.773 Y79.550 Z11.000 I-1.511 J-11.867 K0.000 F600.000
G1 X75.738 Y96.515 Z11.000 F600.000
G1 X74.393 Y96.515 Z11.000 F600.000
G1 X57.462 Y79.585 Z11.000 F600.000
G3 X56.079 Y79.546 Z11.000 I2.070 J-98.638 K0.000 F600.000
G1 X73.048 Y96.515 Z11.000 F600.000
G1 X71.703 Y96.515 Z11.000 F600.000
G1 X54.615 Y79.427 Z11.000 F600.000
G3 X53.055 Y79.212 Z11.000 I1.640 J-17.699 K0.000 F600.000
G1 X70.358 Y96.515 Z11.000 F600.000
G1 X69.013 Y96.515 Z11.000 F600.000
G1 X51.364 Y78.865 Z11.000 F600.000
G3 X49.501 Y78.348 Z11.000 I3.808 J-17.312 K0.000 F600.000
G1 X67.668 Y96.515 Z11.000 F600.000
G1 X66.323 Y96.515 Z11.000 F600.000
G1 X47.409 Y77.601 Z11.000 F600.000
G3 X44.856 Y76.392 Z11.000 I9.024 J-22.371 K0.000 F600.000
G1 X64.978 Y96.515 Z11.000 F600.000
G1 X63.634 Y96.515 Z11.000 F600.000
G1 X40.945 Y73.826 Z11.000 F600.000
G3 X36.574 Y69.455 Z11.000 I16.343 J-20.714 K0.000 F600.000
G1 X11.893 Y44.774 Z11.000 F600.000
G1 X11.260 Y45.487 Z11.000 F600.000
G1 X62.289 Y96.515 Z11.000 F600.000
G1 X60.944 Y96.515 Z11.000 F600.000
G1 X10.628 Y46.199 Z11.000 F600.000
G1 X9.995 Y46.911 Z11.000 F600.000
G1 X59.599 Y96.515 Z11.000 F600.000
G1 X58.254 Y96.515 Z11.000 F600.000
G1 X9.363 Y47.624 Z11.000 F600.000
G1 X8.730 Y48.336 Z11.000 F600.000
G1 X56.909 Y96.515 Z11.000 F600.000
G1 X55.564 Y96.515 Z11.000 F600.000
G1 X8.098 Y49.049 Z11.000 F600.000
G1 X7.465 Y49.761 Z11.000 F600.000
G1 X54.219 Y96.515 Z11.000 F600.000
G1 X52.874 Y96.515 Z11.000 F600.000
G1 X6.833 Y50.474 Z11.000 F600.000
G1 X6.685 Y50.640 Z11.000 F600.000
G1 X6.685 Y51.671 Z11.000 F600.000
G1 X51.529 Y96.515 Z11.000 F600.000
G1 X50.184 Y96.515 Z11.000 F600.000
G1 X6.685 Y53.016 Z11.000 F600.000
G1 X6.685 Y54.361 Z11.000 F600.000
G1 X48.839 Y96.515 Z11.000 F600.000
G1 X47.495 Y96.515 Z11.000 F600.000
G1 X6.685 Y55.705 Z11.000 F600.000
G1 X6.685 Y57.050 Z11.000 F600.000
G1 X46.150 Y96.515 Z11.000 F600.000
G1 X44.805 Y96.515 Z11.000 F600.000
G1 X6.685 Y58.395 Z11.000 F600.000
G1 X6.685 Y59.740 Z11.000 F600.000
G1 X43.460 Y96.515 Z11.000 F600.000
G1 X42.115 Y96.515 Z11.000 F600.000
G1 X6.685 Y61.085 Z11.000 F600.000
G1 X6.685 Y62.430 Z11.000 F600.000
G1 X40.770 Y96.515 Z11.000 F600.000
G1 X39.425 Y96.515 Z11.000 F600.000
G1 X6.685 Y63.775 Z11.000 F600.000
G1 X6.685 Y65.120 Z11.000 F600.000
G1 X38.080 Y96.515 Z11.000 F600.000
G1 X36.735 Y96.515 Z11.000 F600.000
G1 X6.685 Y66.465 Z11.000 F600.000
G1 X6.685 Y67.810 Z11.000 F600.000
G1 X35.390 Y96.515 Z11.000 F600.000
G1 X34.045 Y96.515 Z11.000 F600.000
G1 X6.685 Y69.155 Z11.000 F600.000
G1 X6.685 Y70.500 Z11.000 F600.000
G1 X32.700 Y96.515 Z11.000 F600.000
G1 X31.356 Y96.515 Z11.000 F600.000
G1 X6.685 Y71.844 Z11.000 F600.000
G1 X6.685 Y73.189 Z11.000 F600.000
G1 X30.011 Y96.515 Z11.000 F600.000
G1 X28.666 Y96.515 Z11.000 F600.000
G1 X6.685 Y74.534 Z11.000 F600.000
G1 X6.685 Y75.879 Z11.000 F600.000
G1 X27.321 Y96.515 Z11.000 F600.000
G1 X25.976 Y96.515 Z11.000 F600.000
G1 X6.685 Y77.224 Z11.000 F600.000
G1 X6.685 Y78.569 Z11.000 F600.000
G1 X24.631 Y96.515 Z11.000 F600.000
G1 X23.286 Y96.515 Z11.000 F600.000
G1 X6.685 Y79.914 Z11.000 F600.000
G1 X6.685 Y81.259 Z11.000 F600.000
G1 X21.941 Y96.515 Z11.000 F600.000
G1 X20.596 Y96.515 Z11.000 F600.000
G1 X6.685 Y82.604 Z11.000 F600.000
G1 X6.685 Y83.949 Z11.000 F600.000
G1 X19.251 Y96.515 Z11.000 F600.000
G1 X17.906 Y96.515 Z11.000 F600.000
G1 X6.685 Y85.294 Z11.000 F600.000
G1 X6.685 Y86.639 Z11.000 F600.000
G1 X16.561 Y96.515 Z11.000 F600.000
G1 X15.217 Y96.515 Z11.000 F600.000
G1 X6.685 Y87.983 Z11.000 F600.000
G1 X6.685 Y89.328 Z11.000 F600.000
G1 X13.872 Y96.515 Z11.000 F600.000
G1 X12.527 Y96.515 Z11.000 F600.000
G1 X6.685 Y90.673 Z11.000 F600.000
G1 X6.685 Y92.018 Z11.000 F600.000
G1 X11.182 Y96.515 Z11.000 F600.000
G1 X9.837 Y96.515 Z11.000 F600.000
G1 X6.685 Y93.363 Z11.000 F600.000
G1 X6.685 Y94.708 Z11.000 F600.000
G1 X8.492 Y96.515 Z11.000 F600.000
G1 X7.147 Y96.515 Z11.000 F600.000
G1 X6.685 Y96.053 Z11.000 F600.000
G1 X6.685 Y96.515 Z11.000 F600.000
G1 X7.147 Y96.515 Z11.000 F600.000
G0 X7.147 Y96.515 Z21.000
G0 X11.893 Y44.774 Z21.000
G0 X11.893 Y44.774 Z19.000
G1 X16.792 Y49.673 Z15.000 F600.000
G1 X11.893 Y44.774 Z11.000 F600.000
G1 X36.574 Y69.455 Z11.000 F600.000
G3 X34.008 Y65.544 Z11.000 I19.950 J-15.888 K0.000 F600.000
G1 X12.525 Y44.062 Z11.000 F600.000
G1 X13.158 Y43.349 Z11.000 F600.000
G1 X32.799 Y62.991 Z11.000 F600.000
G3 X32.052 Y60.899 Z11.000 I18.683 J-7.853 K0.000 F600.000
G1 X13.790 Y42.637 Z11.000 F600.000
G1 X14.423 Y41.924 Z11.000 F600.000
G1 X31.535 Y59.036 Z11.000 F600.000
G3 X31.188 Y57.345 Z11.000 I17.945 J-4.558 K0.000 F600.000
G1 X15.055 Y41.212 Z11.000 F600.000
G1 X15.688 Y40.499 Z11.000 F600.000
G1 X30.973 Y55.785 Z11.000 F600.000
G3 X30.854 Y54.321 Z11.000 I15.573 J-2.006 K0.000 F600.000
G1 X16.320 Y39.787 Z11.000 F600.000
G1 X16.953 Y39.075 Z11.000 F600.000
G1 X30.815 Y52.938 Z11.000 F600.000
G3 X30.850 Y51.627 Z11.000 I16.495 J-0.220 K0.000 F600.000
G1 X17.585 Y38.362 Z11.000 F600.000
G1 X18.217 Y37.650 Z11.000 F600.000
G1 X30.943 Y50.375 Z11.000 F600.000
G3 X31.086 Y49.174 Z11.000 I11.231 J0.730 K0.000 F600.000
G1 X18.850 Y36.937 Z11.000 F600.000
G1 X19.482 Y36.225 Z11.000 F600.000
G1 X31.274 Y48.016 Z11.000 F600.000
G3 X31.500 Y46.898 Z11.000 I12.394 J1.925 K0.000 F600.000
G1 X20.115 Y35.512 Z11.000 F600.000
G1 X20.747 Y34.800 Z11.000 F600.000
G1 X31.776 Y45.828 Z11.000 F600.000
G3 X32.086 Y44.794 Z11.000 I9.870 J2.399 K0.000 F600.000
G1 X21.380 Y34.088 Z11.000 F600.000
G1 X22.012 Y33.375 Z11.000 F600.000
G1 X32.426 Y43.788 Z11.000 F600.000
G1 X32.797 Y42.815 Z11.000 F600.000
G1 X22.645 Y32.663 Z11.000 F600.000
G1 X23.277 Y31.950 Z11.000 F600.000
G1 X33.207 Y41.880 Z11.000 F600.000
G3 X33.640 Y40.968 Z11.000 I8.758 J3.595 K0.000 F600.000
G1 X23.910 Y31.238 Z11.000 F600.000
G1 X24.542 Y30.525 Z11.000 F600.000
G1 X34.098 Y40.081 Z11.000 F600.000
G3 X34.593 Y39.231 Z11.000 I8.958 J4.646 K0.000 F600.000
G1 X25.175 Y29.813 Z11.000 F600.000
G1 X25.807 Y29.101 Z11.000 F600.000
G1 X35.107 Y38.400 Z11.000 F600.000
G1 X35.645 Y37.594 Z11.000 F600.000
G1 X26.440 Y28.388 Z11.000 F600.000
G1 X27.072 Y27.676 Z11.000 F600.000
G1 X36.216 Y36.820 Z11.000 F600.000
G3 X36.804 Y36.063 Z11.000 I7.482 J5.205 K0.000 F600.000
G1 X27.705 Y26.963 Z11.000 F600.000
G1 X28.337 Y26.251 Z11.000 F600.000
G1 X37.420 Y35.334 Z11.000 F600.000
G3 X38.062 Y34.631 Z11.000 I6.973 J5.731 K0.000 F600.000
G1 X28.970 Y25.538 Z11.000 F600.000
G1 X29.602 Y24.826 Z11.000 F600.000
G1 X38.721 Y33.945 Z11.000 F600.000
G1 X39.412 Y33.291 Z11.000 F600.000
G1 X30.235 Y24.113 Z11.000 F600.000
G1 X30.867 Y23.401 Z11.000 F600.000
G1 X40.125 Y32.659 Z11.000 F600.000
G3 X40.854 Y32.043 Z11.000 I25.798 J29.840 K0.000 F600.000
G1 X31.500 Y22.689 Z11.000 F600.000
G1 X32.132 Y21.976 Z11.000 F600.000
G1 X41.621 Y31.465 Z11.000 F600.000
G3 X42.405 Y30.904 Z11.000 I5.648 J7.068 K0.000 F600.000
G1 X32.765 Y21.264 Z11.000 F600.000
G1 X33.397 Y20.551 Z11.000 F600.000
G1 X43.211 Y30.365 Z11.000 F600.000
G3 X44.053 Y29.862 Z11.000 I5.524 J8.277 K0.000 F600.000
G1 X34.030 Y19.839 Z11.000 F600.000
G1 X34.662 Y19.126 Z11.000 F600.000
G1 X44.913 Y29.378 Z11.000 F600.000
G1 X45.800 Y28.920 Z11.000 F600.000
G1 X35.295 Y18.414 Z11.000 F600.000
G1 X35.927 Y17.702 Z11.000 F600.000
G1 X46.724 Y28.498 Z11.000 F600.000
G3 X47.670 Y28.100 Z11.000 I4.200 J8.654 K0.000 F600.000
G1 X36.560 Y16.989 Z11.000 F600.000
G1 X37.192 Y16.277 Z11.000 F600.000
G1 X48.643 Y27.728 Z11.000 F600.000
G3 X49.661 Y27.401 Z11.000 I4.476 J12.179 K0.000 F600.000
G1 X37.824 Y15.564 Z11.000 F600.000
G1 X38.457 Y14.852 Z11.000 F600.000
G1 X50.709 Y27.104 Z11.000 F600.000
G3 X51.788 Y26.838 Z11.000 I3.064 J10.146 K0.000 F600.000
G1 X39.089 Y14.139 Z11.000 F600.000
G1 X39.722 Y13.427 Z11.000 F600.000
G1 X52.910 Y26.615 Z11.000 F600.000
G3 X54.083 Y26.443 Z11.000 I2.308 J11.617 K0.000 F600.000
G1 X40.354 Y12.715 Z11.000 F600.000
G1 X40.987 Y12.002 Z11.000 F600.000
G1 X55.300 Y26.316 Z11.000 F600.000
G3 X56.570 Y26.240 Z11.000 I1.331 J11.709 K0.000 F600.000
G1 X41.619 Y11.290 Z11.000 F600.000
G1 X42.252 Y10.577 Z11.000 F600.000
G1 X57.900 Y26.226 Z11.000 F600.000
G3 X59.302 Y26.282 Z11.000 I0.171 J13.155 K0.000 F600.000
G1 X42.884 Y9.865 Z11.000 F600.000
G1 X43.517 Y9.152 Z11.000 F600.000
G1 X60.789 Y26.425 Z11.000 F600.000
G3 X62.383 Y26.673 Z11.000 I-1.506 J14.876 K0.000 F600.000
G1 X44.149 Y8.440 Z11.000 F600.000
G1 X44.782 Y7.728 Z11.000 F600.000
G1 X64.111 Y27.057 Z11.000 F600.000
G3 X66.016 Y27.617 Z11.000 I-4.160 J17.670 K0.000 F600.000
G1 X45.414 Y7.015 Z11.000 F600.000
G1 X45.707 Y6.685 Z11.000 F600.000
G1 X46.429 Y6.685 Z11.000 F600.000
G1 X68.215 Y28.470 Z11.000 F600.000
G3 X70.956 Y29.867 Z11.000 I-8.514 J20.100 K0.000 F600.000
G1 X47.774 Y6.685 Z11.000 F600.000
G1 X49.119 Y6.685 Z11.000 F600.000
G1 X108.315 Y65.881 Z11.000 F600.000
G1 X108.315 Y64.536 Z11.000 F600.000
G1 X50.464 Y6.685 Z11.000 F600.000
G1 X51.809 Y6.685 Z11.000 F600.000
G1 X108.315 Y63.191 Z11.000 F600.000
G1 X108.315 Y61.846 Z11.000 F600.000
G1 X53.154 Y6.685 Z11.000 F600.000
G1 X54.499 Y6.685 Z11.000 F600.000
G1 X108.315 Y60.501 Z11.000 F600.000
G1 X108.315 Y59.156 Z11.000 F600.000
G1 X55.844 Y6.685 Z11.000 F600.000
G1 X57.188 Y6.685 Z11.000 F600.000
G1 X108.315 Y57.812 Z11.000 F600.000
G1 X108.315 Y56.467 Z11.000 F600.000
G1 X58.533 Y6.685 Z11.000 F600.000
G1 X59.878 Y6.685 Z11.000 F600.000
G1 X108.315 Y55.122 Z11.000 F600.000
G1 X108.315 Y53.777 Z11.000 F600.000
G1 X61.223 Y6.685 Z11.000 F600.000
G1 X62.568 Y6.685 Z11.000 F600.000
G1 X108.315 Y52.432 Z11.000 F600.000
G1 X108.315 Y51.087 Z11.000 F600.000
G1 X63.913 Y6.685 Z11.000 F600.000
G1 X65.258 Y6.685 Z11.000 F600.000
G1 X101.211 Y42.638 Z11.000 F600.000
G1 X90.572 Y30.654 Z11.000 F600.000
G1 X66.603 Y6.685 Z11.000 F600.000
G1 X67.948 Y6.685 Z11.000 F600.000
G1 X79.932 Y18.669 Z11.000 F600.000
G1 X69.293 Y6.685 Z11.000 F600.000
G0 X69.293 Y6.685 Z21.000
(Finish operation: RampEntryDressup003)
(Begin operation: RampEntryDressup004)
(Path: RampEntryDressup004)
G0 X0.000 Y0.000 Z21.000
(Finish operation: RampEntryDressup004)
(Begin operation: RampEntryDressup005)
(Path: RampEntryDressup005)
G0 X0.000 Y0.000 Z21.000
G0 X41.783 Y70.113 Z21.000
G0 X41.783 Y70.113 Z19.000
G1 X41.014 Y69.386 Z18.389 F600.000
G1 X40.287 Y68.617 Z17.778 F600.000
G1 X41.783 Y70.113 Z16.557 F600.000
G1 X42.521 Y70.764 Z15.989 F600.000
G1 X43.288 Y71.382 Z15.420 F600.000
G1 X44.082 Y71.963 Z14.852 F600.000
G1 X41.202 Y69.083 Z12.500 F600.000
G1 X44.082 Y71.963 Z10.148 F600.000
G1 X43.288 Y71.382 Z9.580 F600.000
G1 X42.521 Y70.764 Z9.011 F600.000
G1 X41.783 Y70.113 Z8.443 F600.000
G1 X40.287 Y68.617 Z7.222 F600.000
G1 X41.014 Y69.386 Z6.611 F600.000
G1 X41.783 Y70.113 Z6.000 F600.000
G3 X40.287 Y68.617 Z6.000 I12.569 J-14.064 K0.000 F600.000
G1 X41.783 Y70.113 Z6.000 F600.000
G2 X44.082 Y71.963 Z6.000 I14.609 J-15.794 K0.000 F600.000
G1 X38.437 Y66.318 Z6.000 F600.000
G3 X37.598 Y65.031 Z6.000 I11.036 J-8.107 K0.000 F600.000
G1 X45.369 Y72.802 Z6.000 F600.000
G2 X46.426 Y73.410 Z6.000 I5.946 J-9.105 K0.000 F600.000
G1 X36.990 Y63.974 Z6.000 F600.000
G1 X36.511 Y63.047 Z6.000 F600.000
G1 X47.353 Y73.889 Z6.000 F600.000
G2 X48.168 Y74.256 Z6.000 I3.675 J-7.075 K0.000 F600.000
G1 X36.144 Y62.232 Z6.000 F600.000
G3 X35.823 Y61.463 Z6.000 I6.683 J-3.236 K0.000 F600.000
G1 X48.937 Y74.577 Z6.000 F600.000
G1 X49.662 Y74.853 Z6.000 F600.000
G1 X35.547 Y60.738 Z6.000 F600.000
G3 X35.324 Y60.067 Z6.000 I5.861 J-2.316 K0.000 F600.000
G1 X50.333 Y75.076 Z6.000 F600.000
G1 X50.991 Y75.286 Z6.000 F600.000
G1 X35.114 Y59.409 Z6.000 F600.000
G3 X34.954 Y58.800 Z6.000 I5.339 J-1.732 K0.000 F600.000
G1 X51.600 Y75.446 Z6.000 F600.000
G1 X52.204 Y75.602 Z6.000 F600.000
G1 X34.798 Y58.196 Z6.000 F600.000
G3 X34.679 Y57.629 Z6.000 I4.994 J-1.346 K0.000 F600.000
G1 X52.771 Y75.721 Z6.000 F600.000
G1 X53.331 Y75.832 Z6.000 F600.000
G1 X34.568 Y57.069 Z6.000 F600.000
G3 X34.476 Y56.529 Z6.000 I4.760 J-1.084 K0.000 F600.000
G1 X53.871 Y75.924 Z6.000 F600.000
G1 X54.393 Y75.998 Z6.000 F600.000
G1 X34.402 Y56.007 Z6.000 F600.000
G3 X34.330 Y55.487 Z6.000 I4.598 J-0.902 K0.000 F600.000
G1 X54.913 Y76.070 Z6.000 F600.000
G1 X55.403 Y76.111 Z6.000 F600.000
G1 X34.289 Y54.997 Z6.000 F600.000
G1 X34.248 Y54.508 Z6.000 F600.000
G1 X55.892 Y76.152 Z6.000 F600.000
G2 X56.371 Y76.183 Z6.000 I0.509 J-4.246 K0.000 F600.000
G1 X34.217 Y54.029 Z6.000 F600.000
G1 X34.204 Y53.568 Z6.000 F600.000
G1 X56.832 Y76.196 Z6.000 F600.000
G1 X57.293 Y76.209 Z6.000 F600.000
G1 X34.191 Y53.107 Z6.000 F600.000
G3 X34.192 Y52.659 Z6.000 I3.983 J-0.215 K0.000 F600.000
G1 X57.741 Y76.208 Z6.000 F600.000
G1 X58.177 Y76.195 Z6.000 F600.000
G1 X34.205 Y52.223 Z6.000 F600.000
G1 X34.217 Y51.787 Z6.000 F600.000
G1 X58.613 Y76.183 Z6.000 F600.000
G2 X59.036 Y76.158 Z6.000 I-0.009 J-3.783 K0.000 F600.000
G1 X34.242 Y51.364 Z6.000 F600.000
G1 X34.277 Y50.950 Z6.000 F600.000
G1 X59.450 Y76.123 Z6.000 F600.000
G1 X59.863 Y76.089 Z6.000 F600.000
G1 X34.311 Y50.537 Z6.000 F600.000
G3 X34.355 Y50.132 Z6.000 I3.629 J0.182 K0.000 F600.000
G1 X60.268 Y76.045 Z6.000 F600.000
G1 X60.661 Y75.990 Z6.000 F600.000
G1 X34.410 Y49.739 Z6.000 F600.000
G1 X34.466 Y49.346 Z6.000 F600.000
G1 X61.054 Y75.934 Z6.000 F600.000
G2 X61.445 Y75.877 Z6.000 I-0.316 J-3.508 K0.000 F600.000
G1 X34.523 Y48.955 Z6.000 F600.000
G1 X34.597 Y48.581 Z6.000 F600.000
G1 X61.819 Y75.803 Z6.000 F600.000
G1 X62.193 Y75.728 Z6.000 F600.000
G1 X34.672 Y48.207 Z6.000 F600.000
G1 X34.746 Y47.833 Z6.000 F600.000
G1 X62.567 Y75.654 Z6.000 F600.000
G2 X62.929 Y75.568 Z6.000 I-0.587 J-3.267 K0.000 F600.000
G1 X34.832 Y47.471 Z6.000 F600.000
G1 X34.924 Y47.115 Z6.000 F600.000
G1 X63.285 Y75.476 Z6.000 F600.000
G1 X63.642 Y75.384 Z6.000 F600.000
G1 X35.016 Y46.758 Z6.000 F600.000
G3 X35.110 Y46.404 Z6.000 I3.202 J0.659 K0.000 F600.000
G1 X63.996 Y75.290 Z6.000 F600.000
G1 X64.336 Y75.181 Z6.000 F600.000
G1 X35.219 Y46.064 Z6.000 F600.000
G1 X35.327 Y45.724 Z6.000 F600.000
G1 X64.676 Y75.073 Z6.000 F600.000
G1 X65.016 Y74.965 Z6.000 F600.000
G1 X35.435 Y45.384 Z6.000 F600.000
G3 X35.551 Y45.051 Z6.000 I3.021 J0.861 K0.000 F600.000
G1 X65.349 Y74.849 Z6.000 F600.000
G1 X65.673 Y74.725 Z6.000 F600.000
G1 X35.675 Y44.727 Z6.000 F600.000
G1 X35.798 Y44.402 Z6.000 F600.000
G1 X65.998 Y74.602 Z6.000 F600.000
G1 X66.322 Y74.478 Z6.000 F600.000
G1 X35.922 Y44.078 Z6.000 F600.000
G3 X36.056 Y43.764 Z6.000 I2.865 J1.036 K0.000 F600.000
G1 X66.636 Y74.344 Z6.000 F600.000
G1 X66.946 Y74.205 Z6.000 F600.000
G1 X36.195 Y43.454 Z6.000 F600.000
G1 X36.333 Y43.144 Z6.000 F600.000
G1 X67.256 Y74.067 Z6.000 F600.000
G1 X67.565 Y73.928 Z6.000 F600.000
G1 X36.472 Y42.835 Z6.000 F600.000
G3 X36.622 Y42.537 Z6.000 I2.727 J1.190 K0.000 F600.000
G1 X67.863 Y73.778 Z6.000 F600.000
G1 X68.159 Y73.625 Z6.000 F600.000
G1 X36.775 Y42.241 Z6.000 F600.000
G1 X36.928 Y41.945 Z6.000 F600.000
G1 X68.455 Y73.472 Z6.000 F600.000
G1 X68.750 Y73.319 Z6.000 F600.000
G1 X37.081 Y41.650 Z6.000 F600.000
G3 X37.246 Y41.367 Z6.000 I2.604 J1.328 K0.000 F600.000
G1 X69.033 Y73.154 Z6.000 F600.000
G1 X69.315 Y72.988 Z6.000 F600.000
G1 X37.412 Y41.085 Z6.000 F600.000
G1 X37.578 Y40.803 Z6.000 F600.000
G1 X69.597 Y72.822 Z6.000 F600.000
G1 X69.879 Y72.655 Z6.000 F600.000
G1 X37.745 Y40.521 Z6.000 F600.000
G3 X37.923 Y40.251 Z6.000 I2.492 J1.453 K0.000 F600.000
G1 X70.149 Y72.477 Z6.000 F600.000
G1 X70.418 Y72.297 Z6.000 F600.000
G1 X38.103 Y39.982 Z6.000 F600.000
G1 X38.282 Y39.713 Z6.000 F600.000
G1 X70.687 Y72.118 Z6.000 F600.000
G1 X70.955 Y71.938 Z6.000 F600.000
G1 X38.462 Y39.445 Z6.000 F600.000
G3 X38.653 Y39.187 Z6.000 I2.388 J1.570 K0.000 F600.000
G1 X71.213 Y71.747 Z6.000 F600.000
G1 X71.469 Y71.555 Z6.000 F600.000
G1 X38.845 Y38.931 Z6.000 F600.000
G1 X39.038 Y38.675 Z6.000 F600.000
G1 X71.725 Y71.362 Z6.000 F600.000
G1 X71.980 Y71.170 Z6.000 F600.000
G1 X39.230 Y38.420 Z6.000 F600.000
G3 X39.433 Y38.174 Z6.000 I2.290 J1.680 K0.000 F600.000
G1 X72.226 Y70.967 Z6.000 F600.000
G1 X72.469 Y70.762 Z6.000 F600.000
G1 X39.638 Y37.931 Z6.000 F600.000
G1 X39.843 Y37.688 Z6.000 F600.000
G1 X72.712 Y70.557 Z6.000 F600.000
G1 X72.955 Y70.352 Z6.000 F600.000
G1 X40.048 Y37.445 Z6.000 F600.000
G3 X40.262 Y37.210 Z6.000 I2.196 J1.785 K0.000 F600.000
G1 X73.190 Y70.138 Z6.000 F600.000
G1 X73.420 Y69.920 Z6.000 F600.000
G1 X40.480 Y36.980 Z6.000 F600.000
G1 X40.698 Y36.749 Z6.000 F600.000
G1 X73.651 Y69.702 Z6.000 F600.000
G1 X73.881 Y69.484 Z6.000 F600.000
G1 X40.916 Y36.519 Z6.000 F600.000
G3 X41.140 Y36.295 Z6.000 I2.103 J1.889 K0.000 F600.000
G1 X74.105 Y69.260 Z6.000 F600.000
G1 X74.323 Y69.029 Z6.000 F600.000
G1 X41.371 Y36.077 Z6.000 F600.000
G1 X41.601 Y35.859 Z6.000 F600.000
G1 X74.541 Y68.799 Z6.000 F600.000
G1 X74.758 Y68.568 Z6.000 F600.000
G1 X41.832 Y35.642 Z6.000 F600.000
G3 X42.067 Y35.429 Z6.000 I2.010 J1.993 K0.000 F600.000
G1 X74.971 Y68.333 Z6.000 F600.000
G1 X75.176 Y68.090 Z6.000 F600.000
G1 X42.310 Y35.224 Z6.000 F600.000
G1 X42.554 Y35.019 Z6.000 F600.000
G1 X75.381 Y67.846 Z6.000 F600.000
G1 X75.587 Y67.603 Z6.000 F600.000
G1 X42.797 Y34.813 Z6.000 F600.000
G3 X43.044 Y34.612 Z6.000 I1.915 J2.099 K0.000 F600.000
G1 X75.788 Y67.356 Z6.000 F600.000
G1 X75.980 Y67.101 Z6.000 F600.000
G1 X43.299 Y34.420 Z6.000 F600.000
G1 X43.555 Y34.227 Z6.000 F600.000
G1 X76.173 Y66.845 Z6.000 F600.000
G1 X76.366 Y66.589 Z6.000 F600.000
G1 X43.811 Y34.034 Z6.000 F600.000
G3 X44.070 Y33.845 Z6.000 I1.817 J2.209 K0.000 F600.000
G1 X76.555 Y66.330 Z6.000 F600.000
G1 X76.735 Y66.062 Z6.000 F600.000
G1 X44.338 Y33.665 Z6.000 F600.000
G1 X44.607 Y33.486 Z6.000 F600.000
G1 X76.914 Y65.793 Z6.000 F600.000
G1 X77.094 Y65.524 Z6.000 F600.000
G1 X44.876 Y33.306 Z6.000 F600.000
G3 X45.147 Y33.129 Z6.000 I1.713 J2.325 K0.000 F600.000
G1 X77.271 Y65.253 Z6.000 F600.000
G1 X77.437 Y64.971 Z6.000 F600.000
G1 X45.429 Y32.963 Z6.000 F600.000
G1 X45.711 Y32.796 Z6.000 F600.000
G1 X77.604 Y64.689 Z6.000 F600.000
G1 X77.770 Y64.407 Z6.000 F600.000
G1 X45.993 Y32.630 Z6.000 F600.000
G3 X46.278 Y32.466 Z6.000 I1.601 J2.451 K0.000 F600.000
G1 X77.934 Y64.122 Z6.000 F600.000
G1 X78.086 Y63.827 Z6.000 F600.000
G1 X46.573 Y32.314 Z6.000 F600.000
G1 X46.869 Y32.161 Z6.000 F600.000
G1 X78.239 Y63.531 Z6.000 F600.000
G1 X78.392 Y63.236 Z6.000 F600.000
G1 X47.164 Y32.008 Z6.000 F600.000
G3 X47.464 Y31.859 Z6.000 I1.477 J2.589 K0.000 F600.000
G1 X78.541 Y62.936 Z6.000 F600.000
G1 X78.680 Y62.627 Z6.000 F600.000
G1 X47.773 Y31.720 Z6.000 F600.000
G1 X48.083 Y31.582 Z6.000 F600.000
G1 X78.818 Y62.317 Z6.000 F600.000
G1 X78.957 Y62.007 Z6.000 F600.000
G1 X48.393 Y31.443 Z6.000 F600.000
G3 X48.708 Y31.311 Z6.000 I1.339 J2.744 K0.000 F600.000
G1 X79.089 Y61.692 Z6.000 F600.000
G1 X79.213 Y61.367 Z6.000 F600.000
G1 X49.033 Y31.187 Z6.000 F600.000
G1 X49.357 Y31.063 Z6.000 F600.000
G1 X79.337 Y61.043 Z6.000 F600.000
G1 X79.461 Y60.718 Z6.000 F600.000
G1 X49.682 Y30.939 Z6.000 F600.000
G3 X50.016 Y30.825 Z6.000 I1.182 J2.919 K0.000 F600.000
G1 X79.575 Y60.384 Z6.000 F600.000
G1 X79.683 Y60.044 Z6.000 F600.000
G1 X50.356 Y30.717 Z6.000 F600.000
G1 X50.696 Y30.608 Z6.000 F600.000
G1 X79.792 Y59.704 Z6.000 F600.000
G1 X79.900 Y59.364 Z6.000 F600.000
G1 X51.036 Y30.500 Z6.000 F600.000
G3 X51.392 Y30.408 Z6.000 I1.001 J3.123 K0.000 F600.000
G1 X79.992 Y59.008 Z6.000 F600.000
G1 X80.084 Y58.652 Z6.000 F600.000
G1 X51.748 Y30.316 Z6.000 F600.000
G1 X52.104 Y30.224 Z6.000 F600.000
G1 X80.176 Y58.296 Z6.000 F600.000
G2 X80.261 Y57.932 Z6.000 I-3.196 J-0.935 K0.000 F600.000
G1 X52.468 Y30.139 Z6.000 F600.000
G1 X52.842 Y30.065 Z6.000 F600.000
G1 X80.335 Y57.558 Z6.000 F600.000
G1 X80.410 Y57.184 Z6.000 F600.000
G1 X53.216 Y29.990 Z6.000 F600.000
G1 X53.590 Y29.916 Z6.000 F600.000
G1 X80.484 Y56.810 Z6.000 F600.000
G2 X80.540 Y56.417 Z6.000 I-3.468 J-0.692 K0.000 F600.000
G1 X53.983 Y29.860 Z6.000 F600.000
G1 X54.375 Y29.805 Z6.000 F600.000
G1 X80.595 Y56.025 Z6.000 F600.000
G1 X80.651 Y55.632 Z6.000 F600.000
G1 X54.768 Y29.749 Z6.000 F600.000
G3 X55.175 Y29.708 Z6.000 I0.571 J3.604 K0.000 F600.000
G1 X80.692 Y55.225 Z6.000 F600.000
G1 X80.727 Y54.811 Z6.000 F600.000
G1 X55.589 Y29.673 Z6.000 F600.000
G1 X56.002 Y29.638 Z6.000 F600.000
G1 X80.762 Y54.398 Z6.000 F600.000
G2 X80.784 Y53.972 Z6.000 I-3.778 J-0.415 K0.000 F600.000
G1 X56.428 Y29.616 Z6.000 F600.000
G1 X56.864 Y29.604 Z6.000 F600.000
G1 X80.796 Y53.536 Z6.000 F600.000
G1 X80.809 Y53.100 Z6.000 F600.000
G1 X57.300 Y29.591 Z6.000 F600.000
G3 X57.750 Y29.593 Z6.000 I0.212 J4.005 K0.000 F600.000
G1 X80.807 Y52.650 Z6.000 F600.000
G1 X80.794 Y52.189 Z6.000 F600.000
G1 X58.211 Y29.606 Z6.000 F600.000
G1 X58.672 Y29.619 Z6.000 F600.000
G1 X80.781 Y51.728 Z6.000 F600.000
G2 X80.748 Y51.247 Z6.000 I-4.302 J0.053 K0.000 F600.000
G1 X59.153 Y29.652 Z6.000 F600.000
G1 X59.643 Y29.693 Z6.000 F600.000
G1 X80.707 Y50.757 Z6.000 F600.000
G2 X80.664 Y50.266 Z6.000 I-4.394 J0.135 K0.000 F600.000
G1 X60.134 Y29.736 Z6.000 F600.000
G1 X60.656 Y29.809 Z6.000 F600.000
G1 X80.591 Y49.744 Z6.000 F600.000
G1 X80.517 Y49.222 Z6.000 F600.000
G1 X61.178 Y29.883 Z6.000 F600.000
G3 X61.721 Y29.978 Z6.000 I-0.574 J4.884 K0.000 F600.000
G1 X80.422 Y48.679 Z6.000 F600.000
G1 X80.311 Y48.119 Z6.000 F600.000
G1 X62.281 Y30.089 Z6.000 F600.000
G3 X62.853 Y30.213 Z6.000 I-0.813 J5.152 K0.000 F600.000
G1 X80.187 Y47.547 Z6.000 F600.000
G1 X80.031 Y46.943 Z6.000 F600.000
G1 X63.457 Y30.369 Z6.000 F600.000
G3 X64.071 Y30.534 Z6.000 I-1.166 J5.547 K0.000 F600.000
G1 X79.866 Y46.329 Z6.000 F600.000
G1 X79.656 Y45.671 Z6.000 F600.000
G1 X64.729 Y30.744 Z6.000 F600.000
G3 X65.406 Y30.972 Z6.000 I-1.698 J6.142 K0.000 F600.000
G1 X79.428 Y44.994 Z6.000 F600.000
G1 X79.151 Y44.269 Z6.000 F600.000
G1 X66.131 Y31.249 Z6.000 F600.000
G3 X66.908 Y31.578 Z6.000 I-2.536 J7.080 K0.000 F600.000
G1 X78.822 Y43.492 Z6.000 F600.000
G2 X78.445 Y42.666 Z6.000 I-7.544 J2.951 K0.000 F600.000
G1 X67.734 Y31.955 Z6.000 F600.000
G1 X68.661 Y32.435 Z6.000 F600.000
G1 X77.965 Y41.739 Z6.000 F600.000
G2 X77.341 Y40.667 Z6.000 I-9.859 J5.020 K0.000 F600.000
G1 X69.733 Y33.059 Z6.000 F600.000
G3 X71.062 Y33.939 Z6.000 I-6.706 J11.563 K0.000 F600.000
G1 X76.461 Y39.338 Z6.000 F600.000
G2 X73.986 Y36.414 Z6.000 I-18.567 J13.210 K0.000 F600.000
G0 X73.986 Y36.414 Z21.000
(Finish operation: RampEntryDressup005)
(Begin operation: RampEntryDressup006)
(Path: RampEntryDressup006)
G0 X0.000 Y0.000 Z21.000
G0 X108.615 Y178.515 Z21.000
G0 X108.615 Y178.515 Z19.000
G1 X108.615 Y174.618 Z16.750 F600.000
G1 X108.615 Y178.515 Z14.500 F600.000
G1 X108.615 Y50.526 Z14.500 F600.000
G1 X69.428 Y6.385 Z14.500 F600.000
G1 X45.572 Y6.385 Z14.500 F600.000
G1 X6.385 Y50.526 Z14.500 F600.000
G1 X6.385 Y178.515 Z14.500 F600.000
G1 X108.615 Y178.515 Z14.500 F600.000
G1 X108.615 Y177.216 Z13.750 F600.000
G1 X108.615 Y178.515 Z13.000 F600.000
G1 X108.615 Y50.526 Z13.000 F600.000
G1 X69.428 Y6.385 Z13.000 F600.000
G1 X45.572 Y6.385 Z13.000 F600.000
G1 X6.385 Y50.526 Z13.000 F600.000
G1 X6.385 Y178.515 Z13.000 F600.000
G1 X108.615 Y178.515 Z13.000 F600.000
G1 X108.615 Y177.216 Z12.250 F600.000
G1 X108.615 Y178.515 Z11.500 F600.000
G1 X108.615 Y50.526 Z11.500 F600.000
G1 X69.428 Y6.385 Z11.500 F600.000
G1 X45.572 Y6.385 Z11.500 F600.000
G1 X6.385 Y50.526 Z11.500 F600.000
G1 X6.385 Y178.515 Z11.500 F600.000
G1 X108.615 Y178.515 Z11.500 F600.000
G1 X108.615 Y178.082 Z11.250 F600.000
G1 X108.615 Y178.515 Z11.000 F600.000
G1 X108.615 Y50.526 Z11.000 F600.000
G1 X69.428 Y6.385 Z11.000 F600.000
G1 X45.572 Y6.385 Z11.000 F600.000
G1 X6.385 Y50.526 Z11.000 F600.000
G1 X6.385 Y178.515 Z11.000 F600.000
G1 X108.615 Y178.515 Z11.000 F600.000
G0 X108.615 Y178.515 Z21.000
(Finish operation: RampEntryDressup006)
(Begin operation: RampEntryDressup007)
(Path: RampEntryDressup007)
G0 X0.000 Y0.000 Z21.000
G0 X108.615 Y178.515 Z21.000
G0 X108.615 Y178.515 Z19.000
G1 X108.615 Y170.288 Z14.250 F600.000
G1 X108.615 Y178.515 Z9.500 F600.000
G1 X108.615 Y99.585 Z9.500 F600.000
G1 X6.385 Y99.585 Z9.500 F600.000
G1 X6.385 Y178.515 Z9.500 F600.000
G1 X108.615 Y178.515 Z9.500 F600.000
G1 X108.615 Y177.216 Z8.750 F600.000
G1 X108.615 Y178.515 Z8.000 F600.000
G1 X108.615 Y99.585 Z8.000 F600.000
G1 X6.385 Y99.585 Z8.000 F600.000
G1 X6.385 Y178.515 Z8.000 F600.000
G1 X108.615 Y178.515 Z8.000 F600.000
G0 X108.615 Y178.515 Z21.000
(Finish operation: RampEntryDressup007)
(Begin operation: RampEntryDressup008)
(Path: RampEntryDressup008)
G0 X0.000 Y0.000 Z21.000
G0 X74.764 Y70.164 Z21.000
G0 X74.764 Y70.164 Z19.000
G1 X75.707 Y69.166 Z18.211 F600.000
G1 X76.591 Y68.119 Z17.419 F600.000
G1 X77.414 Y67.024 Z16.625 F600.000
G1 X78.175 Y65.885 Z15.831 F600.000
G1 X78.871 Y64.705 Z15.039 F600.000
G1 X79.501 Y63.485 Z14.250 F600.000
G1 X78.871 Y64.705 Z13.461 F600.000
G1 X78.175 Y65.885 Z12.669 F600.000
G1 X77.414 Y67.024 Z11.875 F600.000
G1 X76.591 Y68.119 Z11.081 F600.000
G1 X75.707 Y69.166 Z10.289 F600.000
G1 X74.764 Y70.164 Z9.500 F600.000
G2 X60.234 Y28.639 Z9.500 I-17.264 J-17.264 K0.000 F600.000
G2 X54.766 Y77.161 Z9.500 I-2.734 J24.261 K0.000 F600.000
G2 X74.764 Y70.164 Z9.500 I2.734 J-24.261 K0.000 F600.000
G1 X75.658 Y69.221 Z8.750 F600.000
G1 X74.764 Y70.164 Z8.000 F600.000
G2 X60.234 Y28.639 Z8.000 I-17.264 J-17.264 K0.000 F600.000
G2 X54.766 Y77.161 Z8.000 I-2.734 J24.261 K0.000 F600.000
G2 X74.764 Y70.164 Z8.000 I2.734 J-24.261 K0.000 F600.000
G1 X75.658 Y69.221 Z7.250 F600.000
G1 X74.764 Y70.164 Z6.500 F600.000
G2 X60.234 Y28.639 Z6.500 I-17.264 J-17.264 K0.000 F600.000
G2 X54.766 Y77.161 Z6.500 I-2.734 J24.261 K0.000 F600.000
G2 X74.764 Y70.164 Z6.500 I2.734 J-24.261 K0.000 F600.000
G1 X75.067 Y69.855 Z6.250 F600.000
G1 X74.764 Y70.164 Z6.000 F600.000
G2 X60.234 Y28.639 Z6.000 I-17.264 J-17.264 K0.000 F600.000
G2 X54.766 Y77.161 Z6.000 I-2.734 J24.261 K0.000 F600.000
G2 X74.764 Y70.164 Z6.000 I2.734 J-24.261 K0.000 F600.000
G0 X74.764 Y70.164 Z21.000
(Finish operation: RampEntryDressup008)
(Begin operation: DressupTag)
(Path: DressupTag)
G0 Z21.000
G0 X116.121 Y186.021 Z21.000
G0 X116.121 Y186.021 Z19.000
G1 X116.121 Y186.021 Z14.500 F600.000
G2 X116.585 Y184.900 Z14.500 I-1.121 J-1.121 K0.000 F600.000
G1 X116.585 Y50.000 Z14.500 F600.000
G2 X116.209 Y48.975 Z14.500 I-1.585 J0.000 K0.000 F600.000
G1 X73.809 Y-1.025 Z14.500 F600.000
G2 X72.600 Y-1.585 Z14.500 I-1.209 J1.025 K0.000 F600.000
G1 X42.400 Y-1.585 Z14.500 F600.000
G2 X41.191 Y-1.025 Z14.500 I0.000 J1.585 K0.000 F600.000
G1 X-1.209 Y48.975 Z14.500 F600.000
G2 X-1.585 Y50.000 Z14.500 I1.209 J1.025 K0.000 F600.000
G1 X-1.585 Y184.900 Z14.500 F600.000
G2 X0.000 Y186.485 Z14.500 I1.585 J-0.000 K0.000 F600.000
G1 X115.000 Y186.485 Z14.500 F600.000
G2 X116.121 Y186.021 Z14.500 I-0.000 J-1.585 K0.000 F600.000
G1 X116.121 Y186.021 Z13.000 F600.000
G2 X116.585 Y184.900 Z13.000 I-1.121 J-1.121 K0.000 F600.000
G1 X116.585 Y50.000 Z13.000 F600.000
G2 X116.209 Y48.975 Z13.000 I-1.585 J0.000 K0.000 F600.000
G1 X73.809 Y-1.025 Z13.000 F600.000
G2 X72.600 Y-1.585 Z13.000 I-1.209 J1.025 K0.000 F600.000
G1 X42.400 Y-1.585 Z13.000 F600.000
G2 X41.191 Y-1.025 Z13.000 I0.000 J1.585 K0.000 F600.000
G1 X-1.209 Y48.975 Z13.000 F600.000
G2 X-1.585 Y50.000 Z13.000 I1.209 J1.025 K0.000 F600.000
G1 X-1.585 Y184.900 Z13.000 F600.000
G2 X0.000 Y186.485 Z13.000 I1.585 J-0.000 K0.000 F600.000
G1 X115.000 Y186.485 Z13.000 F600.000
G2 X116.121 Y186.021 Z13.000 I-0.000 J-1.585 K0.000 F600.000
G1 X116.121 Y186.021 Z11.500 F600.000
G2 X116.585 Y184.900 Z11.500 I-1.121 J-1.121 K0.000 F600.000
G1 X116.585 Y50.000 Z11.500 F600.000
G2 X116.209 Y48.975 Z11.500 I-1.585 J0.000 K0.000 F600.000
G1 X73.809 Y-1.025 Z11.500 F600.000
G2 X72.600 Y-1.585 Z11.500 I-1.209 J1.025 K0.000 F600.000
G1 X42.400 Y-1.585 Z11.500 F600.000
G2 X41.191 Y-1.025 Z11.500 I0.000 J1.585 K0.000 F600.000
G1 X-1.209 Y48.975 Z11.500 F600.000
G2 X-1.585 Y50.000 Z11.500 I1.209 J1.025 K0.000 F600.000
G1 X-1.585 Y184.900 Z11.500 F600.000
G2 X0.000 Y186.485 Z11.500 I1.585 J-0.000 K0.000 F600.000
G1 X115.000 Y186.485 Z11.500 F600.000
G2 X116.121 Y186.021 Z11.500 I-0.000 J-1.585 K0.000 F600.000
G1 X116.121 Y186.021 Z10.000 F600.000
G2 X116.585 Y184.900 Z10.000 I-1.121 J-1.121 K0.000 F600.000
G1 X116.585 Y50.000 Z10.000 F600.000
G2 X116.209 Y48.975 Z10.000 I-1.585 J0.000 K0.000 F600.000
G1 X73.809 Y-1.025 Z10.000 F600.000
G2 X72.600 Y-1.585 Z10.000 I-1.209 J1.025 K0.000 F600.000
G1 X42.400 Y-1.585 Z10.000 F600.000
G2 X41.191 Y-1.025 Z10.000 I0.000 J1.585 K0.000 F600.000
G1 X-1.209 Y48.975 Z10.000 F600.000
G2 X-1.585 Y50.000 Z10.000 I1.209 J1.025 K0.000 F600.000
G1 X-1.585 Y184.900 Z10.000 F600.000
G2 X0.000 Y186.485 Z10.000 I1.585 J-0.000 K0.000 F600.000
G1 X115.000 Y186.485 Z10.000 F600.000
G2 X116.121 Y186.021 Z10.000 I-0.000 J-1.585 K0.000 F600.000
G1 X116.121 Y186.021 Z8.500 F600.000
G2 X116.585 Y184.900 Z8.500 I-1.121 J-1.121 K0.000 F600.000
G1 X116.585 Y50.000 Z8.500 F600.000
G2 X116.209 Y48.975 Z8.500 I-1.585 J0.000 K0.000 F600.000
G1 X73.809 Y-1.025 Z8.500 F600.000
G2 X72.600 Y-1.585 Z8.500 I-1.209 J1.025 K0.000 F600.000
G1 X42.400 Y-1.585 Z8.500 F600.000
G2 X41.191 Y-1.025 Z8.500 I0.000 J1.585 K0.000 F600.000
G1 X-1.209 Y48.975 Z8.500 F600.000
G2 X-1.585 Y50.000 Z8.500 I1.209 J1.025 K0.000 F600.000
G1 X-1.585 Y184.900 Z8.500 F600.000
G2 X0.000 Y186.485 Z8.500 I1.585 J-0.000 K0.000 F600.000
G1 X115.000 Y186.485 Z8.500 F600.000
G2 X116.121 Y186.021 Z8.500 I-0.000 J-1.585 K0.000 F600.000
G1 X116.121 Y186.021 Z7.000 F600.000
G2 X116.585 Y184.900 Z7.000 I-1.121 J-1.121 K0.000 F600.000
G1 X116.585 Y50.000 Z7.000 F600.000
G2 X116.209 Y48.975 Z7.000 I-1.585 J0.000 K0.000 F600.000
G1 X73.809 Y-1.025 Z7.000 F600.000
G2 X72.600 Y-1.585 Z7.000 I-1.209 J1.025 K0.000 F600.000
G1 X42.400 Y-1.585 Z7.000 F600.000
G2 X41.191 Y-1.025 Z7.000 I0.000 J1.585 K0.000 F600.000
G1 X-1.209 Y48.975 Z7.000 F600.000
G2 X-1.585 Y50.000 Z7.000 I1.209 J1.025 K0.000 F600.000
G1 X-1.585 Y184.900 Z7.000 F600.000
G2 X0.000 Y186.485 Z7.000 I1.585 J-0.000 K0.000 F600.000
G1 X115.000 Y186.485 Z7.000 F600.000
G2 X116.121 Y186.021 Z7.000 I-0.000 J-1.585 K0.000 F600.000
G1 X116.121 Y186.021 Z5.500 F600.000
G2 X116.585 Y184.900 Z5.500 I-1.121 J-1.121 K0.000 F600.000
G1 X116.585 Y50.000 Z5.500 F600.000
G2 X116.209 Y48.975 Z5.500 I-1.585 J0.000 K0.000 F600.000
G1 X73.809 Y-1.025 Z5.500 F600.000
G2 X72.600 Y-1.585 Z5.500 I-1.209 J1.025 K0.000 F600.000
G1 X42.400 Y-1.585 Z5.500 F600.000
G2 X41.191 Y-1.025 Z5.500 I0.000 J1.585 K0.000 F600.000
G1 X-1.209 Y48.975 Z5.500 F600.000
G2 X-1.585 Y50.000 Z5.500 I1.209 J1.025 K0.000 F600.000
G1 X-1.585 Y184.900 Z5.500 F600.000
G2 X0.000 Y186.485 Z5.500 I1.585 J-0.000 K0.000 F600.000
G1 X115.000 Y186.485 Z5.500 F600.000
G2 X116.121 Y186.021 Z5.500 I-0.000 J-1.585 K0.000 F600.000
G1 X116.121 Y186.021 Z4.000 F600.000
G2 X116.585 Y184.900 Z4.000 I-1.121 J-1.121 K0.000 F600.000
G1 X116.585 Y50.000 Z4.000 F600.000
G2 X116.209 Y48.975 Z4.000 I-1.585 J0.000 K0.000 F600.000
G1 X73.809 Y-1.025 Z4.000 F600.000
G2 X72.600 Y-1.585 Z4.000 I-1.209 J1.025 K0.000 F600.000
G1 X42.400 Y-1.585 Z4.000 F600.000
G2 X41.191 Y-1.025 Z4.000 I0.000 J1.585 K0.000 F600.000
G1 X-1.209 Y48.975 Z4.000 F600.000
G2 X-1.585 Y50.000 Z4.000 I1.209 J1.025 K0.000 F600.000
G1 X-1.585 Y184.900 Z4.000 F600.000
G2 X0.000 Y186.485 Z4.000 I1.585 J-0.000 K0.000 F600.000
G1 X115.000 Y186.485 Z4.000 F600.000
G2 X116.121 Y186.021 Z4.000 I-0.000 J-1.585 K0.000 F600.000
G1 X116.121 Y186.021 Z2.500 F600.000
G2 X116.585 Y184.900 Z2.500 I-1.121 J-1.121 K0.000 F600.000
G1 X116.585 Y50.000 Z2.500 F600.000
G2 X116.209 Y48.975 Z2.500 I-1.585 J0.000 K0.000 F600.000
G1 X73.809 Y-1.025 Z2.500 F600.000
G2 X72.600 Y-1.585 Z2.500 I-1.209 J1.025 K0.000 F600.000
G1 X42.400 Y-1.585 Z2.500 F600.000
G2 X41.191 Y-1.025 Z2.500 I0.000 J1.585 K0.000 F600.000
G1 X-1.209 Y48.975 Z2.500 F600.000
G2 X-1.585 Y50.000 Z2.500 I1.209 J1.025 K0.000 F600.000
G1 X-1.585 Y184.900 Z2.500 F600.000
G2 X0.000 Y186.485 Z2.500 I1.585 J-0.000 K0.000 F600.000
G1 X115.000 Y186.485 Z2.500 F600.000
G2 X116.121 Y186.021 Z2.500 I-0.000 J-1.585 K0.000 F600.000
G1 X116.121 Y186.021 Z1.000 F600.000
G2 X116.585 Y184.900 Z1.000 I-1.121 J-1.121 K0.000 F600.000
G1 X116.585 Y50.000 Z1.000 F600.000
G2 X116.209 Y48.975 Z1.000 I-1.585 J0.000 K0.000 F600.000
G1 X73.809 Y-1.025 Z1.000 F600.000
G2 X72.600 Y-1.585 Z1.000 I-1.209 J1.025 K0.000 F600.000
G1 X42.400 Y-1.585 Z1.000 F600.000
G2 X41.191 Y-1.025 Z1.000 I0.000 J1.585 K0.000 F600.000
G1 X-1.209 Y48.975 Z1.000 F600.000
G2 X-1.585 Y50.000 Z1.000 I1.209 J1.025 K0.000 F600.000
G1 X-1.585 Y184.900 Z1.000 F600.000
G2 X0.000 Y186.485 Z1.000 I1.585 J-0.000 K0.000 F600.000
G1 X115.000 Y186.485 Z1.000 F600.000
G2 X116.121 Y186.021 Z1.000 I-0.000 J-1.585 K0.000 F600.000
G1 X116.121 Y186.021 Z0.000 F600.000
G2 X116.585 Y184.900 Z0.000 I-1.121 J-1.121 K0.000 F600.000
G1 X116.585 Y50.000 Z0.000 F600.000
G2 X116.209 Y48.975 Z0.000 I-1.585 J0.000 K0.000 F600.000
G1 X73.809 Y-1.025 Z0.000 F600.000
G2 X72.600 Y-1.585 Z0.000 I-1.209 J1.025 K0.000 F600.000
G1 X42.400 Y-1.585 Z0.000 F600.000
G2 X41.191 Y-1.025 Z0.000 I0.000 J1.585 K0.000 F600.000
G1 X-1.209 Y48.975 Z0.000 F600.000
G2 X-1.585 Y50.000 Z0.000 I1.209 J1.025 K0.000 F600.000
G1 X-1.585 Y184.900 Z0.000 F600.000
G2 X0.000 Y186.485 Z0.000 I1.585 J-0.000 K0.000 F600.000
G1 X115.000 Y186.485 Z0.000 F600.000
G2 X116.121 Y186.021 Z0.000 I-0.000 J-1.585 K0.000 F600.000
G0 X116.121 Y186.021 Z21.000
(Finish operation: DressupTag)
(Begin postamble)
M5
G17 G90
M2
