(Exported by FreeCAD)
(Post Processor: grbl_post)
(Output Time:2025-04-21 10:59:42.070904)
(Begin preamble)
G17 G90
G21
(Begin operation: Fixture)
(Path: Fixture)
G54
(Finish operation: Fixture)
(Begin operation: endmill_compression_635_spe001)
(Path: endmill_compression_635_spe001)
(endmill_compression_635_spe001)
(Begin toolchange)
( M6 T3 )
M3 S18000
(Finish operation: endmill_compression_635_spe001)
(Begin operation: FirstPocket)
(Path: FirstPocket)
(FirstPocket)
G0 Z21.000
G0 X12.177 Y176.525
G0 Z19.000
G1 X12.177 Y176.525 Z14.500 F500.000
G1 X8.375 Y176.525 Z14.500 F500.000
G1 X8.375 Y172.723 Z14.500 F500.000
G1 X12.177 Y176.525 Z14.500 F500.000
G1 X21.157 Y176.525 Z14.500 F500.000
G1 X8.375 Y163.743 Z14.500 F500.000
G1 X8.375 Y154.763 Z14.500 F500.000
G1 X30.137 Y176.525 Z14.500 F500.000
G1 X39.118 Y176.525 Z14.500 F500.000
G1 X8.375 Y145.782 Z14.500 F500.000
G1 X8.375 Y136.802 Z14.500 F500.000
G1 X48.098 Y176.525 Z14.500 F500.000
G1 X57.078 Y176.525 Z14.500 F500.000
G1 X8.375 Y127.822 Z14.500 F500.000
G1 X8.375 Y118.842 Z14.500 F500.000
G1 X66.058 Y176.525 Z14.500 F500.000
G1 X75.039 Y176.525 Z14.500 F500.000
G1 X8.375 Y109.861 Z14.500 F500.000
G1 X8.375 Y100.881 Z14.500 F500.000
G1 X84.019 Y176.525 Z14.500 F500.000
G1 X92.999 Y176.525 Z14.500 F500.000
G1 X8.375 Y91.901 Z14.500 F500.000
G1 X8.375 Y82.921 Z14.500 F500.000
G1 X101.979 Y176.525 Z14.500 F500.000
G1 X106.625 Y176.525 Z14.500 F500.000
G1 X106.625 Y172.190 Z14.500 F500.000
G1 X8.375 Y73.940 Z14.500 F500.000
G1 X8.375 Y64.960 Z14.500 F500.000
G1 X106.625 Y163.210 Z14.500 F500.000
G1 X106.625 Y154.230 Z14.500 F500.000
G1 X8.375 Y55.980 Z14.500 F500.000
G1 X8.375 Y51.282 Z14.500 F500.000
G1 X10.389 Y49.014 Z14.500 F500.000
G1 X106.625 Y145.250 Z14.500 F500.000
G1 X106.625 Y136.269 Z14.500 F500.000
G1 X14.612 Y44.256 Z14.500 F500.000
G1 X18.835 Y39.499 Z14.500 F500.000
G1 X106.625 Y127.289 Z14.500 F500.000
G1 X106.625 Y118.309 Z14.500 F500.000
G1 X23.058 Y34.742 Z14.500 F500.000
G1 X27.282 Y29.985 Z14.500 F500.000
G1 X106.625 Y109.329 Z14.500 F500.000
G1 X106.625 Y100.348 Z14.500 F500.000
G1 X31.505 Y25.228 Z14.500 F500.000
G1 X35.728 Y20.471 Z14.500 F500.000
G1 X106.625 Y91.368 Z14.500 F500.000
G1 X106.625 Y82.388 Z14.500 F500.000
G1 X39.951 Y15.714 Z14.500 F500.000
G1 X44.175 Y10.957 Z14.500 F500.000
G1 X106.625 Y73.408 Z14.500 F500.000
G1 X106.625 Y64.427 Z14.500 F500.000
G1 X50.573 Y8.375 Z14.500 F500.000
G1 X59.553 Y8.375 Z14.500 F500.000
G1 X106.625 Y55.447 Z14.500 F500.000
G1 X106.625 Y51.282 Z14.500 F500.000
G1 X68.533 Y8.375 Z14.500 F500.000
G1 X68.533 Y8.375 Z13.000 F500.000
G1 X106.625 Y51.282 Z13.000 F500.000
G1 X106.625 Y55.447 Z13.000 F500.000
G1 X59.553 Y8.375 Z13.000 F500.000
G1 X50.573 Y8.375 Z13.000 F500.000
G1 X106.625 Y64.427 Z13.000 F500.000
G1 X106.625 Y73.408 Z13.000 F500.000
G1 X44.175 Y10.957 Z13.000 F500.000
G1 X39.951 Y15.714 Z13.000 F500.000
G1 X106.625 Y82.388 Z13.000 F500.000
G1 X106.625 Y91.368 Z13.000 F500.000
G1 X35.728 Y20.471 Z13.000 F500.000
G1 X31.505 Y25.228 Z13.000 F500.000
G1 X106.625 Y100.348 Z13.000 F500.000
G1 X106.625 Y109.329 Z13.000 F500.000
G1 X27.282 Y29.985 Z13.000 F500.000
G1 X23.058 Y34.742 Z13.000 F500.000
G1 X106.625 Y118.309 Z13.000 F500.000
G1 X106.625 Y127.289 Z13.000 F500.000
G1 X18.835 Y39.499 Z13.000 F500.000
G1 X14.612 Y44.256 Z13.000 F500.000
G1 X106.625 Y136.269 Z13.000 F500.000
G1 X106.625 Y145.250 Z13.000 F500.000
G1 X10.389 Y49.014 Z13.000 F500.000
G1 X8.375 Y51.282 Z13.000 F500.000
G1 X8.375 Y55.980 Z13.000 F500.000
G1 X106.625 Y154.230 Z13.000 F500.000
G1 X106.625 Y163.210 Z13.000 F500.000
G1 X8.375 Y64.960 Z13.000 F500.000
G1 X8.375 Y73.940 Z13.000 F500.000
G1 X106.625 Y172.190 Z13.000 F500.000
G1 X106.625 Y176.525 Z13.000 F500.000
G1 X101.979 Y176.525 Z13.000 F500.000
G1 X8.375 Y82.921 Z13.000 F500.000
G1 X8.375 Y91.901 Z13.000 F500.000
G1 X92.999 Y176.525 Z13.000 F500.000
G1 X84.019 Y176.525 Z13.000 F500.000
G1 X8.375 Y100.881 Z13.000 F500.000
G1 X8.375 Y109.861 Z13.000 F500.000
G1 X75.039 Y176.525 Z13.000 F500.000
G1 X66.058 Y176.525 Z13.000 F500.000
G1 X8.375 Y118.842 Z13.000 F500.000
G1 X8.375 Y127.822 Z13.000 F500.000
G1 X57.078 Y176.525 Z13.000 F500.000
G1 X48.098 Y176.525 Z13.000 F500.000
G1 X8.375 Y136.802 Z13.000 F500.000
G1 X8.375 Y145.782 Z13.000 F500.000
G1 X39.118 Y176.525 Z13.000 F500.000
G1 X30.137 Y176.525 Z13.000 F500.000
G1 X8.375 Y154.763 Z13.000 F500.000
G1 X8.375 Y163.743 Z13.000 F500.000
G1 X21.157 Y176.525 Z13.000 F500.000
G1 X12.177 Y176.525 Z13.000 F500.000
G1 X8.375 Y172.723 Z13.000 F500.000
G1 X8.375 Y176.525 Z13.000 F500.000
G1 X12.177 Y176.525 Z13.000 F500.000
G1 X12.177 Y176.525 Z11.500 F500.000
G1 X8.375 Y176.525 Z11.500 F500.000
G1 X8.375 Y172.723 Z11.500 F500.000
G1 X12.177 Y176.525 Z11.500 F500.000
G1 X21.157 Y176.525 Z11.500 F500.000
G1 X8.375 Y163.743 Z11.500 F500.000
G1 X8.375 Y154.763 Z11.500 F500.000
G1 X30.137 Y176.525 Z11.500 F500.000
G1 X39.118 Y176.525 Z11.500 F500.000
G1 X8.375 Y145.782 Z11.500 F500.000
G1 X8.375 Y136.802 Z11.500 F500.000
G1 X48.098 Y176.525 Z11.500 F500.000
G1 X57.078 Y176.525 Z11.500 F500.000
G1 X8.375 Y127.822 Z11.500 F500.000
G1 X8.375 Y118.842 Z11.500 F500.000
G1 X66.058 Y176.525 Z11.500 F500.000
G1 X75.039 Y176.525 Z11.500 F500.000
G1 X8.375 Y109.861 Z11.500 F500.000
G1 X8.375 Y100.881 Z11.500 F500.000
G1 X84.019 Y176.525 Z11.500 F500.000
G1 X92.999 Y176.525 Z11.500 F500.000
G1 X8.375 Y91.901 Z11.500 F500.000
G1 X8.375 Y82.921 Z11.500 F500.000
G1 X101.979 Y176.525 Z11.500 F500.000
G1 X106.625 Y176.525 Z11.500 F500.000
G1 X106.625 Y172.190 Z11.500 F500.000
G1 X8.375 Y73.940 Z11.500 F500.000
G1 X8.375 Y64.960 Z11.500 F500.000
G1 X106.625 Y163.210 Z11.500 F500.000
G1 X106.625 Y154.230 Z11.500 F500.000
G1 X8.375 Y55.980 Z11.500 F500.000
G1 X8.375 Y51.282 Z11.500 F500.000
G1 X10.389 Y49.014 Z11.500 F500.000
G1 X106.625 Y145.250 Z11.500 F500.000
G1 X106.625 Y136.269 Z11.500 F500.000
G1 X14.612 Y44.256 Z11.500 F500.000
G1 X18.835 Y39.499 Z11.500 F500.000
G1 X106.625 Y127.289 Z11.500 F500.000
G1 X106.625 Y118.309 Z11.500 F500.000
G1 X23.058 Y34.742 Z11.500 F500.000
G1 X27.282 Y29.985 Z11.500 F500.000
G1 X106.625 Y109.329 Z11.500 F500.000
G1 X106.625 Y100.348 Z11.500 F500.000
G1 X31.505 Y25.228 Z11.500 F500.000
G1 X35.728 Y20.471 Z11.500 F500.000
G1 X106.625 Y91.368 Z11.500 F500.000
G1 X106.625 Y82.388 Z11.500 F500.000
G1 X39.951 Y15.714 Z11.500 F500.000
G1 X44.175 Y10.957 Z11.500 F500.000
G1 X106.625 Y73.408 Z11.500 F500.000
G1 X106.625 Y64.427 Z11.500 F500.000
G1 X50.573 Y8.375 Z11.500 F500.000
G1 X59.553 Y8.375 Z11.500 F500.000
G1 X106.625 Y55.447 Z11.500 F500.000
G1 X106.625 Y51.282 Z11.500 F500.000
G1 X68.533 Y8.375 Z11.500 F500.000
G1 X68.533 Y8.375 Z11.000 F500.000
G1 X106.625 Y51.282 Z11.000 F500.000
G1 X106.625 Y55.447 Z11.000 F500.000
G1 X59.553 Y8.375 Z11.000 F500.000
G1 X50.573 Y8.375 Z11.000 F500.000
G1 X106.625 Y64.427 Z11.000 F500.000
G1 X106.625 Y73.408 Z11.000 F500.000
G1 X44.175 Y10.957 Z11.000 F500.000
G1 X39.951 Y15.714 Z11.000 F500.000
G1 X106.625 Y82.388 Z11.000 F500.000
G1 X106.625 Y91.368 Z11.000 F500.000
G1 X35.728 Y20.471 Z11.000 F500.000
G1 X31.505 Y25.228 Z11.000 F500.000
G1 X106.625 Y100.348 Z11.000 F500.000
G1 X106.625 Y109.329 Z11.000 F500.000
G1 X27.282 Y29.985 Z11.000 F500.000
G1 X23.058 Y34.742 Z11.000 F500.000
G1 X106.625 Y118.309 Z11.000 F500.000
G1 X106.625 Y127.289 Z11.000 F500.000
G1 X18.835 Y39.499 Z11.000 F500.000
G1 X14.612 Y44.256 Z11.000 F500.000
G1 X106.625 Y136.269 Z11.000 F500.000
G1 X106.625 Y145.250 Z11.000 F500.000
G1 X10.389 Y49.014 Z11.000 F500.000
G1 X8.375 Y51.282 Z11.000 F500.000
G1 X8.375 Y55.980 Z11.000 F500.000
G1 X106.625 Y154.230 Z11.000 F500.000
G1 X106.625 Y163.210 Z11.000 F500.000
G1 X8.375 Y64.960 Z11.000 F500.000
G1 X8.375 Y73.940 Z11.000 F500.000
G1 X106.625 Y172.190 Z11.000 F500.000
G1 X106.625 Y176.525 Z11.000 F500.000
G1 X101.979 Y176.525 Z11.000 F500.000
G1 X8.375 Y82.921 Z11.000 F500.000
G1 X8.375 Y91.901 Z11.000 F500.000
G1 X92.999 Y176.525 Z11.000 F500.000
G1 X84.019 Y176.525 Z11.000 F500.000
G1 X8.375 Y100.881 Z11.000 F500.000
G1 X8.375 Y109.861 Z11.000 F500.000
G1 X75.039 Y176.525 Z11.000 F500.000
G1 X66.058 Y176.525 Z11.000 F500.000
G1 X8.375 Y118.842 Z11.000 F500.000
G1 X8.375 Y127.822 Z11.000 F500.000
G1 X57.078 Y176.525 Z11.000 F500.000
G1 X48.098 Y176.525 Z11.000 F500.000
G1 X8.375 Y136.802 Z11.000 F500.000
G1 X8.375 Y145.782 Z11.000 F500.000
G1 X39.118 Y176.525 Z11.000 F500.000
G1 X30.137 Y176.525 Z11.000 F500.000
G1 X8.375 Y154.763 Z11.000 F500.000
G1 X8.375 Y163.743 Z11.000 F500.000
G1 X21.157 Y176.525 Z11.000 F500.000
G1 X12.177 Y176.525 Z11.000 F500.000
G1 X8.375 Y172.723 Z11.000 F500.000
G1 X8.375 Y176.525 Z11.000 F500.000
G1 X12.177 Y176.525 Z11.000 F500.000
G0 Z21.000
G0 Z21.000
(Finish operation: FirstPocket)
(Begin operation: PocketTray)
(Path: PocketTray)
(PocketTray)
G0 Z21.000
G0 X106.625 Y101.575
G0 Z19.000
G1 X106.625 Y101.575 Z9.500 F500.000
G1 X106.625 Y110.555 Z9.500 F500.000
G1 X97.645 Y101.575 Z9.500 F500.000
G1 X88.664 Y101.575 Z9.500 F500.000
G1 X106.625 Y119.536 Z9.500 F500.000
G1 X106.625 Y128.516 Z9.500 F500.000
G1 X79.684 Y101.575 Z9.500 F500.000
G1 X70.704 Y101.575 Z9.500 F500.000
G1 X106.625 Y137.496 Z9.500 F500.000
G1 X106.625 Y146.476 Z9.500 F500.000
G1 X61.724 Y101.575 Z9.500 F500.000
G1 X52.743 Y101.575 Z9.500 F500.000
G1 X106.625 Y155.457 Z9.500 F500.000
G1 X106.625 Y164.437 Z9.500 F500.000
G1 X43.763 Y101.575 Z9.500 F500.000
G1 X34.783 Y101.575 Z9.500 F500.000
G1 X106.625 Y173.417 Z9.500 F500.000
G1 X106.625 Y176.525 Z9.500 F500.000
G1 X100.753 Y176.525 Z9.500 F500.000
G1 X25.803 Y101.575 Z9.500 F500.000
G1 X16.822 Y101.575 Z9.500 F500.000
G1 X91.772 Y176.525 Z9.500 F500.000
G1 X82.792 Y176.525 Z9.500 F500.000
G1 X8.375 Y102.108 Z9.500 F500.000
G1 X8.375 Y111.088 Z9.500 F500.000
G1 X73.812 Y176.525 Z9.500 F500.000
G1 X64.832 Y176.525 Z9.500 F500.000
G1 X8.375 Y120.068 Z9.500 F500.000
G1 X8.375 Y129.049 Z9.500 F500.000
G1 X55.851 Y176.525 Z9.500 F500.000
G1 X46.871 Y176.525 Z9.500 F500.000
G1 X8.375 Y138.029 Z9.500 F500.000
G1 X8.375 Y147.009 Z9.500 F500.000
G1 X37.891 Y176.525 Z9.500 F500.000
G1 X28.911 Y176.525 Z9.500 F500.000
G1 X8.375 Y155.989 Z9.500 F500.000
G1 X8.375 Y164.970 Z9.500 F500.000
G1 X19.930 Y176.525 Z9.500 F500.000
G1 X10.950 Y176.525 Z9.500 F500.000
G1 X8.375 Y176.525 Z9.500 F500.000
G1 X8.375 Y173.950 Z9.500 F500.000
G1 X10.950 Y176.525 Z9.500 F500.000
G1 X10.950 Y176.525 Z8.000 F500.000
G1 X8.375 Y173.950 Z8.000 F500.000
G1 X8.375 Y176.525 Z8.000 F500.000
G1 X10.950 Y176.525 Z8.000 F500.000
G1 X19.930 Y176.525 Z8.000 F500.000
G1 X8.375 Y164.970 Z8.000 F500.000
G1 X8.375 Y155.989 Z8.000 F500.000
G1 X28.911 Y176.525 Z8.000 F500.000
G1 X37.891 Y176.525 Z8.000 F500.000
G1 X8.375 Y147.009 Z8.000 F500.000
G1 X8.375 Y138.029 Z8.000 F500.000
G1 X46.871 Y176.525 Z8.000 F500.000
G1 X55.851 Y176.525 Z8.000 F500.000
G1 X8.375 Y129.049 Z8.000 F500.000
G1 X8.375 Y120.068 Z8.000 F500.000
G1 X64.832 Y176.525 Z8.000 F500.000
G1 X73.812 Y176.525 Z8.000 F500.000
G1 X8.375 Y111.088 Z8.000 F500.000
G1 X8.375 Y102.108 Z8.000 F500.000
G1 X82.792 Y176.525 Z8.000 F500.000
G1 X91.772 Y176.525 Z8.000 F500.000
G1 X16.822 Y101.575 Z8.000 F500.000
G1 X25.803 Y101.575 Z8.000 F500.000
G1 X100.753 Y176.525 Z8.000 F500.000
G1 X106.625 Y176.525 Z8.000 F500.000
G1 X106.625 Y173.417 Z8.000 F500.000
G1 X34.783 Y101.575 Z8.000 F500.000
G1 X43.763 Y101.575 Z8.000 F500.000
G1 X106.625 Y164.437 Z8.000 F500.000
G1 X106.625 Y155.457 Z8.000 F500.000
G1 X52.743 Y101.575 Z8.000 F500.000
G1 X61.724 Y101.575 Z8.000 F500.000
G1 X106.625 Y146.476 Z8.000 F500.000
G1 X106.625 Y137.496 Z8.000 F500.000
G1 X70.704 Y101.575 Z8.000 F500.000
G1 X79.684 Y101.575 Z8.000 F500.000
G1 X106.625 Y128.516 Z8.000 F500.000
G1 X106.625 Y119.536 Z8.000 F500.000
G1 X88.664 Y101.575 Z8.000 F500.000
G1 X97.645 Y101.575 Z8.000 F500.000
G1 X106.625 Y110.555 Z8.000 F500.000
G1 X106.625 Y101.575 Z8.000 F500.000
G1 X106.625 Y101.575 Z6.500 F500.000
G1 X106.625 Y110.555 Z6.500 F500.000
G1 X97.645 Y101.575 Z6.500 F500.000
G1 X88.664 Y101.575 Z6.500 F500.000
G1 X106.625 Y119.536 Z6.500 F500.000
G1 X106.625 Y128.516 Z6.500 F500.000
G1 X79.684 Y101.575 Z6.500 F500.000
G1 X70.704 Y101.575 Z6.500 F500.000
G1 X106.625 Y137.496 Z6.500 F500.000
G1 X106.625 Y146.476 Z6.500 F500.000
G1 X61.724 Y101.575 Z6.500 F500.000
G1 X52.743 Y101.575 Z6.500 F500.000
G1 X106.625 Y155.457 Z6.500 F500.000
G1 X106.625 Y164.437 Z6.500 F500.000
G1 X43.763 Y101.575 Z6.500 F500.000
G1 X34.783 Y101.575 Z6.500 F500.000
G1 X106.625 Y173.417 Z6.500 F500.000
G1 X106.625 Y176.525 Z6.500 F500.000
G1 X100.753 Y176.525 Z6.500 F500.000
G1 X25.803 Y101.575 Z6.500 F500.000
G1 X16.822 Y101.575 Z6.500 F500.000
G1 X91.772 Y176.525 Z6.500 F500.000
G1 X82.792 Y176.525 Z6.500 F500.000
G1 X8.375 Y102.108 Z6.500 F500.000
G1 X8.375 Y111.088 Z6.500 F500.000
G1 X73.812 Y176.525 Z6.500 F500.000
G1 X64.832 Y176.525 Z6.500 F500.000
G1 X8.375 Y120.068 Z6.500 F500.000
G1 X8.375 Y129.049 Z6.500 F500.000
G1 X55.851 Y176.525 Z6.500 F500.000
G1 X46.871 Y176.525 Z6.500 F500.000
G1 X8.375 Y138.029 Z6.500 F500.000
G1 X8.375 Y147.009 Z6.500 F500.000
G1 X37.891 Y176.525 Z6.500 F500.000
G1 X28.911 Y176.525 Z6.500 F500.000
G1 X8.375 Y155.989 Z6.500 F500.000
G1 X8.375 Y164.970 Z6.500 F500.000
G1 X19.930 Y176.525 Z6.500 F500.000
G1 X10.950 Y176.525 Z6.500 F500.000
G1 X8.375 Y176.525 Z6.500 F500.000
G1 X8.375 Y173.950 Z6.500 F500.000
G1 X10.950 Y176.525 Z6.500 F500.000
G1 X10.950 Y176.525 Z6.000 F500.000
G1 X8.375 Y173.950 Z6.000 F500.000
G1 X8.375 Y176.525 Z6.000 F500.000
G1 X10.950 Y176.525 Z6.000 F500.000
G1 X19.930 Y176.525 Z6.000 F500.000
G1 X8.375 Y164.970 Z6.000 F500.000
G1 X8.375 Y155.989 Z6.000 F500.000
G1 X28.911 Y176.525 Z6.000 F500.000
G1 X37.891 Y176.525 Z6.000 F500.000
G1 X8.375 Y147.009 Z6.000 F500.000
G1 X8.375 Y138.029 Z6.000 F500.000
G1 X46.871 Y176.525 Z6.000 F500.000
G1 X55.851 Y176.525 Z6.000 F500.000
G1 X8.375 Y129.049 Z6.000 F500.000
G1 X8.375 Y120.068 Z6.000 F500.000
G1 X64.832 Y176.525 Z6.000 F500.000
G1 X73.812 Y176.525 Z6.000 F500.000
G1 X8.375 Y111.088 Z6.000 F500.000
G1 X8.375 Y102.108 Z6.000 F500.000
G1 X82.792 Y176.525 Z6.000 F500.000
G1 X91.772 Y176.525 Z6.000 F500.000
G1 X16.822 Y101.575 Z6.000 F500.000
G1 X25.803 Y101.575 Z6.000 F500.000
G1 X100.753 Y176.525 Z6.000 F500.000
G1 X106.625 Y176.525 Z6.000 F500.000
G1 X106.625 Y173.417 Z6.000 F500.000
G1 X34.783 Y101.575 Z6.000 F500.000
G1 X43.763 Y101.575 Z6.000 F500.000
G1 X106.625 Y164.437 Z6.000 F500.000
G1 X106.625 Y155.457 Z6.000 F500.000
G1 X52.743 Y101.575 Z6.000 F500.000
G1 X61.724 Y101.575 Z6.000 F500.000
G1 X106.625 Y146.476 Z6.000 F500.000
G1 X106.625 Y137.496 Z6.000 F500.000
G1 X70.704 Y101.575 Z6.000 F500.000
G1 X79.684 Y101.575 Z6.000 F500.000
G1 X106.625 Y128.516 Z6.000 F500.000
G1 X106.625 Y119.536 Z6.000 F500.000
G1 X88.664 Y101.575 Z6.000 F500.000
G1 X97.645 Y101.575 Z6.000 F500.000
G1 X106.625 Y110.555 Z6.000 F500.000
G1 X106.625 Y101.575 Z6.000 F500.000
G0 Z21.000
G0 Z21.000
(Finish operation: PocketTray)
(Begin operation: PocketCup)
(Path: PocketCup)
(PocketCup)
G0 Z21.000
G0 X72.224 Y67.624
G0 Z19.000
G1 X72.224 Y67.624 Z9.500 F500.000
G3 X57.155 Y73.714 Z9.500 I-14.698 J-14.682 K0.000 F500.000
G1 X78.314 Y52.555 Z9.500 F500.000
G2 X76.799 Y45.089 Z9.500 I-20.509 J0.276 K0.000 F500.000
G1 X49.689 Y72.199 Z9.500 F500.000
G3 X44.089 Y68.819 Z9.500 I7.560 J-18.858 K0.000 F500.000
G1 X73.419 Y39.489 Z9.500 F500.000
G2 X68.627 Y35.301 Z9.500 I-15.652 J13.073 K0.000 F500.000
G1 X39.901 Y64.027 Z9.500 F500.000
G3 X37.243 Y57.705 Z9.500 I17.407 J-11.037 K0.000 F500.000
G1 X62.305 Y32.643 Z9.500 F500.000
G2 X53.493 Y32.474 Z9.500 I-4.790 J19.979 K0.000 F500.000
G2 X37.074 Y48.893 Z9.500 I3.973 J20.392 K0.000 F500.000
G1 X53.493 Y32.474 Z9.500 F500.000
G1 X53.493 Y32.474 Z8.000 F500.000
G1 X37.074 Y48.893 Z8.000 F500.000
G3 X53.493 Y32.474 Z8.000 I20.392 J3.973 K0.000 F500.000
G3 X62.305 Y32.643 Z8.000 I4.022 J20.148 K0.000 F500.000
G1 X37.243 Y57.705 Z8.000 F500.000
G2 X39.901 Y64.027 Z8.000 I20.065 J-4.715 K0.000 F500.000
G1 X68.627 Y35.301 Z8.000 F500.000
G3 X73.419 Y39.489 Z8.000 I-10.860 J17.261 K0.000 F500.000
G1 X44.089 Y68.819 Z8.000 F500.000
G2 X49.689 Y72.199 Z8.000 I13.160 J-15.478 K0.000 F500.000
G1 X76.799 Y45.089 Z8.000 F500.000
G3 X78.314 Y52.555 Z8.000 I-18.994 J7.741 K0.000 F500.000
G1 X57.155 Y73.714 Z8.000 F500.000
G2 X72.224 Y67.624 Z8.000 I0.372 J-20.772 K0.000 F500.000
G1 X72.224 Y67.624 Z6.500 F500.000
G3 X57.155 Y73.714 Z6.500 I-14.698 J-14.682 K0.000 F500.000
G1 X78.314 Y52.555 Z6.500 F500.000
G2 X76.799 Y45.089 Z6.500 I-20.509 J0.276 K0.000 F500.000
G1 X49.689 Y72.199 Z6.500 F500.000
G3 X44.089 Y68.819 Z6.500 I7.560 J-18.858 K0.000 F500.000
G1 X73.419 Y39.489 Z6.500 F500.000
G2 X68.627 Y35.301 Z6.500 I-15.652 J13.073 K0.000 F500.000
G1 X39.901 Y64.027 Z6.500 F500.000
G3 X37.243 Y57.705 Z6.500 I17.407 J-11.037 K0.000 F500.000
G1 X62.305 Y32.643 Z6.500 F500.000
G2 X53.493 Y32.474 Z6.500 I-4.790 J19.979 K0.000 F500.000
G2 X37.074 Y48.893 Z6.500 I3.973 J20.392 K0.000 F500.000
G1 X53.493 Y32.474 Z6.500 F500.000
G1 X53.493 Y32.474 Z6.000 F500.000
G1 X37.074 Y48.893 Z6.000 F500.000
G3 X53.493 Y32.474 Z6.000 I20.392 J3.973 K0.000 F500.000
G3 X62.305 Y32.643 Z6.000 I4.022 J20.148 K0.000 F500.000
G1 X37.243 Y57.705 Z6.000 F500.000
G2 X39.901 Y64.027 Z6.000 I20.065 J-4.715 K0.000 F500.000
G1 X68.627 Y35.301 Z6.000 F500.000
G3 X73.419 Y39.489 Z6.000 I-10.860 J17.261 K0.000 F500.000
G1 X44.089 Y68.819 Z6.000 F500.000
G2 X49.689 Y72.199 Z6.000 I13.160 J-15.478 K0.000 F500.000
G1 X76.799 Y45.089 Z6.000 F500.000
G3 X78.314 Y52.555 Z6.000 I-18.994 J7.741 K0.000 F500.000
G1 X57.155 Y73.714 Z6.000 F500.000
G2 X72.224 Y67.624 Z6.000 I0.372 J-20.772 K0.000 F500.000
G0 Z21.000
G0 Z21.000
(Finish operation: PocketCup)
(Begin operation: PocketInnerFine)
(Path: PocketInnerFine)
(PocketInnerFine)
G0 Z21.000
G0 X80.212 Y36.073
G0 Z19.000
G1 X80.212 Y36.073 Z11.000 F500.000
G1 X106.725 Y62.586 Z11.000 F500.000
G1 X106.725 Y65.280 Z11.000 F500.000
G1 X83.686 Y42.241 Z11.000 F500.000
G3 X84.966 Y46.216 Z11.000 I-24.363 J10.042 K0.000 F500.000
G1 X106.725 Y67.975 Z11.000 F500.000
G1 X106.725 Y70.669 Z11.000 F500.000
G1 X85.567 Y49.511 Z11.000 F500.000
G3 X85.762 Y52.400 Z11.000 I-24.325 J3.096 K0.000 F500.000
G1 X106.725 Y73.363 Z11.000 F500.000
G1 X106.725 Y76.057 Z11.000 F500.000
G1 X85.687 Y55.019 Z11.000 F500.000
G3 X85.406 Y57.432 Z11.000 I-22.486 J-1.397 K0.000 F500.000
G1 X106.725 Y78.751 Z11.000 F500.000
G1 X106.725 Y81.445 Z11.000 F500.000
G1 X84.945 Y59.665 Z11.000 F500.000
G3 X84.343 Y61.757 Z11.000 I-19.748 J-4.552 K0.000 F500.000
G1 X106.725 Y84.139 Z11.000 F500.000
G1 X106.725 Y86.833 Z11.000 F500.000
G1 X83.620 Y63.728 Z11.000 F500.000
G3 X82.768 Y65.571 Z11.000 I-18.547 J-7.449 K0.000 F500.000
G1 X106.725 Y89.527 Z11.000 F500.000
G1 X106.725 Y92.221 Z11.000 F500.000
G1 X81.815 Y67.311 Z11.000 F500.000
G3 X80.766 Y68.956 Z11.000 I-15.942 J-9.015 K0.000 F500.000
G1 X106.725 Y94.915 Z11.000 F500.000
G1 X106.725 Y94.925 Z11.000 F500.000
G1 X104.041 Y94.925 Z11.000 F500.000
G1 X79.623 Y70.508 Z11.000 F500.000
G3 X78.380 Y71.958 Z11.000 I-15.443 J-11.984 K0.000 F500.000
G1 X101.347 Y94.925 Z11.000 F500.000
G1 X98.652 Y94.925 Z11.000 F500.000
G1 X77.046 Y73.318 Z11.000 F500.000
G3 X75.624 Y74.590 Z11.000 I-12.610 J-12.667 K0.000 F500.000
G1 X95.958 Y94.925 Z11.000 F500.000
G1 X93.264 Y94.925 Z11.000 F500.000
G1 X74.112 Y75.773 Z11.000 F500.000
G3 X72.508 Y76.863 Z11.000 I-12.865 J-17.214 K0.000 F500.000
G1 X90.570 Y94.925 Z11.000 F500.000
G1 X87.876 Y94.925 Z11.000 F500.000
G1 X70.796 Y77.845 Z11.000 F500.000
G3 X68.984 Y78.727 Z11.000 I-9.143 J-16.483 K0.000 F500.000
G1 X85.182 Y94.925 Z11.000 F500.000
G1 X82.488 Y94.925 Z11.000 F500.000
G1 X67.066 Y79.503 Z11.000 F500.000
G3 X65.020 Y80.151 Z11.000 I-7.322 J-19.573 K0.000 F500.000
G1 X79.794 Y94.925 Z11.000 F500.000
G1 X77.100 Y94.925 Z11.000 F500.000
G1 X62.833 Y80.658 Z11.000 F500.000
G3 X60.494 Y81.013 Z11.000 I-4.524 J-21.932 K0.000 F500.000
G1 X74.406 Y94.925 Z11.000 F500.000
G1 X71.712 Y94.925 Z11.000 F500.000
G1 X57.950 Y81.164 Z11.000 F500.000
G3 X55.161 Y81.068 Z11.000 I-0.639 J-22.151 K0.000 F500.000
G1 X69.018 Y94.925 Z11.000 F500.000
G1 X66.324 Y94.925 Z11.000 F500.000
G1 X52.029 Y80.631 Z11.000 F500.000
G3 X48.356 Y79.652 Z11.000 I4.880 J-25.690 K0.000 F500.000
G1 X63.629 Y94.925 Z11.000 F500.000
G1 X60.935 Y94.925 Z11.000 F500.000
G1 X43.423 Y77.413 Z11.000 F500.000
G3 X32.987 Y66.977 Z11.000 I13.917 J-24.352 K0.000 F500.000
G1 X12.498 Y46.487 Z11.000 F500.000
G1 X11.231 Y47.915 Z11.000 F500.000
G1 X58.241 Y94.925 Z11.000 F500.000
G1 X55.547 Y94.925 Z11.000 F500.000
G1 X9.964 Y49.342 Z11.000 F500.000
G1 X8.697 Y50.769 Z11.000 F500.000
G1 X52.853 Y94.925 Z11.000 F500.000
G1 X50.159 Y94.925 Z11.000 F500.000
G1 X8.275 Y53.041 Z11.000 F500.000
G1 X8.275 Y55.735 Z11.000 F500.000
G1 X47.465 Y94.925 Z11.000 F500.000
G1 X44.771 Y94.925 Z11.000 F500.000
G1 X8.275 Y58.429 Z11.000 F500.000
G1 X8.275 Y61.123 Z11.000 F500.000
G1 X42.077 Y94.925 Z11.000 F500.000
G1 X39.383 Y94.925 Z11.000 F500.000
G1 X8.275 Y63.817 Z11.000 F500.000
G1 X8.275 Y66.511 Z11.000 F500.000
G1 X36.689 Y94.925 Z11.000 F500.000
G1 X33.995 Y94.925 Z11.000 F500.000
G1 X8.275 Y69.205 Z11.000 F500.000
G1 X8.275 Y71.899 Z11.000 F500.000
G1 X31.301 Y94.925 Z11.000 F500.000
G1 X28.606 Y94.925 Z11.000 F500.000
G1 X8.275 Y74.594 Z11.000 F500.000
G1 X8.275 Y77.288 Z11.000 F500.000
G1 X25.912 Y94.925 Z11.000 F500.000
G1 X23.218 Y94.925 Z11.000 F500.000
G1 X8.275 Y79.982 Z11.000 F500.000
G1 X8.275 Y82.676 Z11.000 F500.000
G1 X20.524 Y94.925 Z11.000 F500.000
G1 X17.830 Y94.925 Z11.000 F500.000
G1 X8.275 Y85.370 Z11.000 F500.000
G1 X8.275 Y88.064 Z11.000 F500.000
G1 X15.136 Y94.925 Z11.000 F500.000
G1 X12.442 Y94.925 Z11.000 F500.000
G1 X8.275 Y90.758 Z11.000 F500.000
G1 X8.275 Y93.452 Z11.000 F500.000
G1 X9.748 Y94.925 Z11.000 F500.000
G1 X8.275 Y94.925 Z11.000 F500.000
G1 X8.275 Y93.452 Z11.000 F500.000
G0 Z21.000
G0 X12.498 Y46.487 Z21.000
G0 X12.498 Y46.487 Z19.000
G1 X12.498 Y46.487 Z11.000 F500.000
G1 X32.987 Y66.977 Z11.000 F500.000
G3 X30.748 Y62.044 Z11.000 I23.485 J-13.635 K0.000 F500.000
G1 X13.765 Y45.060 Z11.000 F500.000
G1 X15.032 Y43.633 Z11.000 F500.000
G1 X29.769 Y58.371 Z11.000 F500.000
G3 X29.332 Y55.239 Z11.000 I22.114 J-4.686 K0.000 F500.000
G1 X16.299 Y42.206 Z11.000 F500.000
G1 X17.566 Y40.779 Z11.000 F500.000
G1 X29.236 Y52.450 Z11.000 F500.000
G3 X29.387 Y49.906 Z11.000 I23.579 J0.120 K0.000 F500.000
G1 X18.833 Y39.352 Z11.000 F500.000
G1 X20.100 Y37.925 Z11.000 F500.000
G1 X29.742 Y47.567 Z11.000 F500.000
G3 X30.249 Y45.380 Z11.000 I20.569 J3.621 K0.000 F500.000
G1 X21.367 Y36.498 Z11.000 F500.000
G1 X22.633 Y35.070 Z11.000 F500.000
G1 X30.897 Y43.334 Z11.000 F500.000
G3 X31.673 Y41.416 Z11.000 I18.343 J6.303 K0.000 F500.000
G1 X23.900 Y33.643 Z11.000 F500.000
G1 X25.167 Y32.216 Z11.000 F500.000
G1 X32.555 Y39.604 Z11.000 F500.000
G3 X33.537 Y37.892 Z11.000 I17.572 J8.946 K0.000 F500.000
G1 X26.434 Y30.789 Z11.000 F500.000
G1 X27.701 Y29.362 Z11.000 F500.000
G1 X34.627 Y36.288 Z11.000 F500.000
G3 X35.810 Y34.776 Z11.000 I14.810 J10.372 K0.000 F500.000
G1 X28.968 Y27.935 Z11.000 F500.000
G1 X30.235 Y26.508 Z11.000 F500.000
G1 X37.082 Y33.354 Z11.000 F500.000
G3 X38.442 Y32.020 Z11.000 I13.248 J12.152 K0.000 F500.000
G1 X31.502 Y25.081 Z11.000 F500.000
G1 X32.769 Y23.654 Z11.000 F500.000
G1 X39.892 Y30.777 Z11.000 F500.000
G3 X41.444 Y29.634 Z11.000 I12.339 J15.130 K0.000 F500.000
G1 X34.036 Y22.226 Z11.000 F500.000
G1 X35.303 Y20.799 Z11.000 F500.000
G1 X43.089 Y28.585 Z11.000 F500.000
G3 X44.829 Y27.632 Z11.000 I9.778 J15.793 K0.000 F500.000
G1 X36.570 Y19.372 Z11.000 F500.000
G1 X37.837 Y17.945 Z11.000 F500.000
G1 X46.672 Y26.780 Z11.000 F500.000
G3 X48.643 Y26.057 Z11.000 I8.435 J19.929 K0.000 F500.000
G1 X39.104 Y16.518 Z11.000 F500.000
G1 X40.371 Y15.091 Z11.000 F500.000
G1 X50.735 Y25.455 Z11.000 F500.000
G3 X52.968 Y24.994 Z11.000 I5.372 J20.415 K0.000 F500.000
G1 X41.638 Y13.664 Z11.000 F500.000
G1 X42.905 Y12.237 Z11.000 F500.000
G1 X55.381 Y24.713 Z11.000 F500.000
G3 X58.000 Y24.638 Z11.000 I1.917 J21.071 K0.000 F500.000
G1 X44.172 Y10.810 Z11.000 F500.000
G1 X45.439 Y9.382 Z11.000 F500.000
G1 X60.889 Y24.833 Z11.000 F500.000
G3 X64.184 Y25.434 Z11.000 I-3.002 J25.801 K0.000 F500.000
G1 X47.025 Y8.275 Z11.000 F500.000
G1 X49.720 Y8.275 Z11.000 F500.000
G1 X68.159 Y26.714 Z11.000 F500.000
G3 X74.327 Y30.188 Z11.000 I-10.322 J25.539 K0.000 F500.000
G1 X52.414 Y8.275 Z11.000 F500.000
G1 X55.108 Y8.275 Z11.000 F500.000
G1 X106.725 Y59.892 Z11.000 F500.000
G1 X106.725 Y57.198 Z11.000 F500.000
G1 X57.802 Y8.275 Z11.000 F500.000
G1 X60.496 Y8.275 Z11.000 F500.000
G1 X106.725 Y54.504 Z11.000 F500.000
G1 X106.725 Y51.810 Z11.000 F500.000
G1 X63.190 Y8.275 Z11.000 F500.000
G1 X65.884 Y8.275 Z11.000 F500.000
G1 X89.891 Y32.282 Z11.000 F500.000
G1 X68.578 Y8.275 Z11.000 F500.000
G0 Z21.000
G0 Z21.000
(Finish operation: PocketInnerFine)
(Begin operation: PocketTrayFine)
(Path: PocketTrayFine)
(PocketTrayFine)
G0 Z21.000
G0 X106.725 Y101.475
G0 Z19.000
G1 X106.725 Y101.475 Z6.000 F500.000
G1 X106.725 Y104.169 Z6.000 F500.000
G1 X104.031 Y101.475 Z6.000 F500.000
G1 X101.337 Y101.475 Z6.000 F500.000
G1 X106.725 Y106.863 Z6.000 F500.000
G1 X106.725 Y109.557 Z6.000 F500.000
G1 X98.643 Y101.475 Z6.000 F500.000
G1 X95.949 Y101.475 Z6.000 F500.000
G1 X106.725 Y112.251 Z6.000 F500.000
G1 X106.725 Y114.945 Z6.000 F500.000
G1 X93.255 Y101.475 Z6.000 F500.000
G1 X90.561 Y101.475 Z6.000 F500.000
G1 X106.725 Y117.639 Z6.000 F500.000
G1 X106.725 Y120.334 Z6.000 F500.000
G1 X87.866 Y101.475 Z6.000 F500.000
G1 X85.172 Y101.475 Z6.000 F500.000
G1 X106.725 Y123.028 Z6.000 F500.000
G1 X106.725 Y125.722 Z6.000 F500.000
G1 X82.478 Y101.475 Z6.000 F500.000
G1 X79.784 Y101.475 Z6.000 F500.000
G1 X106.725 Y128.416 Z6.000 F500.000
G1 X106.725 Y131.110 Z6.000 F500.000
G1 X77.090 Y101.475 Z6.000 F500.000
G1 X74.396 Y101.475 Z6.000 F500.000
G1 X106.725 Y133.804 Z6.000 F500.000
G1 X106.725 Y136.498 Z6.000 F500.000
G1 X71.702 Y101.475 Z6.000 F500.000
G1 X69.008 Y101.475 Z6.000 F500.000
G1 X106.725 Y139.192 Z6.000 F500.000
G1 X106.725 Y141.886 Z6.000 F500.000
G1 X66.314 Y101.475 Z6.000 F500.000
G1 X63.620 Y101.475 Z6.000 F500.000
G1 X106.725 Y144.580 Z6.000 F500.000
G1 X106.725 Y147.274 Z6.000 F500.000
G1 X60.926 Y101.475 Z6.000 F500.000
G1 X58.232 Y101.475 Z6.000 F500.000
G1 X106.725 Y149.968 Z6.000 F500.000
G1 X106.725 Y152.662 Z6.000 F500.000
G1 X55.538 Y101.475 Z6.000 F500.000
G1 X52.843 Y101.475 Z6.000 F500.000
G1 X106.725 Y155.357 Z6.000 F500.000
G1 X106.725 Y158.051 Z6.000 F500.000
G1 X50.149 Y101.475 Z6.000 F500.000
G1 X47.455 Y101.475 Z6.000 F500.000
G1 X106.725 Y160.745 Z6.000 F500.000
G1 X106.725 Y163.439 Z6.000 F500.000
G1 X44.761 Y101.475 Z6.000 F500.000
G1 X42.067 Y101.475 Z6.000 F500.000
G1 X106.725 Y166.133 Z6.000 F500.000
G1 X106.725 Y168.827 Z6.000 F500.000
G1 X39.373 Y101.475 Z6.000 F500.000
G1 X36.679 Y101.475 Z6.000 F500.000
G1 X106.725 Y171.521 Z6.000 F500.000
G1 X106.725 Y174.215 Z6.000 F500.000
G1 X33.985 Y101.475 Z6.000 F500.000
G1 X31.291 Y101.475 Z6.000 F500.000
G1 X106.441 Y176.625 Z6.000 F500.000
G1 X103.747 Y176.625 Z6.000 F500.000
G1 X28.597 Y101.475 Z6.000 F500.000
G1 X25.903 Y101.475 Z6.000 F500.000
G1 X101.053 Y176.625 Z6.000 F500.000
G1 X98.359 Y176.625 Z6.000 F500.000
G1 X23.209 Y101.475 Z6.000 F500.000
G1 X20.515 Y101.475 Z6.000 F500.000
G1 X95.665 Y176.625 Z6.000 F500.000
G1 X92.970 Y176.625 Z6.000 F500.000
G1 X17.820 Y101.475 Z6.000 F500.000
G1 X15.126 Y101.475 Z6.000 F500.000
G1 X90.276 Y176.625 Z6.000 F500.000
G1 X87.582 Y176.625 Z6.000 F500.000
G1 X12.432 Y101.475 Z6.000 F500.000
G1 X9.738 Y101.475 Z6.000 F500.000
G1 X84.888 Y176.625 Z6.000 F500.000
G1 X82.194 Y176.625 Z6.000 F500.000
G1 X8.275 Y102.706 Z6.000 F500.000
G1 X8.275 Y105.400 Z6.000 F500.000
G1 X79.500 Y176.625 Z6.000 F500.000
G1 X76.806 Y176.625 Z6.000 F500.000
G1 X8.275 Y108.094 Z6.000 F500.000
G1 X8.275 Y110.788 Z6.000 F500.000
G1 X74.112 Y176.625 Z6.000 F500.000
G1 X71.418 Y176.625 Z6.000 F500.000
G1 X8.275 Y113.482 Z6.000 F500.000
G1 X8.275 Y116.176 Z6.000 F500.000
G1 X68.724 Y176.625 Z6.000 F500.000
G1 X66.030 Y176.625 Z6.000 F500.000
G1 X8.275 Y118.870 Z6.000 F500.000
G1 X8.275 Y121.564 Z6.000 F500.000
G1 X63.336 Y176.625 Z6.000 F500.000
G1 X60.642 Y176.625 Z6.000 F500.000
G1 X8.275 Y124.258 Z6.000 F500.000
G1 X8.275 Y126.953 Z6.000 F500.000
G1 X57.947 Y176.625 Z6.000 F500.000
G1 X55.253 Y176.625 Z6.000 F500.000
G1 X8.275 Y129.647 Z6.000 F500.000
G1 X8.275 Y132.341 Z6.000 F500.000
G1 X52.559 Y176.625 Z6.000 F500.000
G1 X49.865 Y176.625 Z6.000 F500.000
G1 X8.275 Y135.035 Z6.000 F500.000
G1 X8.275 Y137.729 Z6.000 F500.000
G1 X47.171 Y176.625 Z6.000 F500.000
G1 X44.477 Y176.625 Z6.000 F500.000
G1 X8.275 Y140.423 Z6.000 F500.000
G1 X8.275 Y143.117 Z6.000 F500.000
G1 X41.783 Y176.625 Z6.000 F500.000
G1 X39.089 Y176.625 Z6.000 F500.000
G1 X8.275 Y145.811 Z6.000 F500.000
G1 X8.275 Y148.505 Z6.000 F500.000
G1 X36.395 Y176.625 Z6.000 F500.000
G1 X33.701 Y176.625 Z6.000 F500.000
G1 X8.275 Y151.199 Z6.000 F500.000
G1 X8.275 Y153.893 Z6.000 F500.000
G1 X31.007 Y176.625 Z6.000 F500.000
G1 X28.313 Y176.625 Z6.000 F500.000
G1 X8.275 Y156.587 Z6.000 F500.000
G1 X8.275 Y159.281 Z6.000 F500.000
G1 X25.619 Y176.625 Z6.000 F500.000
G1 X22.924 Y176.625 Z6.000 F500.000
G1 X8.275 Y161.976 Z6.000 F500.000
G1 X8.275 Y164.670 Z6.000 F500.000
G1 X20.230 Y176.625 Z6.000 F500.000
G1 X17.536 Y176.625 Z6.000 F500.000
G1 X8.275 Y167.364 Z6.000 F500.000
G1 X8.275 Y170.058 Z6.000 F500.000
G1 X14.842 Y176.625 Z6.000 F500.000
G1 X12.148 Y176.625 Z6.000 F500.000
G1 X8.275 Y172.752 Z6.000 F500.000
G1 X8.275 Y175.446 Z6.000 F500.000
G1 X8.275 Y176.625 Z6.000 F500.000
G1 X9.454 Y176.625 Z6.000 F500.000
G1 X8.275 Y175.446 Z6.000 F500.000
G0 Z21.000
G0 Z21.000
(Finish operation: PocketTrayFine)
(Begin operation: PocketCupFine)
(Path: PocketCupFine)
(PocketCupFine)
G0 Z21.000
G0 X72.861 Y68.261
G0 Z19.000
G1 X72.861 Y68.261 Z6.000 F500.000
G3 X68.746 Y71.478 Z6.000 I-14.854 J-14.760 K0.000 F500.000
G1 X76.078 Y64.146 Z6.000 F500.000
G2 X77.131 Y62.195 Z6.000 I-11.755 J-7.604 K0.000 F500.000
G1 X66.795 Y72.531 Z6.000 F500.000
G3 X65.238 Y73.190 Z6.000 I-6.644 J-13.532 K0.000 F500.000
G1 X77.790 Y60.638 Z6.000 F500.000
G2 X78.262 Y59.268 Z6.000 I-11.964 J-4.890 K0.000 F500.000
G1 X63.868 Y73.662 Z6.000 F500.000
G3 X62.629 Y74.003 Z6.000 I-3.657 J-10.863 K0.000 F500.000
G1 X78.603 Y58.029 Z6.000 F500.000
G2 X78.848 Y56.886 Z6.000 I-10.052 J-2.750 K0.000 F500.000
G1 X61.486 Y74.248 Z6.000 F500.000
G3 X60.417 Y74.419 Z6.000 I-2.057 J-9.432 K0.000 F500.000
G1 X79.019 Y55.817 Z6.000 F500.000
G2 X79.131 Y54.806 Z6.000 I-8.943 J-1.510 K0.000 F500.000
G1 X59.406 Y74.531 Z6.000 F500.000
G3 X58.442 Y74.597 Z6.000 I-1.068 J-8.548 K0.000 F500.000
G1 X79.197 Y53.842 Z6.000 F500.000
G1 X79.223 Y52.919 Z6.000 F500.000
G1 X57.519 Y74.623 Z6.000 F500.000
G3 X56.644 Y74.600 Z6.000 I-0.228 J-7.798 K0.000 F500.000
G1 X79.200 Y52.044 Z6.000 F500.000
G2 X79.149 Y51.197 Z6.000 I-7.566 J0.031 K0.000 F500.000
G1 X55.797 Y74.549 Z6.000 F500.000
G3 X54.974 Y74.474 Z6.000 I0.254 J-7.367 K0.000 F500.000
G1 X79.074 Y50.374 Z6.000 F500.000
G1 X78.963 Y49.587 Z6.000 F500.000
G1 X54.187 Y74.363 Z6.000 F500.000
G3 X53.422 Y74.229 Z6.000 I0.805 J-6.875 K0.000 F500.000
G1 X78.829 Y48.822 Z6.000 F500.000
G1 X78.680 Y48.073 Z6.000 F500.000
G1 X52.673 Y74.080 Z6.000 F500.000
G3 X51.959 Y73.897 Z6.000 I1.279 J-6.451 K0.000 F500.000
G1 X78.497 Y47.359 Z6.000 F500.000
G2 X78.301 Y46.656 Z6.000 I-6.355 J1.387 K0.000 F500.000
G1 X51.256 Y73.701 Z6.000 F500.000
G1 X50.575 Y73.484 Z6.000 F500.000
G1 X78.084 Y45.975 Z6.000 F500.000
G2 X77.848 Y45.314 Z6.000 I-6.006 J1.777 K0.000 F500.000
G1 X49.914 Y73.248 Z6.000 F500.000
G1 X49.264 Y73.000 Z6.000 F500.000
G1 X77.600 Y44.664 Z6.000 F500.000
G2 X77.325 Y44.040 Z6.000 I-5.692 J2.129 K0.000 F500.000
G1 X48.640 Y72.725 Z6.000 F500.000
G3 X48.022 Y72.445 Z6.000 I2.185 J-5.641 K0.000 F500.000
G1 X77.045 Y43.422 Z6.000 F500.000
G1 X76.739 Y42.830 Z6.000 F500.000
G1 X47.430 Y72.139 Z6.000 F500.000
G3 X46.845 Y71.826 Z6.000 I2.494 J-5.365 K0.000 F500.000
G1 X76.426 Y42.245 Z6.000 F500.000
G1 X76.093 Y41.680 Z6.000 F500.000
G1 X46.280 Y71.493 Z6.000 F500.000
G3 X45.726 Y71.149 Z6.000 I2.784 J-5.106 K0.000 F500.000
G1 X75.749 Y41.126 Z6.000 F500.000
G1 X75.390 Y40.588 Z6.000 F500.000
G1 X45.188 Y70.790 Z6.000 F500.000
G3 X44.663 Y70.417 Z6.000 I3.060 J-4.859 K0.000 F500.000
G1 X75.017 Y40.063 Z6.000 F500.000
G1 X74.631 Y39.550 Z6.000 F500.000
G1 X44.150 Y70.031 Z6.000 F500.000
G3 X43.654 Y69.629 Z6.000 I3.326 J-4.622 K0.000 F500.000
G1 X74.229 Y39.054 Z6.000 F500.000
G1 X73.818 Y38.567 Z6.000 F500.000
G1 X43.167 Y69.218 Z6.000 F500.000
G3 X42.698 Y68.789 Z6.000 I3.585 J-4.390 K0.000 F500.000
G1 X73.389 Y38.098 Z6.000 F500.000
G1 X72.953 Y37.636 Z6.000 F500.000
G1 X42.236 Y68.353 Z6.000 F500.000
G3 X41.794 Y67.897 Z6.000 I3.842 J-4.161 K0.000 F500.000
G1 X72.497 Y37.194 Z6.000 F500.000
G1 X72.035 Y36.758 Z6.000 F500.000
G1 X41.358 Y67.435 Z6.000 F500.000
G3 X40.944 Y66.951 Z6.000 I4.099 J-3.931 K0.000 F500.000
G1 X71.551 Y36.344 Z6.000 F500.000
G1 X71.064 Y35.933 Z6.000 F500.000
G1 X40.533 Y66.464 Z6.000 F500.000
G3 X40.146 Y65.953 Z6.000 I4.360 J-3.698 K0.000 F500.000
G1 X70.553 Y35.546 Z6.000 F500.000
G2 X70.039 Y35.162 Z6.000 I-3.677 J4.384 K0.000 F500.000
G1 X39.762 Y65.439 Z6.000 F500.000
G1 X39.402 Y64.901 Z6.000 F500.000
G1 X69.501 Y34.802 Z6.000 F500.000
G2 X68.958 Y34.447 Z6.000 I-3.432 J4.657 K0.000 F500.000
G1 X39.047 Y64.358 Z6.000 F500.000
G1 X38.714 Y63.793 Z6.000 F500.000
G1 X68.393 Y34.114 Z6.000 F500.000
G2 X67.819 Y33.789 Z6.000 I-3.176 J4.944 K0.000 F500.000
G1 X38.389 Y63.219 Z6.000 F500.000
G1 X38.084 Y62.627 Z6.000 F500.000
G1 X67.227 Y33.484 Z6.000 F500.000
G2 X66.621 Y33.191 Z6.000 I-2.903 J5.249 K0.000 F500.000
G1 X37.791 Y62.021 Z6.000 F500.000
G1 X37.514 Y61.401 Z6.000 F500.000
G1 X66.001 Y32.914 Z6.000 F500.000
G2 X65.360 Y32.657 Z6.000 I-2.609 J5.579 K0.000 F500.000
G1 X37.257 Y60.760 Z6.000 F500.000
G1 X37.009 Y60.110 Z6.000 F500.000
G1 X64.710 Y32.409 Z6.000 F500.000
G2 X64.031 Y32.190 Z6.000 I-2.287 J5.939 K0.000 F500.000
G1 X36.790 Y59.431 Z6.000 F500.000
G3 X36.581 Y58.742 Z6.000 I6.029 J-2.206 K0.000 F500.000
G1 X63.342 Y31.981 Z6.000 F500.000
G1 X62.628 Y31.797 Z6.000 F500.000
G1 X36.397 Y58.028 Z6.000 F500.000
G3 X36.233 Y57.293 Z6.000 I6.458 J-1.823 K0.000 F500.000
G1 X61.893 Y31.633 Z6.000 F500.000
G1 X61.144 Y31.484 Z6.000 F500.000
G1 X36.084 Y56.544 Z6.000 F500.000
G3 X35.973 Y55.758 Z6.000 I6.948 J-1.385 K0.000 F500.000
G1 X60.358 Y31.373 Z6.000 F500.000
G2 X59.552 Y31.281 Z6.000 I-1.223 J7.129 K0.000 F500.000
G1 X35.881 Y54.952 Z6.000 F500.000
G1 X35.811 Y54.124 Z6.000 F500.000
G1 X58.724 Y31.211 Z6.000 F500.000
G2 X57.850 Y31.186 Z6.000 I-0.658 J7.763 K0.000 F500.000
G1 X35.786 Y53.250 Z6.000 F500.000
G3 X35.792 Y52.347 Z6.000 I8.049 J-0.401 K0.000 F500.000
G1 X56.947 Y31.192 Z6.000 F500.000
G2 X56.007 Y31.234 Z6.000 I-0.097 J8.389 K0.000 F500.000
G1 X35.834 Y51.407 Z6.000 F500.000
G3 X35.919 Y50.423 Z6.000 I8.799 J0.269 K0.000 F500.000
G1 X55.023 Y31.319 Z6.000 F500.000
G1 X53.978 Y31.467 Z6.000 F500.000
G1 X36.067 Y49.378 Z6.000 F500.000
G3 X36.281 Y48.265 Z6.000 I10.013 J1.354 K0.000 F500.000
G1 X52.865 Y31.681 Z6.000 F500.000
G2 X51.671 Y31.978 Z6.000 I2.041 J10.782 K0.000 F500.000
G1 X36.578 Y47.071 Z6.000 F500.000
G3 X36.981 Y45.769 Z6.000 I11.791 J2.943 K0.000 F500.000
G1 X50.369 Y32.381 Z6.000 F500.000
G2 X48.889 Y32.963 Z6.000 I4.256 J13.002 K0.000 F500.000
G1 X37.563 Y44.289 Z6.000 F500.000
G3 X38.406 Y42.548 Z6.000 I15.924 J6.637 K0.000 F500.000
G1 X47.148 Y33.806 Z6.000 F500.000
G2 X44.703 Y35.353 Z6.000 I9.248 J17.322 K0.000 F500.000
G2 X39.953 Y40.103 Z6.000 I12.447 J17.197 K0.000 F500.000
G1 X44.703 Y35.353 Z6.000 F500.000
G0 Z21.000
G0 Z21.000
(Finish operation: PocketCupFine)
(Begin operation: Clearinnerside)
(Path: Clearinnerside)
(Clearinnerside)
(Compensated Tool Path. Diameter: 6.35)
G0 Z21.000
G0 X107.025 Y176.925
G0 Z19.000
G1 X107.025 Y176.925 Z14.500 F500.000
G1 X107.025 Y51.130 Z14.500 F500.000
G1 X68.713 Y7.975 Z14.500 F500.000
G1 X46.287 Y7.975 Z14.500 F500.000
G1 X7.975 Y51.130 Z14.500 F500.000
G1 X7.975 Y176.925 Z14.500 F500.000
G1 X107.025 Y176.925 Z14.500 F500.000
G1 X107.025 Y176.925 Z13.000 F500.000
G1 X107.025 Y51.130 Z13.000 F500.000
G1 X68.713 Y7.975 Z13.000 F500.000
G1 X46.287 Y7.975 Z13.000 F500.000
G1 X7.975 Y51.130 Z13.000 F500.000
G1 X7.975 Y176.925 Z13.000 F500.000
G1 X107.025 Y176.925 Z13.000 F500.000
G1 X107.025 Y176.925 Z11.500 F500.000
G1 X107.025 Y51.130 Z11.500 F500.000
G1 X68.713 Y7.975 Z11.500 F500.000
G1 X46.287 Y7.975 Z11.500 F500.000
G1 X7.975 Y51.130 Z11.500 F500.000
G1 X7.975 Y176.925 Z11.500 F500.000
G1 X107.025 Y176.925 Z11.500 F500.000
G1 X107.025 Y176.925 Z11.000 F500.000
G1 X107.025 Y51.130 Z11.000 F500.000
G1 X68.713 Y7.975 Z11.000 F500.000
G1 X46.287 Y7.975 Z11.000 F500.000
G1 X7.975 Y51.130 Z11.000 F500.000
G1 X7.975 Y176.925 Z11.000 F500.000
G1 X107.025 Y176.925 Z11.000 F500.000
G0 Z21.000
G0 Z21.000
(Finish operation: Clearinnerside)
(Begin operation: Cleartrayside1)
(Path: Cleartrayside1)
(Cleartrayside1)
(Compensated Tool Path. Diameter: 6.35)
G0 Z21.000
G0 X107.025 Y176.925
G0 Z19.000
G1 X107.025 Y176.925 Z9.500 F500.000
G1 X107.025 Y101.175 Z9.500 F500.000
G1 X7.975 Y101.175 Z9.500 F500.000
G1 X7.975 Y176.925 Z9.500 F500.000
G1 X107.025 Y176.925 Z9.500 F500.000
G1 X107.025 Y176.925 Z8.000 F500.000
G1 X107.025 Y101.175 Z8.000 F500.000
G1 X7.975 Y101.175 Z8.000 F500.000
G1 X7.975 Y176.925 Z8.000 F500.000
G1 X107.025 Y176.925 Z8.000 F500.000
G1 X107.025 Y176.925 Z6.500 F500.000
G1 X107.025 Y101.175 Z6.500 F500.000
G1 X7.975 Y101.175 Z6.500 F500.000
G1 X7.975 Y176.925 Z6.500 F500.000
G1 X107.025 Y176.925 Z6.500 F500.000
G1 X107.025 Y176.925 Z6.000 F500.000
G1 X107.025 Y101.175 Z6.000 F500.000
G1 X7.975 Y101.175 Z6.000 F500.000
G1 X7.975 Y176.925 Z6.000 F500.000
G1 X107.025 Y176.925 Z6.000 F500.000
G0 Z21.000
G0 Z21.000
(Finish operation: Cleartrayside1)
(Begin operation: Clearcup)
(Path: Clearcup)
(Clearcup)
(Compensated Tool Path. Diameter: 6.35)
G0 Z21.000
G0 X73.639 Y69.039
G0 Z19.000
G1 X73.639 Y69.039 Z9.500 F500.000
G2 X60.055 Y30.219 Z9.500 I-16.139 J-16.139 K0.000 F500.000
G2 X34.819 Y50.345 Z9.500 I-2.555 J22.681 K0.000 F500.000
G2 X54.945 Y75.581 Z9.500 I22.681 J2.555 K0.000 F500.000
G2 X73.639 Y69.039 Z9.500 I2.555 J-22.681 K0.000 F500.000
G1 X73.639 Y69.039 Z8.000 F500.000
G2 X60.055 Y30.219 Z8.000 I-16.139 J-16.139 K0.000 F500.000
G2 X34.819 Y50.345 Z8.000 I-2.555 J22.681 K0.000 F500.000
G2 X54.945 Y75.581 Z8.000 I22.681 J2.555 K0.000 F500.000
G2 X73.639 Y69.039 Z8.000 I2.555 J-22.681 K0.000 F500.000
G1 X73.639 Y69.039 Z6.500 F500.000
G2 X60.055 Y30.219 Z6.500 I-16.139 J-16.139 K0.000 F500.000
G2 X34.819 Y50.345 Z6.500 I-2.555 J22.681 K0.000 F500.000
G2 X54.945 Y75.581 Z6.500 I22.681 J2.555 K0.000 F500.000
G2 X73.639 Y69.039 Z6.500 I2.555 J-22.681 K0.000 F500.000
G1 X73.639 Y69.039 Z6.000 F500.000
G2 X60.055 Y30.219 Z6.000 I-16.139 J-16.139 K0.000 F500.000
G2 X34.819 Y50.345 Z6.000 I-2.555 J22.681 K0.000 F500.000
G2 X54.945 Y75.581 Z6.000 I22.681 J2.555 K0.000 F500.000
G2 X73.639 Y69.039 Z6.000 I2.555 J-22.681 K0.000 F500.000
G0 Z21.000
G0 Z21.000
(Finish operation: Clearcup)
(Begin operation: DressupTag)
(Path: DressupTag)
G0 Z21.000
G0 X117.245 Y187.145 Z21.000
G0 X117.245 Y187.145 Z19.000
G1 X117.245 Y187.145 Z14.500 F500.000
G2 X118.175 Y184.900 Z14.500 I-2.245 J-2.245 K0.000 F500.000
G1 X118.175 Y50.000 Z14.500 F500.000
G2 X117.422 Y47.947 Z14.500 I-3.175 J-0.000 K0.000 F500.000
G1 X75.022 Y-2.053 Z14.500 F500.000
G2 X72.600 Y-3.175 Z14.500 I-2.422 J2.053 K0.000 F500.000
G1 X42.400 Y-3.175 Z14.500 F500.000
G2 X39.978 Y-2.053 Z14.500 I-0.000 J3.175 K0.000 F500.000
G1 X-2.422 Y47.947 Z14.500 F500.000
G2 X-3.175 Y50.000 Z14.500 I2.422 J2.053 K0.000 F500.000
G1 X-3.175 Y184.900 Z14.500 F500.000
G2 X0.000 Y188.075 Z14.500 I3.175 J-0.000 K0.000 F500.000
G1 X115.000 Y188.075 Z14.500 F500.000
G2 X117.245 Y187.145 Z14.500 I-0.000 J-3.175 K0.000 F500.000
G1 X117.245 Y187.145 Z13.000 F500.000
G2 X118.175 Y184.900 Z13.000 I-2.245 J-2.245 K0.000 F500.000
G1 X118.175 Y50.000 Z13.000 F500.000
G2 X117.422 Y47.947 Z13.000 I-3.175 J-0.000 K0.000 F500.000
G1 X75.022 Y-2.053 Z13.000 F500.000
G2 X72.600 Y-3.175 Z13.000 I-2.422 J2.053 K0.000 F500.000
G1 X42.400 Y-3.175 Z13.000 F500.000
G2 X39.978 Y-2.053 Z13.000 I-0.000 J3.175 K0.000 F500.000
G1 X-2.422 Y47.947 Z13.000 F500.000
G2 X-3.175 Y50.000 Z13.000 I2.422 J2.053 K0.000 F500.000
G1 X-3.175 Y184.900 Z13.000 F500.000
G2 X0.000 Y188.075 Z13.000 I3.175 J-0.000 K0.000 F500.000
G1 X115.000 Y188.075 Z13.000 F500.000
G2 X117.245 Y187.145 Z13.000 I-0.000 J-3.175 K0.000 F500.000
G1 X117.245 Y187.145 Z11.500 F500.000
G2 X118.175 Y184.900 Z11.500 I-2.245 J-2.245 K0.000 F500.000
G1 X118.175 Y50.000 Z11.500 F500.000
G2 X117.422 Y47.947 Z11.500 I-3.175 J-0.000 K0.000 F500.000
G1 X75.022 Y-2.053 Z11.500 F500.000
G2 X72.600 Y-3.175 Z11.500 I-2.422 J2.053 K0.000 F500.000
G1 X42.400 Y-3.175 Z11.500 F500.000
G2 X39.978 Y-2.053 Z11.500 I-0.000 J3.175 K0.000 F500.000
G1 X-2.422 Y47.947 Z11.500 F500.000
G2 X-3.175 Y50.000 Z11.500 I2.422 J2.053 K0.000 F500.000
G1 X-3.175 Y184.900 Z11.500 F500.000
G2 X0.000 Y188.075 Z11.500 I3.175 J-0.000 K0.000 F500.000
G1 X115.000 Y188.075 Z11.500 F500.000
G2 X117.245 Y187.145 Z11.500 I-0.000 J-3.175 K0.000 F500.000
G1 X117.245 Y187.145 Z10.000 F500.000
G2 X118.175 Y184.900 Z10.000 I-2.245 J-2.245 K0.000 F500.000
G1 X118.175 Y50.000 Z10.000 F500.000
G2 X117.422 Y47.947 Z10.000 I-3.175 J-0.000 K0.000 F500.000
G1 X75.022 Y-2.053 Z10.000 F500.000
G2 X72.600 Y-3.175 Z10.000 I-2.422 J2.053 K0.000 F500.000
G1 X42.400 Y-3.175 Z10.000 F500.000
G2 X39.978 Y-2.053 Z10.000 I-0.000 J3.175 K0.000 F500.000
G1 X-2.422 Y47.947 Z10.000 F500.000
G2 X-3.175 Y50.000 Z10.000 I2.422 J2.053 K0.000 F500.000
G1 X-3.175 Y184.900 Z10.000 F500.000
G2 X0.000 Y188.075 Z10.000 I3.175 J-0.000 K0.000 F500.000
G1 X115.000 Y188.075 Z10.000 F500.000
G2 X117.245 Y187.145 Z10.000 I-0.000 J-3.175 K0.000 F500.000
G1 X117.245 Y187.145 Z8.500 F500.000
G2 X118.175 Y184.900 Z8.500 I-2.245 J-2.245 K0.000 F500.000
G1 X118.175 Y50.000 Z8.500 F500.000
G2 X117.422 Y47.947 Z8.500 I-3.175 J-0.000 K0.000 F500.000
G1 X75.022 Y-2.053 Z8.500 F500.000
G2 X72.600 Y-3.175 Z8.500 I-2.422 J2.053 K0.000 F500.000
G1 X42.400 Y-3.175 Z8.500 F500.000
G2 X39.978 Y-2.053 Z8.500 I-0.000 J3.175 K0.000 F500.000
G1 X-2.422 Y47.947 Z8.500 F500.000
G2 X-3.175 Y50.000 Z8.500 I2.422 J2.053 K0.000 F500.000
G1 X-3.175 Y184.900 Z8.500 F500.000
G2 X0.000 Y188.075 Z8.500 I3.175 J-0.000 K0.000 F500.000
G1 X115.000 Y188.075 Z8.500 F500.000
G2 X117.245 Y187.145 Z8.500 I-0.000 J-3.175 K0.000 F500.000
G1 X117.245 Y187.145 Z7.000 F500.000
G2 X118.175 Y184.900 Z7.000 I-2.245 J-2.245 K0.000 F500.000
G1 X118.175 Y50.000 Z7.000 F500.000
G2 X117.422 Y47.947 Z7.000 I-3.175 J-0.000 K0.000 F500.000
G1 X75.022 Y-2.053 Z7.000 F500.000
G2 X72.600 Y-3.175 Z7.000 I-2.422 J2.053 K0.000 F500.000
G1 X42.400 Y-3.175 Z7.000 F500.000
G2 X39.978 Y-2.053 Z7.000 I-0.000 J3.175 K0.000 F500.000
G1 X-2.422 Y47.947 Z7.000 F500.000
G2 X-3.175 Y50.000 Z7.000 I2.422 J2.053 K0.000 F500.000
G1 X-3.175 Y184.900 Z7.000 F500.000
G2 X0.000 Y188.075 Z7.000 I3.175 J-0.000 K0.000 F500.000
G1 X115.000 Y188.075 Z7.000 F500.000
G2 X117.245 Y187.145 Z7.000 I-0.000 J-3.175 K0.000 F500.000
G1 X117.245 Y187.145 Z5.500 F500.000
G2 X118.175 Y184.900 Z5.500 I-2.245 J-2.245 K0.000 F500.000
G1 X118.175 Y50.000 Z5.500 F500.000
G2 X117.422 Y47.947 Z5.500 I-3.175 J-0.000 K0.000 F500.000
G1 X75.022 Y-2.053 Z5.500 F500.000
G2 X72.600 Y-3.175 Z5.500 I-2.422 J2.053 K0.000 F500.000
G1 X42.400 Y-3.175 Z5.500 F500.000
G2 X39.978 Y-2.053 Z5.500 I-0.000 J3.175 K0.000 F500.000
G1 X-2.422 Y47.947 Z5.500 F500.000
G2 X-3.175 Y50.000 Z5.500 I2.422 J2.053 K0.000 F500.000
G1 X-3.175 Y184.900 Z5.500 F500.000
G2 X0.000 Y188.075 Z5.500 I3.175 J-0.000 K0.000 F500.000
G1 X115.000 Y188.075 Z5.500 F500.000
G2 X117.245 Y187.145 Z5.500 I-0.000 J-3.175 K0.000 F500.000
G1 X117.245 Y187.145 Z4.000 F500.000
G2 X118.175 Y184.900 Z4.000 I-2.245 J-2.245 K0.000 F500.000
G1 X118.175 Y50.000 Z4.000 F500.000
G2 X117.422 Y47.947 Z4.000 I-3.175 J-0.000 K0.000 F500.000
G1 X75.022 Y-2.053 Z4.000 F500.000
G2 X72.600 Y-3.175 Z4.000 I-2.422 J2.053 K0.000 F500.000
G1 X42.400 Y-3.175 Z4.000 F500.000
G2 X39.978 Y-2.053 Z4.000 I-0.000 J3.175 K0.000 F500.000
G1 X-2.422 Y47.947 Z4.000 F500.000
G2 X-3.175 Y50.000 Z4.000 I2.422 J2.053 K0.000 F500.000
G1 X-3.175 Y184.900 Z4.000 F500.000
G2 X0.000 Y188.075 Z4.000 I3.175 J-0.000 K0.000 F500.000
G1 X115.000 Y188.075 Z4.000 F500.000
G2 X117.245 Y187.145 Z4.000 I-0.000 J-3.175 K0.000 F500.000
G1 X117.245 Y187.145 Z2.500 F500.000
G2 X118.175 Y184.900 Z2.500 I-2.245 J-2.245 K0.000 F500.000
G1 X118.175 Y50.000 Z2.500 F500.000
G2 X117.422 Y47.947 Z2.500 I-3.175 J-0.000 K0.000 F500.000
G1 X75.022 Y-2.053 Z2.500 F500.000
G2 X72.600 Y-3.175 Z2.500 I-2.422 J2.053 K0.000 F500.000
G1 X42.400 Y-3.175 Z2.500 F500.000
G2 X39.978 Y-2.053 Z2.500 I-0.000 J3.175 K0.000 F500.000
G1 X-2.422 Y47.947 Z2.500 F500.000
G2 X-3.175 Y50.000 Z2.500 I2.422 J2.053 K0.000 F500.000
G1 X-3.175 Y184.900 Z2.500 F500.000
G2 X0.000 Y188.075 Z2.500 I3.175 J-0.000 K0.000 F500.000
G1 X115.000 Y188.075 Z2.500 F500.000
G2 X117.245 Y187.145 Z2.500 I-0.000 J-3.175 K0.000 F500.000
G1 X117.245 Y187.145 Z1.000 F500.000
G2 X118.175 Y184.900 Z1.000 I-2.245 J-2.245 K0.000 F500.000
G1 X118.175 Y50.000 Z1.000 F500.000
G2 X117.422 Y47.947 Z1.000 I-3.175 J-0.000 K0.000 F500.000
G1 X75.022 Y-2.053 Z1.000 F500.000
G2 X72.600 Y-3.175 Z1.000 I-2.422 J2.053 K0.000 F500.000
G1 X42.400 Y-3.175 Z1.000 F500.000
G2 X39.978 Y-2.053 Z1.000 I-0.000 J3.175 K0.000 F500.000
G1 X-2.422 Y47.947 Z1.000 F500.000
G2 X-3.175 Y50.000 Z1.000 I2.422 J2.053 K0.000 F500.000
G1 X-3.175 Y184.900 Z1.000 F500.000
G2 X0.000 Y188.075 Z1.000 I3.175 J-0.000 K0.000 F500.000
G1 X115.000 Y188.075 Z1.000 F500.000
G2 X117.245 Y187.145 Z1.000 I-0.000 J-3.175 K0.000 F500.000
G1 X117.245 Y187.145 Z0.000 F500.000
G2 X118.175 Y184.900 Z0.000 I-2.245 J-2.245 K0.000 F500.000
G1 X118.175 Y50.000 Z0.000 F500.000
G2 X117.422 Y47.947 Z0.000 I-3.175 J-0.000 K0.000 F500.000
G1 X75.022 Y-2.053 Z0.000 F500.000
G2 X72.600 Y-3.175 Z0.000 I-2.422 J2.053 K0.000 F500.000
G1 X42.400 Y-3.175 Z0.000 F500.000
G2 X39.978 Y-2.053 Z0.000 I-0.000 J3.175 K0.000 F500.000
G1 X-2.422 Y47.947 Z0.000 F500.000
G2 X-3.175 Y50.000 Z0.000 I2.422 J2.053 K0.000 F500.000
G1 X-3.175 Y184.900 Z0.000 F500.000
G2 X0.000 Y188.075 Z0.000 I3.175 J-0.000 K0.000 F500.000
G1 X115.000 Y188.075 Z0.000 F500.000
G2 X117.245 Y187.145 Z0.000 I-0.000 J-3.175 K0.000 F500.000
G0 X117.245 Y187.145 Z21.000
(Finish operation: DressupTag)
(Begin postamble)
M5
G17 G90
M2
