(Exported by FreeCAD)
(Post Processor: script_module)
(Output Time:2025-05-15 10:32:29.481931)
(Begin preamble)
G17 G90
G21
(Begin operation: Fixture)
(Path: Fixture)
G54
(Finish operation: Fixture)
(Begin operation: endmill_compression_3175_spe001)
(Path: endmill_compression_3175_spe001)
(endmill_compression_3175_spe001)
(Begin toolchange)
( M6 T4 )
M3 S1800
(Finish operation: endmill_compression_3175_spe001)
(Begin operation: RampEntryDressup)
(Path: RampEntryDressup)
G0 X0.000 Y0.000 Z21.000
G0 X50.000 Y135.000 Z21.000
G0 X8.585 Y174.677 Z21.000
G0 X8.585 Y174.677 Z19.000
G1 X10.223 Y176.315 Z17.663 F600.000
G1 X8.642 Y176.315 Z16.750 F600.000
G1 X10.223 Y176.315 Z15.837 F600.000
G1 X8.585 Y174.677 Z14.500 F600.000
G1 X10.223 Y176.315 Z14.500 F600.000
G1 X8.585 Y176.315 Z14.500 F600.000
G1 X8.585 Y174.677 Z14.500 F600.000
G1 X8.585 Y170.643 Z14.500 F600.000
G1 X14.257 Y176.315 Z14.500 F600.000
G1 X18.292 Y176.315 Z14.500 F600.000
G1 X8.585 Y166.608 Z14.500 F600.000
G1 X8.585 Y162.573 Z14.500 F600.000
G1 X22.327 Y176.315 Z14.500 F600.000
G1 X26.362 Y176.315 Z14.500 F600.000
G1 X8.585 Y158.538 Z14.500 F600.000
G1 X8.585 Y154.504 Z14.500 F600.000
G1 X30.396 Y176.315 Z14.500 F600.000
G1 X34.431 Y176.315 Z14.500 F600.000
G1 X8.585 Y150.469 Z14.500 F600.000
G1 X8.585 Y146.434 Z14.500 F600.000
G1 X38.466 Y176.315 Z14.500 F600.000
G1 X42.501 Y176.315 Z14.500 F600.000
G1 X8.585 Y142.399 Z14.500 F600.000
G1 X8.585 Y138.365 Z14.500 F600.000
G1 X46.535 Y176.315 Z14.500 F600.000
G1 X50.570 Y176.315 Z14.500 F600.000
G1 X8.585 Y134.330 Z14.500 F600.000
G1 X8.585 Y130.295 Z14.500 F600.000
G1 X54.605 Y176.315 Z14.500 F600.000
G1 X58.640 Y176.315 Z14.500 F600.000
G1 X8.585 Y126.260 Z14.500 F600.000
G1 X8.585 Y122.226 Z14.500 F600.000
G1 X62.674 Y176.315 Z14.500 F600.000
G1 X66.709 Y176.315 Z14.500 F600.000
G1 X8.585 Y118.191 Z14.500 F600.000
G1 X8.585 Y114.156 Z14.500 F600.000
G1 X70.744 Y176.315 Z14.500 F600.000
G1 X74.779 Y176.315 Z14.500 F600.000
G1 X8.585 Y110.121 Z14.500 F600.000
G1 X8.585 Y106.087 Z14.500 F600.000
G1 X78.813 Y176.315 Z14.500 F600.000
G1 X82.848 Y176.315 Z14.500 F600.000
G1 X8.585 Y102.052 Z14.500 F600.000
G1 X8.585 Y98.017 Z14.500 F600.000
G1 X86.883 Y176.315 Z14.500 F600.000
G1 X90.918 Y176.315 Z14.500 F600.000
G1 X8.585 Y93.982 Z14.500 F600.000
G1 X8.585 Y89.948 Z14.500 F600.000
G1 X94.952 Y176.315 Z14.500 F600.000
G1 X98.987 Y176.315 Z14.500 F600.000
G1 X8.585 Y85.913 Z14.500 F600.000
G1 X8.585 Y81.878 Z14.500 F600.000
G1 X103.022 Y176.315 Z14.500 F600.000
G1 X106.415 Y176.315 Z14.500 F600.000
G1 X106.415 Y175.673 Z14.500 F600.000
G1 X8.585 Y77.843 Z14.500 F600.000
G1 X8.585 Y73.809 Z14.500 F600.000
G1 X106.415 Y171.639 Z14.500 F600.000
G1 X106.415 Y167.604 Z14.500 F600.000
G1 X8.585 Y69.774 Z14.500 F600.000
G1 X8.585 Y65.739 Z14.500 F600.000
G1 X106.415 Y163.569 Z14.500 F600.000
G1 X106.415 Y159.534 Z14.500 F600.000
G1 X8.585 Y61.704 Z14.500 F600.000
G1 X8.585 Y57.670 Z14.500 F600.000
G1 X106.415 Y155.500 Z14.500 F600.000
G1 X106.415 Y151.465 Z14.500 F600.000
G1 X8.585 Y53.635 Z14.500 F600.000
G1 X8.585 Y51.362 Z14.500 F600.000
G1 X9.413 Y50.429 Z14.500 F600.000
G1 X106.415 Y147.430 Z14.500 F600.000
G1 X106.415 Y143.395 Z14.500 F600.000
G1 X11.311 Y48.291 Z14.500 F600.000
G1 X13.208 Y46.154 Z14.500 F600.000
G1 X106.415 Y139.361 Z14.500 F600.000
G1 X106.415 Y135.326 Z14.500 F600.000
G1 X15.106 Y44.017 Z14.500 F600.000
G1 X17.003 Y41.879 Z14.500 F600.000
G1 X106.415 Y131.291 Z14.500 F600.000
G1 X106.415 Y127.256 Z14.500 F600.000
G1 X18.901 Y39.742 Z14.500 F600.000
G1 X20.798 Y37.605 Z14.500 F600.000
G1 X106.415 Y123.222 Z14.500 F600.000
G1 X106.415 Y119.187 Z14.500 F600.000
G1 X22.696 Y35.467 Z14.500 F600.000
G1 X24.593 Y33.330 Z14.500 F600.000
G1 X106.415 Y115.152 Z14.500 F600.000
G1 X106.415 Y111.117 Z14.500 F600.000
G1 X26.491 Y31.193 Z14.500 F600.000
G1 X28.388 Y29.055 Z14.500 F600.000
G1 X106.415 Y107.083 Z14.500 F600.000
G1 X106.415 Y103.048 Z14.500 F600.000
G1 X30.285 Y26.918 Z14.500 F600.000
G1 X32.183 Y24.781 Z14.500 F600.000
G1 X106.415 Y99.013 Z14.500 F600.000
G1 X106.415 Y94.978 Z14.500 F600.000
G1 X34.080 Y22.644 Z14.500 F600.000
G1 X35.978 Y20.506 Z14.500 F600.000
G1 X106.415 Y90.944 Z14.500 F600.000
G1 X106.415 Y86.909 Z14.500 F600.000
G1 X37.875 Y18.369 Z14.500 F600.000
G1 X39.773 Y16.232 Z14.500 F600.000
G1 X106.415 Y82.874 Z14.500 F600.000
G1 X106.415 Y78.839 Z14.500 F600.000
G1 X41.670 Y14.094 Z14.500 F600.000
G1 X43.568 Y11.957 Z14.500 F600.000
G1 X106.415 Y74.804 Z14.500 F600.000
G1 X106.415 Y70.770 Z14.500 F600.000
G1 X45.465 Y9.820 Z14.500 F600.000
G1 X46.561 Y8.585 Z14.500 F600.000
G1 X48.265 Y8.585 Z14.500 F600.000
G1 X106.415 Y66.735 Z14.500 F600.000
G1 X106.415 Y62.700 Z14.500 F600.000
G1 X52.300 Y8.585 Z14.500 F600.000
G1 X56.335 Y8.585 Z14.500 F600.000
G1 X106.415 Y58.665 Z14.500 F600.000
G1 X106.415 Y54.631 Z14.500 F600.000
G1 X60.369 Y8.585 Z14.500 F600.000
G1 X64.404 Y8.585 Z14.500 F600.000
G1 X100.357 Y44.538 Z14.500 F600.000
G1 X68.439 Y8.585 Z14.500 F600.000
G1 X69.301 Y9.556 Z13.750 F600.000
G1 X68.439 Y8.585 Z13.000 F600.000
G1 X100.357 Y44.538 Z13.000 F600.000
G1 X64.404 Y8.585 Z13.000 F600.000
G1 X60.369 Y8.585 Z13.000 F600.000
G1 X106.415 Y54.631 Z13.000 F600.000
G1 X106.415 Y58.665 Z13.000 F600.000
G1 X56.335 Y8.585 Z13.000 F600.000
G1 X52.300 Y8.585 Z13.000 F600.000
G1 X106.415 Y62.700 Z13.000 F600.000
G1 X106.415 Y66.735 Z13.000 F600.000
G1 X48.265 Y8.585 Z13.000 F600.000
G1 X46.561 Y8.585 Z13.000 F600.000
G1 X45.465 Y9.820 Z13.000 F600.000
G1 X106.415 Y70.770 Z13.000 F600.000
G1 X106.415 Y74.804 Z13.000 F600.000
G1 X43.568 Y11.957 Z13.000 F600.000
G1 X41.670 Y14.094 Z13.000 F600.000
G1 X106.415 Y78.839 Z13.000 F600.000
G1 X106.415 Y82.874 Z13.000 F600.000
G1 X39.773 Y16.232 Z13.000 F600.000
G1 X37.875 Y18.369 Z13.000 F600.000
G1 X106.415 Y86.909 Z13.000 F600.000
G1 X106.415 Y90.944 Z13.000 F600.000
G1 X35.978 Y20.506 Z13.000 F600.000
G1 X34.080 Y22.644 Z13.000 F600.000
G1 X106.415 Y94.978 Z13.000 F600.000
G1 X106.415 Y99.013 Z13.000 F600.000
G1 X32.183 Y24.781 Z13.000 F600.000
G1 X30.285 Y26.918 Z13.000 F600.000
G1 X106.415 Y103.048 Z13.000 F600.000
G1 X106.415 Y107.083 Z13.000 F600.000
G1 X28.388 Y29.055 Z13.000 F600.000
G1 X26.491 Y31.193 Z13.000 F600.000
G1 X106.415 Y111.117 Z13.000 F600.000
G1 X106.415 Y115.152 Z13.000 F600.000
G1 X24.593 Y33.330 Z13.000 F600.000
G1 X22.696 Y35.467 Z13.000 F600.000
G1 X106.415 Y119.187 Z13.000 F600.000
G1 X106.415 Y123.222 Z13.000 F600.000
G1 X20.798 Y37.605 Z13.000 F600.000
G1 X18.901 Y39.742 Z13.000 F600.000
G1 X106.415 Y127.256 Z13.000 F600.000
G1 X106.415 Y131.291 Z13.000 F600.000
G1 X17.003 Y41.879 Z13.000 F600.000
G1 X15.106 Y44.017 Z13.000 F600.000
G1 X106.415 Y135.326 Z13.000 F600.000
G1 X106.415 Y139.361 Z13.000 F600.000
G1 X13.208 Y46.154 Z13.000 F600.000
G1 X11.311 Y48.291 Z13.000 F600.000
G1 X106.415 Y143.395 Z13.000 F600.000
G1 X106.415 Y147.430 Z13.000 F600.000
G1 X9.413 Y50.429 Z13.000 F600.000
G1 X8.585 Y51.362 Z13.000 F600.000
G1 X8.585 Y53.635 Z13.000 F600.000
G1 X106.415 Y151.465 Z13.000 F600.000
G1 X106.415 Y155.500 Z13.000 F600.000
G1 X8.585 Y57.670 Z13.000 F600.000
G1 X8.585 Y61.704 Z13.000 F600.000
G1 X106.415 Y159.534 Z13.000 F600.000
G1 X106.415 Y163.569 Z13.000 F600.000
G1 X8.585 Y65.739 Z13.000 F600.000
G1 X8.585 Y69.774 Z13.000 F600.000
G1 X106.415 Y167.604 Z13.000 F600.000
G1 X106.415 Y171.639 Z13.000 F600.000
G1 X8.585 Y73.809 Z13.000 F600.000
G1 X8.585 Y77.843 Z13.000 F600.000
G1 X106.415 Y175.673 Z13.000 F600.000
G1 X106.415 Y176.315 Z13.000 F600.000
G1 X103.022 Y176.315 Z13.000 F600.000
G1 X8.585 Y81.878 Z13.000 F600.000
G1 X8.585 Y85.913 Z13.000 F600.000
G1 X98.987 Y176.315 Z13.000 F600.000
G1 X94.952 Y176.315 Z13.000 F600.000
G1 X8.585 Y89.948 Z13.000 F600.000
G1 X8.585 Y93.982 Z13.000 F600.000
G1 X90.918 Y176.315 Z13.000 F600.000
G1 X86.883 Y176.315 Z13.000 F600.000
G1 X8.585 Y98.017 Z13.000 F600.000
G1 X8.585 Y102.052 Z13.000 F600.000
G1 X82.848 Y176.315 Z13.000 F600.000
G1 X78.813 Y176.315 Z13.000 F600.000
G1 X8.585 Y106.087 Z13.000 F600.000
G1 X8.585 Y110.121 Z13.000 F600.000
G1 X74.779 Y176.315 Z13.000 F600.000
G1 X70.744 Y176.315 Z13.000 F600.000
G1 X8.585 Y114.156 Z13.000 F600.000
G1 X8.585 Y118.191 Z13.000 F600.000
G1 X66.709 Y176.315 Z13.000 F600.000
G1 X62.674 Y176.315 Z13.000 F600.000
G1 X8.585 Y122.226 Z13.000 F600.000
G1 X8.585 Y126.260 Z13.000 F600.000
G1 X58.640 Y176.315 Z13.000 F600.000
G1 X54.605 Y176.315 Z13.000 F600.000
G1 X8.585 Y130.295 Z13.000 F600.000
G1 X8.585 Y134.330 Z13.000 F600.000
G1 X50.570 Y176.315 Z13.000 F600.000
G1 X46.535 Y176.315 Z13.000 F600.000
G1 X8.585 Y138.365 Z13.000 F600.000
G1 X8.585 Y142.399 Z13.000 F600.000
G1 X42.501 Y176.315 Z13.000 F600.000
G1 X38.466 Y176.315 Z13.000 F600.000
G1 X8.585 Y146.434 Z13.000 F600.000
G1 X8.585 Y150.469 Z13.000 F600.000
G1 X34.431 Y176.315 Z13.000 F600.000
G1 X30.396 Y176.315 Z13.000 F600.000
G1 X8.585 Y154.504 Z13.000 F600.000
G1 X8.585 Y158.538 Z13.000 F600.000
G1 X26.362 Y176.315 Z13.000 F600.000
G1 X22.327 Y176.315 Z13.000 F600.000
G1 X8.585 Y162.573 Z13.000 F600.000
G1 X8.585 Y166.608 Z13.000 F600.000
G1 X18.292 Y176.315 Z13.000 F600.000
G1 X14.257 Y176.315 Z13.000 F600.000
G1 X8.585 Y170.643 Z13.000 F600.000
G1 X8.585 Y174.677 Z13.000 F600.000
G1 X8.585 Y176.315 Z13.000 F600.000
G1 X10.223 Y176.315 Z13.000 F600.000
G1 X8.585 Y174.677 Z13.000 F600.000
G1 X9.504 Y175.596 Z12.250 F600.000
G1 X8.585 Y174.677 Z11.500 F600.000
G1 X10.223 Y176.315 Z11.500 F600.000
G1 X8.585 Y176.315 Z11.500 F600.000
G1 X8.585 Y174.677 Z11.500 F600.000
G1 X8.585 Y170.643 Z11.500 F600.000
G1 X14.257 Y176.315 Z11.500 F600.000
G1 X18.292 Y176.315 Z11.500 F600.000
G1 X8.585 Y166.608 Z11.500 F600.000
G1 X8.585 Y162.573 Z11.500 F600.000
G1 X22.327 Y176.315 Z11.500 F600.000
G1 X26.362 Y176.315 Z11.500 F600.000
G1 X8.585 Y158.538 Z11.500 F600.000
G1 X8.585 Y154.504 Z11.500 F600.000
G1 X30.396 Y176.315 Z11.500 F600.000
G1 X34.431 Y176.315 Z11.500 F600.000
G1 X8.585 Y150.469 Z11.500 F600.000
G1 X8.585 Y146.434 Z11.500 F600.000
G1 X38.466 Y176.315 Z11.500 F600.000
G1 X42.501 Y176.315 Z11.500 F600.000
G1 X8.585 Y142.399 Z11.500 F600.000
G1 X8.585 Y138.365 Z11.500 F600.000
G1 X46.535 Y176.315 Z11.500 F600.000
G1 X50.570 Y176.315 Z11.500 F600.000
G1 X8.585 Y134.330 Z11.500 F600.000
G1 X8.585 Y130.295 Z11.500 F600.000
G1 X54.605 Y176.315 Z11.500 F600.000
G1 X58.640 Y176.315 Z11.500 F600.000
G1 X8.585 Y126.260 Z11.500 F600.000
G1 X8.585 Y122.226 Z11.500 F600.000
G1 X62.674 Y176.315 Z11.500 F600.000
G1 X66.709 Y176.315 Z11.500 F600.000
G1 X8.585 Y118.191 Z11.500 F600.000
G1 X8.585 Y114.156 Z11.500 F600.000
G1 X70.744 Y176.315 Z11.500 F600.000
G1 X74.779 Y176.315 Z11.500 F600.000
G1 X8.585 Y110.121 Z11.500 F600.000
G1 X8.585 Y106.087 Z11.500 F600.000
G1 X78.813 Y176.315 Z11.500 F600.000
G1 X82.848 Y176.315 Z11.500 F600.000
G1 X8.585 Y102.052 Z11.500 F600.000
G1 X8.585 Y98.017 Z11.500 F600.000
G1 X86.883 Y176.315 Z11.500 F600.000
G1 X90.918 Y176.315 Z11.500 F600.000
G1 X8.585 Y93.982 Z11.500 F600.000
G1 X8.585 Y89.948 Z11.500 F600.000
G1 X94.952 Y176.315 Z11.500 F600.000
G1 X98.987 Y176.315 Z11.500 F600.000
G1 X8.585 Y85.913 Z11.500 F600.000
G1 X8.585 Y81.878 Z11.500 F600.000
G1 X103.022 Y176.315 Z11.500 F600.000
G1 X106.415 Y176.315 Z11.500 F600.000
G1 X106.415 Y175.673 Z11.500 F600.000
G1 X8.585 Y77.843 Z11.500 F600.000
G1 X8.585 Y73.809 Z11.500 F600.000
G1 X106.415 Y171.639 Z11.500 F600.000
G1 X106.415 Y167.604 Z11.500 F600.000
G1 X8.585 Y69.774 Z11.500 F600.000
G1 X8.585 Y65.739 Z11.500 F600.000
G1 X106.415 Y163.569 Z11.500 F600.000
G1 X106.415 Y159.534 Z11.500 F600.000
G1 X8.585 Y61.704 Z11.500 F600.000
G1 X8.585 Y57.670 Z11.500 F600.000
G1 X106.415 Y155.500 Z11.500 F600.000
G1 X106.415 Y151.465 Z11.500 F600.000
G1 X8.585 Y53.635 Z11.500 F600.000
G1 X8.585 Y51.362 Z11.500 F600.000
G1 X9.413 Y50.429 Z11.500 F600.000
G1 X106.415 Y147.430 Z11.500 F600.000
G1 X106.415 Y143.395 Z11.500 F600.000
G1 X11.311 Y48.291 Z11.500 F600.000
G1 X13.208 Y46.154 Z11.500 F600.000
G1 X106.415 Y139.361 Z11.500 F600.000
G1 X106.415 Y135.326 Z11.500 F600.000
G1 X15.106 Y44.017 Z11.500 F600.000
G1 X17.003 Y41.879 Z11.500 F600.000
G1 X106.415 Y131.291 Z11.500 F600.000
G1 X106.415 Y127.256 Z11.500 F600.000
G1 X18.901 Y39.742 Z11.500 F600.000
G1 X20.798 Y37.605 Z11.500 F600.000
G1 X106.415 Y123.222 Z11.500 F600.000
G1 X106.415 Y119.187 Z11.500 F600.000
G1 X22.696 Y35.467 Z11.500 F600.000
G1 X24.593 Y33.330 Z11.500 F600.000
G1 X106.415 Y115.152 Z11.500 F600.000
G1 X106.415 Y111.117 Z11.500 F600.000
G1 X26.491 Y31.193 Z11.500 F600.000
G1 X28.388 Y29.055 Z11.500 F600.000
G1 X106.415 Y107.083 Z11.500 F600.000
G1 X106.415 Y103.048 Z11.500 F600.000
G1 X30.285 Y26.918 Z11.500 F600.000
G1 X32.183 Y24.781 Z11.500 F600.000
G1 X106.415 Y99.013 Z11.500 F600.000
G1 X106.415 Y94.978 Z11.500 F600.000
G1 X34.080 Y22.644 Z11.500 F600.000
G1 X35.978 Y20.506 Z11.500 F600.000
G1 X106.415 Y90.944 Z11.500 F600.000
G1 X106.415 Y86.909 Z11.500 F600.000
G1 X37.875 Y18.369 Z11.500 F600.000
G1 X39.773 Y16.232 Z11.500 F600.000
G1 X106.415 Y82.874 Z11.500 F600.000
G1 X106.415 Y78.839 Z11.500 F600.000
G1 X41.670 Y14.094 Z11.500 F600.000
G1 X43.568 Y11.957 Z11.500 F600.000
G1 X106.415 Y74.804 Z11.500 F600.000
G1 X106.415 Y70.770 Z11.500 F600.000
G1 X45.465 Y9.820 Z11.500 F600.000
G1 X46.561 Y8.585 Z11.500 F600.000
G1 X48.265 Y8.585 Z11.500 F600.000
G1 X106.415 Y66.735 Z11.500 F600.000
G1 X106.415 Y62.700 Z11.500 F600.000
G1 X52.300 Y8.585 Z11.500 F600.000
G1 X56.335 Y8.585 Z11.500 F600.000
G1 X106.415 Y58.665 Z11.500 F600.000
G1 X106.415 Y54.631 Z11.500 F600.000
G1 X60.369 Y8.585 Z11.500 F600.000
G1 X64.404 Y8.585 Z11.500 F600.000
G1 X100.357 Y44.538 Z11.500 F600.000
G1 X68.439 Y8.585 Z11.500 F600.000
G1 X68.726 Y8.909 Z11.250 F600.000
G1 X68.439 Y8.585 Z11.000 F600.000
G1 X100.357 Y44.538 Z11.000 F600.000
G1 X64.404 Y8.585 Z11.000 F600.000
G1 X60.369 Y8.585 Z11.000 F600.000
G1 X106.415 Y54.631 Z11.000 F600.000
G1 X106.415 Y58.665 Z11.000 F600.000
G1 X56.335 Y8.585 Z11.000 F600.000
G1 X52.300 Y8.585 Z11.000 F600.000
G1 X106.415 Y62.700 Z11.000 F600.000
G1 X106.415 Y66.735 Z11.000 F600.000
G1 X48.265 Y8.585 Z11.000 F600.000
G1 X46.561 Y8.585 Z11.000 F600.000
G1 X45.465 Y9.820 Z11.000 F600.000
G1 X106.415 Y70.770 Z11.000 F600.000
G1 X106.415 Y74.804 Z11.000 F600.000
G1 X43.568 Y11.957 Z11.000 F600.000
G1 X41.670 Y14.094 Z11.000 F600.000
G1 X106.415 Y78.839 Z11.000 F600.000
G1 X106.415 Y82.874 Z11.000 F600.000
G1 X39.773 Y16.232 Z11.000 F600.000
G1 X37.875 Y18.369 Z11.000 F600.000
G1 X106.415 Y86.909 Z11.000 F600.000
G1 X106.415 Y90.944 Z11.000 F600.000
G1 X35.978 Y20.506 Z11.000 F600.000
G1 X34.080 Y22.644 Z11.000 F600.000
G1 X106.415 Y94.978 Z11.000 F600.000
G1 X106.415 Y99.013 Z11.000 F600.000
G1 X32.183 Y24.781 Z11.000 F600.000
G1 X30.285 Y26.918 Z11.000 F600.000
G1 X106.415 Y103.048 Z11.000 F600.000
G1 X106.415 Y107.083 Z11.000 F600.000
G1 X28.388 Y29.055 Z11.000 F600.000
G1 X26.491 Y31.193 Z11.000 F600.000
G1 X106.415 Y111.117 Z11.000 F600.000
G1 X106.415 Y115.152 Z11.000 F600.000
G1 X24.593 Y33.330 Z11.000 F600.000
G1 X22.696 Y35.467 Z11.000 F600.000
G1 X106.415 Y119.187 Z11.000 F600.000
G1 X106.415 Y123.222 Z11.000 F600.000
G1 X20.798 Y37.605 Z11.000 F600.000
G1 X18.901 Y39.742 Z11.000 F600.000
G1 X106.415 Y127.256 Z11.000 F600.000
G1 X106.415 Y131.291 Z11.000 F600.000
G1 X17.003 Y41.879 Z11.000 F600.000
G1 X15.106 Y44.017 Z11.000 F600.000
G1 X106.415 Y135.326 Z11.000 F600.000
G1 X106.415 Y139.361 Z11.000 F600.000
G1 X13.208 Y46.154 Z11.000 F600.000
G1 X11.311 Y48.291 Z11.000 F600.000
G1 X106.415 Y143.395 Z11.000 F600.000
G1 X106.415 Y147.430 Z11.000 F600.000
G1 X9.413 Y50.429 Z11.000 F600.000
G1 X8.585 Y51.362 Z11.000 F600.000
G1 X8.585 Y53.635 Z11.000 F600.000
G1 X106.415 Y151.465 Z11.000 F600.000
G1 X106.415 Y155.500 Z11.000 F600.000
G1 X8.585 Y57.670 Z11.000 F600.000
G1 X8.585 Y61.704 Z11.000 F600.000
G1 X106.415 Y159.534 Z11.000 F600.000
G1 X106.415 Y163.569 Z11.000 F600.000
G1 X8.585 Y65.739 Z11.000 F600.000
G1 X8.585 Y69.774 Z11.000 F600.000
G1 X106.415 Y167.604 Z11.000 F600.000
G1 X106.415 Y171.639 Z11.000 F600.000
G1 X8.585 Y73.809 Z11.000 F600.000
G1 X8.585 Y77.843 Z11.000 F600.000
G1 X106.415 Y175.673 Z11.000 F600.000
G1 X106.415 Y176.315 Z11.000 F600.000
G1 X103.022 Y176.315 Z11.000 F600.000
G1 X8.585 Y81.878 Z11.000 F600.000
G1 X8.585 Y85.913 Z11.000 F600.000
G1 X98.987 Y176.315 Z11.000 F600.000
G1 X94.952 Y176.315 Z11.000 F600.000
G1 X8.585 Y89.948 Z11.000 F600.000
G1 X8.585 Y93.982 Z11.000 F600.000
G1 X90.918 Y176.315 Z11.000 F600.000
G1 X86.883 Y176.315 Z11.000 F600.000
G1 X8.585 Y98.017 Z11.000 F600.000
G1 X8.585 Y102.052 Z11.000 F600.000
G1 X82.848 Y176.315 Z11.000 F600.000
G1 X78.813 Y176.315 Z11.000 F600.000
G1 X8.585 Y106.087 Z11.000 F600.000
G1 X8.585 Y110.121 Z11.000 F600.000
G1 X74.779 Y176.315 Z11.000 F600.000
G1 X70.744 Y176.315 Z11.000 F600.000
G1 X8.585 Y114.156 Z11.000 F600.000
G1 X8.585 Y118.191 Z11.000 F600.000
G1 X66.709 Y176.315 Z11.000 F600.000
G1 X62.674 Y176.315 Z11.000 F600.000
G1 X8.585 Y122.226 Z11.000 F600.000
G1 X8.585 Y126.260 Z11.000 F600.000
G1 X58.640 Y176.315 Z11.000 F600.000
G1 X54.605 Y176.315 Z11.000 F600.000
G1 X8.585 Y130.295 Z11.000 F600.000
G1 X8.585 Y134.330 Z11.000 F600.000
G1 X50.570 Y176.315 Z11.000 F600.000
G1 X46.535 Y176.315 Z11.000 F600.000
G1 X8.585 Y138.365 Z11.000 F600.000
G1 X8.585 Y142.399 Z11.000 F600.000
G1 X42.501 Y176.315 Z11.000 F600.000
G1 X38.466 Y176.315 Z11.000 F600.000
G1 X8.585 Y146.434 Z11.000 F600.000
G1 X8.585 Y150.469 Z11.000 F600.000
G1 X34.431 Y176.315 Z11.000 F600.000
G1 X30.396 Y176.315 Z11.000 F600.000
G1 X8.585 Y154.504 Z11.000 F600.000
G1 X8.585 Y158.538 Z11.000 F600.000
G1 X26.362 Y176.315 Z11.000 F600.000
G1 X22.327 Y176.315 Z11.000 F600.000
G1 X8.585 Y162.573 Z11.000 F600.000
G1 X8.585 Y166.608 Z11.000 F600.000
G1 X18.292 Y176.315 Z11.000 F600.000
G1 X14.257 Y176.315 Z11.000 F600.000
G1 X8.585 Y170.643 Z11.000 F600.000
G1 X8.585 Y174.677 Z11.000 F600.000
G1 X8.585 Y176.315 Z11.000 F600.000
G1 X10.223 Y176.315 Z11.000 F600.000
G1 X8.585 Y174.677 Z11.000 F600.000
G0 X8.585 Y174.677 Z21.000
(Finish operation: RampEntryDressup)
(Begin operation: RampEntryDressup001)
(Path: RampEntryDressup001)
G0 X0.000 Y0.000 Z21.000
G0 X106.415 Y101.785 Z21.000
G0 X106.415 Y101.785 Z19.000
G1 X106.415 Y105.820 Z16.671 F600.000
G1 X103.450 Y102.855 Z14.250 F600.000
G1 X106.415 Y105.820 Z11.829 F600.000
G1 X106.415 Y101.785 Z9.500 F600.000
G1 X106.415 Y105.820 Z9.500 F600.000
G1 X102.380 Y101.785 Z9.500 F600.000
G1 X98.345 Y101.785 Z9.500 F600.000
G1 X106.415 Y109.855 Z9.500 F600.000
G1 X106.415 Y113.889 Z9.500 F600.000
G1 X94.311 Y101.785 Z9.500 F600.000
G1 X90.276 Y101.785 Z9.500 F600.000
G1 X106.415 Y117.924 Z9.500 F600.000
G1 X106.415 Y121.959 Z9.500 F600.000
G1 X86.241 Y101.785 Z9.500 F600.000
G1 X82.206 Y101.785 Z9.500 F600.000
G1 X106.415 Y125.994 Z9.500 F600.000
G1 X106.415 Y130.028 Z9.500 F600.000
G1 X78.172 Y101.785 Z9.500 F600.000
G1 X74.137 Y101.785 Z9.500 F600.000
G1 X106.415 Y134.063 Z9.500 F600.000
G1 X106.415 Y138.098 Z9.500 F600.000
G1 X70.102 Y101.785 Z9.500 F600.000
G1 X66.067 Y101.785 Z9.500 F600.000
G1 X106.415 Y142.133 Z9.500 F600.000
G1 X106.415 Y146.167 Z9.500 F600.000
G1 X62.033 Y101.785 Z9.500 F600.000
G1 X57.998 Y101.785 Z9.500 F600.000
G1 X106.415 Y150.202 Z9.500 F600.000
G1 X106.415 Y154.237 Z9.500 F600.000
G1 X53.963 Y101.785 Z9.500 F600.000
G1 X49.928 Y101.785 Z9.500 F600.000
G1 X106.415 Y158.272 Z9.500 F600.000
G1 X106.415 Y162.306 Z9.500 F600.000
G1 X45.894 Y101.785 Z9.500 F600.000
G1 X41.859 Y101.785 Z9.500 F600.000
G1 X106.415 Y166.341 Z9.500 F600.000
G1 X106.415 Y170.376 Z9.500 F600.000
G1 X37.824 Y101.785 Z9.500 F600.000
G1 X33.789 Y101.785 Z9.500 F600.000
G1 X106.415 Y174.411 Z9.500 F600.000
G1 X106.415 Y176.315 Z9.500 F600.000
G1 X104.285 Y176.315 Z9.500 F600.000
G1 X29.755 Y101.785 Z9.500 F600.000
G1 X25.720 Y101.785 Z9.500 F600.000
G1 X100.250 Y176.315 Z9.500 F600.000
G1 X96.215 Y176.315 Z9.500 F600.000
G1 X21.685 Y101.785 Z9.500 F600.000
G1 X17.650 Y101.785 Z9.500 F600.000
G1 X92.180 Y176.315 Z9.500 F600.000
G1 X88.146 Y176.315 Z9.500 F600.000
G1 X13.616 Y101.785 Z9.500 F600.000
G1 X9.581 Y101.785 Z9.500 F600.000
G1 X84.111 Y176.315 Z9.500 F600.000
G1 X80.076 Y176.315 Z9.500 F600.000
G1 X8.585 Y104.824 Z9.500 F600.000
G1 X8.585 Y108.859 Z9.500 F600.000
G1 X76.041 Y176.315 Z9.500 F600.000
G1 X72.007 Y176.315 Z9.500 F600.000
G1 X8.585 Y112.893 Z9.500 F600.000
G1 X8.585 Y116.928 Z9.500 F600.000
G1 X67.972 Y176.315 Z9.500 F600.000
G1 X63.937 Y176.315 Z9.500 F600.000
G1 X8.585 Y120.963 Z9.500 F600.000
G1 X8.585 Y124.998 Z9.500 F600.000
G1 X59.902 Y176.315 Z9.500 F600.000
G1 X55.868 Y176.315 Z9.500 F600.000
G1 X8.585 Y129.032 Z9.500 F600.000
G1 X8.585 Y133.067 Z9.500 F600.000
G1 X51.833 Y176.315 Z9.500 F600.000
G1 X47.798 Y176.315 Z9.500 F600.000
G1 X8.585 Y137.102 Z9.500 F600.000
G1 X8.585 Y141.137 Z9.500 F600.000
G1 X43.763 Y176.315 Z9.500 F600.000
G1 X39.729 Y176.315 Z9.500 F600.000
G1 X8.585 Y145.171 Z9.500 F600.000
G1 X8.585 Y149.206 Z9.500 F600.000
G1 X35.694 Y176.315 Z9.500 F600.000
G1 X31.659 Y176.315 Z9.500 F600.000
G1 X8.585 Y153.241 Z9.500 F600.000
G1 X8.585 Y157.276 Z9.500 F600.000
G1 X27.624 Y176.315 Z9.500 F600.000
G1 X23.590 Y176.315 Z9.500 F600.000
G1 X8.585 Y161.310 Z9.500 F600.000
G1 X8.585 Y165.345 Z9.500 F600.000
G1 X19.555 Y176.315 Z9.500 F600.000
G1 X15.520 Y176.315 Z9.500 F600.000
G1 X8.585 Y169.380 Z9.500 F600.000
G1 X8.585 Y173.415 Z9.500 F600.000
G1 X8.585 Y176.315 Z9.500 F600.000
G1 X11.485 Y176.315 Z9.500 F600.000
G1 X8.585 Y173.415 Z9.500 F600.000
G1 X8.891 Y173.721 Z9.250 F600.000
G1 X8.585 Y173.415 Z9.000 F600.000
G1 X11.485 Y176.315 Z9.000 F600.000
G1 X8.585 Y176.315 Z9.000 F600.000
G1 X8.585 Y173.415 Z9.000 F600.000
G1 X8.585 Y169.380 Z9.000 F600.000
G1 X15.520 Y176.315 Z9.000 F600.000
G1 X19.555 Y176.315 Z9.000 F600.000
G1 X8.585 Y165.345 Z9.000 F600.000
G1 X8.585 Y161.310 Z9.000 F600.000
G1 X23.590 Y176.315 Z9.000 F600.000
G1 X27.624 Y176.315 Z9.000 F600.000
G1 X8.585 Y157.276 Z9.000 F600.000
G1 X8.585 Y153.241 Z9.000 F600.000
G1 X31.659 Y176.315 Z9.000 F600.000
G1 X35.694 Y176.315 Z9.000 F600.000
G1 X8.585 Y149.206 Z9.000 F600.000
G1 X8.585 Y145.171 Z9.000 F600.000
G1 X39.729 Y176.315 Z9.000 F600.000
G1 X43.763 Y176.315 Z9.000 F600.000
G1 X8.585 Y141.137 Z9.000 F600.000
G1 X8.585 Y137.102 Z9.000 F600.000
G1 X47.798 Y176.315 Z9.000 F600.000
G1 X51.833 Y176.315 Z9.000 F600.000
G1 X8.585 Y133.067 Z9.000 F600.000
G1 X8.585 Y129.032 Z9.000 F600.000
G1 X55.868 Y176.315 Z9.000 F600.000
G1 X59.902 Y176.315 Z9.000 F600.000
G1 X8.585 Y124.998 Z9.000 F600.000
G1 X8.585 Y120.963 Z9.000 F600.000
G1 X63.937 Y176.315 Z9.000 F600.000
G1 X67.972 Y176.315 Z9.000 F600.000
G1 X8.585 Y116.928 Z9.000 F600.000
G1 X8.585 Y112.893 Z9.000 F600.000
G1 X72.007 Y176.315 Z9.000 F600.000
G1 X76.041 Y176.315 Z9.000 F600.000
G1 X8.585 Y108.859 Z9.000 F600.000
G1 X8.585 Y104.824 Z9.000 F600.000
G1 X80.076 Y176.315 Z9.000 F600.000
G1 X84.111 Y176.315 Z9.000 F600.000
G1 X9.581 Y101.785 Z9.000 F600.000
G1 X13.616 Y101.785 Z9.000 F600.000
G1 X88.146 Y176.315 Z9.000 F600.000
G1 X92.180 Y176.315 Z9.000 F600.000
G1 X17.650 Y101.785 Z9.000 F600.000
G1 X21.685 Y101.785 Z9.000 F600.000
G1 X96.215 Y176.315 Z9.000 F600.000
G1 X100.250 Y176.315 Z9.000 F600.000
G1 X25.720 Y101.785 Z9.000 F600.000
G1 X29.755 Y101.785 Z9.000 F600.000
G1 X104.285 Y176.315 Z9.000 F600.000
G1 X106.415 Y176.315 Z9.000 F600.000
G1 X106.415 Y174.411 Z9.000 F600.000
G1 X33.789 Y101.785 Z9.000 F600.000
G1 X37.824 Y101.785 Z9.000 F600.000
G1 X106.415 Y170.376 Z9.000 F600.000
G1 X106.415 Y166.341 Z9.000 F600.000
G1 X41.859 Y101.785 Z9.000 F600.000
G1 X45.894 Y101.785 Z9.000 F600.000
G1 X106.415 Y162.306 Z9.000 F600.000
G1 X106.415 Y158.272 Z9.000 F600.000
G1 X49.928 Y101.785 Z9.000 F600.000
G1 X53.963 Y101.785 Z9.000 F600.000
G1 X106.415 Y154.237 Z9.000 F600.000
G1 X106.415 Y150.202 Z9.000 F600.000
G1 X57.998 Y101.785 Z9.000 F600.000
G1 X62.033 Y101.785 Z9.000 F600.000
G1 X106.415 Y146.167 Z9.000 F600.000
G1 X106.415 Y142.133 Z9.000 F600.000
G1 X66.067 Y101.785 Z9.000 F600.000
G1 X70.102 Y101.785 Z9.000 F600.000
G1 X106.415 Y138.098 Z9.000 F600.000
G1 X106.415 Y134.063 Z9.000 F600.000
G1 X74.137 Y101.785 Z9.000 F600.000
G1 X78.172 Y101.785 Z9.000 F600.000
G1 X106.415 Y130.028 Z9.000 F600.000
G1 X106.415 Y125.994 Z9.000 F600.000
G1 X82.206 Y101.785 Z9.000 F600.000
G1 X86.241 Y101.785 Z9.000 F600.000
G1 X106.415 Y121.959 Z9.000 F600.000
G1 X106.415 Y117.924 Z9.000 F600.000
G1 X90.276 Y101.785 Z9.000 F600.000
G1 X94.311 Y101.785 Z9.000 F600.000
G1 X106.415 Y113.889 Z9.000 F600.000
G1 X106.415 Y109.855 Z9.000 F600.000
G1 X98.345 Y101.785 Z9.000 F600.000
G1 X102.380 Y101.785 Z9.000 F600.000
G1 X106.415 Y105.820 Z9.000 F600.000
G1 X106.415 Y101.785 Z9.000 F600.000
G0 X106.415 Y101.785 Z21.000
(Finish operation: RampEntryDressup001)
(Begin operation: RampEntryDressup002)
(Path: RampEntryDressup002)
G0 X0.000 Y0.000 Z21.000
G0 X48.945 Y73.616 Z21.000
G0 X48.945 Y73.616 Z19.000
G1 X47.869 Y73.139 Z18.325 F600.000
G1 X46.821 Y72.606 Z17.646 F600.000
G1 X45.804 Y72.020 Z16.966 F600.000
G1 X44.819 Y71.382 Z16.284 F600.000
G1 X43.869 Y70.693 Z15.604 F600.000
G1 X42.955 Y69.954 Z14.925 F600.000
G1 X42.080 Y69.167 Z14.250 F600.000
G1 X42.955 Y69.954 Z13.575 F600.000
G1 X43.869 Y70.693 Z12.896 F600.000
G1 X44.819 Y71.382 Z12.216 F600.000
G1 X45.804 Y72.020 Z11.534 F600.000
G1 X46.821 Y72.606 Z10.854 F600.000
G1 X47.869 Y73.139 Z10.175 F600.000
G1 X48.945 Y73.616 Z9.500 F600.000
G3 X36.784 Y61.455 Z9.500 I8.549 J-20.710 K0.000 F600.000
G1 X48.945 Y73.616 Z9.500 F600.000
G2 X53.940 Y75.025 Z9.500 I8.436 J-20.359 K0.000 F600.000
G1 X35.375 Y56.460 Z9.500 F600.000
G3 X35.095 Y52.593 Z9.500 I20.639 J-3.442 K0.000 F600.000
G1 X57.807 Y75.305 Z9.500 F600.000
G2 X61.106 Y75.018 Z9.500 I-0.089 J-20.125 K0.000 F600.000
G1 X35.382 Y49.294 Z9.500 F600.000
G3 X36.060 Y46.386 Z9.500 I20.066 J3.151 K0.000 F600.000
G1 X64.014 Y74.340 Z9.500 F600.000
G2 X66.624 Y73.363 Z9.500 I-5.262 J-18.045 K0.000 F600.000
G1 X37.037 Y43.776 Z9.500 F600.000
G3 X38.262 Y41.415 Z9.500 I15.914 J6.760 K0.000 F600.000
G1 X68.985 Y72.138 Z9.500 F600.000
G2 X71.123 Y70.689 Z9.500 I-8.178 J-14.366 K0.000 F600.000
G1 X39.711 Y39.277 Z9.500 F600.000
G3 X41.369 Y37.349 Z9.500 I13.058 J9.551 K0.000 F600.000
G1 X73.051 Y69.031 Z9.500 F600.000
G2 X74.776 Y67.169 Z9.500 I-10.885 J-11.812 K0.000 F600.000
G1 X43.231 Y35.624 Z9.500 F600.000
G3 X45.299 Y34.106 Z9.500 I10.518 J12.157 K0.000 F600.000
G1 X76.294 Y65.101 Z9.500 F600.000
G2 X77.596 Y62.816 Z9.500 I-13.331 J-9.107 K0.000 F600.000
G1 X47.584 Y32.804 Z9.500 F600.000
G3 X50.107 Y31.741 Z9.500 I9.465 J18.926 K0.000 F600.000
G1 X78.659 Y60.293 Z9.500 F600.000
G2 X79.433 Y57.481 Z9.500 I-19.666 J-6.923 K0.000 F600.000
G1 X52.919 Y30.967 Z9.500 F600.000
G3 X56.074 Y30.536 Z9.500 I4.199 J18.950 K0.000 F600.000
G1 X79.864 Y54.326 Z9.500 F600.000
G2 X79.797 Y50.671 Z9.500 I-20.917 J-1.440 K0.000 F600.000
G1 X59.729 Y30.603 Z9.500 F600.000
G3 X64.246 Y31.535 Z9.500 I-1.960 J20.931 K0.000 F600.000
G1 X78.865 Y46.154 Z9.500 F600.000
G2 X73.349 Y37.051 Z9.500 I-21.219 J6.636 K0.000 F600.000
G1 X74.241 Y37.995 Z8.750 F600.000
G1 X73.349 Y37.051 Z8.000 F600.000
G3 X78.865 Y46.154 Z8.000 I-15.702 J15.739 K0.000 F600.000
G1 X64.246 Y31.535 Z8.000 F600.000
G2 X59.729 Y30.603 Z8.000 I-6.478 J20.000 K0.000 F600.000
G1 X79.797 Y50.671 Z8.000 F600.000
G3 X79.864 Y54.326 Z8.000 I-20.850 J2.214 K0.000 F600.000
G1 X56.074 Y30.536 Z8.000 F600.000
G2 X52.919 Y30.967 Z8.000 I1.044 J19.381 K0.000 F600.000
G1 X79.433 Y57.481 Z8.000 F600.000
G3 X78.659 Y60.293 Z8.000 I-20.440 J-4.110 K0.000 F600.000
G1 X50.107 Y31.741 Z8.000 F600.000
G2 X47.584 Y32.804 Z8.000 I6.942 J19.990 K0.000 F600.000
G1 X77.596 Y62.816 Z8.000 F600.000
G3 X76.294 Y65.101 Z8.000 I-14.633 J-6.822 K0.000 F600.000
G1 X45.299 Y34.106 Z8.000 F600.000
G2 X43.231 Y35.624 Z8.000 I8.450 J13.676 K0.000 F600.000
G1 X74.776 Y67.169 Z8.000 F600.000
G3 X73.051 Y69.031 Z8.000 I-12.610 J-9.951 K0.000 F600.000
G1 X41.369 Y37.349 Z8.000 F600.000
G2 X39.711 Y39.277 Z8.000 I11.400 J11.479 K0.000 F600.000
G1 X71.123 Y70.689 Z8.000 F600.000
G3 X68.985 Y72.138 Z8.000 I-10.316 J-12.917 K0.000 F600.000
G1 X38.262 Y41.415 Z8.000 F600.000
G2 X37.037 Y43.776 Z8.000 I14.689 J9.122 K0.000 F600.000
G1 X66.624 Y73.363 Z8.000 F600.000
G3 X64.014 Y74.340 Z8.000 I-7.872 J-17.069 K0.000 F600.000
G1 X36.060 Y46.386 Z8.000 F600.000
G2 X35.382 Y49.294 Z8.000 I19.387 J6.058 K0.000 F600.000
G1 X61.106 Y75.018 Z8.000 F600.000
G3 X57.807 Y75.305 Z8.000 I-3.389 J-19.838 K0.000 F600.000
G1 X35.095 Y52.593 Z8.000 F600.000
G2 X35.375 Y56.460 Z8.000 I20.920 J0.425 K0.000 F600.000
G1 X53.940 Y75.025 Z8.000 F600.000
G3 X48.945 Y73.616 Z8.000 I3.442 J-21.767 K0.000 F600.000
G1 X36.784 Y61.455 Z8.000 F600.000
G2 X48.945 Y73.616 Z8.000 I20.710 J-8.549 K0.000 F600.000
G1 X47.759 Y73.086 Z7.250 F600.000
G1 X48.945 Y73.616 Z6.500 F600.000
G3 X36.784 Y61.455 Z6.500 I8.549 J-20.710 K0.000 F600.000
G1 X48.945 Y73.616 Z6.500 F600.000
G2 X53.940 Y75.025 Z6.500 I8.436 J-20.359 K0.000 F600.000
G1 X35.375 Y56.460 Z6.500 F600.000
G3 X35.095 Y52.593 Z6.500 I20.639 J-3.442 K0.000 F600.000
G1 X57.807 Y75.305 Z6.500 F600.000
G2 X61.106 Y75.018 Z6.500 I-0.089 J-20.125 K0.000 F600.000
G1 X35.382 Y49.294 Z6.500 F600.000
G3 X36.060 Y46.386 Z6.500 I20.066 J3.151 K0.000 F600.000
G1 X64.014 Y74.340 Z6.500 F600.000
G2 X66.624 Y73.363 Z6.500 I-5.262 J-18.045 K0.000 F600.000
G1 X37.037 Y43.776 Z6.500 F600.000
G3 X38.262 Y41.415 Z6.500 I15.914 J6.760 K0.000 F600.000
G1 X68.985 Y72.138 Z6.500 F600.000
G2 X71.123 Y70.689 Z6.500 I-8.178 J-14.366 K0.000 F600.000
G1 X39.711 Y39.277 Z6.500 F600.000
G3 X41.369 Y37.349 Z6.500 I13.058 J9.551 K0.000 F600.000
G1 X73.051 Y69.031 Z6.500 F600.000
G2 X74.776 Y67.169 Z6.500 I-10.885 J-11.812 K0.000 F600.000
G1 X43.231 Y35.624 Z6.500 F600.000
G3 X45.299 Y34.106 Z6.500 I10.518 J12.157 K0.000 F600.000
G1 X76.294 Y65.101 Z6.500 F600.000
G2 X77.596 Y62.816 Z6.500 I-13.331 J-9.107 K0.000 F600.000
G1 X47.584 Y32.804 Z6.500 F600.000
G3 X50.107 Y31.741 Z6.500 I9.465 J18.926 K0.000 F600.000
G1 X78.659 Y60.293 Z6.500 F600.000
G2 X79.433 Y57.481 Z6.500 I-19.666 J-6.923 K0.000 F600.000
G1 X52.919 Y30.967 Z6.500 F600.000
G3 X56.074 Y30.536 Z6.500 I4.199 J18.950 K0.000 F600.000
G1 X79.864 Y54.326 Z6.500 F600.000
G2 X79.797 Y50.671 Z6.500 I-20.917 J-1.440 K0.000 F600.000
G1 X59.729 Y30.603 Z6.500 F600.000
G3 X64.246 Y31.535 Z6.500 I-1.960 J20.931 K0.000 F600.000
G1 X78.865 Y46.154 Z6.500 F600.000
G2 X73.349 Y37.051 Z6.500 I-21.219 J6.636 K0.000 F600.000
G1 X73.653 Y37.360 Z6.250 F600.000
G1 X73.349 Y37.051 Z6.000 F600.000
G3 X78.865 Y46.154 Z6.000 I-15.702 J15.739 K0.000 F600.000
G1 X64.246 Y31.535 Z6.000 F600.000
G2 X59.729 Y30.603 Z6.000 I-6.478 J20.000 K0.000 F600.000
G1 X79.797 Y50.671 Z6.000 F600.000
G3 X79.864 Y54.326 Z6.000 I-20.850 J2.214 K0.000 F600.000
G1 X56.074 Y30.536 Z6.000 F600.000
G2 X52.919 Y30.967 Z6.000 I1.044 J19.381 K0.000 F600.000
G1 X79.433 Y57.481 Z6.000 F600.000
G3 X78.659 Y60.293 Z6.000 I-20.440 J-4.110 K0.000 F600.000
G1 X50.107 Y31.741 Z6.000 F600.000
G2 X47.584 Y32.804 Z6.000 I6.942 J19.990 K0.000 F600.000
G1 X77.596 Y62.816 Z6.000 F600.000
G3 X76.294 Y65.101 Z6.000 I-14.633 J-6.822 K0.000 F600.000
G1 X45.299 Y34.106 Z6.000 F600.000
G2 X43.231 Y35.624 Z6.000 I8.450 J13.676 K0.000 F600.000
G1 X74.776 Y67.169 Z6.000 F600.000
G3 X73.051 Y69.031 Z6.000 I-12.610 J-9.951 K0.000 F600.000
G1 X41.369 Y37.349 Z6.000 F600.000
G2 X39.711 Y39.277 Z6.000 I11.400 J11.479 K0.000 F600.000
G1 X71.123 Y70.689 Z6.000 F600.000
G3 X68.985 Y72.138 Z6.000 I-10.316 J-12.917 K0.000 F600.000
G1 X38.262 Y41.415 Z6.000 F600.000
G2 X37.037 Y43.776 Z6.000 I14.689 J9.122 K0.000 F600.000
G1 X66.624 Y73.363 Z6.000 F600.000
G3 X64.014 Y74.340 Z6.000 I-7.872 J-17.069 K0.000 F600.000
G1 X36.060 Y46.386 Z6.000 F600.000
G2 X35.382 Y49.294 Z6.000 I19.387 J6.058 K0.000 F600.000
G1 X61.106 Y75.018 Z6.000 F600.000
G3 X57.807 Y75.305 Z6.000 I-3.389 J-19.838 K0.000 F600.000
G1 X35.095 Y52.593 Z6.000 F600.000
G2 X35.375 Y56.460 Z6.000 I20.920 J0.425 K0.000 F600.000
G1 X53.940 Y75.025 Z6.000 F600.000
G3 X48.945 Y73.616 Z6.000 I3.442 J-21.767 K0.000 F600.000
G1 X36.784 Y61.455 Z6.000 F600.000
G2 X48.945 Y73.616 Z6.000 I20.710 J-8.549 K0.000 F600.000
G0 X48.945 Y73.616 Z21.000
(Finish operation: RampEntryDressup002)
(Begin operation: RampEntryDressup003)
(Path: RampEntryDressup003)
G0 X0.000 Y0.000 Z21.000
G0 X82.135 Y38.420 Z21.000
G0 X82.135 Y38.420 Z19.000
G1 X87.034 Y43.319 Z15.000 F600.000
G1 X82.135 Y38.420 Z11.000 F600.000
G1 X106.415 Y62.700 Z11.000 F600.000
G1 X106.415 Y64.045 Z11.000 F600.000
G1 X83.570 Y41.201 Z11.000 F600.000
G3 X84.479 Y43.454 Z11.000 I-20.739 J9.674 K0.000 F600.000
G1 X106.415 Y65.390 Z11.000 F600.000
G1 X106.415 Y66.735 Z11.000 F600.000
G1 X85.074 Y45.394 Z11.000 F600.000
G3 X85.493 Y47.158 Z11.000 I-16.513 J4.849 K0.000 F600.000
G1 X106.415 Y68.080 Z11.000 F600.000
G1 X106.415 Y69.425 Z11.000 F600.000
G1 X85.778 Y48.788 Z11.000 F600.000
G3 X85.958 Y50.313 Z11.000 I-14.485 J2.487 K0.000 F600.000
G1 X106.415 Y70.770 Z11.000 F600.000
G1 X106.415 Y72.115 Z11.000 F600.000
G1 X86.054 Y51.754 Z11.000 F600.000
G3 X86.080 Y53.125 Z11.000 I-14.080 J0.951 K0.000 F600.000
G1 X106.415 Y73.460 Z11.000 F600.000
G1 X106.415 Y74.804 Z11.000 F600.000
G1 X86.043 Y54.433 Z11.000 F600.000
G3 X85.942 Y55.677 Z11.000 I-19.976 J-0.992 K0.000 F600.000
G1 X106.415 Y76.149 Z11.000 F600.000
G1 X106.415 Y77.494 Z11.000 F600.000
G1 X85.797 Y56.876 Z11.000 F600.000
G3 X85.613 Y58.037 Z11.000 I-11.595 J-1.243 K0.000 F600.000
G1 X106.415 Y78.839 Z11.000 F600.000
G1 X106.415 Y80.184 Z11.000 F600.000
G1 X85.390 Y59.159 Z11.000 F600.000
G3 X85.119 Y60.233 Z11.000 I-13.186 J-2.756 K0.000 F600.000
G1 X106.415 Y81.529 Z11.000 F600.000
G1 X106.415 Y82.874 Z11.000 F600.000
G1 X84.821 Y61.280 Z11.000 F600.000
G3 X84.495 Y62.299 Z11.000 I-24.773 J-7.346 K0.000 F600.000
G1 X106.415 Y84.219 Z11.000 F600.000
G1 X106.415 Y85.564 Z11.000 F600.000
G1 X84.126 Y63.275 Z11.000 F600.000
G3 X83.736 Y64.230 Z11.000 I-9.647 J-3.384 K0.000 F600.000
G1 X106.415 Y86.909 Z11.000 F600.000
G1 X106.415 Y88.254 Z11.000 F600.000
G1 X83.320 Y65.159 Z11.000 F600.000
G3 X82.869 Y66.052 Z11.000 I-10.034 J-4.511 K0.000 F600.000
G1 X106.415 Y89.599 Z11.000 F600.000
G1 X106.415 Y90.944 Z11.000 F600.000
G1 X82.401 Y66.929 Z11.000 F600.000
G1 X81.902 Y67.775 Z11.000 F600.000
G1 X106.415 Y92.288 Z11.000 F600.000
G1 X106.415 Y93.633 Z11.000 F600.000
G1 X81.379 Y68.597 Z11.000 F600.000
G3 X80.840 Y69.403 Z11.000 I-19.760 J-12.632 K0.000 F600.000
G1 X106.052 Y94.615 Z11.000 F600.000
G1 X104.707 Y94.615 Z11.000 F600.000
G1 X80.264 Y70.172 Z11.000 F600.000
G3 X79.676 Y70.929 Z11.000 I-8.038 J-5.643 K0.000 F600.000
G1 X103.362 Y94.615 Z11.000 F600.000
G1 X102.017 Y94.615 Z11.000 F600.000
G1 X79.060 Y71.658 Z11.000 F600.000
G3 X78.422 Y72.365 Z11.000 I-7.388 J-6.037 K0.000 F600.000
G1 X100.672 Y94.615 Z11.000 F600.000
G1 X99.327 Y94.615 Z11.000 F600.000
G1 X77.768 Y73.056 Z11.000 F600.000
G3 X77.080 Y73.713 Z11.000 I-10.498 J-10.308 K0.000 F600.000
G1 X97.982 Y94.615 Z11.000 F600.000
G1 X96.637 Y94.615 Z11.000 F600.000
G1 X76.380 Y74.358 Z11.000 F600.000
G1 X75.651 Y74.973 Z11.000 F600.000
G1 X95.292 Y94.615 Z11.000 F600.000
G1 X93.947 Y94.615 Z11.000 F600.000
G1 X74.900 Y75.568 Z11.000 F600.000
G1 X74.133 Y76.146 Z11.000 F600.000
G1 X92.603 Y94.615 Z11.000 F600.000
G1 X91.258 Y94.615 Z11.000 F600.000
G1 X73.331 Y76.689 Z11.000 F600.000
G3 X72.516 Y77.218 Z11.000 I-5.931 J-8.237 K0.000 F600.000
G1 X89.913 Y94.615 Z11.000 F600.000
G1 X88.568 Y94.615 Z11.000 F600.000
G1 X71.670 Y77.717 Z11.000 F600.000
G3 X70.800 Y78.192 Z11.000 I-5.161 J-8.427 K0.000 F600.000
G1 X87.223 Y94.615 Z11.000 F600.000
G1 X85.878 Y94.615 Z11.000 F600.000
G1 X69.912 Y78.649 Z11.000 F600.000
G3 X68.985 Y79.067 Z11.000 I-9.463 J-19.808 K0.000 F600.000
G1 X84.533 Y94.615 Z11.000 F600.000
G1 X83.188 Y94.615 Z11.000 F600.000
G1 X68.037 Y79.464 Z11.000 F600.000
G1 X67.064 Y79.836 Z11.000 F600.000
G1 X81.843 Y94.615 Z11.000 F600.000
G1 X80.498 Y94.615 Z11.000 F600.000
G1 X66.050 Y80.166 Z11.000 F600.000
G3 X65.011 Y80.473 Z11.000 I-3.546 J-10.100 K0.000 F600.000
G1 X79.153 Y94.615 Z11.000 F600.000
G1 X77.808 Y94.615 Z11.000 F600.000
G1 X63.942 Y80.749 Z11.000 F600.000
G3 X62.824 Y80.976 Z11.000 I-4.006 J-16.840 K0.000 F600.000
G1 X76.464 Y94.615 Z11.000 F600.000
G1 X75.119 Y94.615 Z11.000 F600.000
G1 X61.673 Y81.169 Z11.000 F600.000
G3 X60.484 Y81.325 Z11.000 I-2.208 J-12.254 K0.000 F600.000
G1 X73.774 Y94.615 Z11.000 F600.000
G1 X72.429 Y94.615 Z11.000 F600.000
G1 X59.243 Y81.430 Z11.000 F600.000
G3 X57.943 Y81.474 Z11.000 I-1.145 J-14.456 K0.000 F600.000
G1 X71.084 Y94.615 Z11.000 F600.000
G1 X69.739 Y94.615 Z11.000 F600.000
G1 X56.585 Y81.461 Z11.000 F600.000
G3 X55.158 Y81.379 Z11.000 I0.069 J-13.706 K0.000 F600.000
G1 X68.394 Y94.615 Z11.000 F600.000
G1 X67.049 Y94.615 Z11.000 F600.000
G1 X53.649 Y81.215 Z11.000 F600.000
G3 X52.038 Y80.948 Z11.000 I1.726 J-15.448 K0.000 F600.000
G1 X65.704 Y94.615 Z11.000 F600.000
G1 X64.359 Y94.615 Z11.000 F600.000
G1 X50.297 Y80.552 Z11.000 F600.000
G3 X48.386 Y79.987 Z11.000 I4.372 J-18.272 K0.000 F600.000
G1 X63.014 Y94.615 Z11.000 F600.000
G1 X61.669 Y94.615 Z11.000 F600.000
G1 X46.206 Y79.152 Z11.000 F600.000
G3 X43.567 Y77.857 Z11.000 I10.257 J-24.251 K0.000 F600.000
G1 X60.325 Y94.615 Z11.000 F600.000
G1 X58.980 Y94.615 Z11.000 F600.000
G1 X39.276 Y74.912 Z11.000 F600.000
G3 X35.488 Y71.124 Z11.000 I16.947 J-20.735 K0.000 F600.000
G1 X11.943 Y47.579 Z11.000 F600.000
G1 X11.311 Y48.291 Z11.000 F600.000
G1 X57.635 Y94.615 Z11.000 F600.000
G1 X56.290 Y94.615 Z11.000 F600.000
G1 X10.678 Y49.004 Z11.000 F600.000
G1 X10.046 Y49.716 Z11.000 F600.000
G1 X54.945 Y94.615 Z11.000 F600.000
G1 X53.600 Y94.615 Z11.000 F600.000
G1 X9.413 Y50.429 Z11.000 F600.000
G1 X8.781 Y51.141 Z11.000 F600.000
G1 X52.255 Y94.615 Z11.000 F600.000
G1 X50.910 Y94.615 Z11.000 F600.000
G1 X8.585 Y52.290 Z11.000 F600.000
G1 X8.585 Y53.635 Z11.000 F600.000
G1 X49.565 Y94.615 Z11.000 F600.000
G1 X48.220 Y94.615 Z11.000 F600.000
G1 X8.585 Y54.980 Z11.000 F600.000
G1 X8.585 Y56.325 Z11.000 F600.000
G1 X46.875 Y94.615 Z11.000 F600.000
G1 X45.530 Y94.615 Z11.000 F600.000
G1 X8.585 Y57.670 Z11.000 F600.000
G1 X8.585 Y59.014 Z11.000 F600.000
G1 X44.186 Y94.615 Z11.000 F600.000
G1 X42.841 Y94.615 Z11.000 F600.000
G1 X8.585 Y60.359 Z11.000 F600.000
G1 X8.585 Y61.704 Z11.000 F600.000
G1 X41.496 Y94.615 Z11.000 F600.000
G1 X40.151 Y94.615 Z11.000 F600.000
G1 X8.585 Y63.049 Z11.000 F600.000
G1 X8.585 Y64.394 Z11.000 F600.000
G1 X38.806 Y94.615 Z11.000 F600.000
G1 X37.461 Y94.615 Z11.000 F600.000
G1 X8.585 Y65.739 Z11.000 F600.000
G1 X8.585 Y67.084 Z11.000 F600.000
G1 X36.116 Y94.615 Z11.000 F600.000
G1 X34.771 Y94.615 Z11.000 F600.000
G1 X8.585 Y68.429 Z11.000 F600.000
G1 X8.585 Y69.774 Z11.000 F600.000
G1 X33.426 Y94.615 Z11.000 F600.000
G1 X32.081 Y94.615 Z11.000 F600.000
G1 X8.585 Y71.119 Z11.000 F600.000
G1 X8.585 Y72.464 Z11.000 F600.000
G1 X30.736 Y94.615 Z11.000 F600.000
G1 X29.391 Y94.615 Z11.000 F600.000
G1 X8.585 Y73.809 Z11.000 F600.000
G1 X8.585 Y75.153 Z11.000 F600.000
G1 X28.047 Y94.615 Z11.000 F600.000
G1 X26.702 Y94.615 Z11.000 F600.000
G1 X8.585 Y76.498 Z11.000 F600.000
G1 X8.585 Y77.843 Z11.000 F600.000
G1 X25.357 Y94.615 Z11.000 F600.000
G1 X24.012 Y94.615 Z11.000 F600.000
G1 X8.585 Y79.188 Z11.000 F600.000
G1 X8.585 Y80.533 Z11.000 F600.000
G1 X22.667 Y94.615 Z11.000 F600.000
G1 X21.322 Y94.615 Z11.000 F600.000
G1 X8.585 Y81.878 Z11.000 F600.000
G1 X8.585 Y83.223 Z11.000 F600.000
G1 X19.977 Y94.615 Z11.000 F600.000
G1 X18.632 Y94.615 Z11.000 F600.000
G1 X8.585 Y84.568 Z11.000 F600.000
G1 X8.585 Y85.913 Z11.000 F600.000
G1 X17.287 Y94.615 Z11.000 F600.000
G1 X15.942 Y94.615 Z11.000 F600.000
G1 X8.585 Y87.258 Z11.000 F600.000
G1 X8.585 Y88.603 Z11.000 F600.000
G1 X14.597 Y94.615 Z11.000 F600.000
G1 X13.252 Y94.615 Z11.000 F600.000
G1 X8.585 Y89.948 Z11.000 F600.000
G1 X8.585 Y91.292 Z11.000 F600.000
G1 X11.908 Y94.615 Z11.000 F600.000
G1 X10.563 Y94.615 Z11.000 F600.000
G1 X8.585 Y92.637 Z11.000 F600.000
G1 X8.585 Y93.982 Z11.000 F600.000
G1 X8.585 Y94.615 Z11.000 F600.000
G1 X9.218 Y94.615 Z11.000 F600.000
G1 X8.585 Y93.982 Z11.000 F600.000
G0 X8.585 Y93.982 Z21.000
G0 X11.943 Y47.579 Z21.000
G0 X11.943 Y47.579 Z19.000
G1 X16.842 Y52.478 Z15.000 F600.000
G1 X11.943 Y47.579 Z11.000 F600.000
G1 X35.488 Y71.124 Z11.000 F600.000
G3 X32.543 Y66.833 Z11.000 I20.868 J-17.483 K0.000 F600.000
G1 X12.576 Y46.866 Z11.000 F600.000
G1 X13.208 Y46.154 Z11.000 F600.000
G1 X31.248 Y64.194 Z11.000 F600.000
G3 X30.413 Y62.014 Z11.000 I19.381 J-8.671 K0.000 F600.000
G1 X13.841 Y45.441 Z11.000 F600.000
G1 X14.473 Y44.729 Z11.000 F600.000
G1 X29.848 Y60.103 Z11.000 F600.000
G3 X29.452 Y58.362 Z11.000 I16.229 J-4.607 K0.000 F600.000
G1 X15.106 Y44.017 Z11.000 F600.000
G1 X15.738 Y43.304 Z11.000 F600.000
G1 X29.185 Y56.751 Z11.000 F600.000
G3 X29.021 Y55.242 Z11.000 I14.328 J-2.323 K0.000 F600.000
G1 X16.371 Y42.592 Z11.000 F600.000
G1 X17.003 Y41.879 Z11.000 F600.000
G1 X28.939 Y53.815 Z11.000 F600.000
G3 X28.926 Y52.457 Z11.000 I13.200 J-0.808 K0.000 F600.000
G1 X17.636 Y41.167 Z11.000 F600.000
G1 X18.268 Y40.454 Z11.000 F600.000
G1 X28.970 Y51.157 Z11.000 F600.000
G1 X29.075 Y49.916 Z11.000 F600.000
G1 X18.901 Y39.742 Z11.000 F600.000
G1 X19.533 Y39.030 Z11.000 F600.000
G1 X29.231 Y48.727 Z11.000 F600.000
G3 X29.424 Y47.576 Z11.000 I11.320 J1.310 K0.000 F600.000
G1 X20.166 Y38.317 Z11.000 F600.000
G1 X20.798 Y37.605 Z11.000 F600.000
G1 X29.651 Y46.458 Z11.000 F600.000
G3 X29.927 Y45.389 Z11.000 I76.386 J19.125 K0.000 F600.000
G1 X21.431 Y36.892 Z11.000 F600.000
G1 X22.063 Y36.180 Z11.000 F600.000
G1 X30.234 Y44.350 Z11.000 F600.000
G3 X30.564 Y43.336 Z11.000 I11.729 J3.267 K0.000 F600.000
G1 X22.696 Y35.467 Z11.000 F600.000
G1 X23.328 Y34.755 Z11.000 F600.000
G1 X30.936 Y42.363 Z11.000 F600.000
G3 X31.333 Y41.415 Z11.000 I9.578 J3.461 K0.000 F600.000
G1 X23.961 Y34.043 Z11.000 F600.000
G1 X24.593 Y33.330 Z11.000 F600.000
G1 X31.751 Y40.488 Z11.000 F600.000
G3 X32.208 Y39.600 Z11.000 I21.698 J10.616 K0.000 F600.000
G1 X25.226 Y32.618 Z11.000 F600.000
G1 X25.858 Y31.905 Z11.000 F600.000
G1 X32.683 Y38.730 Z11.000 F600.000
G1 X33.182 Y37.884 Z11.000 F600.000
G1 X26.491 Y31.193 Z11.000 F600.000
G1 X27.123 Y30.480 Z11.000 F600.000
G1 X33.711 Y37.069 Z11.000 F600.000
G3 X34.254 Y36.267 Z11.000 I9.796 J6.054 K0.000 F600.000
G1 X27.756 Y29.768 Z11.000 F600.000
G1 X28.388 Y29.055 Z11.000 F600.000
G1 X34.832 Y35.500 Z11.000 F600.000
G3 X35.427 Y34.749 Z11.000 I7.772 J5.550 K0.000 F600.000
G1 X29.020 Y28.343 Z11.000 F600.000
G1 X29.653 Y27.631 Z11.000 F600.000
G1 X36.042 Y34.020 Z11.000 F600.000
G3 X36.687 Y33.320 Z11.000 I7.643 J6.393 K0.000 F600.000
G1 X30.285 Y26.918 Z11.000 F600.000
G1 X30.918 Y26.206 Z11.000 F600.000
G1 X37.344 Y32.632 Z11.000 F600.000
G3 X38.035 Y31.978 Z11.000 I46.940 J48.942 K0.000 F600.000
G1 X31.550 Y25.493 Z11.000 F600.000
G1 X32.183 Y24.781 Z11.000 F600.000
G1 X38.742 Y31.340 Z11.000 F600.000
G1 X39.471 Y30.724 Z11.000 F600.000
G1 X32.815 Y24.068 Z11.000 F600.000
G1 X33.448 Y23.356 Z11.000 F600.000
G1 X40.228 Y30.136 Z11.000 F600.000
G3 X40.997 Y29.560 Z11.000 I10.883 J13.755 K0.000 F600.000
G1 X34.080 Y22.644 Z11.000 F600.000
G1 X34.713 Y21.931 Z11.000 F600.000
G1 X41.803 Y29.021 Z11.000 F600.000
G3 X42.625 Y28.498 Z11.000 I5.631 J7.941 K0.000 F600.000
G1 X35.345 Y21.219 Z11.000 F600.000
G1 X35.978 Y20.506 Z11.000 F600.000
G1 X43.471 Y27.999 Z11.000 F600.000
G3 X44.348 Y27.531 Z11.000 I5.287 J8.855 K0.000 F600.000
G1 X36.610 Y19.794 Z11.000 F600.000
G1 X37.243 Y19.081 Z11.000 F600.000
G1 X45.241 Y27.080 Z11.000 F600.000
G1 X46.170 Y26.664 Z11.000 F600.000
G1 X37.875 Y18.369 Z11.000 F600.000
G1 X38.508 Y17.657 Z11.000 F600.000
G1 X47.125 Y26.274 Z11.000 F600.000
G3 X48.101 Y25.905 Z11.000 I7.266 J17.725 K0.000 F600.000
G1 X39.140 Y16.944 Z11.000 F600.000
G1 X39.773 Y16.232 Z11.000 F600.000
G1 X49.120 Y25.579 Z11.000 F600.000
G3 X50.167 Y25.281 Z11.000 I3.453 J10.130 K0.000 F600.000
G1 X40.405 Y15.519 Z11.000 F600.000
G1 X41.038 Y14.807 Z11.000 F600.000
G1 X51.241 Y25.010 Z11.000 F600.000
G1 X52.363 Y24.787 Z11.000 F600.000
G1 X41.670 Y14.094 Z11.000 F600.000
G1 X42.303 Y13.382 Z11.000 F600.000
G1 X53.524 Y24.603 Z11.000 F600.000
G3 X54.723 Y24.458 Z11.000 I2.023 J11.682 K0.000 F600.000
G1 X42.935 Y12.670 Z11.000 F600.000
G1 X43.568 Y11.957 Z11.000 F600.000
G1 X55.967 Y24.357 Z11.000 F600.000
G3 X57.275 Y24.320 Z11.000 I3.286 J93.250 K0.000 F600.000
G1 X44.200 Y11.245 Z11.000 F600.000
G1 X44.833 Y10.532 Z11.000 F600.000
G1 X58.646 Y24.346 Z11.000 F600.000
G3 X60.087 Y24.442 Z11.000 I-0.207 J14.000 K0.000 F600.000
G1 X45.465 Y9.820 Z11.000 F600.000
G1 X46.098 Y9.107 Z11.000 F600.000
G1 X61.612 Y24.622 Z11.000 F600.000
G3 X63.242 Y24.907 Z11.000 I-1.894 J15.628 K0.000 F600.000
G1 X46.920 Y8.585 Z11.000 F600.000
G1 X48.265 Y8.585 Z11.000 F600.000
G1 X65.006 Y25.326 Z11.000 F600.000
G3 X66.946 Y25.921 Z11.000 I-4.958 J19.619 K0.000 F600.000
G1 X49.610 Y8.585 Z11.000 F600.000
G1 X50.955 Y8.585 Z11.000 F600.000
G1 X69.199 Y26.830 Z11.000 F600.000
G3 X71.980 Y28.265 Z11.000 I-9.084 J21.005 K0.000 F600.000
G1 X52.300 Y8.585 Z11.000 F600.000
G1 X53.645 Y8.585 Z11.000 F600.000
G1 X106.415 Y61.355 Z11.000 F600.000
G1 X106.415 Y60.010 Z11.000 F600.000
G1 X54.990 Y8.585 Z11.000 F600.000
G1 X56.335 Y8.585 Z11.000 F600.000
G1 X106.415 Y58.665 Z11.000 F600.000
G1 X106.415 Y57.321 Z11.000 F600.000
G1 X57.679 Y8.585 Z11.000 F600.000
G1 X59.024 Y8.585 Z11.000 F600.000
G1 X106.415 Y55.976 Z11.000 F600.000
G1 X106.415 Y54.631 Z11.000 F600.000
G1 X60.369 Y8.585 Z11.000 F600.000
G1 X61.714 Y8.585 Z11.000 F600.000
G1 X106.415 Y53.286 Z11.000 F600.000
G1 X106.415 Y51.941 Z11.000 F600.000
G1 X63.059 Y8.585 Z11.000 F600.000
G1 X64.404 Y8.585 Z11.000 F600.000
G1 X100.357 Y44.538 Z11.000 F600.000
G1 X89.718 Y32.554 Z11.000 F600.000
G1 X65.749 Y8.585 Z11.000 F600.000
G1 X67.094 Y8.585 Z11.000 F600.000
G1 X79.078 Y20.569 Z11.000 F600.000
G1 X68.439 Y8.585 Z11.000 F600.000
G0 X68.439 Y8.585 Z21.000
(Finish operation: RampEntryDressup003)
(Begin operation: RampEntryDressup004)
(Path: RampEntryDressup004)
G0 X0.000 Y0.000 Z21.000
G0 X106.415 Y101.785 Z21.000
G0 X106.415 Y101.785 Z19.000
G1 X106.415 Y103.130 Z18.224 F600.000
G1 X105.070 Y101.785 Z17.125 F600.000
G1 X103.725 Y101.785 Z16.349 F600.000
G1 X106.415 Y104.475 Z14.153 F600.000
G1 X106.415 Y105.605 Z13.500 F600.000
G1 X106.415 Y104.475 Z12.847 F600.000
G1 X103.725 Y101.785 Z10.651 F600.000
G1 X105.070 Y101.785 Z9.875 F600.000
G1 X106.415 Y103.130 Z8.776 F600.000
G1 X106.415 Y101.785 Z8.000 F600.000
G1 X106.415 Y103.130 Z8.000 F600.000
G1 X105.070 Y101.785 Z8.000 F600.000
G1 X103.725 Y101.785 Z8.000 F600.000
G1 X106.415 Y104.475 Z8.000 F600.000
G1 X106.415 Y105.820 Z8.000 F600.000
G1 X102.380 Y101.785 Z8.000 F600.000
G1 X101.035 Y101.785 Z8.000 F600.000
G1 X106.415 Y107.165 Z8.000 F600.000
G1 X106.415 Y108.510 Z8.000 F600.000
G1 X99.690 Y101.785 Z8.000 F600.000
G1 X98.345 Y101.785 Z8.000 F600.000
G1 X106.415 Y109.855 Z8.000 F600.000
G1 X106.415 Y111.199 Z8.000 F600.000
G1 X97.001 Y101.785 Z8.000 F600.000
G1 X95.656 Y101.785 Z8.000 F600.000
G1 X106.415 Y112.544 Z8.000 F600.000
G1 X106.415 Y113.889 Z8.000 F600.000
G1 X94.311 Y101.785 Z8.000 F600.000
G1 X92.966 Y101.785 Z8.000 F600.000
G1 X106.415 Y115.234 Z8.000 F600.000
G1 X106.415 Y116.579 Z8.000 F600.000
G1 X91.621 Y101.785 Z8.000 F600.000
G1 X90.276 Y101.785 Z8.000 F600.000
G1 X106.415 Y117.924 Z8.000 F600.000
G1 X106.415 Y119.269 Z8.000 F600.000
G1 X88.931 Y101.785 Z8.000 F600.000
G1 X87.586 Y101.785 Z8.000 F600.000
G1 X106.415 Y120.614 Z8.000 F600.000
G1 X106.415 Y121.959 Z8.000 F600.000
G1 X86.241 Y101.785 Z8.000 F600.000
G1 X84.896 Y101.785 Z8.000 F600.000
G1 X106.415 Y123.304 Z8.000 F600.000
G1 X106.415 Y124.649 Z8.000 F600.000
G1 X83.551 Y101.785 Z8.000 F600.000
G1 X82.206 Y101.785 Z8.000 F600.000
G1 X106.415 Y125.994 Z8.000 F600.000
G1 X106.415 Y127.338 Z8.000 F600.000
G1 X80.862 Y101.785 Z8.000 F600.000
G1 X79.517 Y101.785 Z8.000 F600.000
G1 X106.415 Y128.683 Z8.000 F600.000
G1 X106.415 Y130.028 Z8.000 F600.000
G1 X78.172 Y101.785 Z8.000 F600.000
G1 X76.827 Y101.785 Z8.000 F600.000
G1 X106.415 Y131.373 Z8.000 F600.000
G1 X106.415 Y132.718 Z8.000 F600.000
G1 X75.482 Y101.785 Z8.000 F600.000
G1 X74.137 Y101.785 Z8.000 F600.000
G1 X106.415 Y134.063 Z8.000 F600.000
G1 X106.415 Y135.408 Z8.000 F600.000
G1 X72.792 Y101.785 Z8.000 F600.000
G1 X71.447 Y101.785 Z8.000 F600.000
G1 X106.415 Y136.753 Z8.000 F600.000
G1 X106.415 Y138.098 Z8.000 F600.000
G1 X70.102 Y101.785 Z8.000 F600.000
G1 X68.757 Y101.785 Z8.000 F600.000
G1 X106.415 Y139.443 Z8.000 F600.000
G1 X106.415 Y140.788 Z8.000 F600.000
G1 X67.412 Y101.785 Z8.000 F600.000
G1 X66.067 Y101.785 Z8.000 F600.000
G1 X106.415 Y142.133 Z8.000 F600.000
G1 X106.415 Y143.477 Z8.000 F600.000
G1 X64.723 Y101.785 Z8.000 F600.000
G1 X63.378 Y101.785 Z8.000 F600.000
G1 X106.415 Y144.822 Z8.000 F600.000
G1 X106.415 Y146.167 Z8.000 F600.000
G1 X62.033 Y101.785 Z8.000 F600.000
G1 X60.688 Y101.785 Z8.000 F600.000
G1 X106.415 Y147.512 Z8.000 F600.000
G1 X106.415 Y148.857 Z8.000 F600.000
G1 X59.343 Y101.785 Z8.000 F600.000
G1 X57.998 Y101.785 Z8.000 F600.000
G1 X106.415 Y150.202 Z8.000 F600.000
G1 X106.415 Y151.547 Z8.000 F600.000
G1 X56.653 Y101.785 Z8.000 F600.000
G1 X55.308 Y101.785 Z8.000 F600.000
G1 X106.415 Y152.892 Z8.000 F600.000
G1 X106.415 Y154.237 Z8.000 F600.000
G1 X53.963 Y101.785 Z8.000 F600.000
G1 X52.618 Y101.785 Z8.000 F600.000
G1 X106.415 Y155.582 Z8.000 F600.000
G1 X106.415 Y156.927 Z8.000 F600.000
G1 X51.273 Y101.785 Z8.000 F600.000
G1 X49.928 Y101.785 Z8.000 F600.000
G1 X106.415 Y158.272 Z8.000 F600.000
G1 X106.415 Y159.616 Z8.000 F600.000
G1 X48.584 Y101.785 Z8.000 F600.000
G1 X47.239 Y101.785 Z8.000 F600.000
G1 X106.415 Y160.961 Z8.000 F600.000
G1 X106.415 Y162.306 Z8.000 F600.000
G1 X45.894 Y101.785 Z8.000 F600.000
G1 X44.549 Y101.785 Z8.000 F600.000
G1 X106.415 Y163.651 Z8.000 F600.000
G1 X106.415 Y164.996 Z8.000 F600.000
G1 X43.204 Y101.785 Z8.000 F600.000
G1 X41.859 Y101.785 Z8.000 F600.000
G1 X106.415 Y166.341 Z8.000 F600.000
G1 X106.415 Y167.686 Z8.000 F600.000
G1 X40.514 Y101.785 Z8.000 F600.000
G1 X39.169 Y101.785 Z8.000 F600.000
G1 X106.415 Y169.031 Z8.000 F600.000
G1 X106.415 Y170.376 Z8.000 F600.000
G1 X37.824 Y101.785 Z8.000 F600.000
G1 X36.479 Y101.785 Z8.000 F600.000
G1 X106.415 Y171.721 Z8.000 F600.000
G1 X106.415 Y173.066 Z8.000 F600.000
G1 X35.134 Y101.785 Z8.000 F600.000
G1 X33.789 Y101.785 Z8.000 F600.000
G1 X106.415 Y174.411 Z8.000 F600.000
G1 X106.415 Y175.755 Z8.000 F600.000
G1 X32.445 Y101.785 Z8.000 F600.000
G1 X31.100 Y101.785 Z8.000 F600.000
G1 X105.630 Y176.315 Z8.000 F600.000
G1 X104.285 Y176.315 Z8.000 F600.000
G1 X29.755 Y101.785 Z8.000 F600.000
G1 X28.410 Y101.785 Z8.000 F600.000
G1 X102.940 Y176.315 Z8.000 F600.000
G1 X101.595 Y176.315 Z8.000 F600.000
G1 X27.065 Y101.785 Z8.000 F600.000
G1 X25.720 Y101.785 Z8.000 F600.000
G1 X100.250 Y176.315 Z8.000 F600.000
G1 X98.905 Y176.315 Z8.000 F600.000
G1 X24.375 Y101.785 Z8.000 F600.000
G1 X23.030 Y101.785 Z8.000 F600.000
G1 X97.560 Y176.315 Z8.000 F600.000
G1 X96.215 Y176.315 Z8.000 F600.000
G1 X21.685 Y101.785 Z8.000 F600.000
G1 X20.340 Y101.785 Z8.000 F600.000
G1 X94.870 Y176.315 Z8.000 F600.000
G1 X93.525 Y176.315 Z8.000 F600.000
G1 X18.995 Y101.785 Z8.000 F600.000
G1 X17.650 Y101.785 Z8.000 F600.000
G1 X92.180 Y176.315 Z8.000 F600.000
G1 X90.836 Y176.315 Z8.000 F600.000
G1 X16.306 Y101.785 Z8.000 F600.000
G1 X14.961 Y101.785 Z8.000 F600.000
G1 X89.491 Y176.315 Z8.000 F600.000
G1 X88.146 Y176.315 Z8.000 F600.000
G1 X13.616 Y101.785 Z8.000 F600.000
G1 X12.271 Y101.785 Z8.000 F600.000
G1 X86.801 Y176.315 Z8.000 F600.000
G1 X85.456 Y176.315 Z8.000 F600.000
G1 X10.926 Y101.785 Z8.000 F600.000
G1 X9.581 Y101.785 Z8.000 F600.000
G1 X84.111 Y176.315 Z8.000 F600.000
G1 X82.766 Y176.315 Z8.000 F600.000
G1 X8.585 Y102.134 Z8.000 F600.000
G1 X8.585 Y103.479 Z8.000 F600.000
G1 X81.421 Y176.315 Z8.000 F600.000
G1 X80.076 Y176.315 Z8.000 F600.000
G1 X8.585 Y104.824 Z8.000 F600.000
G1 X8.585 Y106.169 Z8.000 F600.000
G1 X78.731 Y176.315 Z8.000 F600.000
G1 X77.386 Y176.315 Z8.000 F600.000
G1 X8.585 Y107.514 Z8.000 F600.000
G1 X8.585 Y108.859 Z8.000 F600.000
G1 X76.041 Y176.315 Z8.000 F600.000
G1 X74.697 Y176.315 Z8.000 F600.000
G1 X8.585 Y110.203 Z8.000 F600.000
G1 X8.585 Y111.548 Z8.000 F600.000
G1 X73.352 Y176.315 Z8.000 F600.000
G1 X72.007 Y176.315 Z8.000 F600.000
G1 X8.585 Y112.893 Z8.000 F600.000
G1 X8.585 Y114.238 Z8.000 F600.000
G1 X70.662 Y176.315 Z8.000 F600.000
G1 X69.317 Y176.315 Z8.000 F600.000
G1 X8.585 Y115.583 Z8.000 F600.000
G1 X8.585 Y116.928 Z8.000 F600.000
G1 X67.972 Y176.315 Z8.000 F600.000
G1 X66.627 Y176.315 Z8.000 F600.000
G1 X8.585 Y118.273 Z8.000 F600.000
G1 X8.585 Y119.618 Z8.000 F600.000
G1 X65.282 Y176.315 Z8.000 F600.000
G1 X63.937 Y176.315 Z8.000 F600.000
G1 X8.585 Y120.963 Z8.000 F600.000
G1 X8.585 Y122.308 Z8.000 F600.000
G1 X62.592 Y176.315 Z8.000 F600.000
G1 X61.247 Y176.315 Z8.000 F600.000
G1 X8.585 Y123.653 Z8.000 F600.000
G1 X8.585 Y124.998 Z8.000 F600.000
G1 X59.902 Y176.315 Z8.000 F600.000
G1 X58.558 Y176.315 Z8.000 F600.000
G1 X8.585 Y126.342 Z8.000 F600.000
G1 X8.585 Y127.687 Z8.000 F600.000
G1 X57.213 Y176.315 Z8.000 F600.000
G1 X55.868 Y176.315 Z8.000 F600.000
G1 X8.585 Y129.032 Z8.000 F600.000
G1 X8.585 Y130.377 Z8.000 F600.000
G1 X54.523 Y176.315 Z8.000 F600.000
G1 X53.178 Y176.315 Z8.000 F600.000
G1 X8.585 Y131.722 Z8.000 F600.000
G1 X8.585 Y133.067 Z8.000 F600.000
G1 X51.833 Y176.315 Z8.000 F600.000
G1 X50.488 Y176.315 Z8.000 F600.000
G1 X8.585 Y134.412 Z8.000 F600.000
G1 X8.585 Y135.757 Z8.000 F600.000
G1 X49.143 Y176.315 Z8.000 F600.000
G1 X47.798 Y176.315 Z8.000 F600.000
G1 X8.585 Y137.102 Z8.000 F600.000
G1 X8.585 Y138.447 Z8.000 F600.000
G1 X46.453 Y176.315 Z8.000 F600.000
G1 X45.108 Y176.315 Z8.000 F600.000
G1 X8.585 Y139.792 Z8.000 F600.000
G1 X8.585 Y141.137 Z8.000 F600.000
G1 X43.763 Y176.315 Z8.000 F600.000
G1 X42.419 Y176.315 Z8.000 F600.000
G1 X8.585 Y142.481 Z8.000 F600.000
G1 X8.585 Y143.826 Z8.000 F600.000
G1 X41.074 Y176.315 Z8.000 F600.000
G1 X39.729 Y176.315 Z8.000 F600.000
G1 X8.585 Y145.171 Z8.000 F600.000
G1 X8.585 Y146.516 Z8.000 F600.000
G1 X38.384 Y176.315 Z8.000 F600.000
G1 X37.039 Y176.315 Z8.000 F600.000
G1 X8.585 Y147.861 Z8.000 F600.000
G1 X8.585 Y149.206 Z8.000 F600.000
G1 X35.694 Y176.315 Z8.000 F600.000
G1 X34.349 Y176.315 Z8.000 F600.000
G1 X8.585 Y150.551 Z8.000 F600.000
G1 X8.585 Y151.896 Z8.000 F600.000
G1 X33.004 Y176.315 Z8.000 F600.000
G1 X31.659 Y176.315 Z8.000 F600.000
G1 X8.585 Y153.241 Z8.000 F600.000
G1 X8.585 Y154.586 Z8.000 F600.000
G1 X30.314 Y176.315 Z8.000 F600.000
G1 X28.969 Y176.315 Z8.000 F600.000
G1 X8.585 Y155.931 Z8.000 F600.000
G1 X8.585 Y157.276 Z8.000 F600.000
G1 X27.624 Y176.315 Z8.000 F600.000
G1 X26.280 Y176.315 Z8.000 F600.000
G1 X8.585 Y158.620 Z8.000 F600.000
G1 X8.585 Y159.965 Z8.000 F600.000
G1 X24.935 Y176.315 Z8.000 F600.000
G1 X23.590 Y176.315 Z8.000 F600.000
G1 X8.585 Y161.310 Z8.000 F600.000
G1 X8.585 Y162.655 Z8.000 F600.000
G1 X22.245 Y176.315 Z8.000 F600.000
G1 X20.900 Y176.315 Z8.000 F600.000
G1 X8.585 Y164.000 Z8.000 F600.000
G1 X8.585 Y165.345 Z8.000 F600.000
G1 X19.555 Y176.315 Z8.000 F600.000
G1 X18.210 Y176.315 Z8.000 F600.000
G1 X8.585 Y166.690 Z8.000 F600.000
G1 X8.585 Y168.035 Z8.000 F600.000
G1 X16.865 Y176.315 Z8.000 F600.000
G1 X15.520 Y176.315 Z8.000 F600.000
G1 X8.585 Y169.380 Z8.000 F600.000
G1 X8.585 Y170.725 Z8.000 F600.000
G1 X14.175 Y176.315 Z8.000 F600.000
G1 X12.830 Y176.315 Z8.000 F600.000
G1 X8.585 Y172.070 Z8.000 F600.000
G1 X8.585 Y173.415 Z8.000 F600.000
G1 X11.485 Y176.315 Z8.000 F600.000
G1 X10.141 Y176.315 Z8.000 F600.000
G1 X8.585 Y174.759 Z8.000 F600.000
G1 X8.585 Y176.104 Z8.000 F600.000
G1 X8.585 Y176.315 Z8.000 F600.000
G1 X8.796 Y176.315 Z8.000 F600.000
G1 X8.585 Y176.104 Z8.000 F600.000
G0 X8.585 Y176.104 Z21.000
(Finish operation: RampEntryDressup004)
(Begin operation: RampEntryDressup005)
(Path: RampEntryDressup005)
G0 X0.000 Y0.000 Z21.000
G0 X43.373 Y71.561 Z21.000
G0 X43.373 Y71.561 Z19.000
G1 X42.365 Y70.760 Z18.259 F600.000
G1 X41.405 Y69.904 Z17.515 F600.000
G1 X40.496 Y68.995 Z16.770 F600.000
G1 X39.640 Y68.035 Z16.026 F600.000
G1 X38.839 Y67.027 Z15.285 F600.000
G1 X42.250 Y70.438 Z12.500 F600.000
G1 X38.839 Y67.027 Z9.715 F600.000
G1 X39.640 Y68.035 Z8.974 F600.000
G1 X40.496 Y68.995 Z8.230 F600.000
G1 X41.405 Y69.904 Z7.485 F600.000
G1 X42.365 Y70.760 Z6.741 F600.000
G1 X43.373 Y71.561 Z6.000 F600.000
G3 X38.839 Y67.027 Z6.000 I13.470 J-18.004 K0.000 F600.000
G1 X43.373 Y71.561 Z6.000 F600.000
G2 X44.871 Y72.611 Z6.000 I10.095 J-12.812 K0.000 F600.000
G1 X37.789 Y65.529 Z6.000 F600.000
G3 X37.112 Y64.403 Z6.000 I9.686 J-6.596 K0.000 F600.000
G1 X45.997 Y73.288 Z6.000 F600.000
G2 X46.951 Y73.794 Z6.000 I4.982 J-8.243 K0.000 F600.000
G1 X36.606 Y63.449 Z6.000 F600.000
G3 X36.194 Y62.589 Z6.000 I7.452 J-4.097 K0.000 F600.000
G1 X47.811 Y74.206 Z6.000 F600.000
G2 X48.614 Y74.560 Z6.000 I3.555 J-6.968 K0.000 F600.000
G1 X35.840 Y61.786 Z6.000 F600.000
G1 X35.563 Y61.061 Z6.000 F600.000
G1 X49.339 Y74.837 Z6.000 F600.000
G2 X50.037 Y75.086 Z6.000 I2.568 J-6.086 K0.000 F600.000
G1 X35.314 Y60.363 Z6.000 F600.000
G1 X35.104 Y59.705 Z6.000 F600.000
G1 X50.695 Y75.296 Z6.000 F600.000
G2 X51.325 Y75.479 Z6.000 I1.939 J-5.524 K0.000 F600.000
G1 X34.921 Y59.075 Z6.000 F600.000
G1 X34.766 Y58.471 Z6.000 F600.000
G1 X51.929 Y75.634 Z6.000 F600.000
G2 X52.516 Y75.772 Z6.000 I1.521 J-5.150 K0.000 F600.000
G1 X34.628 Y57.884 Z6.000 F600.000
G1 X34.516 Y57.325 Z6.000 F600.000
G1 X53.075 Y75.884 Z6.000 F600.000
G2 X53.631 Y75.991 Z6.000 I1.235 J-4.895 K0.000 F600.000
G1 X34.409 Y56.769 Z6.000 F600.000
G1 X34.335 Y56.247 Z6.000 F600.000
G1 X54.153 Y76.065 Z6.000 F600.000
G1 X54.675 Y76.138 Z6.000 F600.000
G1 X34.262 Y55.725 Z6.000 F600.000
G3 X34.208 Y55.223 Z6.000 I4.445 J-0.731 K0.000 F600.000
G1 X55.177 Y76.192 Z6.000 F600.000
G1 X55.667 Y76.234 Z6.000 F600.000
G1 X34.166 Y54.733 Z6.000 F600.000
G1 X34.125 Y54.244 Z6.000 F600.000
G1 X56.156 Y76.275 Z6.000 F600.000
G2 X56.619 Y76.290 Z6.000 I0.363 J-4.115 K0.000 F600.000
G1 X34.110 Y53.781 Z6.000 F600.000
G1 X34.097 Y53.319 Z6.000 F600.000
G1 X57.081 Y76.303 Z6.000 F600.000
G2 X57.540 Y76.313 Z6.000 I0.324 J-4.081 K0.000 F600.000
G1 X34.087 Y52.860 Z6.000 F600.000
G1 X34.099 Y52.424 Z6.000 F600.000
G1 X57.976 Y76.301 Z6.000 F600.000
G1 X58.412 Y76.289 Z6.000 F600.000
G1 X34.111 Y51.988 Z6.000 F600.000
G3 X34.125 Y51.554 Z6.000 I3.873 J-0.092 K0.000 F600.000
G1 X58.846 Y76.275 Z6.000 F600.000
G1 X59.259 Y76.240 Z6.000 F600.000
G1 X34.160 Y51.141 Z6.000 F600.000
G1 X34.195 Y50.727 Z6.000 F600.000
G1 X59.673 Y76.205 Z6.000 F600.000
G1 X60.086 Y76.170 Z6.000 F600.000
G1 X34.230 Y50.314 Z6.000 F600.000
G3 X34.284 Y49.919 Z6.000 I3.540 J0.281 K0.000 F600.000
G1 X60.481 Y76.116 Z6.000 F600.000
G1 X60.874 Y76.061 Z6.000 F600.000
G1 X34.339 Y49.526 Z6.000 F600.000
G1 X34.395 Y49.133 Z6.000 F600.000
G1 X61.267 Y76.005 Z6.000 F600.000
G2 X61.648 Y75.939 Z6.000 I-0.405 J-3.429 K0.000 F600.000
G1 X34.461 Y48.752 Z6.000 F600.000
G1 X34.536 Y48.378 Z6.000 F600.000
G1 X62.022 Y75.864 Z6.000 F600.000
G1 X62.396 Y75.790 Z6.000 F600.000
G1 X34.610 Y48.004 Z6.000 F600.000
G3 X34.687 Y47.633 Z6.000 I3.343 J0.502 K0.000 F600.000
G1 X62.767 Y75.713 Z6.000 F600.000
G1 X63.123 Y75.621 Z6.000 F600.000
G1 X34.779 Y47.277 Z6.000 F600.000
G1 X34.871 Y46.920 Z6.000 F600.000
G1 X63.480 Y75.529 Z6.000 F600.000
G1 X63.836 Y75.437 Z6.000 F600.000
G1 X34.963 Y46.564 Z6.000 F600.000
G3 X35.065 Y46.217 Z6.000 I3.137 J0.732 K0.000 F600.000
G1 X64.183 Y75.335 Z6.000 F600.000
G1 X64.523 Y75.227 Z6.000 F600.000
G1 X35.173 Y45.877 Z6.000 F600.000
G1 X35.281 Y45.537 Z6.000 F600.000
G1 X64.863 Y75.119 Z6.000 F600.000
G1 X65.203 Y75.010 Z6.000 F600.000
G1 X35.390 Y45.197 Z6.000 F600.000
G3 X35.512 Y44.871 Z6.000 I2.962 J0.927 K0.000 F600.000
G1 X65.529 Y74.888 Z6.000 F600.000
G1 X65.853 Y74.764 Z6.000 F600.000
G1 X35.636 Y44.547 Z6.000 F600.000
G1 X35.760 Y44.223 Z6.000 F600.000
G1 X66.177 Y74.640 Z6.000 F600.000
G2 X66.500 Y74.514 Z6.000 I-0.958 J-2.935 K0.000 F600.000
G1 X35.886 Y43.900 Z6.000 F600.000
G1 X36.024 Y43.590 Z6.000 F600.000
G1 X66.810 Y74.376 Z6.000 F600.000
G1 X67.119 Y74.237 Z6.000 F600.000
G1 X36.163 Y43.281 Z6.000 F600.000
G1 X36.301 Y42.971 Z6.000 F600.000
G1 X67.429 Y74.099 Z6.000 F600.000
G2 X67.735 Y73.956 Z6.000 I-1.113 J-2.796 K0.000 F600.000
G1 X36.444 Y42.665 Z6.000 F600.000
G1 X36.596 Y42.369 Z6.000 F600.000
G1 X68.031 Y73.804 Z6.000 F600.000
G1 X68.326 Y73.651 Z6.000 F600.000
G1 X36.749 Y42.074 Z6.000 F600.000
G1 X36.902 Y41.778 Z6.000 F600.000
G1 X68.622 Y73.498 Z6.000 F600.000
G2 X68.913 Y73.341 Z6.000 I-1.252 J-2.673 K0.000 F600.000
G1 X37.059 Y41.487 Z6.000 F600.000
G1 X37.225 Y41.205 Z6.000 F600.000
G1 X69.195 Y73.175 Z6.000 F600.000
G1 X69.477 Y73.009 Z6.000 F600.000
G1 X37.391 Y40.923 Z6.000 F600.000
G1 X37.558 Y40.641 Z6.000 F600.000
G1 X69.759 Y72.842 Z6.000 F600.000
G2 X70.037 Y72.672 Z6.000 I-1.377 J-2.561 K0.000 F600.000
G1 X37.728 Y40.363 Z6.000 F600.000
G1 X37.908 Y40.094 Z6.000 F600.000
G1 X70.306 Y72.492 Z6.000 F600.000
G1 X70.575 Y72.313 Z6.000 F600.000
G1 X38.087 Y39.825 Z6.000 F600.000
G1 X38.267 Y39.556 Z6.000 F600.000
G1 X70.844 Y72.133 Z6.000 F600.000
G2 X71.109 Y71.951 Z6.000 I-1.493 J-2.457 K0.000 F600.000
G1 X38.449 Y39.291 Z6.000 F600.000
G1 X38.642 Y39.035 Z6.000 F600.000
G1 X71.365 Y71.758 Z6.000 F600.000
G1 X71.621 Y71.566 Z6.000 F600.000
G1 X38.834 Y38.779 Z6.000 F600.000
G1 X39.027 Y38.523 Z6.000 F600.000
G1 X71.877 Y71.373 Z6.000 F600.000
G2 X72.131 Y71.179 Z6.000 I-1.602 J-2.360 K0.000 F600.000
G1 X39.221 Y38.269 Z6.000 F600.000
G1 X39.426 Y38.026 Z6.000 F600.000
G1 X72.374 Y70.974 Z6.000 F600.000
G1 X72.617 Y70.768 Z6.000 F600.000
G1 X39.632 Y37.783 Z6.000 F600.000
G1 X39.837 Y37.540 Z6.000 F600.000
G1 X72.860 Y70.563 Z6.000 F600.000
G2 X73.103 Y70.358 Z6.000 I-1.707 J-2.267 K0.000 F600.000
G1 X40.042 Y37.297 Z6.000 F600.000
G1 X40.260 Y37.067 Z6.000 F600.000
G1 X73.333 Y70.140 Z6.000 F600.000
G1 X73.564 Y69.922 Z6.000 F600.000
G1 X40.478 Y36.836 Z6.000 F600.000
G1 X40.696 Y36.606 Z6.000 F600.000
G1 X73.794 Y69.704 Z6.000 F600.000
G1 X74.025 Y69.486 Z6.000 F600.000
G1 X40.914 Y36.375 Z6.000 F600.000
G3 X41.142 Y36.156 Z6.000 I2.069 J1.926 K0.000 F600.000
G1 X74.244 Y69.258 Z6.000 F600.000
G1 X74.462 Y69.027 Z6.000 F600.000
G1 X41.373 Y35.938 Z6.000 F600.000
G1 X41.603 Y35.720 Z6.000 F600.000
G1 X74.680 Y68.797 Z6.000 F600.000
G1 X74.898 Y68.566 Z6.000 F600.000
G1 X41.834 Y35.502 Z6.000 F600.000
G3 X42.073 Y35.293 Z6.000 I1.978 J2.028 K0.000 F600.000
G1 X75.107 Y68.327 Z6.000 F600.000
G1 X75.312 Y68.084 Z6.000 F600.000
G1 X42.316 Y35.088 Z6.000 F600.000
G1 X42.559 Y34.883 Z6.000 F600.000
G1 X75.517 Y67.841 Z6.000 F600.000
G1 X75.722 Y67.598 Z6.000 F600.000
G1 X42.802 Y34.678 Z6.000 F600.000
G3 X43.053 Y34.480 Z6.000 I1.885 J2.132 K0.000 F600.000
G1 X75.920 Y67.347 Z6.000 F600.000
G1 X76.113 Y67.091 Z6.000 F600.000
G1 X43.309 Y34.287 Z6.000 F600.000
G1 X43.565 Y34.095 Z6.000 F600.000
G1 X76.305 Y66.835 Z6.000 F600.000
G1 X76.498 Y66.580 Z6.000 F600.000
G1 X43.820 Y33.902 Z6.000 F600.000
G3 X44.082 Y33.716 Z6.000 I1.789 J2.241 K0.000 F600.000
G1 X76.684 Y66.318 Z6.000 F600.000
G1 X76.863 Y66.049 Z6.000 F600.000
G1 X44.351 Y33.537 Z6.000 F600.000
G1 X44.620 Y33.357 Z6.000 F600.000
G1 X77.043 Y65.780 Z6.000 F600.000
G1 X77.223 Y65.511 Z6.000 F600.000
G1 X44.889 Y33.177 Z6.000 F600.000
G3 X45.163 Y33.004 Z6.000 I1.686 J2.356 K0.000 F600.000
G1 X77.396 Y65.237 Z6.000 F600.000
G1 X77.563 Y64.955 Z6.000 F600.000
G1 X45.445 Y32.837 Z6.000 F600.000
G1 X45.727 Y32.671 Z6.000 F600.000
G1 X77.729 Y64.673 Z6.000 F600.000
G1 X77.895 Y64.391 Z6.000 F600.000
G1 X46.009 Y32.505 Z6.000 F600.000
G3 X46.297 Y32.344 Z6.000 I1.574 J2.480 K0.000 F600.000
G1 X78.056 Y64.103 Z6.000 F600.000
G1 X78.209 Y63.808 Z6.000 F600.000
G1 X46.592 Y32.191 Z6.000 F600.000
G1 X46.888 Y32.038 Z6.000 F600.000
G1 X78.362 Y63.512 Z6.000 F600.000
G1 X78.514 Y63.217 Z6.000 F600.000
G1 X47.183 Y31.886 Z6.000 F600.000
G3 X47.486 Y31.740 Z6.000 I1.452 J2.617 K0.000 F600.000
G1 X78.660 Y62.914 Z6.000 F600.000
G1 X78.799 Y62.605 Z6.000 F600.000
G1 X47.795 Y31.601 Z6.000 F600.000
G1 X48.105 Y31.462 Z6.000 F600.000
G1 X78.938 Y62.295 Z6.000 F600.000
G1 X79.076 Y61.985 Z6.000 F600.000
G1 X48.415 Y31.324 Z6.000 F600.000
G3 X48.733 Y31.194 Z6.000 I1.315 J2.771 K0.000 F600.000
G1 X79.206 Y61.667 Z6.000 F600.000
G1 X79.330 Y61.342 Z6.000 F600.000
G1 X49.058 Y31.070 Z6.000 F600.000
G1 X49.382 Y30.946 Z6.000 F600.000
G1 X79.454 Y61.018 Z6.000 F600.000
G1 X79.577 Y60.693 Z6.000 F600.000
G1 X49.707 Y30.823 Z6.000 F600.000
G3 X50.044 Y30.711 Z6.000 I1.159 J2.946 K0.000 F600.000
G1 X79.689 Y60.356 Z6.000 F600.000
G1 X79.797 Y60.016 Z6.000 F600.000
G1 X50.384 Y30.603 Z6.000 F600.000
G1 X50.724 Y30.495 Z6.000 F600.000
G1 X79.905 Y59.676 Z6.000 F600.000
G2 X80.012 Y59.334 Z6.000 I-2.993 J-1.116 K0.000 F600.000
G1 X51.066 Y30.388 Z6.000 F600.000
G1 X51.422 Y30.296 Z6.000 F600.000
G1 X80.104 Y58.978 Z6.000 F600.000
G1 X80.195 Y58.622 Z6.000 F600.000
G1 X51.778 Y30.205 Z6.000 F600.000
G1 X52.135 Y30.113 Z6.000 F600.000
G1 X80.287 Y58.265 Z6.000 F600.000
G2 X80.369 Y57.899 Z6.000 I-3.220 J-0.913 K0.000 F600.000
G1 X52.501 Y30.031 Z6.000 F600.000
G1 X52.875 Y29.956 Z6.000 F600.000
G1 X80.444 Y57.525 Z6.000 F600.000
G1 X80.518 Y57.151 Z6.000 F600.000
G1 X53.249 Y29.882 Z6.000 F600.000
G3 X53.625 Y29.810 Z6.000 I0.830 J3.313 K0.000 F600.000
G1 X80.590 Y56.775 Z6.000 F600.000
G1 X80.646 Y56.382 Z6.000 F600.000
G1 X54.018 Y29.754 Z6.000 F600.000
G1 X54.411 Y29.699 Z6.000 F600.000
G1 X80.701 Y55.989 Z6.000 F600.000
G1 X80.757 Y55.596 Z6.000 F600.000
G1 X54.804 Y29.643 Z6.000 F600.000
G3 X55.213 Y29.605 Z6.000 I0.550 J3.627 K0.000 F600.000
G1 X80.795 Y55.187 Z6.000 F600.000
G1 X80.830 Y54.773 Z6.000 F600.000
G1 X55.627 Y29.570 Z6.000 F600.000
G1 X56.040 Y29.535 Z6.000 F600.000
G1 X80.865 Y54.360 Z6.000 F600.000
G2 X80.885 Y53.932 Z6.000 I-3.801 J-0.395 K0.000 F600.000
G1 X56.468 Y29.515 Z6.000 F600.000
G1 X56.904 Y29.502 Z6.000 F600.000
G1 X80.898 Y53.496 Z6.000 F600.000
G1 X80.910 Y53.060 Z6.000 F600.000
G1 X57.340 Y29.490 Z6.000 F600.000
G3 X57.792 Y29.494 Z6.000 I0.193 J4.026 K0.000 F600.000
G1 X80.906 Y52.608 Z6.000 F600.000
G1 X80.893 Y52.146 Z6.000 F600.000
G1 X58.254 Y29.507 Z6.000 F600.000
G1 X58.715 Y29.520 Z6.000 F600.000
G1 X80.880 Y51.685 Z6.000 F600.000
G2 X80.845 Y51.202 Z6.000 I-4.323 J0.072 K0.000 F600.000
G1 X59.198 Y29.555 Z6.000 F600.000
G1 X59.688 Y29.596 Z6.000 F600.000
G1 X80.804 Y50.712 Z6.000 F600.000
G2 X80.759 Y50.219 Z6.000 I-4.415 J0.154 K0.000 F600.000
G1 X60.181 Y29.641 Z6.000 F600.000
G1 X60.703 Y29.715 Z6.000 F600.000
G1 X80.685 Y49.697 Z6.000 F600.000
G1 X80.611 Y49.175 Z6.000 F600.000
G1 X61.225 Y29.789 Z6.000 F600.000
G3 X61.771 Y29.886 Z6.000 I-0.592 J4.905 K0.000 F600.000
G1 X80.514 Y48.629 Z6.000 F600.000
G1 X80.403 Y48.070 Z6.000 F600.000
G1 X62.330 Y29.997 Z6.000 F600.000
G3 X62.904 Y30.123 Z6.000 I-0.831 J5.173 K0.000 F600.000
G1 X80.277 Y47.496 Z6.000 F600.000
G1 X80.121 Y46.892 Z6.000 F600.000
G1 X63.508 Y30.279 Z6.000 F600.000
G3 X64.124 Y30.446 Z6.000 I-1.183 J5.566 K0.000 F600.000
G1 X79.954 Y46.276 Z6.000 F600.000
G1 X79.744 Y45.618 Z6.000 F600.000
G1 X64.782 Y30.656 Z6.000 F600.000
G3 X65.461 Y30.887 Z6.000 I-1.716 J6.162 K0.000 F600.000
G1 X79.513 Y44.939 Z6.000 F600.000
G1 X79.237 Y44.213 Z6.000 F600.000
G1 X66.187 Y31.163 Z6.000 F600.000
G3 X66.965 Y31.494 Z6.000 I-2.553 J7.099 K0.000 F600.000
G1 X78.906 Y43.435 Z6.000 F600.000
G2 X78.526 Y42.606 Z6.000 I-7.564 J2.968 K0.000 F600.000
G1 X67.794 Y31.874 Z6.000 F600.000
G1 X68.721 Y32.353 Z6.000 F600.000
G1 X78.047 Y41.679 Z6.000 F600.000
G2 X77.421 Y40.605 Z6.000 I-9.878 J5.037 K0.000 F600.000
G1 X69.795 Y32.979 Z6.000 F600.000
G3 X71.128 Y33.864 Z6.000 I-6.693 J11.532 K0.000 F600.000
G1 X76.536 Y39.272 Z6.000 F600.000
G2 X74.056 Y36.344 Z6.000 I-18.598 J13.236 K0.000 F600.000
G0 X74.056 Y36.344 Z21.000
(Finish operation: RampEntryDressup005)
(Begin operation: RampEntryDressup006)
(Path: RampEntryDressup006)
G0 X0.000 Y0.000 Z21.000
G0 X108.415 Y178.315 Z21.000
G0 X108.415 Y178.315 Z19.000
G1 X108.415 Y174.418 Z16.750 F600.000
G1 X108.415 Y178.315 Z14.500 F600.000
G1 X108.415 Y50.602 Z14.500 F600.000
G1 X69.338 Y6.585 Z14.500 F600.000
G1 X45.662 Y6.585 Z14.500 F600.000
G1 X6.585 Y50.602 Z14.500 F600.000
G1 X6.585 Y178.315 Z14.500 F600.000
G1 X108.415 Y178.315 Z14.500 F600.000
G1 X108.415 Y177.016 Z13.750 F600.000
G1 X108.415 Y178.315 Z13.000 F600.000
G1 X108.415 Y50.602 Z13.000 F600.000
G1 X69.338 Y6.585 Z13.000 F600.000
G1 X45.662 Y6.585 Z13.000 F600.000
G1 X6.585 Y50.602 Z13.000 F600.000
G1 X6.585 Y178.315 Z13.000 F600.000
G1 X108.415 Y178.315 Z13.000 F600.000
G1 X108.415 Y177.016 Z12.250 F600.000
G1 X108.415 Y178.315 Z11.500 F600.000
G1 X108.415 Y50.602 Z11.500 F600.000
G1 X69.338 Y6.585 Z11.500 F600.000
G1 X45.662 Y6.585 Z11.500 F600.000
G1 X6.585 Y50.602 Z11.500 F600.000
G1 X6.585 Y178.315 Z11.500 F600.000
G1 X108.415 Y178.315 Z11.500 F600.000
G1 X108.415 Y177.882 Z11.250 F600.000
G1 X108.415 Y178.315 Z11.000 F600.000
G1 X108.415 Y50.602 Z11.000 F600.000
G1 X69.338 Y6.585 Z11.000 F600.000
G1 X45.662 Y6.585 Z11.000 F600.000
G1 X6.585 Y50.602 Z11.000 F600.000
G1 X6.585 Y178.315 Z11.000 F600.000
G1 X108.415 Y178.315 Z11.000 F600.000
G0 X108.415 Y178.315 Z21.000
(Finish operation: RampEntryDressup006)
(Begin operation: RampEntryDressup007)
(Path: RampEntryDressup007)
G0 X0.000 Y0.000 Z21.000
G0 X108.415 Y178.315 Z21.000
G0 X108.415 Y178.315 Z19.000
G1 X108.415 Y170.088 Z14.250 F600.000
G1 X108.415 Y178.315 Z9.500 F600.000
G1 X108.415 Y99.785 Z9.500 F600.000
G1 X6.585 Y99.785 Z9.500 F600.000
G1 X6.585 Y178.315 Z9.500 F600.000
G1 X108.415 Y178.315 Z9.500 F600.000
G1 X108.415 Y177.016 Z8.750 F600.000
G1 X108.415 Y178.315 Z8.000 F600.000
G1 X108.415 Y99.785 Z8.000 F600.000
G1 X6.585 Y99.785 Z8.000 F600.000
G1 X6.585 Y178.315 Z8.000 F600.000
G1 X108.415 Y178.315 Z8.000 F600.000
G0 X108.415 Y178.315 Z21.000
(Finish operation: RampEntryDressup007)
(Begin operation: DressupTag)
(Path: DressupTag)
G0 Z21.000
G0 X116.121 Y186.021 Z21.000
G0 X116.121 Y186.021 Z19.000
G1 X116.121 Y186.021 Z14.500 F600.000
G2 X116.585 Y184.900 Z14.500 I-1.121 J-1.121 K0.000 F600.000
G1 X116.585 Y50.000 Z14.500 F600.000
G2 X116.209 Y48.975 Z14.500 I-1.585 J0.000 K0.000 F600.000
G1 X73.809 Y-1.025 Z14.500 F600.000
G2 X72.600 Y-1.585 Z14.500 I-1.209 J1.025 K0.000 F600.000
G1 X42.400 Y-1.585 Z14.500 F600.000
G2 X41.191 Y-1.025 Z14.500 I0.000 J1.585 K0.000 F600.000
G1 X-1.209 Y48.975 Z14.500 F600.000
G2 X-1.585 Y50.000 Z14.500 I1.209 J1.025 K0.000 F600.000
G1 X-1.585 Y184.900 Z14.500 F600.000
G2 X0.000 Y186.485 Z14.500 I1.585 J-0.000 K0.000 F600.000
G1 X115.000 Y186.485 Z14.500 F600.000
G2 X116.121 Y186.021 Z14.500 I-0.000 J-1.585 K0.000 F600.000
G1 X116.121 Y186.021 Z13.000 F600.000
G2 X116.585 Y184.900 Z13.000 I-1.121 J-1.121 K0.000 F600.000
G1 X116.585 Y50.000 Z13.000 F600.000
G2 X116.209 Y48.975 Z13.000 I-1.585 J0.000 K0.000 F600.000
G1 X73.809 Y-1.025 Z13.000 F600.000
G2 X72.600 Y-1.585 Z13.000 I-1.209 J1.025 K0.000 F600.000
G1 X42.400 Y-1.585 Z13.000 F600.000
G2 X41.191 Y-1.025 Z13.000 I0.000 J1.585 K0.000 F600.000
G1 X-1.209 Y48.975 Z13.000 F600.000
G2 X-1.585 Y50.000 Z13.000 I1.209 J1.025 K0.000 F600.000
G1 X-1.585 Y184.900 Z13.000 F600.000
G2 X0.000 Y186.485 Z13.000 I1.585 J-0.000 K0.000 F600.000
G1 X115.000 Y186.485 Z13.000 F600.000
G2 X116.121 Y186.021 Z13.000 I-0.000 J-1.585 K0.000 F600.000
G1 X116.121 Y186.021 Z11.500 F600.000
G2 X116.585 Y184.900 Z11.500 I-1.121 J-1.121 K0.000 F600.000
G1 X116.585 Y50.000 Z11.500 F600.000
G2 X116.209 Y48.975 Z11.500 I-1.585 J0.000 K0.000 F600.000
G1 X73.809 Y-1.025 Z11.500 F600.000
G2 X72.600 Y-1.585 Z11.500 I-1.209 J1.025 K0.000 F600.000
G1 X42.400 Y-1.585 Z11.500 F600.000
G2 X41.191 Y-1.025 Z11.500 I0.000 J1.585 K0.000 F600.000
G1 X-1.209 Y48.975 Z11.500 F600.000
G2 X-1.585 Y50.000 Z11.500 I1.209 J1.025 K0.000 F600.000
G1 X-1.585 Y184.900 Z11.500 F600.000
G2 X0.000 Y186.485 Z11.500 I1.585 J-0.000 K0.000 F600.000
G1 X115.000 Y186.485 Z11.500 F600.000
G2 X116.121 Y186.021 Z11.500 I-0.000 J-1.585 K0.000 F600.000
G1 X116.121 Y186.021 Z10.000 F600.000
G2 X116.585 Y184.900 Z10.000 I-1.121 J-1.121 K0.000 F600.000
G1 X116.585 Y50.000 Z10.000 F600.000
G2 X116.209 Y48.975 Z10.000 I-1.585 J0.000 K0.000 F600.000
G1 X73.809 Y-1.025 Z10.000 F600.000
G2 X72.600 Y-1.585 Z10.000 I-1.209 J1.025 K0.000 F600.000
G1 X42.400 Y-1.585 Z10.000 F600.000
G2 X41.191 Y-1.025 Z10.000 I0.000 J1.585 K0.000 F600.000
G1 X-1.209 Y48.975 Z10.000 F600.000
G2 X-1.585 Y50.000 Z10.000 I1.209 J1.025 K0.000 F600.000
G1 X-1.585 Y184.900 Z10.000 F600.000
G2 X0.000 Y186.485 Z10.000 I1.585 J-0.000 K0.000 F600.000
G1 X115.000 Y186.485 Z10.000 F600.000
G2 X116.121 Y186.021 Z10.000 I-0.000 J-1.585 K0.000 F600.000
G1 X116.121 Y186.021 Z8.500 F600.000
G2 X116.585 Y184.900 Z8.500 I-1.121 J-1.121 K0.000 F600.000
G1 X116.585 Y50.000 Z8.500 F600.000
G2 X116.209 Y48.975 Z8.500 I-1.585 J0.000 K0.000 F600.000
G1 X73.809 Y-1.025 Z8.500 F600.000
G2 X72.600 Y-1.585 Z8.500 I-1.209 J1.025 K0.000 F600.000
G1 X42.400 Y-1.585 Z8.500 F600.000
G2 X41.191 Y-1.025 Z8.500 I0.000 J1.585 K0.000 F600.000
G1 X-1.209 Y48.975 Z8.500 F600.000
G2 X-1.585 Y50.000 Z8.500 I1.209 J1.025 K0.000 F600.000
G1 X-1.585 Y184.900 Z8.500 F600.000
G2 X0.000 Y186.485 Z8.500 I1.585 J-0.000 K0.000 F600.000
G1 X115.000 Y186.485 Z8.500 F600.000
G2 X116.121 Y186.021 Z8.500 I-0.000 J-1.585 K0.000 F600.000
G1 X116.121 Y186.021 Z7.000 F600.000
G2 X116.585 Y184.900 Z7.000 I-1.121 J-1.121 K0.000 F600.000
G1 X116.585 Y50.000 Z7.000 F600.000
G2 X116.209 Y48.975 Z7.000 I-1.585 J0.000 K0.000 F600.000
G1 X73.809 Y-1.025 Z7.000 F600.000
G2 X72.600 Y-1.585 Z7.000 I-1.209 J1.025 K0.000 F600.000
G1 X42.400 Y-1.585 Z7.000 F600.000
G2 X41.191 Y-1.025 Z7.000 I0.000 J1.585 K0.000 F600.000
G1 X-1.209 Y48.975 Z7.000 F600.000
G2 X-1.585 Y50.000 Z7.000 I1.209 J1.025 K0.000 F600.000
G1 X-1.585 Y184.900 Z7.000 F600.000
G2 X0.000 Y186.485 Z7.000 I1.585 J-0.000 K0.000 F600.000
G1 X115.000 Y186.485 Z7.000 F600.000
G2 X116.121 Y186.021 Z7.000 I-0.000 J-1.585 K0.000 F600.000
G1 X116.121 Y186.021 Z5.500 F600.000
G2 X116.585 Y184.900 Z5.500 I-1.121 J-1.121 K0.000 F600.000
G1 X116.585 Y50.000 Z5.500 F600.000
G2 X116.209 Y48.975 Z5.500 I-1.585 J0.000 K0.000 F600.000
G1 X73.809 Y-1.025 Z5.500 F600.000
G2 X72.600 Y-1.585 Z5.500 I-1.209 J1.025 K0.000 F600.000
G1 X42.400 Y-1.585 Z5.500 F600.000
G2 X41.191 Y-1.025 Z5.500 I0.000 J1.585 K0.000 F600.000
G1 X-1.209 Y48.975 Z5.500 F600.000
G2 X-1.585 Y50.000 Z5.500 I1.209 J1.025 K0.000 F600.000
G1 X-1.585 Y184.900 Z5.500 F600.000
G2 X0.000 Y186.485 Z5.500 I1.585 J-0.000 K0.000 F600.000
G1 X115.000 Y186.485 Z5.500 F600.000
G2 X116.121 Y186.021 Z5.500 I-0.000 J-1.585 K0.000 F600.000
G1 X116.121 Y186.021 Z4.000 F600.000
G2 X116.585 Y184.900 Z4.000 I-1.121 J-1.121 K0.000 F600.000
G1 X116.585 Y50.000 Z4.000 F600.000
G2 X116.209 Y48.975 Z4.000 I-1.585 J0.000 K0.000 F600.000
G1 X73.809 Y-1.025 Z4.000 F600.000
G2 X72.600 Y-1.585 Z4.000 I-1.209 J1.025 K0.000 F600.000
G1 X42.400 Y-1.585 Z4.000 F600.000
G2 X41.191 Y-1.025 Z4.000 I0.000 J1.585 K0.000 F600.000
G1 X-1.209 Y48.975 Z4.000 F600.000
G2 X-1.585 Y50.000 Z4.000 I1.209 J1.025 K0.000 F600.000
G1 X-1.585 Y184.900 Z4.000 F600.000
G2 X0.000 Y186.485 Z4.000 I1.585 J-0.000 K0.000 F600.000
G1 X115.000 Y186.485 Z4.000 F600.000
G2 X116.121 Y186.021 Z4.000 I-0.000 J-1.585 K0.000 F600.000
G1 X116.121 Y186.021 Z2.500 F600.000
G2 X116.585 Y184.900 Z2.500 I-1.121 J-1.121 K0.000 F600.000
G1 X116.585 Y50.000 Z2.500 F600.000
G2 X116.209 Y48.975 Z2.500 I-1.585 J0.000 K0.000 F600.000
G1 X73.809 Y-1.025 Z2.500 F600.000
G2 X72.600 Y-1.585 Z2.500 I-1.209 J1.025 K0.000 F600.000
G1 X42.400 Y-1.585 Z2.500 F600.000
G2 X41.191 Y-1.025 Z2.500 I0.000 J1.585 K0.000 F600.000
G1 X-1.209 Y48.975 Z2.500 F600.000
G2 X-1.585 Y50.000 Z2.500 I1.209 J1.025 K0.000 F600.000
G1 X-1.585 Y184.900 Z2.500 F600.000
G2 X0.000 Y186.485 Z2.500 I1.585 J-0.000 K0.000 F600.000
G1 X115.000 Y186.485 Z2.500 F600.000
G2 X116.121 Y186.021 Z2.500 I-0.000 J-1.585 K0.000 F600.000
G1 X116.121 Y186.021 Z1.000 F600.000
G2 X116.585 Y184.900 Z1.000 I-1.121 J-1.121 K0.000 F600.000
G1 X116.585 Y50.000 Z1.000 F600.000
G2 X116.209 Y48.975 Z1.000 I-1.585 J0.000 K0.000 F600.000
G1 X73.809 Y-1.025 Z1.000 F600.000
G2 X72.600 Y-1.585 Z1.000 I-1.209 J1.025 K0.000 F600.000
G1 X42.400 Y-1.585 Z1.000 F600.000
G2 X41.191 Y-1.025 Z1.000 I0.000 J1.585 K0.000 F600.000
G1 X-1.209 Y48.975 Z1.000 F600.000
G2 X-1.585 Y50.000 Z1.000 I1.209 J1.025 K0.000 F600.000
G1 X-1.585 Y184.900 Z1.000 F600.000
G2 X0.000 Y186.485 Z1.000 I1.585 J-0.000 K0.000 F600.000
G1 X115.000 Y186.485 Z1.000 F600.000
G2 X116.121 Y186.021 Z1.000 I-0.000 J-1.585 K0.000 F600.000
G1 X116.121 Y186.021 Z0.000 F600.000
G2 X116.585 Y184.900 Z0.000 I-1.121 J-1.121 K0.000 F600.000
G1 X116.585 Y50.000 Z0.000 F600.000
G2 X116.209 Y48.975 Z0.000 I-1.585 J0.000 K0.000 F600.000
G1 X73.809 Y-1.025 Z0.000 F600.000
G2 X72.600 Y-1.585 Z0.000 I-1.209 J1.025 K0.000 F600.000
G1 X42.400 Y-1.585 Z0.000 F600.000
G2 X41.191 Y-1.025 Z0.000 I0.000 J1.585 K0.000 F600.000
G1 X-1.209 Y48.975 Z0.000 F600.000
G2 X-1.585 Y50.000 Z0.000 I1.209 J1.025 K0.000 F600.000
G1 X-1.585 Y184.900 Z0.000 F600.000
G2 X0.000 Y186.485 Z0.000 I1.585 J-0.000 K0.000 F600.000
G1 X115.000 Y186.485 Z0.000 F600.000
G2 X116.121 Y186.021 Z0.000 I-0.000 J-1.585 K0.000 F600.000
G0 X116.121 Y186.021 Z21.000
(Finish operation: DressupTag)
(Begin postamble)
M5
G17 G90
M2
