(Exported by FreeCAD)
(Post Processor: grbl_post)
(Output Time:2025-01-16 09:37:35.389510)
(Begin preamble)
G17 G90
G21
(Begin operation: Fixture)
(Path: Fixture)
G54
(Finish operation: Fixture)
(Begin operation: endmill_compression_3175_spe005)
(Path: endmill_compression_3175_spe005)
(endmill_compression_3175_spe005)
(Begin toolchange)
( M6 T2 )
M3 S18000
(Finish operation: endmill_compression_3175_spe005)
(Begin operation: Rough Pocket)
(Path: Rough Pocket)
(Rough Pocket)
G0 Z11.000
G0 X18.415 Y127.915
G0 Z9.000
G1 X18.415 Y127.915 Z4.500 F800.000
G1 X15.585 Y127.915 Z4.500 F800.000
G1 X15.585 Y126.262 Z4.500 F800.000
G1 X18.415 Y123.432 Z4.500 F800.000
G1 X18.415 Y118.949 Z4.500 F800.000
G1 X15.585 Y121.779 Z4.500 F800.000
G1 X15.585 Y117.296 Z4.500 F800.000
G1 X18.415 Y114.466 Z4.500 F800.000
G1 X18.415 Y109.983 Z4.500 F800.000
G1 X15.585 Y112.813 Z4.500 F800.000
G1 X15.585 Y108.330 Z4.500 F800.000
G1 X18.415 Y105.500 Z4.500 F800.000
G1 X18.415 Y101.017 Z4.500 F800.000
G1 X15.585 Y103.847 Z4.500 F800.000
G1 X15.585 Y99.364 Z4.500 F800.000
G1 X18.415 Y96.534 Z4.500 F800.000
G1 X18.415 Y92.051 Z4.500 F800.000
G1 X15.585 Y94.881 Z4.500 F800.000
G1 X15.585 Y90.397 Z4.500 F800.000
G1 X18.415 Y87.567 Z4.500 F800.000
G1 X18.415 Y83.084 Z4.500 F800.000
G1 X15.585 Y85.914 Z4.500 F800.000
G1 X15.585 Y81.431 Z4.500 F800.000
G1 X18.415 Y78.601 Z4.500 F800.000
G1 X18.415 Y74.118 Z4.500 F800.000
G1 X15.585 Y76.948 Z4.500 F800.000
G1 X15.585 Y72.465 Z4.500 F800.000
G1 X18.415 Y69.635 Z4.500 F800.000
G1 X18.415 Y65.152 Z4.500 F800.000
G1 X15.585 Y67.982 Z4.500 F800.000
G1 X15.585 Y63.499 Z4.500 F800.000
G1 X18.415 Y60.669 Z4.500 F800.000
G1 X18.415 Y56.186 Z4.500 F800.000
G1 X15.585 Y59.016 Z4.500 F800.000
G1 X15.585 Y54.533 Z4.500 F800.000
G1 X18.415 Y51.703 Z4.500 F800.000
G1 X18.415 Y47.220 Z4.500 F800.000
G1 X15.585 Y50.050 Z4.500 F800.000
G1 X15.585 Y45.567 Z4.500 F800.000
G1 X18.415 Y42.737 Z4.500 F800.000
G1 X18.415 Y38.254 Z4.500 F800.000
G1 X15.585 Y41.084 Z4.500 F800.000
G1 X15.585 Y36.601 Z4.500 F800.000
G1 X18.415 Y33.771 Z4.500 F800.000
G1 X18.415 Y29.288 Z4.500 F800.000
G1 X15.585 Y32.118 Z4.500 F800.000
G1 X15.585 Y27.635 Z4.500 F800.000
G1 X18.415 Y24.805 Z4.500 F800.000
G1 X18.415 Y20.322 Z4.500 F800.000
G1 X15.585 Y23.152 Z4.500 F800.000
G1 X15.585 Y18.669 Z4.500 F800.000
G1 X18.415 Y15.839 Z4.500 F800.000
G1 X18.415 Y11.356 Z4.500 F800.000
G1 X15.585 Y14.186 Z4.500 F800.000
G1 X15.585 Y9.702 Z4.500 F800.000
G1 X18.415 Y6.872 Z4.500 F800.000
G1 X18.415 Y2.389 Z4.500 F800.000
G1 X15.585 Y5.219 Z4.500 F800.000
G1 X15.585 Y1.585 Z4.500 F800.000
G1 X18.415 Y1.585 Z4.500 F800.000
G1 X18.415 Y2.389 Z4.500 F800.000
G1 X18.415 Y2.389 Z3.000 F800.000
G1 X18.415 Y1.585 Z3.000 F800.000
G1 X15.585 Y1.585 Z3.000 F800.000
G1 X15.585 Y5.219 Z3.000 F800.000
G1 X18.415 Y2.389 Z3.000 F800.000
G1 X18.415 Y6.872 Z3.000 F800.000
G1 X15.585 Y9.702 Z3.000 F800.000
G1 X15.585 Y14.186 Z3.000 F800.000
G1 X18.415 Y11.356 Z3.000 F800.000
G1 X18.415 Y15.839 Z3.000 F800.000
G1 X15.585 Y18.669 Z3.000 F800.000
G1 X15.585 Y23.152 Z3.000 F800.000
G1 X18.415 Y20.322 Z3.000 F800.000
G1 X18.415 Y24.805 Z3.000 F800.000
G1 X15.585 Y27.635 Z3.000 F800.000
G1 X15.585 Y32.118 Z3.000 F800.000
G1 X18.415 Y29.288 Z3.000 F800.000
G1 X18.415 Y33.771 Z3.000 F800.000
G1 X15.585 Y36.601 Z3.000 F800.000
G1 X15.585 Y41.084 Z3.000 F800.000
G1 X18.415 Y38.254 Z3.000 F800.000
G1 X18.415 Y42.737 Z3.000 F800.000
G1 X15.585 Y45.567 Z3.000 F800.000
G1 X15.585 Y50.050 Z3.000 F800.000
G1 X18.415 Y47.220 Z3.000 F800.000
G1 X18.415 Y51.703 Z3.000 F800.000
G1 X15.585 Y54.533 Z3.000 F800.000
G1 X15.585 Y59.016 Z3.000 F800.000
G1 X18.415 Y56.186 Z3.000 F800.000
G1 X18.415 Y60.669 Z3.000 F800.000
G1 X15.585 Y63.499 Z3.000 F800.000
G1 X15.585 Y67.982 Z3.000 F800.000
G1 X18.415 Y65.152 Z3.000 F800.000
G1 X18.415 Y69.635 Z3.000 F800.000
G1 X15.585 Y72.465 Z3.000 F800.000
G1 X15.585 Y76.948 Z3.000 F800.000
G1 X18.415 Y74.118 Z3.000 F800.000
G1 X18.415 Y78.601 Z3.000 F800.000
G1 X15.585 Y81.431 Z3.000 F800.000
G1 X15.585 Y85.914 Z3.000 F800.000
G1 X18.415 Y83.084 Z3.000 F800.000
G1 X18.415 Y87.567 Z3.000 F800.000
G1 X15.585 Y90.397 Z3.000 F800.000
G1 X15.585 Y94.881 Z3.000 F800.000
G1 X18.415 Y92.051 Z3.000 F800.000
G1 X18.415 Y96.534 Z3.000 F800.000
G1 X15.585 Y99.364 Z3.000 F800.000
G1 X15.585 Y103.847 Z3.000 F800.000
G1 X18.415 Y101.017 Z3.000 F800.000
G1 X18.415 Y105.500 Z3.000 F800.000
G1 X15.585 Y108.330 Z3.000 F800.000
G1 X15.585 Y112.813 Z3.000 F800.000
G1 X18.415 Y109.983 Z3.000 F800.000
G1 X18.415 Y114.466 Z3.000 F800.000
G1 X15.585 Y117.296 Z3.000 F800.000
G1 X15.585 Y121.779 Z3.000 F800.000
G1 X18.415 Y118.949 Z3.000 F800.000
G1 X18.415 Y123.432 Z3.000 F800.000
G1 X15.585 Y126.262 Z3.000 F800.000
G1 X15.585 Y127.915 Z3.000 F800.000
G1 X18.415 Y127.915 Z3.000 F800.000
G0 Z11.000
G0 Z11.000
(Finish operation: Rough Pocket)
(Begin operation: Pocket_Shape005)
(Path: Pocket_Shape005)
(Pocket_Shape005)
G0 Z11.000
G0 X18.415 Y127.915
G0 Z9.000
G1 X18.415 Y127.915 Z3.000 F800.000
G1 X18.415 Y1.585 Z3.000 F800.000
G1 X15.585 Y1.585 Z3.000 F800.000
G1 X15.585 Y127.915 Z3.000 F800.000
G1 X18.415 Y127.915 Z3.000 F800.000
G1 X18.415 Y127.915 Z3.000 F800.000
G1 X17.518 Y127.915 Z3.000 F800.000
G1 X18.415 Y127.018 Z3.000 F800.000
G1 X18.415 Y126.122 Z3.000 F800.000
G1 X16.622 Y127.915 Z3.000 F800.000
G1 X15.725 Y127.915 Z3.000 F800.000
G1 X18.415 Y125.225 Z3.000 F800.000
G1 X18.415 Y124.329 Z3.000 F800.000
G1 X15.585 Y127.159 Z3.000 F800.000
G1 X15.585 Y126.262 Z3.000 F800.000
G1 X18.415 Y123.432 Z3.000 F800.000
G1 X18.415 Y122.535 Z3.000 F800.000
G1 X15.585 Y125.365 Z3.000 F800.000
G1 X15.585 Y124.469 Z3.000 F800.000
G1 X18.415 Y121.639 Z3.000 F800.000
G1 X18.415 Y120.742 Z3.000 F800.000
G1 X15.585 Y123.572 Z3.000 F800.000
G1 X15.585 Y122.675 Z3.000 F800.000
G1 X18.415 Y119.845 Z3.000 F800.000
G1 X18.415 Y118.949 Z3.000 F800.000
G1 X15.585 Y121.779 Z3.000 F800.000
G1 X15.585 Y120.882 Z3.000 F800.000
G1 X18.415 Y118.052 Z3.000 F800.000
G1 X18.415 Y117.156 Z3.000 F800.000
G1 X15.585 Y119.986 Z3.000 F800.000
G1 X15.585 Y119.089 Z3.000 F800.000
G1 X18.415 Y116.259 Z3.000 F800.000
G1 X18.415 Y115.362 Z3.000 F800.000
G1 X15.585 Y118.192 Z3.000 F800.000
G1 X15.585 Y117.296 Z3.000 F800.000
G1 X18.415 Y114.466 Z3.000 F800.000
G1 X18.415 Y113.569 Z3.000 F800.000
G1 X15.585 Y116.399 Z3.000 F800.000
G1 X15.585 Y115.503 Z3.000 F800.000
G1 X18.415 Y112.673 Z3.000 F800.000
G1 X18.415 Y111.776 Z3.000 F800.000
G1 X15.585 Y114.606 Z3.000 F800.000
G1 X15.585 Y113.709 Z3.000 F800.000
G1 X18.415 Y110.879 Z3.000 F800.000
G1 X18.415 Y109.983 Z3.000 F800.000
G1 X15.585 Y112.813 Z3.000 F800.000
G1 X15.585 Y111.916 Z3.000 F800.000
G1 X18.415 Y109.086 Z3.000 F800.000
G1 X18.415 Y108.190 Z3.000 F800.000
G1 X15.585 Y111.020 Z3.000 F800.000
G1 X15.585 Y110.123 Z3.000 F800.000
G1 X18.415 Y107.293 Z3.000 F800.000
G1 X18.415 Y106.396 Z3.000 F800.000
G1 X15.585 Y109.226 Z3.000 F800.000
G1 X15.585 Y108.330 Z3.000 F800.000
G1 X18.415 Y105.500 Z3.000 F800.000
G1 X18.415 Y104.603 Z3.000 F800.000
G1 X15.585 Y107.433 Z3.000 F800.000
G1 X15.585 Y106.536 Z3.000 F800.000
G1 X18.415 Y103.706 Z3.000 F800.000
G1 X18.415 Y102.810 Z3.000 F800.000
G1 X15.585 Y105.640 Z3.000 F800.000
G1 X15.585 Y104.743 Z3.000 F800.000
G1 X18.415 Y101.913 Z3.000 F800.000
G1 X18.415 Y101.017 Z3.000 F800.000
G1 X15.585 Y103.847 Z3.000 F800.000
G1 X15.585 Y102.950 Z3.000 F800.000
G1 X18.415 Y100.120 Z3.000 F800.000
G1 X18.415 Y99.223 Z3.000 F800.000
G1 X15.585 Y102.053 Z3.000 F800.000
G1 X15.585 Y101.157 Z3.000 F800.000
G1 X18.415 Y98.327 Z3.000 F800.000
G1 X18.415 Y97.430 Z3.000 F800.000
G1 X15.585 Y100.260 Z3.000 F800.000
G1 X15.585 Y99.364 Z3.000 F800.000
G1 X18.415 Y96.534 Z3.000 F800.000
G1 X18.415 Y95.637 Z3.000 F800.000
G1 X15.585 Y98.467 Z3.000 F800.000
G1 X15.585 Y97.570 Z3.000 F800.000
G1 X18.415 Y94.740 Z3.000 F800.000
G1 X18.415 Y93.844 Z3.000 F800.000
G1 X15.585 Y96.674 Z3.000 F800.000
G1 X15.585 Y95.777 Z3.000 F800.000
G1 X18.415 Y92.947 Z3.000 F800.000
G1 X18.415 Y92.051 Z3.000 F800.000
G1 X15.585 Y94.881 Z3.000 F800.000
G1 X15.585 Y93.984 Z3.000 F800.000
G1 X18.415 Y91.154 Z3.000 F800.000
G1 X18.415 Y90.257 Z3.000 F800.000
G1 X15.585 Y93.087 Z3.000 F800.000
G1 X15.585 Y92.191 Z3.000 F800.000
G1 X18.415 Y89.361 Z3.000 F800.000
G1 X18.415 Y88.464 Z3.000 F800.000
G1 X15.585 Y91.294 Z3.000 F800.000
G1 X15.585 Y90.397 Z3.000 F800.000
G1 X18.415 Y87.567 Z3.000 F800.000
G1 X18.415 Y86.671 Z3.000 F800.000
G1 X15.585 Y89.501 Z3.000 F800.000
G1 X15.585 Y88.604 Z3.000 F800.000
G1 X18.415 Y85.774 Z3.000 F800.000
G1 X18.415 Y84.878 Z3.000 F800.000
G1 X15.585 Y87.708 Z3.000 F800.000
G1 X15.585 Y86.811 Z3.000 F800.000
G1 X18.415 Y83.981 Z3.000 F800.000
G1 X18.415 Y83.084 Z3.000 F800.000
G1 X15.585 Y85.914 Z3.000 F800.000
G1 X15.585 Y85.018 Z3.000 F800.000
G1 X18.415 Y82.188 Z3.000 F800.000
G1 X18.415 Y81.291 Z3.000 F800.000
G1 X15.585 Y84.121 Z3.000 F800.000
G1 X15.585 Y83.225 Z3.000 F800.000
G1 X18.415 Y80.395 Z3.000 F800.000
G1 X18.415 Y79.498 Z3.000 F800.000
G1 X15.585 Y82.328 Z3.000 F800.000
G1 X15.585 Y81.431 Z3.000 F800.000
G1 X18.415 Y78.601 Z3.000 F800.000
G1 X18.415 Y77.705 Z3.000 F800.000
G1 X15.585 Y80.535 Z3.000 F800.000
G1 X15.585 Y79.638 Z3.000 F800.000
G1 X18.415 Y76.808 Z3.000 F800.000
G1 X18.415 Y75.912 Z3.000 F800.000
G1 X15.585 Y78.742 Z3.000 F800.000
G1 X15.585 Y77.845 Z3.000 F800.000
G1 X18.415 Y75.015 Z3.000 F800.000
G1 X18.415 Y74.118 Z3.000 F800.000
G1 X15.585 Y76.948 Z3.000 F800.000
G1 X15.585 Y76.052 Z3.000 F800.000
G1 X18.415 Y73.222 Z3.000 F800.000
G1 X18.415 Y72.325 Z3.000 F800.000
G1 X15.585 Y75.155 Z3.000 F800.000
G1 X15.585 Y74.258 Z3.000 F800.000
G1 X18.415 Y71.428 Z3.000 F800.000
G1 X18.415 Y70.532 Z3.000 F800.000
G1 X15.585 Y73.362 Z3.000 F800.000
G1 X15.585 Y72.465 Z3.000 F800.000
G1 X18.415 Y69.635 Z3.000 F800.000
G1 X18.415 Y68.739 Z3.000 F800.000
G1 X15.585 Y71.569 Z3.000 F800.000
G1 X15.585 Y70.672 Z3.000 F800.000
G1 X18.415 Y67.842 Z3.000 F800.000
G1 X18.415 Y66.945 Z3.000 F800.000
G1 X15.585 Y69.775 Z3.000 F800.000
G1 X15.585 Y68.879 Z3.000 F800.000
G1 X18.415 Y66.049 Z3.000 F800.000
G1 X18.415 Y65.152 Z3.000 F800.000
G1 X15.585 Y67.982 Z3.000 F800.000
G1 X15.585 Y67.086 Z3.000 F800.000
G1 X18.415 Y64.256 Z3.000 F800.000
G1 X18.415 Y63.359 Z3.000 F800.000
G1 X15.585 Y66.189 Z3.000 F800.000
G1 X15.585 Y65.292 Z3.000 F800.000
G1 X18.415 Y62.462 Z3.000 F800.000
G1 X18.415 Y61.566 Z3.000 F800.000
G1 X15.585 Y64.396 Z3.000 F800.000
G1 X15.585 Y63.499 Z3.000 F800.000
G1 X18.415 Y60.669 Z3.000 F800.000
G1 X18.415 Y59.773 Z3.000 F800.000
G1 X15.585 Y62.603 Z3.000 F800.000
G1 X15.585 Y61.706 Z3.000 F800.000
G1 X18.415 Y58.876 Z3.000 F800.000
G1 X18.415 Y57.979 Z3.000 F800.000
G1 X15.585 Y60.809 Z3.000 F800.000
G1 X15.585 Y59.913 Z3.000 F800.000
G1 X18.415 Y57.083 Z3.000 F800.000
G1 X18.415 Y56.186 Z3.000 F800.000
G1 X15.585 Y59.016 Z3.000 F800.000
G1 X15.585 Y58.119 Z3.000 F800.000
G1 X18.415 Y55.289 Z3.000 F800.000
G1 X18.415 Y54.393 Z3.000 F800.000
G1 X15.585 Y57.223 Z3.000 F800.000
G1 X15.585 Y56.326 Z3.000 F800.000
G1 X18.415 Y53.496 Z3.000 F800.000
G1 X18.415 Y52.600 Z3.000 F800.000
G1 X15.585 Y55.430 Z3.000 F800.000
G1 X15.585 Y54.533 Z3.000 F800.000
G1 X18.415 Y51.703 Z3.000 F800.000
G1 X18.415 Y50.806 Z3.000 F800.000
G1 X15.585 Y53.636 Z3.000 F800.000
G1 X15.585 Y52.740 Z3.000 F800.000
G1 X18.415 Y49.910 Z3.000 F800.000
G1 X18.415 Y49.013 Z3.000 F800.000
G1 X15.585 Y51.843 Z3.000 F800.000
G1 X15.585 Y50.947 Z3.000 F800.000
G1 X18.415 Y48.117 Z3.000 F800.000
G1 X18.415 Y47.220 Z3.000 F800.000
G1 X15.585 Y50.050 Z3.000 F800.000
G1 X15.585 Y49.153 Z3.000 F800.000
G1 X18.415 Y46.323 Z3.000 F800.000
G1 X18.415 Y45.427 Z3.000 F800.000
G1 X15.585 Y48.257 Z3.000 F800.000
G1 X15.585 Y47.360 Z3.000 F800.000
G1 X18.415 Y44.530 Z3.000 F800.000
G1 X18.415 Y43.634 Z3.000 F800.000
G1 X15.585 Y46.464 Z3.000 F800.000
G1 X15.585 Y45.567 Z3.000 F800.000
G1 X18.415 Y42.737 Z3.000 F800.000
G1 X18.415 Y41.840 Z3.000 F800.000
G1 X15.585 Y44.670 Z3.000 F800.000
G1 X15.585 Y43.774 Z3.000 F800.000
G1 X18.415 Y40.944 Z3.000 F800.000
G1 X18.415 Y40.047 Z3.000 F800.000
G1 X15.585 Y42.877 Z3.000 F800.000
G1 X15.585 Y41.980 Z3.000 F800.000
G1 X18.415 Y39.150 Z3.000 F800.000
G1 X18.415 Y38.254 Z3.000 F800.000
G1 X15.585 Y41.084 Z3.000 F800.000
G1 X15.585 Y40.187 Z3.000 F800.000
G1 X18.415 Y37.357 Z3.000 F800.000
G1 X18.415 Y36.461 Z3.000 F800.000
G1 X15.585 Y39.291 Z3.000 F800.000
G1 X15.585 Y38.394 Z3.000 F800.000
G1 X18.415 Y35.564 Z3.000 F800.000
G1 X18.415 Y34.667 Z3.000 F800.000
G1 X15.585 Y37.497 Z3.000 F800.000
G1 X15.585 Y36.601 Z3.000 F800.000
G1 X18.415 Y33.771 Z3.000 F800.000
G1 X18.415 Y32.874 Z3.000 F800.000
G1 X15.585 Y35.704 Z3.000 F800.000
G1 X15.585 Y34.808 Z3.000 F800.000
G1 X18.415 Y31.978 Z3.000 F800.000
G1 X18.415 Y31.081 Z3.000 F800.000
G1 X15.585 Y33.911 Z3.000 F800.000
G1 X15.585 Y33.014 Z3.000 F800.000
G1 X18.415 Y30.184 Z3.000 F800.000
G1 X18.415 Y29.288 Z3.000 F800.000
G1 X15.585 Y32.118 Z3.000 F800.000
G1 X15.585 Y31.221 Z3.000 F800.000
G1 X18.415 Y28.391 Z3.000 F800.000
G1 X18.415 Y27.495 Z3.000 F800.000
G1 X15.585 Y30.325 Z3.000 F800.000
G1 X15.585 Y29.428 Z3.000 F800.000
G1 X18.415 Y26.598 Z3.000 F800.000
G1 X18.415 Y25.701 Z3.000 F800.000
G1 X15.585 Y28.531 Z3.000 F800.000
G1 X15.585 Y27.635 Z3.000 F800.000
G1 X18.415 Y24.805 Z3.000 F800.000
G1 X18.415 Y23.908 Z3.000 F800.000
G1 X15.585 Y26.738 Z3.000 F800.000
G1 X15.585 Y25.841 Z3.000 F800.000
G1 X18.415 Y23.011 Z3.000 F800.000
G1 X18.415 Y22.115 Z3.000 F800.000
G1 X15.585 Y24.945 Z3.000 F800.000
G1 X15.585 Y24.048 Z3.000 F800.000
G1 X18.415 Y21.218 Z3.000 F800.000
G1 X18.415 Y20.322 Z3.000 F800.000
G1 X15.585 Y23.152 Z3.000 F800.000
G1 X15.585 Y22.255 Z3.000 F800.000
G1 X18.415 Y19.425 Z3.000 F800.000
G1 X18.415 Y18.528 Z3.000 F800.000
G1 X15.585 Y21.358 Z3.000 F800.000
G1 X15.585 Y20.462 Z3.000 F800.000
G1 X18.415 Y17.632 Z3.000 F800.000
G1 X18.415 Y16.735 Z3.000 F800.000
G1 X15.585 Y19.565 Z3.000 F800.000
G1 X15.585 Y18.669 Z3.000 F800.000
G1 X18.415 Y15.839 Z3.000 F800.000
G1 X18.415 Y14.942 Z3.000 F800.000
G1 X15.585 Y17.772 Z3.000 F800.000
G1 X15.585 Y16.875 Z3.000 F800.000
G1 X18.415 Y14.045 Z3.000 F800.000
G1 X18.415 Y13.149 Z3.000 F800.000
G1 X15.585 Y15.979 Z3.000 F800.000
G1 X15.585 Y15.082 Z3.000 F800.000
G1 X18.415 Y12.252 Z3.000 F800.000
G1 X18.415 Y11.356 Z3.000 F800.000
G1 X15.585 Y14.186 Z3.000 F800.000
G1 X15.585 Y13.289 Z3.000 F800.000
G1 X18.415 Y10.459 Z3.000 F800.000
G1 X18.415 Y9.562 Z3.000 F800.000
G1 X15.585 Y12.392 Z3.000 F800.000
G1 X15.585 Y11.496 Z3.000 F800.000
G1 X18.415 Y8.666 Z3.000 F800.000
G1 X18.415 Y7.769 Z3.000 F800.000
G1 X15.585 Y10.599 Z3.000 F800.000
G1 X15.585 Y9.702 Z3.000 F800.000
G1 X18.415 Y6.872 Z3.000 F800.000
G1 X18.415 Y5.976 Z3.000 F800.000
G1 X15.585 Y8.806 Z3.000 F800.000
G1 X15.585 Y7.909 Z3.000 F800.000
G1 X18.415 Y5.079 Z3.000 F800.000
G1 X18.415 Y4.183 Z3.000 F800.000
G1 X15.585 Y7.013 Z3.000 F800.000
G1 X15.585 Y6.116 Z3.000 F800.000
G1 X18.415 Y3.286 Z3.000 F800.000
G1 X18.415 Y2.389 Z3.000 F800.000
G1 X15.585 Y5.219 Z3.000 F800.000
G1 X15.585 Y4.323 Z3.000 F800.000
G1 X18.323 Y1.585 Z3.000 F800.000
G1 X17.426 Y1.585 Z3.000 F800.000
G1 X15.585 Y3.426 Z3.000 F800.000
G1 X15.585 Y2.530 Z3.000 F800.000
G1 X16.530 Y1.585 Z3.000 F800.000
G1 X15.633 Y1.585 Z3.000 F800.000
G1 X15.585 Y1.633 Z3.000 F800.000
G3 X15.633 Y1.585 Z3.000 I0.024 J-0.024 K0.000 F800.000
G0 Z11.000
G0 Z11.000
(Finish operation: Pocket_Shape005)
(Begin operation: Profile Pocket)
(Path: Profile Pocket)
(Profile Pocket)
(Compensated Tool Path. Diameter: 3.17)
G0 Z11.000
G0 X19.415 Y128.915
G0 Z9.000
G1 X19.415 Y128.915 Z5.000 F800.000
G1 X19.415 Y0.585 Z5.000 F800.000
G1 X14.585 Y0.585 Z5.000 F800.000
G1 X14.585 Y128.915 Z5.000 F800.000
G1 X19.415 Y128.915 Z5.000 F800.000
G1 X19.415 Y128.915 Z4.000 F800.000
G1 X19.415 Y0.585 Z4.000 F800.000
G1 X14.585 Y0.585 Z4.000 F800.000
G1 X14.585 Y128.915 Z4.000 F800.000
G1 X19.415 Y128.915 Z4.000 F800.000
G1 X19.415 Y128.915 Z3.000 F800.000
G1 X19.415 Y0.585 Z3.000 F800.000
G1 X14.585 Y0.585 Z3.000 F800.000
G1 X14.585 Y128.915 Z3.000 F800.000
G1 X19.415 Y128.915 Z3.000 F800.000
G0 Z11.000
G0 Z11.000
(Finish operation: Profile Pocket)
(Begin operation: DressupTag001)
(Path: DressupTag001)
G0 Z11.000
G0 X21.121 Y130.621 Z11.000
G0 X21.121 Y130.621 Z9.000
G1 X21.121 Y130.621 Z5.000 F800.000
G2 X21.585 Y129.500 Z5.000 I-1.121 J-1.121 K0.000 F800.000
G1 X21.585 Y0.000 Z5.000 F800.000
G2 X20.000 Y-1.585 Z5.000 I-1.585 J0.000 K0.000 F800.000
G1 X0.000 Y-1.585 Z5.000 F800.000
G2 X-1.585 Y-0.000 Z5.000 I0.000 J1.585 K0.000 F800.000
G1 X-1.585 Y129.500 Z5.000 F800.000
G2 X-0.000 Y131.085 Z5.000 I1.585 J-0.000 K0.000 F800.000
G1 X20.000 Y131.085 Z5.000 F800.000
G2 X21.121 Y130.621 Z5.000 I-0.000 J-1.585 K0.000 F800.000
G1 X21.121 Y130.621 Z4.000 F800.000
G2 X21.585 Y129.500 Z4.000 I-1.121 J-1.121 K0.000 F800.000
G1 X21.585 Y0.000 Z4.000 F800.000
G2 X20.000 Y-1.585 Z4.000 I-1.585 J0.000 K0.000 F800.000
G1 X0.000 Y-1.585 Z4.000 F800.000
G2 X-1.585 Y-0.000 Z4.000 I0.000 J1.585 K0.000 F800.000
G1 X-1.585 Y129.500 Z4.000 F800.000
G2 X-0.000 Y131.085 Z4.000 I1.585 J-0.000 K0.000 F800.000
G1 X20.000 Y131.085 Z4.000 F800.000
G2 X21.121 Y130.621 Z4.000 I-0.000 J-1.585 K0.000 F800.000
G1 X21.121 Y130.621 Z3.000 F800.000
G2 X21.585 Y129.500 Z3.000 I-1.121 J-1.121 K0.000 F800.000
G1 X21.585 Y0.000 Z3.000 F800.000
G2 X20.000 Y-1.585 Z3.000 I-1.585 J0.000 K0.000 F800.000
G1 X0.000 Y-1.585 Z3.000 F800.000
G2 X-1.585 Y-0.000 Z3.000 I0.000 J1.585 K0.000 F800.000
G1 X-1.585 Y129.500 Z3.000 F800.000
G2 X-0.000 Y131.085 Z3.000 I1.585 J-0.000 K0.000 F800.000
G1 X20.000 Y131.085 Z3.000 F800.000
G2 X21.121 Y130.621 Z3.000 I-0.000 J-1.585 K0.000 F800.000
G1 X21.121 Y130.621 Z2.000 F800.000
G2 X21.585 Y129.500 Z2.000 I-1.121 J-1.121 K0.000 F800.000
G1 X21.585 Y0.000 Z2.000 F800.000
G2 X20.000 Y-1.585 Z2.000 I-1.585 J0.000 K0.000 F800.000
G1 X0.000 Y-1.585 Z2.000 F800.000
G2 X-1.585 Y-0.000 Z2.000 I0.000 J1.585 K0.000 F800.000
G1 X-1.585 Y129.500 Z2.000 F800.000
G2 X-0.000 Y131.085 Z2.000 I1.585 J-0.000 K0.000 F800.000
G1 X20.000 Y131.085 Z2.000 F800.000
G2 X21.121 Y130.621 Z2.000 I-0.000 J-1.585 K0.000 F800.000
G1 X21.121 Y130.621 Z1.000 F800.000
G2 X21.585 Y129.500 Z1.000 I-1.121 J-1.121 K0.000 F800.000
G1 X21.585 Y0.000 Z1.000 F800.000
G2 X20.000 Y-1.585 Z1.000 I-1.585 J0.000 K0.000 F800.000
G1 X0.000 Y-1.585 Z1.000 F800.000
G2 X-1.585 Y-0.000 Z1.000 I0.000 J1.585 K0.000 F800.000
G1 X-1.585 Y129.500 Z1.000 F800.000
G2 X-0.000 Y131.085 Z1.000 I1.585 J-0.000 K0.000 F800.000
G1 X20.000 Y131.085 Z1.000 F800.000
G2 X21.121 Y130.621 Z1.000 I-0.000 J-1.585 K0.000 F800.000
G1 X21.121 Y130.621 Z0.000 F800.000
G2 X21.585 Y129.500 Z0.000 I-1.121 J-1.121 K0.000 F800.000
G1 X21.585 Y0.000 Z0.000 F800.000
G2 X20.000 Y-1.585 Z0.000 I-1.585 J0.000 K0.000 F800.000
G1 X0.000 Y-1.585 Z0.000 F800.000
G2 X-1.585 Y-0.000 Z0.000 I0.000 J1.585 K0.000 F800.000
G1 X-1.585 Y129.500 Z0.000 F800.000
G2 X-0.000 Y131.085 Z0.000 I1.585 J-0.000 K0.000 F800.000
G1 X20.000 Y131.085 Z0.000 F800.000
G2 X21.121 Y130.621 Z0.000 I-0.000 J-1.585 K0.000 F800.000
G0 X21.121 Y130.621 Z11.000
(Finish operation: DressupTag001)
(Begin postamble)
M5
G17 G90
M2
