(Exported by FreeCAD)
(Post Processor: grbl_post)
(Output Time:2024-12-25 11:53:57.040808)
(Begin preamble)
G17 G90
G21
(Begin operation: Fixture)
(Path: Fixture)
G54
(Finish operation: Fixture)
(Begin operation: endmill_compression_3175_spe001)
(Path: endmill_compression_3175_spe001)
(endmill_compression_3175_spe001)
(Begin toolchange)
( M6 T2 )
M3 S18000
(Finish operation: endmill_compression_3175_spe001)
(Begin operation: Pocket_Shape)
(Path: Pocket_Shape)
(Pocket_Shape)
G0 Z22.000
G0 X91.585 Y127.696
G0 Z20.000
G1 X91.585 Y127.696 Z16.000 F800.000
G1 X92.304 Y128.415 Z16.000 F800.000
G1 X91.585 Y128.415 Z16.000 F800.000
G1 X91.585 Y127.696 Z16.000 F800.000
G1 X91.585 Y125.454 Z16.000 F800.000
G1 X94.546 Y128.415 Z16.000 F800.000
G1 X96.787 Y128.415 Z16.000 F800.000
G1 X91.585 Y123.213 Z16.000 F800.000
G1 X91.585 Y120.971 Z16.000 F800.000
G1 X99.029 Y128.415 Z16.000 F800.000
G1 X101.270 Y128.415 Z16.000 F800.000
G1 X91.585 Y118.730 Z16.000 F800.000
G1 X91.585 Y116.488 Z16.000 F800.000
G1 X103.512 Y128.415 Z16.000 F800.000
G1 X105.753 Y128.415 Z16.000 F800.000
G1 X91.585 Y114.247 Z16.000 F800.000
G1 X91.585 Y112.005 Z16.000 F800.000
G1 X107.995 Y128.415 Z16.000 F800.000
G1 X110.236 Y128.415 Z16.000 F800.000
G1 X91.585 Y109.764 Z16.000 F800.000
G1 X91.585 Y107.522 Z16.000 F800.000
G1 X112.478 Y128.415 Z16.000 F800.000
G1 X113.415 Y128.415 Z16.000 F800.000
G1 X113.415 Y127.111 Z16.000 F800.000
G1 X91.585 Y105.281 Z16.000 F800.000
G1 X91.585 Y103.039 Z16.000 F800.000
G1 X113.415 Y124.869 Z16.000 F800.000
G1 X113.415 Y122.628 Z16.000 F800.000
G1 X91.585 Y100.798 Z16.000 F800.000
G1 X91.585 Y98.556 Z16.000 F800.000
G1 X113.415 Y120.386 Z16.000 F800.000
G1 X113.415 Y118.144 Z16.000 F800.000
G1 X91.585 Y96.314 Z16.000 F800.000
G1 X91.585 Y94.073 Z16.000 F800.000
G1 X113.415 Y115.903 Z16.000 F800.000
G1 X113.415 Y113.661 Z16.000 F800.000
G1 X91.585 Y91.831 Z16.000 F800.000
G1 X91.585 Y89.590 Z16.000 F800.000
G1 X113.415 Y111.420 Z16.000 F800.000
G1 X113.415 Y109.178 Z16.000 F800.000
G1 X91.585 Y87.348 Z16.000 F800.000
G1 X91.585 Y85.107 Z16.000 F800.000
G1 X113.415 Y106.937 Z16.000 F800.000
G1 X113.415 Y104.695 Z16.000 F800.000
G1 X91.585 Y82.865 Z16.000 F800.000
G1 X91.585 Y80.624 Z16.000 F800.000
G1 X113.415 Y102.454 Z16.000 F800.000
G1 X113.415 Y100.212 Z16.000 F800.000
G1 X91.585 Y78.382 Z16.000 F800.000
G1 X91.585 Y76.141 Z16.000 F800.000
G1 X113.415 Y97.971 Z16.000 F800.000
G1 X113.415 Y95.729 Z16.000 F800.000
G1 X91.585 Y73.899 Z16.000 F800.000
G1 X91.585 Y71.658 Z16.000 F800.000
G1 X113.415 Y93.488 Z16.000 F800.000
G1 X113.415 Y91.246 Z16.000 F800.000
G1 X91.585 Y69.416 Z16.000 F800.000
G1 X91.585 Y67.175 Z16.000 F800.000
G1 X113.415 Y89.005 Z16.000 F800.000
G1 X113.415 Y86.763 Z16.000 F800.000
G1 X91.585 Y64.933 Z16.000 F800.000
G1 X91.585 Y62.692 Z16.000 F800.000
G1 X113.415 Y84.522 Z16.000 F800.000
G1 X113.415 Y82.280 Z16.000 F800.000
G1 X91.585 Y60.450 Z16.000 F800.000
G1 X91.585 Y58.208 Z16.000 F800.000
G1 X113.415 Y80.038 Z16.000 F800.000
G1 X113.415 Y77.797 Z16.000 F800.000
G1 X91.585 Y55.967 Z16.000 F800.000
G1 X91.585 Y53.725 Z16.000 F800.000
G1 X113.415 Y75.555 Z16.000 F800.000
G1 X113.415 Y73.314 Z16.000 F800.000
G1 X91.585 Y51.484 Z16.000 F800.000
G1 X91.585 Y49.242 Z16.000 F800.000
G1 X113.415 Y71.072 Z16.000 F800.000
G1 X113.415 Y68.831 Z16.000 F800.000
G1 X91.585 Y47.001 Z16.000 F800.000
G1 X91.585 Y44.759 Z16.000 F800.000
G1 X113.415 Y66.589 Z16.000 F800.000
G1 X113.415 Y64.348 Z16.000 F800.000
G1 X91.585 Y42.518 Z16.000 F800.000
G1 X91.585 Y40.276 Z16.000 F800.000
G1 X113.415 Y62.106 Z16.000 F800.000
G1 X113.415 Y59.865 Z16.000 F800.000
G1 X91.585 Y38.035 Z16.000 F800.000
G1 X91.585 Y35.793 Z16.000 F800.000
G1 X113.415 Y57.623 Z16.000 F800.000
G1 X113.415 Y55.382 Z16.000 F800.000
G1 X91.585 Y33.552 Z16.000 F800.000
G1 X91.585 Y31.310 Z16.000 F800.000
G1 X113.415 Y53.140 Z16.000 F800.000
G1 X113.415 Y50.899 Z16.000 F800.000
G1 X91.585 Y29.069 Z16.000 F800.000
G1 X91.585 Y26.827 Z16.000 F800.000
G1 X113.415 Y48.657 Z16.000 F800.000
G1 X113.415 Y46.416 Z16.000 F800.000
G1 X91.585 Y24.586 Z16.000 F800.000
G1 X91.585 Y22.344 Z16.000 F800.000
G1 X113.415 Y44.174 Z16.000 F800.000
G1 X113.415 Y41.933 Z16.000 F800.000
G1 X91.585 Y20.103 Z16.000 F800.000
G1 X91.585 Y17.861 Z16.000 F800.000
G1 X113.415 Y39.691 Z16.000 F800.000
G1 X113.415 Y37.449 Z16.000 F800.000
G1 X91.585 Y15.619 Z16.000 F800.000
G1 X91.585 Y13.378 Z16.000 F800.000
G1 X113.415 Y35.208 Z16.000 F800.000
G1 X113.415 Y32.966 Z16.000 F800.000
G1 X91.585 Y11.136 Z16.000 F800.000
G1 X91.585 Y8.895 Z16.000 F800.000
G1 X113.415 Y30.725 Z16.000 F800.000
G1 X113.415 Y28.483 Z16.000 F800.000
G1 X91.585 Y6.653 Z16.000 F800.000
G1 X91.585 Y4.412 Z16.000 F800.000
G1 X113.415 Y26.242 Z16.000 F800.000
G1 X113.415 Y24.000 Z16.000 F800.000
G1 X91.585 Y2.170 Z16.000 F800.000
G1 X91.585 Y1.585 Z16.000 F800.000
G1 X93.241 Y1.585 Z16.000 F800.000
G1 X113.415 Y21.759 Z16.000 F800.000
G1 X113.415 Y19.517 Z16.000 F800.000
G1 X95.483 Y1.585 Z16.000 F800.000
G1 X97.724 Y1.585 Z16.000 F800.000
G1 X113.415 Y17.276 Z16.000 F800.000
G1 X113.415 Y15.034 Z16.000 F800.000
G1 X99.966 Y1.585 Z16.000 F800.000
G1 X102.207 Y1.585 Z16.000 F800.000
G1 X113.415 Y12.793 Z16.000 F800.000
G1 X113.415 Y10.551 Z16.000 F800.000
G1 X104.449 Y1.585 Z16.000 F800.000
G1 X106.690 Y1.585 Z16.000 F800.000
G1 X113.415 Y8.310 Z16.000 F800.000
G1 X113.415 Y6.068 Z16.000 F800.000
G1 X108.932 Y1.585 Z16.000 F800.000
G1 X111.173 Y1.585 Z16.000 F800.000
G1 X113.415 Y3.827 Z16.000 F800.000
G1 X113.415 Y1.585 Z16.000 F800.000
G1 X113.415 Y1.585 Z14.000 F800.000
G1 X113.415 Y3.827 Z14.000 F800.000
G1 X111.173 Y1.585 Z14.000 F800.000
G1 X108.932 Y1.585 Z14.000 F800.000
G1 X113.415 Y6.068 Z14.000 F800.000
G1 X113.415 Y8.310 Z14.000 F800.000
G1 X106.690 Y1.585 Z14.000 F800.000
G1 X104.449 Y1.585 Z14.000 F800.000
G1 X113.415 Y10.551 Z14.000 F800.000
G1 X113.415 Y12.793 Z14.000 F800.000
G1 X102.207 Y1.585 Z14.000 F800.000
G1 X99.966 Y1.585 Z14.000 F800.000
G1 X113.415 Y15.034 Z14.000 F800.000
G1 X113.415 Y17.276 Z14.000 F800.000
G1 X97.724 Y1.585 Z14.000 F800.000
G1 X95.483 Y1.585 Z14.000 F800.000
G1 X113.415 Y19.517 Z14.000 F800.000
G1 X113.415 Y21.759 Z14.000 F800.000
G1 X93.241 Y1.585 Z14.000 F800.000
G1 X91.585 Y1.585 Z14.000 F800.000
G1 X91.585 Y2.170 Z14.000 F800.000
G1 X113.415 Y24.000 Z14.000 F800.000
G1 X113.415 Y26.242 Z14.000 F800.000
G1 X91.585 Y4.412 Z14.000 F800.000
G1 X91.585 Y6.653 Z14.000 F800.000
G1 X113.415 Y28.483 Z14.000 F800.000
G1 X113.415 Y30.725 Z14.000 F800.000
G1 X91.585 Y8.895 Z14.000 F800.000
G1 X91.585 Y11.136 Z14.000 F800.000
G1 X113.415 Y32.966 Z14.000 F800.000
G1 X113.415 Y35.208 Z14.000 F800.000
G1 X91.585 Y13.378 Z14.000 F800.000
G1 X91.585 Y15.619 Z14.000 F800.000
G1 X113.415 Y37.449 Z14.000 F800.000
G1 X113.415 Y39.691 Z14.000 F800.000
G1 X91.585 Y17.861 Z14.000 F800.000
G1 X91.585 Y20.103 Z14.000 F800.000
G1 X113.415 Y41.933 Z14.000 F800.000
G1 X113.415 Y44.174 Z14.000 F800.000
G1 X91.585 Y22.344 Z14.000 F800.000
G1 X91.585 Y24.586 Z14.000 F800.000
G1 X113.415 Y46.416 Z14.000 F800.000
G1 X113.415 Y48.657 Z14.000 F800.000
G1 X91.585 Y26.827 Z14.000 F800.000
G1 X91.585 Y29.069 Z14.000 F800.000
G1 X113.415 Y50.899 Z14.000 F800.000
G1 X113.415 Y53.140 Z14.000 F800.000
G1 X91.585 Y31.310 Z14.000 F800.000
G1 X91.585 Y33.552 Z14.000 F800.000
G1 X113.415 Y55.382 Z14.000 F800.000
G1 X113.415 Y57.623 Z14.000 F800.000
G1 X91.585 Y35.793 Z14.000 F800.000
G1 X91.585 Y38.035 Z14.000 F800.000
G1 X113.415 Y59.865 Z14.000 F800.000
G1 X113.415 Y62.106 Z14.000 F800.000
G1 X91.585 Y40.276 Z14.000 F800.000
G1 X91.585 Y42.518 Z14.000 F800.000
G1 X113.415 Y64.348 Z14.000 F800.000
G1 X113.415 Y66.589 Z14.000 F800.000
G1 X91.585 Y44.759 Z14.000 F800.000
G1 X91.585 Y47.001 Z14.000 F800.000
G1 X113.415 Y68.831 Z14.000 F800.000
G1 X113.415 Y71.072 Z14.000 F800.000
G1 X91.585 Y49.242 Z14.000 F800.000
G1 X91.585 Y51.484 Z14.000 F800.000
G1 X113.415 Y73.314 Z14.000 F800.000
G1 X113.415 Y75.555 Z14.000 F800.000
G1 X91.585 Y53.725 Z14.000 F800.000
G1 X91.585 Y55.967 Z14.000 F800.000
G1 X113.415 Y77.797 Z14.000 F800.000
G1 X113.415 Y80.038 Z14.000 F800.000
G1 X91.585 Y58.208 Z14.000 F800.000
G1 X91.585 Y60.450 Z14.000 F800.000
G1 X113.415 Y82.280 Z14.000 F800.000
G1 X113.415 Y84.522 Z14.000 F800.000
G1 X91.585 Y62.692 Z14.000 F800.000
G1 X91.585 Y64.933 Z14.000 F800.000
G1 X113.415 Y86.763 Z14.000 F800.000
G1 X113.415 Y89.005 Z14.000 F800.000
G1 X91.585 Y67.175 Z14.000 F800.000
G1 X91.585 Y69.416 Z14.000 F800.000
G1 X113.415 Y91.246 Z14.000 F800.000
G1 X113.415 Y93.488 Z14.000 F800.000
G1 X91.585 Y71.658 Z14.000 F800.000
G1 X91.585 Y73.899 Z14.000 F800.000
G1 X113.415 Y95.729 Z14.000 F800.000
G1 X113.415 Y97.971 Z14.000 F800.000
G1 X91.585 Y76.141 Z14.000 F800.000
G1 X91.585 Y78.382 Z14.000 F800.000
G1 X113.415 Y100.212 Z14.000 F800.000
G1 X113.415 Y102.454 Z14.000 F800.000
G1 X91.585 Y80.624 Z14.000 F800.000
G1 X91.585 Y82.865 Z14.000 F800.000
G1 X113.415 Y104.695 Z14.000 F800.000
G1 X113.415 Y106.937 Z14.000 F800.000
G1 X91.585 Y85.107 Z14.000 F800.000
G1 X91.585 Y87.348 Z14.000 F800.000
G1 X113.415 Y109.178 Z14.000 F800.000
G1 X113.415 Y111.420 Z14.000 F800.000
G1 X91.585 Y89.590 Z14.000 F800.000
G1 X91.585 Y91.831 Z14.000 F800.000
G1 X113.415 Y113.661 Z14.000 F800.000
G1 X113.415 Y115.903 Z14.000 F800.000
G1 X91.585 Y94.073 Z14.000 F800.000
G1 X91.585 Y96.314 Z14.000 F800.000
G1 X113.415 Y118.144 Z14.000 F800.000
G1 X113.415 Y120.386 Z14.000 F800.000
G1 X91.585 Y98.556 Z14.000 F800.000
G1 X91.585 Y100.798 Z14.000 F800.000
G1 X113.415 Y122.628 Z14.000 F800.000
G1 X113.415 Y124.869 Z14.000 F800.000
G1 X91.585 Y103.039 Z14.000 F800.000
G1 X91.585 Y105.281 Z14.000 F800.000
G1 X113.415 Y127.111 Z14.000 F800.000
G1 X113.415 Y128.415 Z14.000 F800.000
G1 X112.478 Y128.415 Z14.000 F800.000
G1 X91.585 Y107.522 Z14.000 F800.000
G1 X91.585 Y109.764 Z14.000 F800.000
G1 X110.236 Y128.415 Z14.000 F800.000
G1 X107.995 Y128.415 Z14.000 F800.000
G1 X91.585 Y112.005 Z14.000 F800.000
G1 X91.585 Y114.247 Z14.000 F800.000
G1 X105.753 Y128.415 Z14.000 F800.000
G1 X103.512 Y128.415 Z14.000 F800.000
G1 X91.585 Y116.488 Z14.000 F800.000
G1 X91.585 Y118.730 Z14.000 F800.000
G1 X101.270 Y128.415 Z14.000 F800.000
G1 X99.029 Y128.415 Z14.000 F800.000
G1 X91.585 Y120.971 Z14.000 F800.000
G1 X91.585 Y123.213 Z14.000 F800.000
G1 X96.787 Y128.415 Z14.000 F800.000
G1 X94.546 Y128.415 Z14.000 F800.000
G1 X91.585 Y125.454 Z14.000 F800.000
G1 X91.585 Y127.696 Z14.000 F800.000
G1 X91.585 Y128.415 Z14.000 F800.000
G1 X92.304 Y128.415 Z14.000 F800.000
G1 X91.585 Y127.696 Z14.000 F800.000
G1 X91.585 Y127.696 Z12.000 F800.000
G1 X92.304 Y128.415 Z12.000 F800.000
G1 X91.585 Y128.415 Z12.000 F800.000
G1 X91.585 Y127.696 Z12.000 F800.000
G1 X91.585 Y125.454 Z12.000 F800.000
G1 X94.546 Y128.415 Z12.000 F800.000
G1 X96.787 Y128.415 Z12.000 F800.000
G1 X91.585 Y123.213 Z12.000 F800.000
G1 X91.585 Y120.971 Z12.000 F800.000
G1 X99.029 Y128.415 Z12.000 F800.000
G1 X101.270 Y128.415 Z12.000 F800.000
G1 X91.585 Y118.730 Z12.000 F800.000
G1 X91.585 Y116.488 Z12.000 F800.000
G1 X103.512 Y128.415 Z12.000 F800.000
G1 X105.753 Y128.415 Z12.000 F800.000
G1 X91.585 Y114.247 Z12.000 F800.000
G1 X91.585 Y112.005 Z12.000 F800.000
G1 X107.995 Y128.415 Z12.000 F800.000
G1 X110.236 Y128.415 Z12.000 F800.000
G1 X91.585 Y109.764 Z12.000 F800.000
G1 X91.585 Y107.522 Z12.000 F800.000
G1 X112.478 Y128.415 Z12.000 F800.000
G1 X113.415 Y128.415 Z12.000 F800.000
G1 X113.415 Y127.111 Z12.000 F800.000
G1 X91.585 Y105.281 Z12.000 F800.000
G1 X91.585 Y103.039 Z12.000 F800.000
G1 X113.415 Y124.869 Z12.000 F800.000
G1 X113.415 Y122.628 Z12.000 F800.000
G1 X91.585 Y100.798 Z12.000 F800.000
G1 X91.585 Y98.556 Z12.000 F800.000
G1 X113.415 Y120.386 Z12.000 F800.000
G1 X113.415 Y118.144 Z12.000 F800.000
G1 X91.585 Y96.314 Z12.000 F800.000
G1 X91.585 Y94.073 Z12.000 F800.000
G1 X113.415 Y115.903 Z12.000 F800.000
G1 X113.415 Y113.661 Z12.000 F800.000
G1 X91.585 Y91.831 Z12.000 F800.000
G1 X91.585 Y89.590 Z12.000 F800.000
G1 X113.415 Y111.420 Z12.000 F800.000
G1 X113.415 Y109.178 Z12.000 F800.000
G1 X91.585 Y87.348 Z12.000 F800.000
G1 X91.585 Y85.107 Z12.000 F800.000
G1 X113.415 Y106.937 Z12.000 F800.000
G1 X113.415 Y104.695 Z12.000 F800.000
G1 X91.585 Y82.865 Z12.000 F800.000
G1 X91.585 Y80.624 Z12.000 F800.000
G1 X113.415 Y102.454 Z12.000 F800.000
G1 X113.415 Y100.212 Z12.000 F800.000
G1 X91.585 Y78.382 Z12.000 F800.000
G1 X91.585 Y76.141 Z12.000 F800.000
G1 X113.415 Y97.971 Z12.000 F800.000
G1 X113.415 Y95.729 Z12.000 F800.000
G1 X91.585 Y73.899 Z12.000 F800.000
G1 X91.585 Y71.658 Z12.000 F800.000
G1 X113.415 Y93.488 Z12.000 F800.000
G1 X113.415 Y91.246 Z12.000 F800.000
G1 X91.585 Y69.416 Z12.000 F800.000
G1 X91.585 Y67.175 Z12.000 F800.000
G1 X113.415 Y89.005 Z12.000 F800.000
G1 X113.415 Y86.763 Z12.000 F800.000
G1 X91.585 Y64.933 Z12.000 F800.000
G1 X91.585 Y62.692 Z12.000 F800.000
G1 X113.415 Y84.522 Z12.000 F800.000
G1 X113.415 Y82.280 Z12.000 F800.000
G1 X91.585 Y60.450 Z12.000 F800.000
G1 X91.585 Y58.208 Z12.000 F800.000
G1 X113.415 Y80.038 Z12.000 F800.000
G1 X113.415 Y77.797 Z12.000 F800.000
G1 X91.585 Y55.967 Z12.000 F800.000
G1 X91.585 Y53.725 Z12.000 F800.000
G1 X113.415 Y75.555 Z12.000 F800.000
G1 X113.415 Y73.314 Z12.000 F800.000
G1 X91.585 Y51.484 Z12.000 F800.000
G1 X91.585 Y49.242 Z12.000 F800.000
G1 X113.415 Y71.072 Z12.000 F800.000
G1 X113.415 Y68.831 Z12.000 F800.000
G1 X91.585 Y47.001 Z12.000 F800.000
G1 X91.585 Y44.759 Z12.000 F800.000
G1 X113.415 Y66.589 Z12.000 F800.000
G1 X113.415 Y64.348 Z12.000 F800.000
G1 X91.585 Y42.518 Z12.000 F800.000
G1 X91.585 Y40.276 Z12.000 F800.000
G1 X113.415 Y62.106 Z12.000 F800.000
G1 X113.415 Y59.865 Z12.000 F800.000
G1 X91.585 Y38.035 Z12.000 F800.000
G1 X91.585 Y35.793 Z12.000 F800.000
G1 X113.415 Y57.623 Z12.000 F800.000
G1 X113.415 Y55.382 Z12.000 F800.000
G1 X91.585 Y33.552 Z12.000 F800.000
G1 X91.585 Y31.310 Z12.000 F800.000
G1 X113.415 Y53.140 Z12.000 F800.000
G1 X113.415 Y50.899 Z12.000 F800.000
G1 X91.585 Y29.069 Z12.000 F800.000
G1 X91.585 Y26.827 Z12.000 F800.000
G1 X113.415 Y48.657 Z12.000 F800.000
G1 X113.415 Y46.416 Z12.000 F800.000
G1 X91.585 Y24.586 Z12.000 F800.000
G1 X91.585 Y22.344 Z12.000 F800.000
G1 X113.415 Y44.174 Z12.000 F800.000
G1 X113.415 Y41.933 Z12.000 F800.000
G1 X91.585 Y20.103 Z12.000 F800.000
G1 X91.585 Y17.861 Z12.000 F800.000
G1 X113.415 Y39.691 Z12.000 F800.000
G1 X113.415 Y37.449 Z12.000 F800.000
G1 X91.585 Y15.619 Z12.000 F800.000
G1 X91.585 Y13.378 Z12.000 F800.000
G1 X113.415 Y35.208 Z12.000 F800.000
G1 X113.415 Y32.966 Z12.000 F800.000
G1 X91.585 Y11.136 Z12.000 F800.000
G1 X91.585 Y8.895 Z12.000 F800.000
G1 X113.415 Y30.725 Z12.000 F800.000
G1 X113.415 Y28.483 Z12.000 F800.000
G1 X91.585 Y6.653 Z12.000 F800.000
G1 X91.585 Y4.412 Z12.000 F800.000
G1 X113.415 Y26.242 Z12.000 F800.000
G1 X113.415 Y24.000 Z12.000 F800.000
G1 X91.585 Y2.170 Z12.000 F800.000
G1 X91.585 Y1.585 Z12.000 F800.000
G1 X93.241 Y1.585 Z12.000 F800.000
G1 X113.415 Y21.759 Z12.000 F800.000
G1 X113.415 Y19.517 Z12.000 F800.000
G1 X95.483 Y1.585 Z12.000 F800.000
G1 X97.724 Y1.585 Z12.000 F800.000
G1 X113.415 Y17.276 Z12.000 F800.000
G1 X113.415 Y15.034 Z12.000 F800.000
G1 X99.966 Y1.585 Z12.000 F800.000
G1 X102.207 Y1.585 Z12.000 F800.000
G1 X113.415 Y12.793 Z12.000 F800.000
G1 X113.415 Y10.551 Z12.000 F800.000
G1 X104.449 Y1.585 Z12.000 F800.000
G1 X106.690 Y1.585 Z12.000 F800.000
G1 X113.415 Y8.310 Z12.000 F800.000
G1 X113.415 Y6.068 Z12.000 F800.000
G1 X108.932 Y1.585 Z12.000 F800.000
G1 X111.173 Y1.585 Z12.000 F800.000
G1 X113.415 Y3.827 Z12.000 F800.000
G1 X113.415 Y1.585 Z12.000 F800.000
G1 X113.415 Y1.585 Z10.000 F800.000
G1 X113.415 Y3.827 Z10.000 F800.000
G1 X111.173 Y1.585 Z10.000 F800.000
G1 X108.932 Y1.585 Z10.000 F800.000
G1 X113.415 Y6.068 Z10.000 F800.000
G1 X113.415 Y8.310 Z10.000 F800.000
G1 X106.690 Y1.585 Z10.000 F800.000
G1 X104.449 Y1.585 Z10.000 F800.000
G1 X113.415 Y10.551 Z10.000 F800.000
G1 X113.415 Y12.793 Z10.000 F800.000
G1 X102.207 Y1.585 Z10.000 F800.000
G1 X99.966 Y1.585 Z10.000 F800.000
G1 X113.415 Y15.034 Z10.000 F800.000
G1 X113.415 Y17.276 Z10.000 F800.000
G1 X97.724 Y1.585 Z10.000 F800.000
G1 X95.483 Y1.585 Z10.000 F800.000
G1 X113.415 Y19.517 Z10.000 F800.000
G1 X113.415 Y21.759 Z10.000 F800.000
G1 X93.241 Y1.585 Z10.000 F800.000
G1 X91.585 Y1.585 Z10.000 F800.000
G1 X91.585 Y2.170 Z10.000 F800.000
G1 X113.415 Y24.000 Z10.000 F800.000
G1 X113.415 Y26.242 Z10.000 F800.000
G1 X91.585 Y4.412 Z10.000 F800.000
G1 X91.585 Y6.653 Z10.000 F800.000
G1 X113.415 Y28.483 Z10.000 F800.000
G1 X113.415 Y30.725 Z10.000 F800.000
G1 X91.585 Y8.895 Z10.000 F800.000
G1 X91.585 Y11.136 Z10.000 F800.000
G1 X113.415 Y32.966 Z10.000 F800.000
G1 X113.415 Y35.208 Z10.000 F800.000
G1 X91.585 Y13.378 Z10.000 F800.000
G1 X91.585 Y15.619 Z10.000 F800.000
G1 X113.415 Y37.449 Z10.000 F800.000
G1 X113.415 Y39.691 Z10.000 F800.000
G1 X91.585 Y17.861 Z10.000 F800.000
G1 X91.585 Y20.103 Z10.000 F800.000
G1 X113.415 Y41.933 Z10.000 F800.000
G1 X113.415 Y44.174 Z10.000 F800.000
G1 X91.585 Y22.344 Z10.000 F800.000
G1 X91.585 Y24.586 Z10.000 F800.000
G1 X113.415 Y46.416 Z10.000 F800.000
G1 X113.415 Y48.657 Z10.000 F800.000
G1 X91.585 Y26.827 Z10.000 F800.000
G1 X91.585 Y29.069 Z10.000 F800.000
G1 X113.415 Y50.899 Z10.000 F800.000
G1 X113.415 Y53.140 Z10.000 F800.000
G1 X91.585 Y31.310 Z10.000 F800.000
G1 X91.585 Y33.552 Z10.000 F800.000
G1 X113.415 Y55.382 Z10.000 F800.000
G1 X113.415 Y57.623 Z10.000 F800.000
G1 X91.585 Y35.793 Z10.000 F800.000
G1 X91.585 Y38.035 Z10.000 F800.000
G1 X113.415 Y59.865 Z10.000 F800.000
G1 X113.415 Y62.106 Z10.000 F800.000
G1 X91.585 Y40.276 Z10.000 F800.000
G1 X91.585 Y42.518 Z10.000 F800.000
G1 X113.415 Y64.348 Z10.000 F800.000
G1 X113.415 Y66.589 Z10.000 F800.000
G1 X91.585 Y44.759 Z10.000 F800.000
G1 X91.585 Y47.001 Z10.000 F800.000
G1 X113.415 Y68.831 Z10.000 F800.000
G1 X113.415 Y71.072 Z10.000 F800.000
G1 X91.585 Y49.242 Z10.000 F800.000
G1 X91.585 Y51.484 Z10.000 F800.000
G1 X113.415 Y73.314 Z10.000 F800.000
G1 X113.415 Y75.555 Z10.000 F800.000
G1 X91.585 Y53.725 Z10.000 F800.000
G1 X91.585 Y55.967 Z10.000 F800.000
G1 X113.415 Y77.797 Z10.000 F800.000
G1 X113.415 Y80.038 Z10.000 F800.000
G1 X91.585 Y58.208 Z10.000 F800.000
G1 X91.585 Y60.450 Z10.000 F800.000
G1 X113.415 Y82.280 Z10.000 F800.000
G1 X113.415 Y84.522 Z10.000 F800.000
G1 X91.585 Y62.692 Z10.000 F800.000
G1 X91.585 Y64.933 Z10.000 F800.000
G1 X113.415 Y86.763 Z10.000 F800.000
G1 X113.415 Y89.005 Z10.000 F800.000
G1 X91.585 Y67.175 Z10.000 F800.000
G1 X91.585 Y69.416 Z10.000 F800.000
G1 X113.415 Y91.246 Z10.000 F800.000
G1 X113.415 Y93.488 Z10.000 F800.000
G1 X91.585 Y71.658 Z10.000 F800.000
G1 X91.585 Y73.899 Z10.000 F800.000
G1 X113.415 Y95.729 Z10.000 F800.000
G1 X113.415 Y97.971 Z10.000 F800.000
G1 X91.585 Y76.141 Z10.000 F800.000
G1 X91.585 Y78.382 Z10.000 F800.000
G1 X113.415 Y100.212 Z10.000 F800.000
G1 X113.415 Y102.454 Z10.000 F800.000
G1 X91.585 Y80.624 Z10.000 F800.000
G1 X91.585 Y82.865 Z10.000 F800.000
G1 X113.415 Y104.695 Z10.000 F800.000
G1 X113.415 Y106.937 Z10.000 F800.000
G1 X91.585 Y85.107 Z10.000 F800.000
G1 X91.585 Y87.348 Z10.000 F800.000
G1 X113.415 Y109.178 Z10.000 F800.000
G1 X113.415 Y111.420 Z10.000 F800.000
G1 X91.585 Y89.590 Z10.000 F800.000
G1 X91.585 Y91.831 Z10.000 F800.000
G1 X113.415 Y113.661 Z10.000 F800.000
G1 X113.415 Y115.903 Z10.000 F800.000
G1 X91.585 Y94.073 Z10.000 F800.000
G1 X91.585 Y96.314 Z10.000 F800.000
G1 X113.415 Y118.144 Z10.000 F800.000
G1 X113.415 Y120.386 Z10.000 F800.000
G1 X91.585 Y98.556 Z10.000 F800.000
G1 X91.585 Y100.798 Z10.000 F800.000
G1 X113.415 Y122.628 Z10.000 F800.000
G1 X113.415 Y124.869 Z10.000 F800.000
G1 X91.585 Y103.039 Z10.000 F800.000
G1 X91.585 Y105.281 Z10.000 F800.000
G1 X113.415 Y127.111 Z10.000 F800.000
G1 X113.415 Y128.415 Z10.000 F800.000
G1 X112.478 Y128.415 Z10.000 F800.000
G1 X91.585 Y107.522 Z10.000 F800.000
G1 X91.585 Y109.764 Z10.000 F800.000
G1 X110.236 Y128.415 Z10.000 F800.000
G1 X107.995 Y128.415 Z10.000 F800.000
G1 X91.585 Y112.005 Z10.000 F800.000
G1 X91.585 Y114.247 Z10.000 F800.000
G1 X105.753 Y128.415 Z10.000 F800.000
G1 X103.512 Y128.415 Z10.000 F800.000
G1 X91.585 Y116.488 Z10.000 F800.000
G1 X91.585 Y118.730 Z10.000 F800.000
G1 X101.270 Y128.415 Z10.000 F800.000
G1 X99.029 Y128.415 Z10.000 F800.000
G1 X91.585 Y120.971 Z10.000 F800.000
G1 X91.585 Y123.213 Z10.000 F800.000
G1 X96.787 Y128.415 Z10.000 F800.000
G1 X94.546 Y128.415 Z10.000 F800.000
G1 X91.585 Y125.454 Z10.000 F800.000
G1 X91.585 Y127.696 Z10.000 F800.000
G1 X91.585 Y128.415 Z10.000 F800.000
G1 X92.304 Y128.415 Z10.000 F800.000
G1 X91.585 Y127.696 Z10.000 F800.000
G1 X91.585 Y127.696 Z9.500 F800.000
G1 X92.304 Y128.415 Z9.500 F800.000
G1 X91.585 Y128.415 Z9.500 F800.000
G1 X91.585 Y127.696 Z9.500 F800.000
G1 X91.585 Y125.454 Z9.500 F800.000
G1 X94.546 Y128.415 Z9.500 F800.000
G1 X96.787 Y128.415 Z9.500 F800.000
G1 X91.585 Y123.213 Z9.500 F800.000
G1 X91.585 Y120.971 Z9.500 F800.000
G1 X99.029 Y128.415 Z9.500 F800.000
G1 X101.270 Y128.415 Z9.500 F800.000
G1 X91.585 Y118.730 Z9.500 F800.000
G1 X91.585 Y116.488 Z9.500 F800.000
G1 X103.512 Y128.415 Z9.500 F800.000
G1 X105.753 Y128.415 Z9.500 F800.000
G1 X91.585 Y114.247 Z9.500 F800.000
G1 X91.585 Y112.005 Z9.500 F800.000
G1 X107.995 Y128.415 Z9.500 F800.000
G1 X110.236 Y128.415 Z9.500 F800.000
G1 X91.585 Y109.764 Z9.500 F800.000
G1 X91.585 Y107.522 Z9.500 F800.000
G1 X112.478 Y128.415 Z9.500 F800.000
G1 X113.415 Y128.415 Z9.500 F800.000
G1 X113.415 Y127.111 Z9.500 F800.000
G1 X91.585 Y105.281 Z9.500 F800.000
G1 X91.585 Y103.039 Z9.500 F800.000
G1 X113.415 Y124.869 Z9.500 F800.000
G1 X113.415 Y122.628 Z9.500 F800.000
G1 X91.585 Y100.798 Z9.500 F800.000
G1 X91.585 Y98.556 Z9.500 F800.000
G1 X113.415 Y120.386 Z9.500 F800.000
G1 X113.415 Y118.144 Z9.500 F800.000
G1 X91.585 Y96.314 Z9.500 F800.000
G1 X91.585 Y94.073 Z9.500 F800.000
G1 X113.415 Y115.903 Z9.500 F800.000
G1 X113.415 Y113.661 Z9.500 F800.000
G1 X91.585 Y91.831 Z9.500 F800.000
G1 X91.585 Y89.590 Z9.500 F800.000
G1 X113.415 Y111.420 Z9.500 F800.000
G1 X113.415 Y109.178 Z9.500 F800.000
G1 X91.585 Y87.348 Z9.500 F800.000
G1 X91.585 Y85.107 Z9.500 F800.000
G1 X113.415 Y106.937 Z9.500 F800.000
G1 X113.415 Y104.695 Z9.500 F800.000
G1 X91.585 Y82.865 Z9.500 F800.000
G1 X91.585 Y80.624 Z9.500 F800.000
G1 X113.415 Y102.454 Z9.500 F800.000
G1 X113.415 Y100.212 Z9.500 F800.000
G1 X91.585 Y78.382 Z9.500 F800.000
G1 X91.585 Y76.141 Z9.500 F800.000
G1 X113.415 Y97.971 Z9.500 F800.000
G1 X113.415 Y95.729 Z9.500 F800.000
G1 X91.585 Y73.899 Z9.500 F800.000
G1 X91.585 Y71.658 Z9.500 F800.000
G1 X113.415 Y93.488 Z9.500 F800.000
G1 X113.415 Y91.246 Z9.500 F800.000
G1 X91.585 Y69.416 Z9.500 F800.000
G1 X91.585 Y67.175 Z9.500 F800.000
G1 X113.415 Y89.005 Z9.500 F800.000
G1 X113.415 Y86.763 Z9.500 F800.000
G1 X91.585 Y64.933 Z9.500 F800.000
G1 X91.585 Y62.692 Z9.500 F800.000
G1 X113.415 Y84.522 Z9.500 F800.000
G1 X113.415 Y82.280 Z9.500 F800.000
G1 X91.585 Y60.450 Z9.500 F800.000
G1 X91.585 Y58.208 Z9.500 F800.000
G1 X113.415 Y80.038 Z9.500 F800.000
G1 X113.415 Y77.797 Z9.500 F800.000
G1 X91.585 Y55.967 Z9.500 F800.000
G1 X91.585 Y53.725 Z9.500 F800.000
G1 X113.415 Y75.555 Z9.500 F800.000
G1 X113.415 Y73.314 Z9.500 F800.000
G1 X91.585 Y51.484 Z9.500 F800.000
G1 X91.585 Y49.242 Z9.500 F800.000
G1 X113.415 Y71.072 Z9.500 F800.000
G1 X113.415 Y68.831 Z9.500 F800.000
G1 X91.585 Y47.001 Z9.500 F800.000
G1 X91.585 Y44.759 Z9.500 F800.000
G1 X113.415 Y66.589 Z9.500 F800.000
G1 X113.415 Y64.348 Z9.500 F800.000
G1 X91.585 Y42.518 Z9.500 F800.000
G1 X91.585 Y40.276 Z9.500 F800.000
G1 X113.415 Y62.106 Z9.500 F800.000
G1 X113.415 Y59.865 Z9.500 F800.000
G1 X91.585 Y38.035 Z9.500 F800.000
G1 X91.585 Y35.793 Z9.500 F800.000
G1 X113.415 Y57.623 Z9.500 F800.000
G1 X113.415 Y55.382 Z9.500 F800.000
G1 X91.585 Y33.552 Z9.500 F800.000
G1 X91.585 Y31.310 Z9.500 F800.000
G1 X113.415 Y53.140 Z9.500 F800.000
G1 X113.415 Y50.899 Z9.500 F800.000
G1 X91.585 Y29.069 Z9.500 F800.000
G1 X91.585 Y26.827 Z9.500 F800.000
G1 X113.415 Y48.657 Z9.500 F800.000
G1 X113.415 Y46.416 Z9.500 F800.000
G1 X91.585 Y24.586 Z9.500 F800.000
G1 X91.585 Y22.344 Z9.500 F800.000
G1 X113.415 Y44.174 Z9.500 F800.000
G1 X113.415 Y41.933 Z9.500 F800.000
G1 X91.585 Y20.103 Z9.500 F800.000
G1 X91.585 Y17.861 Z9.500 F800.000
G1 X113.415 Y39.691 Z9.500 F800.000
G1 X113.415 Y37.449 Z9.500 F800.000
G1 X91.585 Y15.619 Z9.500 F800.000
G1 X91.585 Y13.378 Z9.500 F800.000
G1 X113.415 Y35.208 Z9.500 F800.000
G1 X113.415 Y32.966 Z9.500 F800.000
G1 X91.585 Y11.136 Z9.500 F800.000
G1 X91.585 Y8.895 Z9.500 F800.000
G1 X113.415 Y30.725 Z9.500 F800.000
G1 X113.415 Y28.483 Z9.500 F800.000
G1 X91.585 Y6.653 Z9.500 F800.000
G1 X91.585 Y4.412 Z9.500 F800.000
G1 X113.415 Y26.242 Z9.500 F800.000
G1 X113.415 Y24.000 Z9.500 F800.000
G1 X91.585 Y2.170 Z9.500 F800.000
G1 X91.585 Y1.585 Z9.500 F800.000
G1 X93.241 Y1.585 Z9.500 F800.000
G1 X113.415 Y21.759 Z9.500 F800.000
G1 X113.415 Y19.517 Z9.500 F800.000
G1 X95.483 Y1.585 Z9.500 F800.000
G1 X97.724 Y1.585 Z9.500 F800.000
G1 X113.415 Y17.276 Z9.500 F800.000
G1 X113.415 Y15.034 Z9.500 F800.000
G1 X99.966 Y1.585 Z9.500 F800.000
G1 X102.207 Y1.585 Z9.500 F800.000
G1 X113.415 Y12.793 Z9.500 F800.000
G1 X113.415 Y10.551 Z9.500 F800.000
G1 X104.449 Y1.585 Z9.500 F800.000
G1 X106.690 Y1.585 Z9.500 F800.000
G1 X113.415 Y8.310 Z9.500 F800.000
G1 X113.415 Y6.068 Z9.500 F800.000
G1 X108.932 Y1.585 Z9.500 F800.000
G1 X111.173 Y1.585 Z9.500 F800.000
G1 X113.415 Y3.827 Z9.500 F800.000
G1 X113.415 Y1.585 Z9.500 F800.000
G0 Z22.000
G0 Z22.000
G0 X113.415 Y1.585
G0 X273.415
G0 X273.415 Z20.000
G1 X273.415 Y1.585 Z16.000 F800.000
G1 X273.415 Y3.827 Z16.000 F800.000
G1 X271.173 Y1.585 Z16.000 F800.000
G1 X268.932 Y1.585 Z16.000 F800.000
G1 X273.415 Y6.068 Z16.000 F800.000
G1 X273.415 Y8.310 Z16.000 F800.000
G1 X266.690 Y1.585 Z16.000 F800.000
G1 X264.449 Y1.585 Z16.000 F800.000
G1 X273.415 Y10.551 Z16.000 F800.000
G1 X273.415 Y12.793 Z16.000 F800.000
G1 X262.207 Y1.585 Z16.000 F800.000
G1 X259.966 Y1.585 Z16.000 F800.000
G1 X273.415 Y15.034 Z16.000 F800.000
G1 X273.415 Y17.276 Z16.000 F800.000
G1 X257.724 Y1.585 Z16.000 F800.000
G1 X255.483 Y1.585 Z16.000 F800.000
G1 X273.415 Y19.517 Z16.000 F800.000
G1 X273.415 Y21.759 Z16.000 F800.000
G1 X253.241 Y1.585 Z16.000 F800.000
G1 X251.585 Y1.585 Z16.000 F800.000
G1 X251.585 Y2.170 Z16.000 F800.000
G1 X273.415 Y24.000 Z16.000 F800.000
G1 X273.415 Y26.242 Z16.000 F800.000
G1 X251.585 Y4.412 Z16.000 F800.000
G1 X251.585 Y6.653 Z16.000 F800.000
G1 X273.415 Y28.483 Z16.000 F800.000
G1 X273.415 Y30.725 Z16.000 F800.000
G1 X251.585 Y8.895 Z16.000 F800.000
G1 X251.585 Y11.136 Z16.000 F800.000
G1 X273.415 Y32.966 Z16.000 F800.000
G1 X273.415 Y35.208 Z16.000 F800.000
G1 X251.585 Y13.378 Z16.000 F800.000
G1 X251.585 Y15.619 Z16.000 F800.000
G1 X273.415 Y37.449 Z16.000 F800.000
G1 X273.415 Y39.691 Z16.000 F800.000
G1 X251.585 Y17.861 Z16.000 F800.000
G1 X251.585 Y20.103 Z16.000 F800.000
G1 X273.415 Y41.933 Z16.000 F800.000
G1 X273.415 Y44.174 Z16.000 F800.000
G1 X251.585 Y22.344 Z16.000 F800.000
G1 X251.585 Y24.586 Z16.000 F800.000
G1 X273.415 Y46.416 Z16.000 F800.000
G1 X273.415 Y48.657 Z16.000 F800.000
G1 X251.585 Y26.827 Z16.000 F800.000
G1 X251.585 Y29.069 Z16.000 F800.000
G1 X273.415 Y50.899 Z16.000 F800.000
G1 X273.415 Y53.140 Z16.000 F800.000
G1 X251.585 Y31.310 Z16.000 F800.000
G1 X251.585 Y33.552 Z16.000 F800.000
G1 X273.415 Y55.382 Z16.000 F800.000
G1 X273.415 Y57.623 Z16.000 F800.000
G1 X251.585 Y35.793 Z16.000 F800.000
G1 X251.585 Y38.035 Z16.000 F800.000
G1 X273.415 Y59.865 Z16.000 F800.000
G1 X273.415 Y62.106 Z16.000 F800.000
G1 X251.585 Y40.276 Z16.000 F800.000
G1 X251.585 Y42.518 Z16.000 F800.000
G1 X273.415 Y64.348 Z16.000 F800.000
G1 X273.415 Y66.589 Z16.000 F800.000
G1 X251.585 Y44.759 Z16.000 F800.000
G1 X251.585 Y47.001 Z16.000 F800.000
G1 X273.415 Y68.831 Z16.000 F800.000
G1 X273.415 Y71.072 Z16.000 F800.000
G1 X251.585 Y49.242 Z16.000 F800.000
G1 X251.585 Y51.484 Z16.000 F800.000
G1 X273.415 Y73.314 Z16.000 F800.000
G1 X273.415 Y75.555 Z16.000 F800.000
G1 X251.585 Y53.725 Z16.000 F800.000
G1 X251.585 Y55.967 Z16.000 F800.000
G1 X273.415 Y77.797 Z16.000 F800.000
G1 X273.415 Y80.038 Z16.000 F800.000
G1 X251.585 Y58.208 Z16.000 F800.000
G1 X251.585 Y60.450 Z16.000 F800.000
G1 X273.415 Y82.280 Z16.000 F800.000
G1 X273.415 Y84.522 Z16.000 F800.000
G1 X251.585 Y62.692 Z16.000 F800.000
G1 X251.585 Y64.933 Z16.000 F800.000
G1 X273.415 Y86.763 Z16.000 F800.000
G1 X273.415 Y89.005 Z16.000 F800.000
G1 X251.585 Y67.175 Z16.000 F800.000
G1 X251.585 Y69.416 Z16.000 F800.000
G1 X273.415 Y91.246 Z16.000 F800.000
G1 X273.415 Y93.488 Z16.000 F800.000
G1 X251.585 Y71.658 Z16.000 F800.000
G1 X251.585 Y73.899 Z16.000 F800.000
G1 X273.415 Y95.729 Z16.000 F800.000
G1 X273.415 Y97.971 Z16.000 F800.000
G1 X251.585 Y76.141 Z16.000 F800.000
G1 X251.585 Y78.382 Z16.000 F800.000
G1 X273.415 Y100.212 Z16.000 F800.000
G1 X273.415 Y102.454 Z16.000 F800.000
G1 X251.585 Y80.624 Z16.000 F800.000
G1 X251.585 Y82.865 Z16.000 F800.000
G1 X273.415 Y104.695 Z16.000 F800.000
G1 X273.415 Y106.937 Z16.000 F800.000
G1 X251.585 Y85.107 Z16.000 F800.000
G1 X251.585 Y87.348 Z16.000 F800.000
G1 X273.415 Y109.178 Z16.000 F800.000
G1 X273.415 Y111.420 Z16.000 F800.000
G1 X251.585 Y89.590 Z16.000 F800.000
G1 X251.585 Y91.831 Z16.000 F800.000
G1 X273.415 Y113.661 Z16.000 F800.000
G1 X273.415 Y115.903 Z16.000 F800.000
G1 X251.585 Y94.073 Z16.000 F800.000
G1 X251.585 Y96.314 Z16.000 F800.000
G1 X273.415 Y118.144 Z16.000 F800.000
G1 X273.415 Y120.386 Z16.000 F800.000
G1 X251.585 Y98.556 Z16.000 F800.000
G1 X251.585 Y100.798 Z16.000 F800.000
G1 X273.415 Y122.628 Z16.000 F800.000
G1 X273.415 Y124.869 Z16.000 F800.000
G1 X251.585 Y103.039 Z16.000 F800.000
G1 X251.585 Y105.281 Z16.000 F800.000
G1 X273.415 Y127.111 Z16.000 F800.000
G1 X273.415 Y128.415 Z16.000 F800.000
G1 X272.478 Y128.415 Z16.000 F800.000
G1 X251.585 Y107.522 Z16.000 F800.000
G1 X251.585 Y109.764 Z16.000 F800.000
G1 X270.236 Y128.415 Z16.000 F800.000
G1 X267.995 Y128.415 Z16.000 F800.000
G1 X251.585 Y112.005 Z16.000 F800.000
G1 X251.585 Y114.247 Z16.000 F800.000
G1 X265.753 Y128.415 Z16.000 F800.000
G1 X263.512 Y128.415 Z16.000 F800.000
G1 X251.585 Y116.488 Z16.000 F800.000
G1 X251.585 Y118.730 Z16.000 F800.000
G1 X261.270 Y128.415 Z16.000 F800.000
G1 X259.029 Y128.415 Z16.000 F800.000
G1 X251.585 Y120.971 Z16.000 F800.000
G1 X251.585 Y123.213 Z16.000 F800.000
G1 X256.787 Y128.415 Z16.000 F800.000
G1 X254.546 Y128.415 Z16.000 F800.000
G1 X251.585 Y125.454 Z16.000 F800.000
G1 X251.585 Y127.696 Z16.000 F800.000
G1 X251.585 Y128.415 Z16.000 F800.000
G1 X252.304 Y128.415 Z16.000 F800.000
G1 X251.585 Y127.696 Z16.000 F800.000
G1 X251.585 Y127.696 Z14.000 F800.000
G1 X252.304 Y128.415 Z14.000 F800.000
G1 X251.585 Y128.415 Z14.000 F800.000
G1 X251.585 Y127.696 Z14.000 F800.000
G1 X251.585 Y125.454 Z14.000 F800.000
G1 X254.546 Y128.415 Z14.000 F800.000
G1 X256.787 Y128.415 Z14.000 F800.000
G1 X251.585 Y123.213 Z14.000 F800.000
G1 X251.585 Y120.971 Z14.000 F800.000
G1 X259.029 Y128.415 Z14.000 F800.000
G1 X261.270 Y128.415 Z14.000 F800.000
G1 X251.585 Y118.730 Z14.000 F800.000
G1 X251.585 Y116.488 Z14.000 F800.000
G1 X263.512 Y128.415 Z14.000 F800.000
G1 X265.753 Y128.415 Z14.000 F800.000
G1 X251.585 Y114.247 Z14.000 F800.000
G1 X251.585 Y112.005 Z14.000 F800.000
G1 X267.995 Y128.415 Z14.000 F800.000
G1 X270.236 Y128.415 Z14.000 F800.000
G1 X251.585 Y109.764 Z14.000 F800.000
G1 X251.585 Y107.522 Z14.000 F800.000
G1 X272.478 Y128.415 Z14.000 F800.000
G1 X273.415 Y128.415 Z14.000 F800.000
G1 X273.415 Y127.111 Z14.000 F800.000
G1 X251.585 Y105.281 Z14.000 F800.000
G1 X251.585 Y103.039 Z14.000 F800.000
G1 X273.415 Y124.869 Z14.000 F800.000
G1 X273.415 Y122.628 Z14.000 F800.000
G1 X251.585 Y100.798 Z14.000 F800.000
G1 X251.585 Y98.556 Z14.000 F800.000
G1 X273.415 Y120.386 Z14.000 F800.000
G1 X273.415 Y118.144 Z14.000 F800.000
G1 X251.585 Y96.314 Z14.000 F800.000
G1 X251.585 Y94.073 Z14.000 F800.000
G1 X273.415 Y115.903 Z14.000 F800.000
G1 X273.415 Y113.661 Z14.000 F800.000
G1 X251.585 Y91.831 Z14.000 F800.000
G1 X251.585 Y89.590 Z14.000 F800.000
G1 X273.415 Y111.420 Z14.000 F800.000
G1 X273.415 Y109.178 Z14.000 F800.000
G1 X251.585 Y87.348 Z14.000 F800.000
G1 X251.585 Y85.107 Z14.000 F800.000
G1 X273.415 Y106.937 Z14.000 F800.000
G1 X273.415 Y104.695 Z14.000 F800.000
G1 X251.585 Y82.865 Z14.000 F800.000
G1 X251.585 Y80.624 Z14.000 F800.000
G1 X273.415 Y102.454 Z14.000 F800.000
G1 X273.415 Y100.212 Z14.000 F800.000
G1 X251.585 Y78.382 Z14.000 F800.000
G1 X251.585 Y76.141 Z14.000 F800.000
G1 X273.415 Y97.971 Z14.000 F800.000
G1 X273.415 Y95.729 Z14.000 F800.000
G1 X251.585 Y73.899 Z14.000 F800.000
G1 X251.585 Y71.658 Z14.000 F800.000
G1 X273.415 Y93.488 Z14.000 F800.000
G1 X273.415 Y91.246 Z14.000 F800.000
G1 X251.585 Y69.416 Z14.000 F800.000
G1 X251.585 Y67.175 Z14.000 F800.000
G1 X273.415 Y89.005 Z14.000 F800.000
G1 X273.415 Y86.763 Z14.000 F800.000
G1 X251.585 Y64.933 Z14.000 F800.000
G1 X251.585 Y62.692 Z14.000 F800.000
G1 X273.415 Y84.522 Z14.000 F800.000
G1 X273.415 Y82.280 Z14.000 F800.000
G1 X251.585 Y60.450 Z14.000 F800.000
G1 X251.585 Y58.208 Z14.000 F800.000
G1 X273.415 Y80.038 Z14.000 F800.000
G1 X273.415 Y77.797 Z14.000 F800.000
G1 X251.585 Y55.967 Z14.000 F800.000
G1 X251.585 Y53.725 Z14.000 F800.000
G1 X273.415 Y75.555 Z14.000 F800.000
G1 X273.415 Y73.314 Z14.000 F800.000
G1 X251.585 Y51.484 Z14.000 F800.000
G1 X251.585 Y49.242 Z14.000 F800.000
G1 X273.415 Y71.072 Z14.000 F800.000
G1 X273.415 Y68.831 Z14.000 F800.000
G1 X251.585 Y47.001 Z14.000 F800.000
G1 X251.585 Y44.759 Z14.000 F800.000
G1 X273.415 Y66.589 Z14.000 F800.000
G1 X273.415 Y64.348 Z14.000 F800.000
G1 X251.585 Y42.518 Z14.000 F800.000
G1 X251.585 Y40.276 Z14.000 F800.000
G1 X273.415 Y62.106 Z14.000 F800.000
G1 X273.415 Y59.865 Z14.000 F800.000
G1 X251.585 Y38.035 Z14.000 F800.000
G1 X251.585 Y35.793 Z14.000 F800.000
G1 X273.415 Y57.623 Z14.000 F800.000
G1 X273.415 Y55.382 Z14.000 F800.000
G1 X251.585 Y33.552 Z14.000 F800.000
G1 X251.585 Y31.310 Z14.000 F800.000
G1 X273.415 Y53.140 Z14.000 F800.000
G1 X273.415 Y50.899 Z14.000 F800.000
G1 X251.585 Y29.069 Z14.000 F800.000
G1 X251.585 Y26.827 Z14.000 F800.000
G1 X273.415 Y48.657 Z14.000 F800.000
G1 X273.415 Y46.416 Z14.000 F800.000
G1 X251.585 Y24.586 Z14.000 F800.000
G1 X251.585 Y22.344 Z14.000 F800.000
G1 X273.415 Y44.174 Z14.000 F800.000
G1 X273.415 Y41.933 Z14.000 F800.000
G1 X251.585 Y20.103 Z14.000 F800.000
G1 X251.585 Y17.861 Z14.000 F800.000
G1 X273.415 Y39.691 Z14.000 F800.000
G1 X273.415 Y37.449 Z14.000 F800.000
G1 X251.585 Y15.619 Z14.000 F800.000
G1 X251.585 Y13.378 Z14.000 F800.000
G1 X273.415 Y35.208 Z14.000 F800.000
G1 X273.415 Y32.966 Z14.000 F800.000
G1 X251.585 Y11.136 Z14.000 F800.000
G1 X251.585 Y8.895 Z14.000 F800.000
G1 X273.415 Y30.725 Z14.000 F800.000
G1 X273.415 Y28.483 Z14.000 F800.000
G1 X251.585 Y6.653 Z14.000 F800.000
G1 X251.585 Y4.412 Z14.000 F800.000
G1 X273.415 Y26.242 Z14.000 F800.000
G1 X273.415 Y24.000 Z14.000 F800.000
G1 X251.585 Y2.170 Z14.000 F800.000
G1 X251.585 Y1.585 Z14.000 F800.000
G1 X253.241 Y1.585 Z14.000 F800.000
G1 X273.415 Y21.759 Z14.000 F800.000
G1 X273.415 Y19.517 Z14.000 F800.000
G1 X255.483 Y1.585 Z14.000 F800.000
G1 X257.724 Y1.585 Z14.000 F800.000
G1 X273.415 Y17.276 Z14.000 F800.000
G1 X273.415 Y15.034 Z14.000 F800.000
G1 X259.966 Y1.585 Z14.000 F800.000
G1 X262.207 Y1.585 Z14.000 F800.000
G1 X273.415 Y12.793 Z14.000 F800.000
G1 X273.415 Y10.551 Z14.000 F800.000
G1 X264.449 Y1.585 Z14.000 F800.000
G1 X266.690 Y1.585 Z14.000 F800.000
G1 X273.415 Y8.310 Z14.000 F800.000
G1 X273.415 Y6.068 Z14.000 F800.000
G1 X268.932 Y1.585 Z14.000 F800.000
G1 X271.173 Y1.585 Z14.000 F800.000
G1 X273.415 Y3.827 Z14.000 F800.000
G1 X273.415 Y1.585 Z14.000 F800.000
G1 X273.415 Y1.585 Z12.000 F800.000
G1 X273.415 Y3.827 Z12.000 F800.000
G1 X271.173 Y1.585 Z12.000 F800.000
G1 X268.932 Y1.585 Z12.000 F800.000
G1 X273.415 Y6.068 Z12.000 F800.000
G1 X273.415 Y8.310 Z12.000 F800.000
G1 X266.690 Y1.585 Z12.000 F800.000
G1 X264.449 Y1.585 Z12.000 F800.000
G1 X273.415 Y10.551 Z12.000 F800.000
G1 X273.415 Y12.793 Z12.000 F800.000
G1 X262.207 Y1.585 Z12.000 F800.000
G1 X259.966 Y1.585 Z12.000 F800.000
G1 X273.415 Y15.034 Z12.000 F800.000
G1 X273.415 Y17.276 Z12.000 F800.000
G1 X257.724 Y1.585 Z12.000 F800.000
G1 X255.483 Y1.585 Z12.000 F800.000
G1 X273.415 Y19.517 Z12.000 F800.000
G1 X273.415 Y21.759 Z12.000 F800.000
G1 X253.241 Y1.585 Z12.000 F800.000
G1 X251.585 Y1.585 Z12.000 F800.000
G1 X251.585 Y2.170 Z12.000 F800.000
G1 X273.415 Y24.000 Z12.000 F800.000
G1 X273.415 Y26.242 Z12.000 F800.000
G1 X251.585 Y4.412 Z12.000 F800.000
G1 X251.585 Y6.653 Z12.000 F800.000
G1 X273.415 Y28.483 Z12.000 F800.000
G1 X273.415 Y30.725 Z12.000 F800.000
G1 X251.585 Y8.895 Z12.000 F800.000
G1 X251.585 Y11.136 Z12.000 F800.000
G1 X273.415 Y32.966 Z12.000 F800.000
G1 X273.415 Y35.208 Z12.000 F800.000
G1 X251.585 Y13.378 Z12.000 F800.000
G1 X251.585 Y15.619 Z12.000 F800.000
G1 X273.415 Y37.449 Z12.000 F800.000
G1 X273.415 Y39.691 Z12.000 F800.000
G1 X251.585 Y17.861 Z12.000 F800.000
G1 X251.585 Y20.103 Z12.000 F800.000
G1 X273.415 Y41.933 Z12.000 F800.000
G1 X273.415 Y44.174 Z12.000 F800.000
G1 X251.585 Y22.344 Z12.000 F800.000
G1 X251.585 Y24.586 Z12.000 F800.000
G1 X273.415 Y46.416 Z12.000 F800.000
G1 X273.415 Y48.657 Z12.000 F800.000
G1 X251.585 Y26.827 Z12.000 F800.000
G1 X251.585 Y29.069 Z12.000 F800.000
G1 X273.415 Y50.899 Z12.000 F800.000
G1 X273.415 Y53.140 Z12.000 F800.000
G1 X251.585 Y31.310 Z12.000 F800.000
G1 X251.585 Y33.552 Z12.000 F800.000
G1 X273.415 Y55.382 Z12.000 F800.000
G1 X273.415 Y57.623 Z12.000 F800.000
G1 X251.585 Y35.793 Z12.000 F800.000
G1 X251.585 Y38.035 Z12.000 F800.000
G1 X273.415 Y59.865 Z12.000 F800.000
G1 X273.415 Y62.106 Z12.000 F800.000
G1 X251.585 Y40.276 Z12.000 F800.000
G1 X251.585 Y42.518 Z12.000 F800.000
G1 X273.415 Y64.348 Z12.000 F800.000
G1 X273.415 Y66.589 Z12.000 F800.000
G1 X251.585 Y44.759 Z12.000 F800.000
G1 X251.585 Y47.001 Z12.000 F800.000
G1 X273.415 Y68.831 Z12.000 F800.000
G1 X273.415 Y71.072 Z12.000 F800.000
G1 X251.585 Y49.242 Z12.000 F800.000
G1 X251.585 Y51.484 Z12.000 F800.000
G1 X273.415 Y73.314 Z12.000 F800.000
G1 X273.415 Y75.555 Z12.000 F800.000
G1 X251.585 Y53.725 Z12.000 F800.000
G1 X251.585 Y55.967 Z12.000 F800.000
G1 X273.415 Y77.797 Z12.000 F800.000
G1 X273.415 Y80.038 Z12.000 F800.000
G1 X251.585 Y58.208 Z12.000 F800.000
G1 X251.585 Y60.450 Z12.000 F800.000
G1 X273.415 Y82.280 Z12.000 F800.000
G1 X273.415 Y84.522 Z12.000 F800.000
G1 X251.585 Y62.692 Z12.000 F800.000
G1 X251.585 Y64.933 Z12.000 F800.000
G1 X273.415 Y86.763 Z12.000 F800.000
G1 X273.415 Y89.005 Z12.000 F800.000
G1 X251.585 Y67.175 Z12.000 F800.000
G1 X251.585 Y69.416 Z12.000 F800.000
G1 X273.415 Y91.246 Z12.000 F800.000
G1 X273.415 Y93.488 Z12.000 F800.000
G1 X251.585 Y71.658 Z12.000 F800.000
G1 X251.585 Y73.899 Z12.000 F800.000
G1 X273.415 Y95.729 Z12.000 F800.000
G1 X273.415 Y97.971 Z12.000 F800.000
G1 X251.585 Y76.141 Z12.000 F800.000
G1 X251.585 Y78.382 Z12.000 F800.000
G1 X273.415 Y100.212 Z12.000 F800.000
G1 X273.415 Y102.454 Z12.000 F800.000
G1 X251.585 Y80.624 Z12.000 F800.000
G1 X251.585 Y82.865 Z12.000 F800.000
G1 X273.415 Y104.695 Z12.000 F800.000
G1 X273.415 Y106.937 Z12.000 F800.000
G1 X251.585 Y85.107 Z12.000 F800.000
G1 X251.585 Y87.348 Z12.000 F800.000
G1 X273.415 Y109.178 Z12.000 F800.000
G1 X273.415 Y111.420 Z12.000 F800.000
G1 X251.585 Y89.590 Z12.000 F800.000
G1 X251.585 Y91.831 Z12.000 F800.000
G1 X273.415 Y113.661 Z12.000 F800.000
G1 X273.415 Y115.903 Z12.000 F800.000
G1 X251.585 Y94.073 Z12.000 F800.000
G1 X251.585 Y96.314 Z12.000 F800.000
G1 X273.415 Y118.144 Z12.000 F800.000
G1 X273.415 Y120.386 Z12.000 F800.000
G1 X251.585 Y98.556 Z12.000 F800.000
G1 X251.585 Y100.798 Z12.000 F800.000
G1 X273.415 Y122.628 Z12.000 F800.000
G1 X273.415 Y124.869 Z12.000 F800.000
G1 X251.585 Y103.039 Z12.000 F800.000
G1 X251.585 Y105.281 Z12.000 F800.000
G1 X273.415 Y127.111 Z12.000 F800.000
G1 X273.415 Y128.415 Z12.000 F800.000
G1 X272.478 Y128.415 Z12.000 F800.000
G1 X251.585 Y107.522 Z12.000 F800.000
G1 X251.585 Y109.764 Z12.000 F800.000
G1 X270.236 Y128.415 Z12.000 F800.000
G1 X267.995 Y128.415 Z12.000 F800.000
G1 X251.585 Y112.005 Z12.000 F800.000
G1 X251.585 Y114.247 Z12.000 F800.000
G1 X265.753 Y128.415 Z12.000 F800.000
G1 X263.512 Y128.415 Z12.000 F800.000
G1 X251.585 Y116.488 Z12.000 F800.000
G1 X251.585 Y118.730 Z12.000 F800.000
G1 X261.270 Y128.415 Z12.000 F800.000
G1 X259.029 Y128.415 Z12.000 F800.000
G1 X251.585 Y120.971 Z12.000 F800.000
G1 X251.585 Y123.213 Z12.000 F800.000
G1 X256.787 Y128.415 Z12.000 F800.000
G1 X254.546 Y128.415 Z12.000 F800.000
G1 X251.585 Y125.454 Z12.000 F800.000
G1 X251.585 Y127.696 Z12.000 F800.000
G1 X251.585 Y128.415 Z12.000 F800.000
G1 X252.304 Y128.415 Z12.000 F800.000
G1 X251.585 Y127.696 Z12.000 F800.000
G1 X251.585 Y127.696 Z10.000 F800.000
G1 X252.304 Y128.415 Z10.000 F800.000
G1 X251.585 Y128.415 Z10.000 F800.000
G1 X251.585 Y127.696 Z10.000 F800.000
G1 X251.585 Y125.454 Z10.000 F800.000
G1 X254.546 Y128.415 Z10.000 F800.000
G1 X256.787 Y128.415 Z10.000 F800.000
G1 X251.585 Y123.213 Z10.000 F800.000
G1 X251.585 Y120.971 Z10.000 F800.000
G1 X259.029 Y128.415 Z10.000 F800.000
G1 X261.270 Y128.415 Z10.000 F800.000
G1 X251.585 Y118.730 Z10.000 F800.000
G1 X251.585 Y116.488 Z10.000 F800.000
G1 X263.512 Y128.415 Z10.000 F800.000
G1 X265.753 Y128.415 Z10.000 F800.000
G1 X251.585 Y114.247 Z10.000 F800.000
G1 X251.585 Y112.005 Z10.000 F800.000
G1 X267.995 Y128.415 Z10.000 F800.000
G1 X270.236 Y128.415 Z10.000 F800.000
G1 X251.585 Y109.764 Z10.000 F800.000
G1 X251.585 Y107.522 Z10.000 F800.000
G1 X272.478 Y128.415 Z10.000 F800.000
G1 X273.415 Y128.415 Z10.000 F800.000
G1 X273.415 Y127.111 Z10.000 F800.000
G1 X251.585 Y105.281 Z10.000 F800.000
G1 X251.585 Y103.039 Z10.000 F800.000
G1 X273.415 Y124.869 Z10.000 F800.000
G1 X273.415 Y122.628 Z10.000 F800.000
G1 X251.585 Y100.798 Z10.000 F800.000
G1 X251.585 Y98.556 Z10.000 F800.000
G1 X273.415 Y120.386 Z10.000 F800.000
G1 X273.415 Y118.144 Z10.000 F800.000
G1 X251.585 Y96.314 Z10.000 F800.000
G1 X251.585 Y94.073 Z10.000 F800.000
G1 X273.415 Y115.903 Z10.000 F800.000
G1 X273.415 Y113.661 Z10.000 F800.000
G1 X251.585 Y91.831 Z10.000 F800.000
G1 X251.585 Y89.590 Z10.000 F800.000
G1 X273.415 Y111.420 Z10.000 F800.000
G1 X273.415 Y109.178 Z10.000 F800.000
G1 X251.585 Y87.348 Z10.000 F800.000
G1 X251.585 Y85.107 Z10.000 F800.000
G1 X273.415 Y106.937 Z10.000 F800.000
G1 X273.415 Y104.695 Z10.000 F800.000
G1 X251.585 Y82.865 Z10.000 F800.000
G1 X251.585 Y80.624 Z10.000 F800.000
G1 X273.415 Y102.454 Z10.000 F800.000
G1 X273.415 Y100.212 Z10.000 F800.000
G1 X251.585 Y78.382 Z10.000 F800.000
G1 X251.585 Y76.141 Z10.000 F800.000
G1 X273.415 Y97.971 Z10.000 F800.000
G1 X273.415 Y95.729 Z10.000 F800.000
G1 X251.585 Y73.899 Z10.000 F800.000
G1 X251.585 Y71.658 Z10.000 F800.000
G1 X273.415 Y93.488 Z10.000 F800.000
G1 X273.415 Y91.246 Z10.000 F800.000
G1 X251.585 Y69.416 Z10.000 F800.000
G1 X251.585 Y67.175 Z10.000 F800.000
G1 X273.415 Y89.005 Z10.000 F800.000
G1 X273.415 Y86.763 Z10.000 F800.000
G1 X251.585 Y64.933 Z10.000 F800.000
G1 X251.585 Y62.692 Z10.000 F800.000
G1 X273.415 Y84.522 Z10.000 F800.000
G1 X273.415 Y82.280 Z10.000 F800.000
G1 X251.585 Y60.450 Z10.000 F800.000
G1 X251.585 Y58.208 Z10.000 F800.000
G1 X273.415 Y80.038 Z10.000 F800.000
G1 X273.415 Y77.797 Z10.000 F800.000
G1 X251.585 Y55.967 Z10.000 F800.000
G1 X251.585 Y53.725 Z10.000 F800.000
G1 X273.415 Y75.555 Z10.000 F800.000
G1 X273.415 Y73.314 Z10.000 F800.000
G1 X251.585 Y51.484 Z10.000 F800.000
G1 X251.585 Y49.242 Z10.000 F800.000
G1 X273.415 Y71.072 Z10.000 F800.000
G1 X273.415 Y68.831 Z10.000 F800.000
G1 X251.585 Y47.001 Z10.000 F800.000
G1 X251.585 Y44.759 Z10.000 F800.000
G1 X273.415 Y66.589 Z10.000 F800.000
G1 X273.415 Y64.348 Z10.000 F800.000
G1 X251.585 Y42.518 Z10.000 F800.000
G1 X251.585 Y40.276 Z10.000 F800.000
G1 X273.415 Y62.106 Z10.000 F800.000
G1 X273.415 Y59.865 Z10.000 F800.000
G1 X251.585 Y38.035 Z10.000 F800.000
G1 X251.585 Y35.793 Z10.000 F800.000
G1 X273.415 Y57.623 Z10.000 F800.000
G1 X273.415 Y55.382 Z10.000 F800.000
G1 X251.585 Y33.552 Z10.000 F800.000
G1 X251.585 Y31.310 Z10.000 F800.000
G1 X273.415 Y53.140 Z10.000 F800.000
G1 X273.415 Y50.899 Z10.000 F800.000
G1 X251.585 Y29.069 Z10.000 F800.000
G1 X251.585 Y26.827 Z10.000 F800.000
G1 X273.415 Y48.657 Z10.000 F800.000
G1 X273.415 Y46.416 Z10.000 F800.000
G1 X251.585 Y24.586 Z10.000 F800.000
G1 X251.585 Y22.344 Z10.000 F800.000
G1 X273.415 Y44.174 Z10.000 F800.000
G1 X273.415 Y41.933 Z10.000 F800.000
G1 X251.585 Y20.103 Z10.000 F800.000
G1 X251.585 Y17.861 Z10.000 F800.000
G1 X273.415 Y39.691 Z10.000 F800.000
G1 X273.415 Y37.449 Z10.000 F800.000
G1 X251.585 Y15.619 Z10.000 F800.000
G1 X251.585 Y13.378 Z10.000 F800.000
G1 X273.415 Y35.208 Z10.000 F800.000
G1 X273.415 Y32.966 Z10.000 F800.000
G1 X251.585 Y11.136 Z10.000 F800.000
G1 X251.585 Y8.895 Z10.000 F800.000
G1 X273.415 Y30.725 Z10.000 F800.000
G1 X273.415 Y28.483 Z10.000 F800.000
G1 X251.585 Y6.653 Z10.000 F800.000
G1 X251.585 Y4.412 Z10.000 F800.000
G1 X273.415 Y26.242 Z10.000 F800.000
G1 X273.415 Y24.000 Z10.000 F800.000
G1 X251.585 Y2.170 Z10.000 F800.000
G1 X251.585 Y1.585 Z10.000 F800.000
G1 X253.241 Y1.585 Z10.000 F800.000
G1 X273.415 Y21.759 Z10.000 F800.000
G1 X273.415 Y19.517 Z10.000 F800.000
G1 X255.483 Y1.585 Z10.000 F800.000
G1 X257.724 Y1.585 Z10.000 F800.000
G1 X273.415 Y17.276 Z10.000 F800.000
G1 X273.415 Y15.034 Z10.000 F800.000
G1 X259.966 Y1.585 Z10.000 F800.000
G1 X262.207 Y1.585 Z10.000 F800.000
G1 X273.415 Y12.793 Z10.000 F800.000
G1 X273.415 Y10.551 Z10.000 F800.000
G1 X264.449 Y1.585 Z10.000 F800.000
G1 X266.690 Y1.585 Z10.000 F800.000
G1 X273.415 Y8.310 Z10.000 F800.000
G1 X273.415 Y6.068 Z10.000 F800.000
G1 X268.932 Y1.585 Z10.000 F800.000
G1 X271.173 Y1.585 Z10.000 F800.000
G1 X273.415 Y3.827 Z10.000 F800.000
G1 X273.415 Y1.585 Z10.000 F800.000
G1 X273.415 Y1.585 Z9.500 F800.000
G1 X273.415 Y3.827 Z9.500 F800.000
G1 X271.173 Y1.585 Z9.500 F800.000
G1 X268.932 Y1.585 Z9.500 F800.000
G1 X273.415 Y6.068 Z9.500 F800.000
G1 X273.415 Y8.310 Z9.500 F800.000
G1 X266.690 Y1.585 Z9.500 F800.000
G1 X264.449 Y1.585 Z9.500 F800.000
G1 X273.415 Y10.551 Z9.500 F800.000
G1 X273.415 Y12.793 Z9.500 F800.000
G1 X262.207 Y1.585 Z9.500 F800.000
G1 X259.966 Y1.585 Z9.500 F800.000
G1 X273.415 Y15.034 Z9.500 F800.000
G1 X273.415 Y17.276 Z9.500 F800.000
G1 X257.724 Y1.585 Z9.500 F800.000
G1 X255.483 Y1.585 Z9.500 F800.000
G1 X273.415 Y19.517 Z9.500 F800.000
G1 X273.415 Y21.759 Z9.500 F800.000
G1 X253.241 Y1.585 Z9.500 F800.000
G1 X251.585 Y1.585 Z9.500 F800.000
G1 X251.585 Y2.170 Z9.500 F800.000
G1 X273.415 Y24.000 Z9.500 F800.000
G1 X273.415 Y26.242 Z9.500 F800.000
G1 X251.585 Y4.412 Z9.500 F800.000
G1 X251.585 Y6.653 Z9.500 F800.000
G1 X273.415 Y28.483 Z9.500 F800.000
G1 X273.415 Y30.725 Z9.500 F800.000
G1 X251.585 Y8.895 Z9.500 F800.000
G1 X251.585 Y11.136 Z9.500 F800.000
G1 X273.415 Y32.966 Z9.500 F800.000
G1 X273.415 Y35.208 Z9.500 F800.000
G1 X251.585 Y13.378 Z9.500 F800.000
G1 X251.585 Y15.619 Z9.500 F800.000
G1 X273.415 Y37.449 Z9.500 F800.000
G1 X273.415 Y39.691 Z9.500 F800.000
G1 X251.585 Y17.861 Z9.500 F800.000
G1 X251.585 Y20.103 Z9.500 F800.000
G1 X273.415 Y41.933 Z9.500 F800.000
G1 X273.415 Y44.174 Z9.500 F800.000
G1 X251.585 Y22.344 Z9.500 F800.000
G1 X251.585 Y24.586 Z9.500 F800.000
G1 X273.415 Y46.416 Z9.500 F800.000
G1 X273.415 Y48.657 Z9.500 F800.000
G1 X251.585 Y26.827 Z9.500 F800.000
G1 X251.585 Y29.069 Z9.500 F800.000
G1 X273.415 Y50.899 Z9.500 F800.000
G1 X273.415 Y53.140 Z9.500 F800.000
G1 X251.585 Y31.310 Z9.500 F800.000
G1 X251.585 Y33.552 Z9.500 F800.000
G1 X273.415 Y55.382 Z9.500 F800.000
G1 X273.415 Y57.623 Z9.500 F800.000
G1 X251.585 Y35.793 Z9.500 F800.000
G1 X251.585 Y38.035 Z9.500 F800.000
G1 X273.415 Y59.865 Z9.500 F800.000
G1 X273.415 Y62.106 Z9.500 F800.000
G1 X251.585 Y40.276 Z9.500 F800.000
G1 X251.585 Y42.518 Z9.500 F800.000
G1 X273.415 Y64.348 Z9.500 F800.000
G1 X273.415 Y66.589 Z9.500 F800.000
G1 X251.585 Y44.759 Z9.500 F800.000
G1 X251.585 Y47.001 Z9.500 F800.000
G1 X273.415 Y68.831 Z9.500 F800.000
G1 X273.415 Y71.072 Z9.500 F800.000
G1 X251.585 Y49.242 Z9.500 F800.000
G1 X251.585 Y51.484 Z9.500 F800.000
G1 X273.415 Y73.314 Z9.500 F800.000
G1 X273.415 Y75.555 Z9.500 F800.000
G1 X251.585 Y53.725 Z9.500 F800.000
G1 X251.585 Y55.967 Z9.500 F800.000
G1 X273.415 Y77.797 Z9.500 F800.000
G1 X273.415 Y80.038 Z9.500 F800.000
G1 X251.585 Y58.208 Z9.500 F800.000
G1 X251.585 Y60.450 Z9.500 F800.000
G1 X273.415 Y82.280 Z9.500 F800.000
G1 X273.415 Y84.522 Z9.500 F800.000
G1 X251.585 Y62.692 Z9.500 F800.000
G1 X251.585 Y64.933 Z9.500 F800.000
G1 X273.415 Y86.763 Z9.500 F800.000
G1 X273.415 Y89.005 Z9.500 F800.000
G1 X251.585 Y67.175 Z9.500 F800.000
G1 X251.585 Y69.416 Z9.500 F800.000
G1 X273.415 Y91.246 Z9.500 F800.000
G1 X273.415 Y93.488 Z9.500 F800.000
G1 X251.585 Y71.658 Z9.500 F800.000
G1 X251.585 Y73.899 Z9.500 F800.000
G1 X273.415 Y95.729 Z9.500 F800.000
G1 X273.415 Y97.971 Z9.500 F800.000
G1 X251.585 Y76.141 Z9.500 F800.000
G1 X251.585 Y78.382 Z9.500 F800.000
G1 X273.415 Y100.212 Z9.500 F800.000
G1 X273.415 Y102.454 Z9.500 F800.000
G1 X251.585 Y80.624 Z9.500 F800.000
G1 X251.585 Y82.865 Z9.500 F800.000
G1 X273.415 Y104.695 Z9.500 F800.000
G1 X273.415 Y106.937 Z9.500 F800.000
G1 X251.585 Y85.107 Z9.500 F800.000
G1 X251.585 Y87.348 Z9.500 F800.000
G1 X273.415 Y109.178 Z9.500 F800.000
G1 X273.415 Y111.420 Z9.500 F800.000
G1 X251.585 Y89.590 Z9.500 F800.000
G1 X251.585 Y91.831 Z9.500 F800.000
G1 X273.415 Y113.661 Z9.500 F800.000
G1 X273.415 Y115.903 Z9.500 F800.000
G1 X251.585 Y94.073 Z9.500 F800.000
G1 X251.585 Y96.314 Z9.500 F800.000
G1 X273.415 Y118.144 Z9.500 F800.000
G1 X273.415 Y120.386 Z9.500 F800.000
G1 X251.585 Y98.556 Z9.500 F800.000
G1 X251.585 Y100.798 Z9.500 F800.000
G1 X273.415 Y122.628 Z9.500 F800.000
G1 X273.415 Y124.869 Z9.500 F800.000
G1 X251.585 Y103.039 Z9.500 F800.000
G1 X251.585 Y105.281 Z9.500 F800.000
G1 X273.415 Y127.111 Z9.500 F800.000
G1 X273.415 Y128.415 Z9.500 F800.000
G1 X272.478 Y128.415 Z9.500 F800.000
G1 X251.585 Y107.522 Z9.500 F800.000
G1 X251.585 Y109.764 Z9.500 F800.000
G1 X270.236 Y128.415 Z9.500 F800.000
G1 X267.995 Y128.415 Z9.500 F800.000
G1 X251.585 Y112.005 Z9.500 F800.000
G1 X251.585 Y114.247 Z9.500 F800.000
G1 X265.753 Y128.415 Z9.500 F800.000
G1 X263.512 Y128.415 Z9.500 F800.000
G1 X251.585 Y116.488 Z9.500 F800.000
G1 X251.585 Y118.730 Z9.500 F800.000
G1 X261.270 Y128.415 Z9.500 F800.000
G1 X259.029 Y128.415 Z9.500 F800.000
G1 X251.585 Y120.971 Z9.500 F800.000
G1 X251.585 Y123.213 Z9.500 F800.000
G1 X256.787 Y128.415 Z9.500 F800.000
G1 X254.546 Y128.415 Z9.500 F800.000
G1 X251.585 Y125.454 Z9.500 F800.000
G1 X251.585 Y127.696 Z9.500 F800.000
G1 X251.585 Y128.415 Z9.500 F800.000
G1 X252.304 Y128.415 Z9.500 F800.000
G1 X251.585 Y127.696 Z9.500 F800.000
G0 Z22.000
G0 Z22.000
(Finish operation: Pocket_Shape)
(Begin operation: Pocket_Shape001)
(Path: Pocket_Shape001)
(Pocket_Shape001)
G0 Z22.000
G0 X87.478 Y128.415
G0 Z20.000
G1 X87.478 Y128.415 Z16.000 F800.000
G1 X86.585 Y127.522 Z16.000 F800.000
G1 X86.585 Y128.415 Z16.000 F800.000
G1 X87.478 Y128.415 Z16.000 F800.000
G1 X88.415 Y128.415 Z16.000 F800.000
G1 X88.415 Y127.111 Z16.000 F800.000
G1 X86.585 Y125.281 Z16.000 F800.000
G1 X86.585 Y123.039 Z16.000 F800.000
G1 X88.415 Y124.869 Z16.000 F800.000
G1 X88.415 Y122.628 Z16.000 F800.000
G1 X86.585 Y120.798 Z16.000 F800.000
G1 X86.585 Y118.556 Z16.000 F800.000
G1 X88.415 Y120.386 Z16.000 F800.000
G1 X88.415 Y118.144 Z16.000 F800.000
G1 X86.585 Y116.314 Z16.000 F800.000
G1 X86.585 Y114.073 Z16.000 F800.000
G1 X88.415 Y115.903 Z16.000 F800.000
G1 X88.415 Y113.661 Z16.000 F800.000
G1 X86.585 Y111.831 Z16.000 F800.000
G1 X86.585 Y109.590 Z16.000 F800.000
G1 X88.415 Y111.420 Z16.000 F800.000
G1 X88.415 Y109.178 Z16.000 F800.000
G1 X86.585 Y107.348 Z16.000 F800.000
G1 X86.585 Y105.107 Z16.000 F800.000
G1 X88.415 Y106.937 Z16.000 F800.000
G1 X88.415 Y104.695 Z16.000 F800.000
G1 X86.585 Y102.865 Z16.000 F800.000
G1 X86.585 Y100.624 Z16.000 F800.000
G1 X88.415 Y102.454 Z16.000 F800.000
G1 X88.415 Y100.212 Z16.000 F800.000
G1 X86.585 Y98.382 Z16.000 F800.000
G1 X86.585 Y96.141 Z16.000 F800.000
G1 X88.415 Y97.971 Z16.000 F800.000
G1 X88.415 Y95.729 Z16.000 F800.000
G1 X86.585 Y93.899 Z16.000 F800.000
G1 X86.585 Y91.658 Z16.000 F800.000
G1 X88.415 Y93.488 Z16.000 F800.000
G1 X88.415 Y91.246 Z16.000 F800.000
G1 X86.585 Y89.416 Z16.000 F800.000
G1 X86.585 Y87.175 Z16.000 F800.000
G1 X88.415 Y89.005 Z16.000 F800.000
G1 X88.415 Y86.763 Z16.000 F800.000
G1 X86.585 Y84.933 Z16.000 F800.000
G1 X86.585 Y82.692 Z16.000 F800.000
G1 X88.415 Y84.522 Z16.000 F800.000
G1 X88.415 Y82.280 Z16.000 F800.000
G1 X86.585 Y80.450 Z16.000 F800.000
G1 X86.585 Y78.208 Z16.000 F800.000
G1 X88.415 Y80.038 Z16.000 F800.000
G1 X88.415 Y77.797 Z16.000 F800.000
G1 X86.585 Y75.967 Z16.000 F800.000
G1 X86.585 Y73.725 Z16.000 F800.000
G1 X88.415 Y75.555 Z16.000 F800.000
G1 X88.415 Y73.314 Z16.000 F800.000
G1 X86.585 Y71.484 Z16.000 F800.000
G1 X86.585 Y69.242 Z16.000 F800.000
G1 X88.415 Y71.072 Z16.000 F800.000
G1 X88.415 Y68.831 Z16.000 F800.000
G1 X86.585 Y67.001 Z16.000 F800.000
G1 X86.585 Y64.759 Z16.000 F800.000
G1 X88.415 Y66.589 Z16.000 F800.000
G1 X88.415 Y64.348 Z16.000 F800.000
G1 X86.585 Y62.518 Z16.000 F800.000
G1 X86.585 Y60.276 Z16.000 F800.000
G1 X88.415 Y62.106 Z16.000 F800.000
G1 X88.415 Y59.865 Z16.000 F800.000
G1 X86.585 Y58.035 Z16.000 F800.000
G1 X86.585 Y55.793 Z16.000 F800.000
G1 X88.415 Y57.623 Z16.000 F800.000
G1 X88.415 Y55.382 Z16.000 F800.000
G1 X86.585 Y53.552 Z16.000 F800.000
G1 X86.585 Y51.310 Z16.000 F800.000
G1 X88.415 Y53.140 Z16.000 F800.000
G1 X88.415 Y50.899 Z16.000 F800.000
G1 X86.585 Y49.069 Z16.000 F800.000
G1 X86.585 Y46.827 Z16.000 F800.000
G1 X88.415 Y48.657 Z16.000 F800.000
G1 X88.415 Y46.416 Z16.000 F800.000
G1 X86.585 Y44.586 Z16.000 F800.000
G1 X86.585 Y42.344 Z16.000 F800.000
G1 X88.415 Y44.174 Z16.000 F800.000
G1 X88.415 Y41.933 Z16.000 F800.000
G1 X86.585 Y40.103 Z16.000 F800.000
G1 X86.585 Y37.861 Z16.000 F800.000
G1 X88.415 Y39.691 Z16.000 F800.000
G1 X88.415 Y37.449 Z16.000 F800.000
G1 X86.585 Y35.619 Z16.000 F800.000
G1 X86.585 Y33.378 Z16.000 F800.000
G1 X88.415 Y35.208 Z16.000 F800.000
G1 X88.415 Y32.966 Z16.000 F800.000
G1 X86.585 Y31.136 Z16.000 F800.000
G1 X86.585 Y28.895 Z16.000 F800.000
G1 X88.415 Y30.725 Z16.000 F800.000
G1 X88.415 Y28.483 Z16.000 F800.000
G1 X86.585 Y26.653 Z16.000 F800.000
G1 X86.585 Y24.412 Z16.000 F800.000
G1 X88.415 Y26.242 Z16.000 F800.000
G1 X88.415 Y24.000 Z16.000 F800.000
G1 X86.585 Y22.170 Z16.000 F800.000
G1 X86.585 Y19.929 Z16.000 F800.000
G1 X88.415 Y21.759 Z16.000 F800.000
G1 X88.415 Y19.517 Z16.000 F800.000
G1 X86.585 Y17.687 Z16.000 F800.000
G1 X86.585 Y15.446 Z16.000 F800.000
G1 X88.415 Y17.276 Z16.000 F800.000
G1 X88.415 Y15.034 Z16.000 F800.000
G1 X86.585 Y13.204 Z16.000 F800.000
G1 X86.585 Y10.963 Z16.000 F800.000
G1 X88.415 Y12.793 Z16.000 F800.000
G1 X88.415 Y10.551 Z16.000 F800.000
G1 X86.585 Y8.721 Z16.000 F800.000
G1 X86.585 Y6.480 Z16.000 F800.000
G1 X88.415 Y8.310 Z16.000 F800.000
G1 X88.415 Y6.068 Z16.000 F800.000
G1 X86.585 Y4.238 Z16.000 F800.000
G1 X86.585 Y1.997 Z16.000 F800.000
G1 X88.415 Y3.827 Z16.000 F800.000
G1 X88.415 Y1.585 Z16.000 F800.000
G1 X88.415 Y1.585 Z14.500 F800.000
G1 X88.415 Y3.827 Z14.500 F800.000
G1 X86.585 Y1.997 Z14.500 F800.000
G1 X86.585 Y4.238 Z14.500 F800.000
G1 X88.415 Y6.068 Z14.500 F800.000
G1 X88.415 Y8.310 Z14.500 F800.000
G1 X86.585 Y6.480 Z14.500 F800.000
G1 X86.585 Y8.721 Z14.500 F800.000
G1 X88.415 Y10.551 Z14.500 F800.000
G1 X88.415 Y12.793 Z14.500 F800.000
G1 X86.585 Y10.963 Z14.500 F800.000
G1 X86.585 Y13.204 Z14.500 F800.000
G1 X88.415 Y15.034 Z14.500 F800.000
G1 X88.415 Y17.276 Z14.500 F800.000
G1 X86.585 Y15.446 Z14.500 F800.000
G1 X86.585 Y17.687 Z14.500 F800.000
G1 X88.415 Y19.517 Z14.500 F800.000
G1 X88.415 Y21.759 Z14.500 F800.000
G1 X86.585 Y19.929 Z14.500 F800.000
G1 X86.585 Y22.170 Z14.500 F800.000
G1 X88.415 Y24.000 Z14.500 F800.000
G1 X88.415 Y26.242 Z14.500 F800.000
G1 X86.585 Y24.412 Z14.500 F800.000
G1 X86.585 Y26.653 Z14.500 F800.000
G1 X88.415 Y28.483 Z14.500 F800.000
G1 X88.415 Y30.725 Z14.500 F800.000
G1 X86.585 Y28.895 Z14.500 F800.000
G1 X86.585 Y31.136 Z14.500 F800.000
G1 X88.415 Y32.966 Z14.500 F800.000
G1 X88.415 Y35.208 Z14.500 F800.000
G1 X86.585 Y33.378 Z14.500 F800.000
G1 X86.585 Y35.619 Z14.500 F800.000
G1 X88.415 Y37.449 Z14.500 F800.000
G1 X88.415 Y39.691 Z14.500 F800.000
G1 X86.585 Y37.861 Z14.500 F800.000
G1 X86.585 Y40.103 Z14.500 F800.000
G1 X88.415 Y41.933 Z14.500 F800.000
G1 X88.415 Y44.174 Z14.500 F800.000
G1 X86.585 Y42.344 Z14.500 F800.000
G1 X86.585 Y44.586 Z14.500 F800.000
G1 X88.415 Y46.416 Z14.500 F800.000
G1 X88.415 Y48.657 Z14.500 F800.000
G1 X86.585 Y46.827 Z14.500 F800.000
G1 X86.585 Y49.069 Z14.500 F800.000
G1 X88.415 Y50.899 Z14.500 F800.000
G1 X88.415 Y53.140 Z14.500 F800.000
G1 X86.585 Y51.310 Z14.500 F800.000
G1 X86.585 Y53.552 Z14.500 F800.000
G1 X88.415 Y55.382 Z14.500 F800.000
G1 X88.415 Y57.623 Z14.500 F800.000
G1 X86.585 Y55.793 Z14.500 F800.000
G1 X86.585 Y58.035 Z14.500 F800.000
G1 X88.415 Y59.865 Z14.500 F800.000
G1 X88.415 Y62.106 Z14.500 F800.000
G1 X86.585 Y60.276 Z14.500 F800.000
G1 X86.585 Y62.518 Z14.500 F800.000
G1 X88.415 Y64.348 Z14.500 F800.000
G1 X88.415 Y66.589 Z14.500 F800.000
G1 X86.585 Y64.759 Z14.500 F800.000
G1 X86.585 Y67.001 Z14.500 F800.000
G1 X88.415 Y68.831 Z14.500 F800.000
G1 X88.415 Y71.072 Z14.500 F800.000
G1 X86.585 Y69.242 Z14.500 F800.000
G1 X86.585 Y71.484 Z14.500 F800.000
G1 X88.415 Y73.314 Z14.500 F800.000
G1 X88.415 Y75.555 Z14.500 F800.000
G1 X86.585 Y73.725 Z14.500 F800.000
G1 X86.585 Y75.967 Z14.500 F800.000
G1 X88.415 Y77.797 Z14.500 F800.000
G1 X88.415 Y80.038 Z14.500 F800.000
G1 X86.585 Y78.208 Z14.500 F800.000
G1 X86.585 Y80.450 Z14.500 F800.000
G1 X88.415 Y82.280 Z14.500 F800.000
G1 X88.415 Y84.522 Z14.500 F800.000
G1 X86.585 Y82.692 Z14.500 F800.000
G1 X86.585 Y84.933 Z14.500 F800.000
G1 X88.415 Y86.763 Z14.500 F800.000
G1 X88.415 Y89.005 Z14.500 F800.000
G1 X86.585 Y87.175 Z14.500 F800.000
G1 X86.585 Y89.416 Z14.500 F800.000
G1 X88.415 Y91.246 Z14.500 F800.000
G1 X88.415 Y93.488 Z14.500 F800.000
G1 X86.585 Y91.658 Z14.500 F800.000
G1 X86.585 Y93.899 Z14.500 F800.000
G1 X88.415 Y95.729 Z14.500 F800.000
G1 X88.415 Y97.971 Z14.500 F800.000
G1 X86.585 Y96.141 Z14.500 F800.000
G1 X86.585 Y98.382 Z14.500 F800.000
G1 X88.415 Y100.212 Z14.500 F800.000
G1 X88.415 Y102.454 Z14.500 F800.000
G1 X86.585 Y100.624 Z14.500 F800.000
G1 X86.585 Y102.865 Z14.500 F800.000
G1 X88.415 Y104.695 Z14.500 F800.000
G1 X88.415 Y106.937 Z14.500 F800.000
G1 X86.585 Y105.107 Z14.500 F800.000
G1 X86.585 Y107.348 Z14.500 F800.000
G1 X88.415 Y109.178 Z14.500 F800.000
G1 X88.415 Y111.420 Z14.500 F800.000
G1 X86.585 Y109.590 Z14.500 F800.000
G1 X86.585 Y111.831 Z14.500 F800.000
G1 X88.415 Y113.661 Z14.500 F800.000
G1 X88.415 Y115.903 Z14.500 F800.000
G1 X86.585 Y114.073 Z14.500 F800.000
G1 X86.585 Y116.314 Z14.500 F800.000
G1 X88.415 Y118.144 Z14.500 F800.000
G1 X88.415 Y120.386 Z14.500 F800.000
G1 X86.585 Y118.556 Z14.500 F800.000
G1 X86.585 Y120.798 Z14.500 F800.000
G1 X88.415 Y122.628 Z14.500 F800.000
G1 X88.415 Y124.869 Z14.500 F800.000
G1 X86.585 Y123.039 Z14.500 F800.000
G1 X86.585 Y125.281 Z14.500 F800.000
G1 X88.415 Y127.111 Z14.500 F800.000
G1 X88.415 Y128.415 Z14.500 F800.000
G1 X87.478 Y128.415 Z14.500 F800.000
G1 X86.585 Y128.415 Z14.500 F800.000
G1 X86.585 Y127.522 Z14.500 F800.000
G1 X87.478 Y128.415 Z14.500 F800.000
G0 Z22.000
G0 Z22.000
G0 X87.478 Y128.415
G0 X117.478
G0 X117.478 Z20.000
G1 X117.478 Y128.415 Z16.000 F800.000
G1 X116.585 Y127.522 Z16.000 F800.000
G1 X116.585 Y128.415 Z16.000 F800.000
G1 X117.478 Y128.415 Z16.000 F800.000
G1 X118.415 Y128.415 Z16.000 F800.000
G1 X118.415 Y127.111 Z16.000 F800.000
G1 X116.585 Y125.281 Z16.000 F800.000
G1 X116.585 Y123.039 Z16.000 F800.000
G1 X118.415 Y124.869 Z16.000 F800.000
G1 X118.415 Y122.628 Z16.000 F800.000
G1 X116.585 Y120.798 Z16.000 F800.000
G1 X116.585 Y118.556 Z16.000 F800.000
G1 X118.415 Y120.386 Z16.000 F800.000
G1 X118.415 Y118.144 Z16.000 F800.000
G1 X116.585 Y116.314 Z16.000 F800.000
G1 X116.585 Y114.073 Z16.000 F800.000
G1 X118.415 Y115.903 Z16.000 F800.000
G1 X118.415 Y113.661 Z16.000 F800.000
G1 X116.585 Y111.831 Z16.000 F800.000
G1 X116.585 Y109.590 Z16.000 F800.000
G1 X118.415 Y111.420 Z16.000 F800.000
G1 X118.415 Y109.178 Z16.000 F800.000
G1 X116.585 Y107.348 Z16.000 F800.000
G1 X116.585 Y105.107 Z16.000 F800.000
G1 X118.415 Y106.937 Z16.000 F800.000
G1 X118.415 Y104.695 Z16.000 F800.000
G1 X116.585 Y102.865 Z16.000 F800.000
G1 X116.585 Y100.624 Z16.000 F800.000
G1 X118.415 Y102.454 Z16.000 F800.000
G1 X118.415 Y100.212 Z16.000 F800.000
G1 X116.585 Y98.382 Z16.000 F800.000
G1 X116.585 Y96.141 Z16.000 F800.000
G1 X118.415 Y97.971 Z16.000 F800.000
G1 X118.415 Y95.729 Z16.000 F800.000
G1 X116.585 Y93.899 Z16.000 F800.000
G1 X116.585 Y91.658 Z16.000 F800.000
G1 X118.415 Y93.488 Z16.000 F800.000
G1 X118.415 Y91.246 Z16.000 F800.000
G1 X116.585 Y89.416 Z16.000 F800.000
G1 X116.585 Y87.175 Z16.000 F800.000
G1 X118.415 Y89.005 Z16.000 F800.000
G1 X118.415 Y86.763 Z16.000 F800.000
G1 X116.585 Y84.933 Z16.000 F800.000
G1 X116.585 Y82.692 Z16.000 F800.000
G1 X118.415 Y84.522 Z16.000 F800.000
G1 X118.415 Y82.280 Z16.000 F800.000
G1 X116.585 Y80.450 Z16.000 F800.000
G1 X116.585 Y78.208 Z16.000 F800.000
G1 X118.415 Y80.038 Z16.000 F800.000
G1 X118.415 Y77.797 Z16.000 F800.000
G1 X116.585 Y75.967 Z16.000 F800.000
G1 X116.585 Y73.725 Z16.000 F800.000
G1 X118.415 Y75.555 Z16.000 F800.000
G1 X118.415 Y73.314 Z16.000 F800.000
G1 X116.585 Y71.484 Z16.000 F800.000
G1 X116.585 Y69.242 Z16.000 F800.000
G1 X118.415 Y71.072 Z16.000 F800.000
G1 X118.415 Y68.831 Z16.000 F800.000
G1 X116.585 Y67.001 Z16.000 F800.000
G1 X116.585 Y64.759 Z16.000 F800.000
G1 X118.415 Y66.589 Z16.000 F800.000
G1 X118.415 Y64.348 Z16.000 F800.000
G1 X116.585 Y62.518 Z16.000 F800.000
G1 X116.585 Y60.276 Z16.000 F800.000
G1 X118.415 Y62.106 Z16.000 F800.000
G1 X118.415 Y59.865 Z16.000 F800.000
G1 X116.585 Y58.035 Z16.000 F800.000
G1 X116.585 Y55.793 Z16.000 F800.000
G1 X118.415 Y57.623 Z16.000 F800.000
G1 X118.415 Y55.382 Z16.000 F800.000
G1 X116.585 Y53.552 Z16.000 F800.000
G1 X116.585 Y51.310 Z16.000 F800.000
G1 X118.415 Y53.140 Z16.000 F800.000
G1 X118.415 Y50.899 Z16.000 F800.000
G1 X116.585 Y49.069 Z16.000 F800.000
G1 X116.585 Y46.827 Z16.000 F800.000
G1 X118.415 Y48.657 Z16.000 F800.000
G1 X118.415 Y46.416 Z16.000 F800.000
G1 X116.585 Y44.586 Z16.000 F800.000
G1 X116.585 Y42.344 Z16.000 F800.000
G1 X118.415 Y44.174 Z16.000 F800.000
G1 X118.415 Y41.933 Z16.000 F800.000
G1 X116.585 Y40.103 Z16.000 F800.000
G1 X116.585 Y37.861 Z16.000 F800.000
G1 X118.415 Y39.691 Z16.000 F800.000
G1 X118.415 Y37.449 Z16.000 F800.000
G1 X116.585 Y35.619 Z16.000 F800.000
G1 X116.585 Y33.378 Z16.000 F800.000
G1 X118.415 Y35.208 Z16.000 F800.000
G1 X118.415 Y32.966 Z16.000 F800.000
G1 X116.585 Y31.136 Z16.000 F800.000
G1 X116.585 Y28.895 Z16.000 F800.000
G1 X118.415 Y30.725 Z16.000 F800.000
G1 X118.415 Y28.483 Z16.000 F800.000
G1 X116.585 Y26.653 Z16.000 F800.000
G1 X116.585 Y24.412 Z16.000 F800.000
G1 X118.415 Y26.242 Z16.000 F800.000
G1 X118.415 Y24.000 Z16.000 F800.000
G1 X116.585 Y22.170 Z16.000 F800.000
G1 X116.585 Y19.929 Z16.000 F800.000
G1 X118.415 Y21.759 Z16.000 F800.000
G1 X118.415 Y19.517 Z16.000 F800.000
G1 X116.585 Y17.687 Z16.000 F800.000
G1 X116.585 Y15.446 Z16.000 F800.000
G1 X118.415 Y17.276 Z16.000 F800.000
G1 X118.415 Y15.034 Z16.000 F800.000
G1 X116.585 Y13.204 Z16.000 F800.000
G1 X116.585 Y10.963 Z16.000 F800.000
G1 X118.415 Y12.793 Z16.000 F800.000
G1 X118.415 Y10.551 Z16.000 F800.000
G1 X116.585 Y8.721 Z16.000 F800.000
G1 X116.585 Y6.480 Z16.000 F800.000
G1 X118.415 Y8.310 Z16.000 F800.000
G1 X118.415 Y6.068 Z16.000 F800.000
G1 X116.585 Y4.238 Z16.000 F800.000
G1 X116.585 Y1.997 Z16.000 F800.000
G1 X118.415 Y3.827 Z16.000 F800.000
G1 X118.415 Y1.585 Z16.000 F800.000
G1 X118.415 Y1.585 Z14.500 F800.000
G1 X118.415 Y3.827 Z14.500 F800.000
G1 X116.585 Y1.997 Z14.500 F800.000
G1 X116.585 Y4.238 Z14.500 F800.000
G1 X118.415 Y6.068 Z14.500 F800.000
G1 X118.415 Y8.310 Z14.500 F800.000
G1 X116.585 Y6.480 Z14.500 F800.000
G1 X116.585 Y8.721 Z14.500 F800.000
G1 X118.415 Y10.551 Z14.500 F800.000
G1 X118.415 Y12.793 Z14.500 F800.000
G1 X116.585 Y10.963 Z14.500 F800.000
G1 X116.585 Y13.204 Z14.500 F800.000
G1 X118.415 Y15.034 Z14.500 F800.000
G1 X118.415 Y17.276 Z14.500 F800.000
G1 X116.585 Y15.446 Z14.500 F800.000
G1 X116.585 Y17.687 Z14.500 F800.000
G1 X118.415 Y19.517 Z14.500 F800.000
G1 X118.415 Y21.759 Z14.500 F800.000
G1 X116.585 Y19.929 Z14.500 F800.000
G1 X116.585 Y22.170 Z14.500 F800.000
G1 X118.415 Y24.000 Z14.500 F800.000
G1 X118.415 Y26.242 Z14.500 F800.000
G1 X116.585 Y24.412 Z14.500 F800.000
G1 X116.585 Y26.653 Z14.500 F800.000
G1 X118.415 Y28.483 Z14.500 F800.000
G1 X118.415 Y30.725 Z14.500 F800.000
G1 X116.585 Y28.895 Z14.500 F800.000
G1 X116.585 Y31.136 Z14.500 F800.000
G1 X118.415 Y32.966 Z14.500 F800.000
G1 X118.415 Y35.208 Z14.500 F800.000
G1 X116.585 Y33.378 Z14.500 F800.000
G1 X116.585 Y35.619 Z14.500 F800.000
G1 X118.415 Y37.449 Z14.500 F800.000
G1 X118.415 Y39.691 Z14.500 F800.000
G1 X116.585 Y37.861 Z14.500 F800.000
G1 X116.585 Y40.103 Z14.500 F800.000
G1 X118.415 Y41.933 Z14.500 F800.000
G1 X118.415 Y44.174 Z14.500 F800.000
G1 X116.585 Y42.344 Z14.500 F800.000
G1 X116.585 Y44.586 Z14.500 F800.000
G1 X118.415 Y46.416 Z14.500 F800.000
G1 X118.415 Y48.657 Z14.500 F800.000
G1 X116.585 Y46.827 Z14.500 F800.000
G1 X116.585 Y49.069 Z14.500 F800.000
G1 X118.415 Y50.899 Z14.500 F800.000
G1 X118.415 Y53.140 Z14.500 F800.000
G1 X116.585 Y51.310 Z14.500 F800.000
G1 X116.585 Y53.552 Z14.500 F800.000
G1 X118.415 Y55.382 Z14.500 F800.000
G1 X118.415 Y57.623 Z14.500 F800.000
G1 X116.585 Y55.793 Z14.500 F800.000
G1 X116.585 Y58.035 Z14.500 F800.000
G1 X118.415 Y59.865 Z14.500 F800.000
G1 X118.415 Y62.106 Z14.500 F800.000
G1 X116.585 Y60.276 Z14.500 F800.000
G1 X116.585 Y62.518 Z14.500 F800.000
G1 X118.415 Y64.348 Z14.500 F800.000
G1 X118.415 Y66.589 Z14.500 F800.000
G1 X116.585 Y64.759 Z14.500 F800.000
G1 X116.585 Y67.001 Z14.500 F800.000
G1 X118.415 Y68.831 Z14.500 F800.000
G1 X118.415 Y71.072 Z14.500 F800.000
G1 X116.585 Y69.242 Z14.500 F800.000
G1 X116.585 Y71.484 Z14.500 F800.000
G1 X118.415 Y73.314 Z14.500 F800.000
G1 X118.415 Y75.555 Z14.500 F800.000
G1 X116.585 Y73.725 Z14.500 F800.000
G1 X116.585 Y75.967 Z14.500 F800.000
G1 X118.415 Y77.797 Z14.500 F800.000
G1 X118.415 Y80.038 Z14.500 F800.000
G1 X116.585 Y78.208 Z14.500 F800.000
G1 X116.585 Y80.450 Z14.500 F800.000
G1 X118.415 Y82.280 Z14.500 F800.000
G1 X118.415 Y84.522 Z14.500 F800.000
G1 X116.585 Y82.692 Z14.500 F800.000
G1 X116.585 Y84.933 Z14.500 F800.000
G1 X118.415 Y86.763 Z14.500 F800.000
G1 X118.415 Y89.005 Z14.500 F800.000
G1 X116.585 Y87.175 Z14.500 F800.000
G1 X116.585 Y89.416 Z14.500 F800.000
G1 X118.415 Y91.246 Z14.500 F800.000
G1 X118.415 Y93.488 Z14.500 F800.000
G1 X116.585 Y91.658 Z14.500 F800.000
G1 X116.585 Y93.899 Z14.500 F800.000
G1 X118.415 Y95.729 Z14.500 F800.000
G1 X118.415 Y97.971 Z14.500 F800.000
G1 X116.585 Y96.141 Z14.500 F800.000
G1 X116.585 Y98.382 Z14.500 F800.000
G1 X118.415 Y100.212 Z14.500 F800.000
G1 X118.415 Y102.454 Z14.500 F800.000
G1 X116.585 Y100.624 Z14.500 F800.000
G1 X116.585 Y102.865 Z14.500 F800.000
G1 X118.415 Y104.695 Z14.500 F800.000
G1 X118.415 Y106.937 Z14.500 F800.000
G1 X116.585 Y105.107 Z14.500 F800.000
G1 X116.585 Y107.348 Z14.500 F800.000
G1 X118.415 Y109.178 Z14.500 F800.000
G1 X118.415 Y111.420 Z14.500 F800.000
G1 X116.585 Y109.590 Z14.500 F800.000
G1 X116.585 Y111.831 Z14.500 F800.000
G1 X118.415 Y113.661 Z14.500 F800.000
G1 X118.415 Y115.903 Z14.500 F800.000
G1 X116.585 Y114.073 Z14.500 F800.000
G1 X116.585 Y116.314 Z14.500 F800.000
G1 X118.415 Y118.144 Z14.500 F800.000
G1 X118.415 Y120.386 Z14.500 F800.000
G1 X116.585 Y118.556 Z14.500 F800.000
G1 X116.585 Y120.798 Z14.500 F800.000
G1 X118.415 Y122.628 Z14.500 F800.000
G1 X118.415 Y124.869 Z14.500 F800.000
G1 X116.585 Y123.039 Z14.500 F800.000
G1 X116.585 Y125.281 Z14.500 F800.000
G1 X118.415 Y127.111 Z14.500 F800.000
G1 X118.415 Y128.415 Z14.500 F800.000
G1 X117.478 Y128.415 Z14.500 F800.000
G1 X116.585 Y128.415 Z14.500 F800.000
G1 X116.585 Y127.522 Z14.500 F800.000
G1 X117.478 Y128.415 Z14.500 F800.000
G0 Z22.000
G0 Z22.000
G0 X117.478 Y128.415
G0 X247.478
G0 X247.478 Z20.000
G1 X247.478 Y128.415 Z16.000 F800.000
G1 X246.585 Y127.522 Z16.000 F800.000
G1 X246.585 Y128.415 Z16.000 F800.000
G1 X247.478 Y128.415 Z16.000 F800.000
G1 X248.415 Y128.415 Z16.000 F800.000
G1 X248.415 Y127.111 Z16.000 F800.000
G1 X246.585 Y125.281 Z16.000 F800.000
G1 X246.585 Y123.039 Z16.000 F800.000
G1 X248.415 Y124.869 Z16.000 F800.000
G1 X248.415 Y122.628 Z16.000 F800.000
G1 X246.585 Y120.798 Z16.000 F800.000
G1 X246.585 Y118.556 Z16.000 F800.000
G1 X248.415 Y120.386 Z16.000 F800.000
G1 X248.415 Y118.144 Z16.000 F800.000
G1 X246.585 Y116.314 Z16.000 F800.000
G1 X246.585 Y114.073 Z16.000 F800.000
G1 X248.415 Y115.903 Z16.000 F800.000
G1 X248.415 Y113.661 Z16.000 F800.000
G1 X246.585 Y111.831 Z16.000 F800.000
G1 X246.585 Y109.590 Z16.000 F800.000
G1 X248.415 Y111.420 Z16.000 F800.000
G1 X248.415 Y109.178 Z16.000 F800.000
G1 X246.585 Y107.348 Z16.000 F800.000
G1 X246.585 Y105.107 Z16.000 F800.000
G1 X248.415 Y106.937 Z16.000 F800.000
G1 X248.415 Y104.695 Z16.000 F800.000
G1 X246.585 Y102.865 Z16.000 F800.000
G1 X246.585 Y100.624 Z16.000 F800.000
G1 X248.415 Y102.454 Z16.000 F800.000
G1 X248.415 Y100.212 Z16.000 F800.000
G1 X246.585 Y98.382 Z16.000 F800.000
G1 X246.585 Y96.141 Z16.000 F800.000
G1 X248.415 Y97.971 Z16.000 F800.000
G1 X248.415 Y95.729 Z16.000 F800.000
G1 X246.585 Y93.899 Z16.000 F800.000
G1 X246.585 Y91.658 Z16.000 F800.000
G1 X248.415 Y93.488 Z16.000 F800.000
G1 X248.415 Y91.246 Z16.000 F800.000
G1 X246.585 Y89.416 Z16.000 F800.000
G1 X246.585 Y87.175 Z16.000 F800.000
G1 X248.415 Y89.005 Z16.000 F800.000
G1 X248.415 Y86.763 Z16.000 F800.000
G1 X246.585 Y84.933 Z16.000 F800.000
G1 X246.585 Y82.692 Z16.000 F800.000
G1 X248.415 Y84.522 Z16.000 F800.000
G1 X248.415 Y82.280 Z16.000 F800.000
G1 X246.585 Y80.450 Z16.000 F800.000
G1 X246.585 Y78.208 Z16.000 F800.000
G1 X248.415 Y80.038 Z16.000 F800.000
G1 X248.415 Y77.797 Z16.000 F800.000
G1 X246.585 Y75.967 Z16.000 F800.000
G1 X246.585 Y73.725 Z16.000 F800.000
G1 X248.415 Y75.555 Z16.000 F800.000
G1 X248.415 Y73.314 Z16.000 F800.000
G1 X246.585 Y71.484 Z16.000 F800.000
G1 X246.585 Y69.242 Z16.000 F800.000
G1 X248.415 Y71.072 Z16.000 F800.000
G1 X248.415 Y68.831 Z16.000 F800.000
G1 X246.585 Y67.001 Z16.000 F800.000
G1 X246.585 Y64.759 Z16.000 F800.000
G1 X248.415 Y66.589 Z16.000 F800.000
G1 X248.415 Y64.348 Z16.000 F800.000
G1 X246.585 Y62.518 Z16.000 F800.000
G1 X246.585 Y60.276 Z16.000 F800.000
G1 X248.415 Y62.106 Z16.000 F800.000
G1 X248.415 Y59.865 Z16.000 F800.000
G1 X246.585 Y58.035 Z16.000 F800.000
G1 X246.585 Y55.793 Z16.000 F800.000
G1 X248.415 Y57.623 Z16.000 F800.000
G1 X248.415 Y55.382 Z16.000 F800.000
G1 X246.585 Y53.552 Z16.000 F800.000
G1 X246.585 Y51.310 Z16.000 F800.000
G1 X248.415 Y53.140 Z16.000 F800.000
G1 X248.415 Y50.899 Z16.000 F800.000
G1 X246.585 Y49.069 Z16.000 F800.000
G1 X246.585 Y46.827 Z16.000 F800.000
G1 X248.415 Y48.657 Z16.000 F800.000
G1 X248.415 Y46.416 Z16.000 F800.000
G1 X246.585 Y44.586 Z16.000 F800.000
G1 X246.585 Y42.344 Z16.000 F800.000
G1 X248.415 Y44.174 Z16.000 F800.000
G1 X248.415 Y41.933 Z16.000 F800.000
G1 X246.585 Y40.103 Z16.000 F800.000
G1 X246.585 Y37.861 Z16.000 F800.000
G1 X248.415 Y39.691 Z16.000 F800.000
G1 X248.415 Y37.449 Z16.000 F800.000
G1 X246.585 Y35.619 Z16.000 F800.000
G1 X246.585 Y33.378 Z16.000 F800.000
G1 X248.415 Y35.208 Z16.000 F800.000
G1 X248.415 Y32.966 Z16.000 F800.000
G1 X246.585 Y31.136 Z16.000 F800.000
G1 X246.585 Y28.895 Z16.000 F800.000
G1 X248.415 Y30.725 Z16.000 F800.000
G1 X248.415 Y28.483 Z16.000 F800.000
G1 X246.585 Y26.653 Z16.000 F800.000
G1 X246.585 Y24.412 Z16.000 F800.000
G1 X248.415 Y26.242 Z16.000 F800.000
G1 X248.415 Y24.000 Z16.000 F800.000
G1 X246.585 Y22.170 Z16.000 F800.000
G1 X246.585 Y19.929 Z16.000 F800.000
G1 X248.415 Y21.759 Z16.000 F800.000
G1 X248.415 Y19.517 Z16.000 F800.000
G1 X246.585 Y17.687 Z16.000 F800.000
G1 X246.585 Y15.446 Z16.000 F800.000
G1 X248.415 Y17.276 Z16.000 F800.000
G1 X248.415 Y15.034 Z16.000 F800.000
G1 X246.585 Y13.204 Z16.000 F800.000
G1 X246.585 Y10.963 Z16.000 F800.000
G1 X248.415 Y12.793 Z16.000 F800.000
G1 X248.415 Y10.551 Z16.000 F800.000
G1 X246.585 Y8.721 Z16.000 F800.000
G1 X246.585 Y6.480 Z16.000 F800.000
G1 X248.415 Y8.310 Z16.000 F800.000
G1 X248.415 Y6.068 Z16.000 F800.000
G1 X246.585 Y4.238 Z16.000 F800.000
G1 X246.585 Y1.997 Z16.000 F800.000
G1 X248.415 Y3.827 Z16.000 F800.000
G1 X248.415 Y1.585 Z16.000 F800.000
G1 X248.415 Y1.585 Z14.500 F800.000
G1 X248.415 Y3.827 Z14.500 F800.000
G1 X246.585 Y1.997 Z14.500 F800.000
G1 X246.585 Y4.238 Z14.500 F800.000
G1 X248.415 Y6.068 Z14.500 F800.000
G1 X248.415 Y8.310 Z14.500 F800.000
G1 X246.585 Y6.480 Z14.500 F800.000
G1 X246.585 Y8.721 Z14.500 F800.000
G1 X248.415 Y10.551 Z14.500 F800.000
G1 X248.415 Y12.793 Z14.500 F800.000
G1 X246.585 Y10.963 Z14.500 F800.000
G1 X246.585 Y13.204 Z14.500 F800.000
G1 X248.415 Y15.034 Z14.500 F800.000
G1 X248.415 Y17.276 Z14.500 F800.000
G1 X246.585 Y15.446 Z14.500 F800.000
G1 X246.585 Y17.687 Z14.500 F800.000
G1 X248.415 Y19.517 Z14.500 F800.000
G1 X248.415 Y21.759 Z14.500 F800.000
G1 X246.585 Y19.929 Z14.500 F800.000
G1 X246.585 Y22.170 Z14.500 F800.000
G1 X248.415 Y24.000 Z14.500 F800.000
G1 X248.415 Y26.242 Z14.500 F800.000
G1 X246.585 Y24.412 Z14.500 F800.000
G1 X246.585 Y26.653 Z14.500 F800.000
G1 X248.415 Y28.483 Z14.500 F800.000
G1 X248.415 Y30.725 Z14.500 F800.000
G1 X246.585 Y28.895 Z14.500 F800.000
G1 X246.585 Y31.136 Z14.500 F800.000
G1 X248.415 Y32.966 Z14.500 F800.000
G1 X248.415 Y35.208 Z14.500 F800.000
G1 X246.585 Y33.378 Z14.500 F800.000
G1 X246.585 Y35.619 Z14.500 F800.000
G1 X248.415 Y37.449 Z14.500 F800.000
G1 X248.415 Y39.691 Z14.500 F800.000
G1 X246.585 Y37.861 Z14.500 F800.000
G1 X246.585 Y40.103 Z14.500 F800.000
G1 X248.415 Y41.933 Z14.500 F800.000
G1 X248.415 Y44.174 Z14.500 F800.000
G1 X246.585 Y42.344 Z14.500 F800.000
G1 X246.585 Y44.586 Z14.500 F800.000
G1 X248.415 Y46.416 Z14.500 F800.000
G1 X248.415 Y48.657 Z14.500 F800.000
G1 X246.585 Y46.827 Z14.500 F800.000
G1 X246.585 Y49.069 Z14.500 F800.000
G1 X248.415 Y50.899 Z14.500 F800.000
G1 X248.415 Y53.140 Z14.500 F800.000
G1 X246.585 Y51.310 Z14.500 F800.000
G1 X246.585 Y53.552 Z14.500 F800.000
G1 X248.415 Y55.382 Z14.500 F800.000
G1 X248.415 Y57.623 Z14.500 F800.000
G1 X246.585 Y55.793 Z14.500 F800.000
G1 X246.585 Y58.035 Z14.500 F800.000
G1 X248.415 Y59.865 Z14.500 F800.000
G1 X248.415 Y62.106 Z14.500 F800.000
G1 X246.585 Y60.276 Z14.500 F800.000
G1 X246.585 Y62.518 Z14.500 F800.000
G1 X248.415 Y64.348 Z14.500 F800.000
G1 X248.415 Y66.589 Z14.500 F800.000
G1 X246.585 Y64.759 Z14.500 F800.000
G1 X246.585 Y67.001 Z14.500 F800.000
G1 X248.415 Y68.831 Z14.500 F800.000
G1 X248.415 Y71.072 Z14.500 F800.000
G1 X246.585 Y69.242 Z14.500 F800.000
G1 X246.585 Y71.484 Z14.500 F800.000
G1 X248.415 Y73.314 Z14.500 F800.000
G1 X248.415 Y75.555 Z14.500 F800.000
G1 X246.585 Y73.725 Z14.500 F800.000
G1 X246.585 Y75.967 Z14.500 F800.000
G1 X248.415 Y77.797 Z14.500 F800.000
G1 X248.415 Y80.038 Z14.500 F800.000
G1 X246.585 Y78.208 Z14.500 F800.000
G1 X246.585 Y80.450 Z14.500 F800.000
G1 X248.415 Y82.280 Z14.500 F800.000
G1 X248.415 Y84.522 Z14.500 F800.000
G1 X246.585 Y82.692 Z14.500 F800.000
G1 X246.585 Y84.933 Z14.500 F800.000
G1 X248.415 Y86.763 Z14.500 F800.000
G1 X248.415 Y89.005 Z14.500 F800.000
G1 X246.585 Y87.175 Z14.500 F800.000
G1 X246.585 Y89.416 Z14.500 F800.000
G1 X248.415 Y91.246 Z14.500 F800.000
G1 X248.415 Y93.488 Z14.500 F800.000
G1 X246.585 Y91.658 Z14.500 F800.000
G1 X246.585 Y93.899 Z14.500 F800.000
G1 X248.415 Y95.729 Z14.500 F800.000
G1 X248.415 Y97.971 Z14.500 F800.000
G1 X246.585 Y96.141 Z14.500 F800.000
G1 X246.585 Y98.382 Z14.500 F800.000
G1 X248.415 Y100.212 Z14.500 F800.000
G1 X248.415 Y102.454 Z14.500 F800.000
G1 X246.585 Y100.624 Z14.500 F800.000
G1 X246.585 Y102.865 Z14.500 F800.000
G1 X248.415 Y104.695 Z14.500 F800.000
G1 X248.415 Y106.937 Z14.500 F800.000
G1 X246.585 Y105.107 Z14.500 F800.000
G1 X246.585 Y107.348 Z14.500 F800.000
G1 X248.415 Y109.178 Z14.500 F800.000
G1 X248.415 Y111.420 Z14.500 F800.000
G1 X246.585 Y109.590 Z14.500 F800.000
G1 X246.585 Y111.831 Z14.500 F800.000
G1 X248.415 Y113.661 Z14.500 F800.000
G1 X248.415 Y115.903 Z14.500 F800.000
G1 X246.585 Y114.073 Z14.500 F800.000
G1 X246.585 Y116.314 Z14.500 F800.000
G1 X248.415 Y118.144 Z14.500 F800.000
G1 X248.415 Y120.386 Z14.500 F800.000
G1 X246.585 Y118.556 Z14.500 F800.000
G1 X246.585 Y120.798 Z14.500 F800.000
G1 X248.415 Y122.628 Z14.500 F800.000
G1 X248.415 Y124.869 Z14.500 F800.000
G1 X246.585 Y123.039 Z14.500 F800.000
G1 X246.585 Y125.281 Z14.500 F800.000
G1 X248.415 Y127.111 Z14.500 F800.000
G1 X248.415 Y128.415 Z14.500 F800.000
G1 X247.478 Y128.415 Z14.500 F800.000
G1 X246.585 Y128.415 Z14.500 F800.000
G1 X246.585 Y127.522 Z14.500 F800.000
G1 X247.478 Y128.415 Z14.500 F800.000
G0 Z22.000
G0 Z22.000
G0 X247.478 Y128.415
G0 X277.478
G0 X277.478 Z20.000
G1 X277.478 Y128.415 Z16.000 F800.000
G1 X276.585 Y127.522 Z16.000 F800.000
G1 X276.585 Y128.415 Z16.000 F800.000
G1 X277.478 Y128.415 Z16.000 F800.000
G1 X278.415 Y128.415 Z16.000 F800.000
G1 X278.415 Y127.111 Z16.000 F800.000
G1 X276.585 Y125.281 Z16.000 F800.000
G1 X276.585 Y123.039 Z16.000 F800.000
G1 X278.415 Y124.869 Z16.000 F800.000
G1 X278.415 Y122.628 Z16.000 F800.000
G1 X276.585 Y120.798 Z16.000 F800.000
G1 X276.585 Y118.556 Z16.000 F800.000
G1 X278.415 Y120.386 Z16.000 F800.000
G1 X278.415 Y118.144 Z16.000 F800.000
G1 X276.585 Y116.314 Z16.000 F800.000
G1 X276.585 Y114.073 Z16.000 F800.000
G1 X278.415 Y115.903 Z16.000 F800.000
G1 X278.415 Y113.661 Z16.000 F800.000
G1 X276.585 Y111.831 Z16.000 F800.000
G1 X276.585 Y109.590 Z16.000 F800.000
G1 X278.415 Y111.420 Z16.000 F800.000
G1 X278.415 Y109.178 Z16.000 F800.000
G1 X276.585 Y107.348 Z16.000 F800.000
G1 X276.585 Y105.107 Z16.000 F800.000
G1 X278.415 Y106.937 Z16.000 F800.000
G1 X278.415 Y104.695 Z16.000 F800.000
G1 X276.585 Y102.865 Z16.000 F800.000
G1 X276.585 Y100.624 Z16.000 F800.000
G1 X278.415 Y102.454 Z16.000 F800.000
G1 X278.415 Y100.212 Z16.000 F800.000
G1 X276.585 Y98.382 Z16.000 F800.000
G1 X276.585 Y96.141 Z16.000 F800.000
G1 X278.415 Y97.971 Z16.000 F800.000
G1 X278.415 Y95.729 Z16.000 F800.000
G1 X276.585 Y93.899 Z16.000 F800.000
G1 X276.585 Y91.658 Z16.000 F800.000
G1 X278.415 Y93.488 Z16.000 F800.000
G1 X278.415 Y91.246 Z16.000 F800.000
G1 X276.585 Y89.416 Z16.000 F800.000
G1 X276.585 Y87.175 Z16.000 F800.000
G1 X278.415 Y89.005 Z16.000 F800.000
G1 X278.415 Y86.763 Z16.000 F800.000
G1 X276.585 Y84.933 Z16.000 F800.000
G1 X276.585 Y82.692 Z16.000 F800.000
G1 X278.415 Y84.522 Z16.000 F800.000
G1 X278.415 Y82.280 Z16.000 F800.000
G1 X276.585 Y80.450 Z16.000 F800.000
G1 X276.585 Y78.208 Z16.000 F800.000
G1 X278.415 Y80.038 Z16.000 F800.000
G1 X278.415 Y77.797 Z16.000 F800.000
G1 X276.585 Y75.967 Z16.000 F800.000
G1 X276.585 Y73.725 Z16.000 F800.000
G1 X278.415 Y75.555 Z16.000 F800.000
G1 X278.415 Y73.314 Z16.000 F800.000
G1 X276.585 Y71.484 Z16.000 F800.000
G1 X276.585 Y69.242 Z16.000 F800.000
G1 X278.415 Y71.072 Z16.000 F800.000
G1 X278.415 Y68.831 Z16.000 F800.000
G1 X276.585 Y67.001 Z16.000 F800.000
G1 X276.585 Y64.759 Z16.000 F800.000
G1 X278.415 Y66.589 Z16.000 F800.000
G1 X278.415 Y64.348 Z16.000 F800.000
G1 X276.585 Y62.518 Z16.000 F800.000
G1 X276.585 Y60.276 Z16.000 F800.000
G1 X278.415 Y62.106 Z16.000 F800.000
G1 X278.415 Y59.865 Z16.000 F800.000
G1 X276.585 Y58.035 Z16.000 F800.000
G1 X276.585 Y55.793 Z16.000 F800.000
G1 X278.415 Y57.623 Z16.000 F800.000
G1 X278.415 Y55.382 Z16.000 F800.000
G1 X276.585 Y53.552 Z16.000 F800.000
G1 X276.585 Y51.310 Z16.000 F800.000
G1 X278.415 Y53.140 Z16.000 F800.000
G1 X278.415 Y50.899 Z16.000 F800.000
G1 X276.585 Y49.069 Z16.000 F800.000
G1 X276.585 Y46.827 Z16.000 F800.000
G1 X278.415 Y48.657 Z16.000 F800.000
G1 X278.415 Y46.416 Z16.000 F800.000
G1 X276.585 Y44.586 Z16.000 F800.000
G1 X276.585 Y42.344 Z16.000 F800.000
G1 X278.415 Y44.174 Z16.000 F800.000
G1 X278.415 Y41.933 Z16.000 F800.000
G1 X276.585 Y40.103 Z16.000 F800.000
G1 X276.585 Y37.861 Z16.000 F800.000
G1 X278.415 Y39.691 Z16.000 F800.000
G1 X278.415 Y37.449 Z16.000 F800.000
G1 X276.585 Y35.619 Z16.000 F800.000
G1 X276.585 Y33.378 Z16.000 F800.000
G1 X278.415 Y35.208 Z16.000 F800.000
G1 X278.415 Y32.966 Z16.000 F800.000
G1 X276.585 Y31.136 Z16.000 F800.000
G1 X276.585 Y28.895 Z16.000 F800.000
G1 X278.415 Y30.725 Z16.000 F800.000
G1 X278.415 Y28.483 Z16.000 F800.000
G1 X276.585 Y26.653 Z16.000 F800.000
G1 X276.585 Y24.412 Z16.000 F800.000
G1 X278.415 Y26.242 Z16.000 F800.000
G1 X278.415 Y24.000 Z16.000 F800.000
G1 X276.585 Y22.170 Z16.000 F800.000
G1 X276.585 Y19.929 Z16.000 F800.000
G1 X278.415 Y21.759 Z16.000 F800.000
G1 X278.415 Y19.517 Z16.000 F800.000
G1 X276.585 Y17.687 Z16.000 F800.000
G1 X276.585 Y15.446 Z16.000 F800.000
G1 X278.415 Y17.276 Z16.000 F800.000
G1 X278.415 Y15.034 Z16.000 F800.000
G1 X276.585 Y13.204 Z16.000 F800.000
G1 X276.585 Y10.963 Z16.000 F800.000
G1 X278.415 Y12.793 Z16.000 F800.000
G1 X278.415 Y10.551 Z16.000 F800.000
G1 X276.585 Y8.721 Z16.000 F800.000
G1 X276.585 Y6.480 Z16.000 F800.000
G1 X278.415 Y8.310 Z16.000 F800.000
G1 X278.415 Y6.068 Z16.000 F800.000
G1 X276.585 Y4.238 Z16.000 F800.000
G1 X276.585 Y1.997 Z16.000 F800.000
G1 X278.415 Y3.827 Z16.000 F800.000
G1 X278.415 Y1.585 Z16.000 F800.000
G1 X278.415 Y1.585 Z14.500 F800.000
G1 X278.415 Y3.827 Z14.500 F800.000
G1 X276.585 Y1.997 Z14.500 F800.000
G1 X276.585 Y4.238 Z14.500 F800.000
G1 X278.415 Y6.068 Z14.500 F800.000
G1 X278.415 Y8.310 Z14.500 F800.000
G1 X276.585 Y6.480 Z14.500 F800.000
G1 X276.585 Y8.721 Z14.500 F800.000
G1 X278.415 Y10.551 Z14.500 F800.000
G1 X278.415 Y12.793 Z14.500 F800.000
G1 X276.585 Y10.963 Z14.500 F800.000
G1 X276.585 Y13.204 Z14.500 F800.000
G1 X278.415 Y15.034 Z14.500 F800.000
G1 X278.415 Y17.276 Z14.500 F800.000
G1 X276.585 Y15.446 Z14.500 F800.000
G1 X276.585 Y17.687 Z14.500 F800.000
G1 X278.415 Y19.517 Z14.500 F800.000
G1 X278.415 Y21.759 Z14.500 F800.000
G1 X276.585 Y19.929 Z14.500 F800.000
G1 X276.585 Y22.170 Z14.500 F800.000
G1 X278.415 Y24.000 Z14.500 F800.000
G1 X278.415 Y26.242 Z14.500 F800.000
G1 X276.585 Y24.412 Z14.500 F800.000
G1 X276.585 Y26.653 Z14.500 F800.000
G1 X278.415 Y28.483 Z14.500 F800.000
G1 X278.415 Y30.725 Z14.500 F800.000
G1 X276.585 Y28.895 Z14.500 F800.000
G1 X276.585 Y31.136 Z14.500 F800.000
G1 X278.415 Y32.966 Z14.500 F800.000
G1 X278.415 Y35.208 Z14.500 F800.000
G1 X276.585 Y33.378 Z14.500 F800.000
G1 X276.585 Y35.619 Z14.500 F800.000
G1 X278.415 Y37.449 Z14.500 F800.000
G1 X278.415 Y39.691 Z14.500 F800.000
G1 X276.585 Y37.861 Z14.500 F800.000
G1 X276.585 Y40.103 Z14.500 F800.000
G1 X278.415 Y41.933 Z14.500 F800.000
G1 X278.415 Y44.174 Z14.500 F800.000
G1 X276.585 Y42.344 Z14.500 F800.000
G1 X276.585 Y44.586 Z14.500 F800.000
G1 X278.415 Y46.416 Z14.500 F800.000
G1 X278.415 Y48.657 Z14.500 F800.000
G1 X276.585 Y46.827 Z14.500 F800.000
G1 X276.585 Y49.069 Z14.500 F800.000
G1 X278.415 Y50.899 Z14.500 F800.000
G1 X278.415 Y53.140 Z14.500 F800.000
G1 X276.585 Y51.310 Z14.500 F800.000
G1 X276.585 Y53.552 Z14.500 F800.000
G1 X278.415 Y55.382 Z14.500 F800.000
G1 X278.415 Y57.623 Z14.500 F800.000
G1 X276.585 Y55.793 Z14.500 F800.000
G1 X276.585 Y58.035 Z14.500 F800.000
G1 X278.415 Y59.865 Z14.500 F800.000
G1 X278.415 Y62.106 Z14.500 F800.000
G1 X276.585 Y60.276 Z14.500 F800.000
G1 X276.585 Y62.518 Z14.500 F800.000
G1 X278.415 Y64.348 Z14.500 F800.000
G1 X278.415 Y66.589 Z14.500 F800.000
G1 X276.585 Y64.759 Z14.500 F800.000
G1 X276.585 Y67.001 Z14.500 F800.000
G1 X278.415 Y68.831 Z14.500 F800.000
G1 X278.415 Y71.072 Z14.500 F800.000
G1 X276.585 Y69.242 Z14.500 F800.000
G1 X276.585 Y71.484 Z14.500 F800.000
G1 X278.415 Y73.314 Z14.500 F800.000
G1 X278.415 Y75.555 Z14.500 F800.000
G1 X276.585 Y73.725 Z14.500 F800.000
G1 X276.585 Y75.967 Z14.500 F800.000
G1 X278.415 Y77.797 Z14.500 F800.000
G1 X278.415 Y80.038 Z14.500 F800.000
G1 X276.585 Y78.208 Z14.500 F800.000
G1 X276.585 Y80.450 Z14.500 F800.000
G1 X278.415 Y82.280 Z14.500 F800.000
G1 X278.415 Y84.522 Z14.500 F800.000
G1 X276.585 Y82.692 Z14.500 F800.000
G1 X276.585 Y84.933 Z14.500 F800.000
G1 X278.415 Y86.763 Z14.500 F800.000
G1 X278.415 Y89.005 Z14.500 F800.000
G1 X276.585 Y87.175 Z14.500 F800.000
G1 X276.585 Y89.416 Z14.500 F800.000
G1 X278.415 Y91.246 Z14.500 F800.000
G1 X278.415 Y93.488 Z14.500 F800.000
G1 X276.585 Y91.658 Z14.500 F800.000
G1 X276.585 Y93.899 Z14.500 F800.000
G1 X278.415 Y95.729 Z14.500 F800.000
G1 X278.415 Y97.971 Z14.500 F800.000
G1 X276.585 Y96.141 Z14.500 F800.000
G1 X276.585 Y98.382 Z14.500 F800.000
G1 X278.415 Y100.212 Z14.500 F800.000
G1 X278.415 Y102.454 Z14.500 F800.000
G1 X276.585 Y100.624 Z14.500 F800.000
G1 X276.585 Y102.865 Z14.500 F800.000
G1 X278.415 Y104.695 Z14.500 F800.000
G1 X278.415 Y106.937 Z14.500 F800.000
G1 X276.585 Y105.107 Z14.500 F800.000
G1 X276.585 Y107.348 Z14.500 F800.000
G1 X278.415 Y109.178 Z14.500 F800.000
G1 X278.415 Y111.420 Z14.500 F800.000
G1 X276.585 Y109.590 Z14.500 F800.000
G1 X276.585 Y111.831 Z14.500 F800.000
G1 X278.415 Y113.661 Z14.500 F800.000
G1 X278.415 Y115.903 Z14.500 F800.000
G1 X276.585 Y114.073 Z14.500 F800.000
G1 X276.585 Y116.314 Z14.500 F800.000
G1 X278.415 Y118.144 Z14.500 F800.000
G1 X278.415 Y120.386 Z14.500 F800.000
G1 X276.585 Y118.556 Z14.500 F800.000
G1 X276.585 Y120.798 Z14.500 F800.000
G1 X278.415 Y122.628 Z14.500 F800.000
G1 X278.415 Y124.869 Z14.500 F800.000
G1 X276.585 Y123.039 Z14.500 F800.000
G1 X276.585 Y125.281 Z14.500 F800.000
G1 X278.415 Y127.111 Z14.500 F800.000
G1 X278.415 Y128.415 Z14.500 F800.000
G1 X277.478 Y128.415 Z14.500 F800.000
G1 X276.585 Y128.415 Z14.500 F800.000
G1 X276.585 Y127.522 Z14.500 F800.000
G1 X277.478 Y128.415 Z14.500 F800.000
G0 Z22.000
G0 Z22.000
(Finish operation: Pocket_Shape001)
(Begin postamble)
M5
G17 G90
M2
